<?xml version="1.0" encoding="UTF-8"?>
<map version="1.10" tiledversion="1.12.1" orientation="orthogonal" renderorder="right-down" width="60" height="68" tilewidth="64" tileheight="64" infinite="0" nextlayerid="7" nextobjectid="13">
 <properties>
  <property name="Draw" type="bool" value="true"/>
 </properties>
 <tileset firstgid="1" name="Atlas_general" tilewidth="64" tileheight="64" tilecount="256" columns="16">
  <image source="Atlas_general.png" width="1024" height="1024"/>
 </tileset>
 <tileset firstgid="257" name="TileMetadata" tilewidth="64" tileheight="64" tilecount="2" columns="2">
  <image source="TileMetadata.png" width="128" height="64"/>
 </tileset>
 <tileset firstgid="259" name="Background1_Corazon" tilewidth="1920" tileheight="1080" tilecount="1" columns="1">
  <image source="../Textures/Backgrounds/Cor/Background1_Corazon.png" width="1920" height="1080"/>
 </tileset>
 <tileset firstgid="260" name="Background2_Corazon" tilewidth="1920" tileheight="1080" tilecount="1" columns="1">
  <image source="../Textures/Backgrounds/Cor/Background2_Corazon.png" width="1920" height="1080"/>
 </tileset>
 <tileset firstgid="261" name="Background3_Corazon" tilewidth="1920" tileheight="1080" tilecount="1" columns="1">
  <image source="../Textures/Backgrounds/Cor/Background3_Corazon.png" width="1920" height="1080"/>
 </tileset>
 <tileset firstgid="262" name="Background4_Corazon" tilewidth="1920" tileheight="1080" tilecount="1" columns="1">
  <image source="../Textures/Backgrounds/Cor/Background4_Corazon.png" width="1920" height="1080"/>
 </tileset>
 <tileset firstgid="263" name="MiddlegroundCor" tilewidth="1920" tileheight="1080" tilecount="7" columns="0">
  <grid orientation="orthogonal" width="1" height="1"/>
  <tile id="0" x="260" y="0" width="1920" height="1080">
   <image source="../Textures/Middleground/Cor/Obj3.png" width="1920" height="1080"/>
  </tile>
  <tile id="1" x="490" y="0" width="1920" height="1080">
   <image source="../Textures/Middleground/Cor/Obj4.png" width="1920" height="1080"/>
  </tile>
  <tile id="2" x="70" y="0" width="1920" height="1080">
   <image source="../Textures/Middleground/Cor/Obj5.png" width="1920" height="1080"/>
  </tile>
  <tile id="3" x="270" y="0" width="1920" height="1080">
   <image source="../Textures/Middleground/Cor/Obj6.png" width="1920" height="1080"/>
  </tile>
  <tile id="4" x="200" y="0" width="1920" height="1080">
   <image source="../Textures/Middleground/Cor/Obj7.png" width="1920" height="1080"/>
  </tile>
  <tile id="5" x="200" y="0" width="1920" height="1080">
   <image source="../Textures/Middleground/Cor/Obj1.png" width="1920" height="1080"/>
  </tile>
  <tile id="6" x="100" y="0" width="1920" height="1080">
   <image source="../Textures/Middleground/Cor/Obj2.png" width="1920" height="1080"/>
  </tile>
 </tileset>
 <layer id="5" name="Background" width="60" height="68">
  <properties>
   <property name="Draw" type="bool" value="true"/>
  </properties>
  <data>
   <tile/>
   <tile/>
   <tile/>
   <tile/>
   <tile/>
   <tile/>
   <tile/>
   <tile/>
   <tile/>
   <tile/>
   <tile/>
   <tile/>
   <tile/>
   <tile/>
   <tile/>
   <tile/>
   <tile/>
   <tile/>
   <tile/>
   <tile/>
   <tile/>
   <tile/>
   <tile/>
   <tile/>
   <tile/>
   <tile/>
   <tile/>
   <tile/>
   <tile/>
   <tile/>
   <tile/>
   <tile/>
   <tile/>
   <tile/>
   <tile/>
   <tile/>
   <tile/>
   <tile/>
   <tile/>
   <tile/>
   <tile/>
   <tile/>
   <tile/>
   <tile/>
   <tile/>
   <tile/>
   <tile/>
   <tile/>
   <tile/>
   <tile/>
   <tile/>
   <tile/>
   <tile/>
   <tile/>
   <tile/>
   <tile/>
   <tile/>
   <tile/>
   <tile/>
   <tile/>
   <tile/>
   <tile/>
   <tile/>
   <tile/>
   <tile/>
   <tile/>
   <tile/>
   <tile/>
   <tile/>
   <tile/>
   <tile/>
   <tile/>
   <tile/>
   <tile/>
   <tile/>
   <tile/>
   <tile/>
   <tile/>
   <tile/>
   <tile/>
   <tile/>
   <tile/>
   <tile/>
   <tile/>
   <tile/>
   <tile/>
   <tile/>
   <tile/>
   <tile/>
   <tile/>
   <tile/>
   <tile/>
   <tile/>
   <tile/>
   <tile/>
   <tile/>
   <tile/>
   <tile/>
   <tile/>
   <tile/>
   <tile/>
   <tile/>
   <tile/>
   <tile/>
   <tile/>
   <tile/>
   <tile/>
   <tile/>
   <tile/>
   <tile/>
   <tile/>
   <tile/>
   <tile/>
   <tile/>
   <tile/>
   <tile/>
   <tile/>
   <tile/>
   <tile/>
   <tile/>
   <tile/>
   <tile/>
   <tile/>
   <tile/>
   <tile/>
   <tile/>
   <tile/>
   <tile/>
   <tile/>
   <tile/>
   <tile/>
   <tile/>
   <tile/>
   <tile/>
   <tile/>
   <tile/>
   <tile/>
   <tile/>
   <tile/>
   <tile/>
   <tile/>
   <tile/>
   <tile/>
   <tile/>
   <tile/>
   <tile/>
   <tile/>
   <tile/>
   <tile/>
   <tile/>
   <tile/>
   <tile/>
   <tile/>
   <tile/>
   <tile/>
   <tile/>
   <tile/>
   <tile/>
   <tile/>
   <tile/>
   <tile/>
   <tile/>
   <tile/>
   <tile/>
   <tile/>
   <tile/>
   <tile/>
   <tile/>
   <tile/>
   <tile/>
   <tile/>
   <tile/>
   <tile/>
   <tile/>
   <tile/>
   <tile/>
   <tile/>
   <tile/>
   <tile/>
   <tile/>
   <tile gid="259"/>
   <tile/>
   <tile/>
   <tile/>
   <tile/>
   <tile/>
   <tile/>
   <tile/>
   <tile/>
   <tile/>
   <tile/>
   <tile/>
   <tile/>
   <tile/>
   <tile/>
   <tile/>
   <tile/>
   <tile/>
   <tile/>
   <tile/>
   <tile/>
   <tile/>
   <tile/>
   <tile/>
   <tile/>
   <tile/>
   <tile/>
   <tile/>
   <tile/>
   <tile/>
   <tile gid="259"/>
   <tile/>
   <tile/>
   <tile/>
   <tile/>
   <tile/>
   <tile/>
   <tile/>
   <tile/>
   <tile/>
   <tile/>
   <tile/>
   <tile/>
   <tile/>
   <tile/>
   <tile/>
   <tile/>
   <tile/>
   <tile/>
   <tile/>
   <tile/>
   <tile/>
   <tile/>
   <tile/>
   <tile/>
   <tile/>
   <tile/>
   <tile/>
   <tile/>
   <tile/>
   <tile/>
   <tile/>
   <tile/>
   <tile/>
   <tile/>
   <tile/>
   <tile/>
   <tile/>
   <tile/>
   <tile/>
   <tile/>
   <tile/>
   <tile/>
   <tile/>
   <tile/>
   <tile/>
   <tile/>
   <tile/>
   <tile/>
   <tile/>
   <tile/>
   <tile/>
   <tile/>
   <tile/>
   <tile/>
   <tile/>
   <tile/>
   <tile/>
   <tile/>
   <tile/>
   <tile/>
   <tile/>
   <tile/>
   <tile/>
   <tile/>
   <tile/>
   <tile/>
   <tile/>
   <tile/>
   <tile/>
   <tile/>
   <tile/>
   <tile/>
   <tile/>
   <tile/>
   <tile/>
   <tile/>
   <tile/>
   <tile/>
   <tile/>
   <tile/>
   <tile/>
   <tile/>
   <tile/>
   <tile/>
   <tile/>
   <tile/>
   <tile/>
   <tile/>
   <tile/>
   <tile/>
   <tile/>
   <tile/>
   <tile/>
   <tile/>
   <tile/>
   <tile/>
   <tile/>
   <tile/>
   <tile/>
   <tile/>
   <tile/>
   <tile/>
   <tile/>
   <tile/>
   <tile/>
   <tile/>
   <tile/>
   <tile/>
   <tile/>
   <tile/>
   <tile/>
   <tile/>
   <tile/>
   <tile/>
   <tile/>
   <tile/>
   <tile/>
   <tile/>
   <tile/>
   <tile/>
   <tile/>
   <tile/>
   <tile/>
   <tile/>
   <tile/>
   <tile/>
   <tile/>
   <tile/>
   <tile/>
   <tile/>
   <tile/>
   <tile/>
   <tile/>
   <tile/>
   <tile/>
   <tile/>
   <tile/>
   <tile/>
   <tile/>
   <tile/>
   <tile/>
   <tile/>
   <tile/>
   <tile/>
   <tile/>
   <tile/>
   <tile/>
   <tile/>
   <tile/>
   <tile/>
   <tile/>
   <tile/>
   <tile/>
   <tile/>
   <tile/>
   <tile/>
   <tile/>
   <tile/>
   <tile/>
   <tile/>
   <tile/>
   <tile/>
   <tile/>
   <tile/>
   <tile/>
   <tile/>
   <tile/>
   <tile/>
   <tile/>
   <tile/>
   <tile/>
   <tile/>
   <tile/>
   <tile/>
   <tile/>
   <tile/>
   <tile/>
   <tile/>
   <tile/>
   <tile/>
   <tile/>
   <tile/>
   <tile/>
   <tile/>
   <tile/>
   <tile/>
   <tile/>
   <tile/>
   <tile/>
   <tile/>
   <tile/>
   <tile/>
   <tile/>
   <tile/>
   <tile/>
   <tile/>
   <tile/>
   <tile/>
   <tile/>
   <tile/>
   <tile/>
   <tile/>
   <tile/>
   <tile/>
   <tile/>
   <tile/>
   <tile/>
   <tile/>
   <tile/>
   <tile/>
   <tile/>
   <tile/>
   <tile/>
   <tile/>
   <tile/>
   <tile/>
   <tile/>
   <tile/>
   <tile/>
   <tile/>
   <tile/>
   <tile/>
   <tile/>
   <tile/>
   <tile/>
   <tile/>
   <tile/>
   <tile/>
   <tile/>
   <tile/>
   <tile/>
   <tile/>
   <tile/>
   <tile/>
   <tile/>
   <tile/>
   <tile/>
   <tile/>
   <tile/>
   <tile/>
   <tile/>
   <tile/>
   <tile/>
   <tile/>
   <tile/>
   <tile/>
   <tile/>
   <tile/>
   <tile/>
   <tile/>
   <tile/>
   <tile/>
   <tile/>
   <tile/>
   <tile/>
   <tile/>
   <tile/>
   <tile/>
   <tile/>
   <tile/>
   <tile/>
   <tile/>
   <tile/>
   <tile/>
   <tile/>
   <tile/>
   <tile/>
   <tile/>
   <tile/>
   <tile/>
   <tile/>
   <tile/>
   <tile/>
   <tile/>
   <tile/>
   <tile/>
   <tile/>
   <tile/>
   <tile/>
   <tile/>
   <tile/>
   <tile/>
   <tile/>
   <tile/>
   <tile/>
   <tile/>
   <tile/>
   <tile/>
   <tile/>
   <tile/>
   <tile/>
   <tile/>
   <tile/>
   <tile/>
   <tile/>
   <tile/>
   <tile/>
   <tile/>
   <tile/>
   <tile/>
   <tile/>
   <tile/>
   <tile/>
   <tile/>
   <tile/>
   <tile/>
   <tile/>
   <tile/>
   <tile/>
   <tile/>
   <tile/>
   <tile/>
   <tile/>
   <tile/>
   <tile/>
   <tile/>
   <tile/>
   <tile/>
   <tile/>
   <tile/>
   <tile/>
   <tile/>
   <tile/>
   <tile/>
   <tile/>
   <tile/>
   <tile/>
   <tile/>
   <tile/>
   <tile/>
   <tile/>
   <tile/>
   <tile/>
   <tile/>
   <tile/>
   <tile/>
   <tile/>
   <tile/>
   <tile/>
   <tile/>
   <tile/>
   <tile/>
   <tile/>
   <tile/>
   <tile/>
   <tile/>
   <tile/>
   <tile/>
   <tile/>
   <tile/>
   <tile/>
   <tile/>
   <tile/>
   <tile/>
   <tile/>
   <tile/>
   <tile/>
   <tile/>
   <tile/>
   <tile/>
   <tile/>
   <tile/>
   <tile/>
   <tile/>
   <tile/>
   <tile/>
   <tile/>
   <tile/>
   <tile/>
   <tile/>
   <tile/>
   <tile/>
   <tile/>
   <tile/>
   <tile/>
   <tile/>
   <tile/>
   <tile/>
   <tile/>
   <tile/>
   <tile/>
   <tile/>
   <tile/>
   <tile/>
   <tile/>
   <tile/>
   <tile/>
   <tile/>
   <tile/>
   <tile/>
   <tile/>
   <tile/>
   <tile/>
   <tile/>
   <tile/>
   <tile/>
   <tile/>
   <tile/>
   <tile/>
   <tile/>
   <tile/>
   <tile/>
   <tile/>
   <tile/>
   <tile/>
   <tile/>
   <tile/>
   <tile/>
   <tile/>
   <tile/>
   <tile/>
   <tile/>
   <tile/>
   <tile/>
   <tile/>
   <tile/>
   <tile/>
   <tile/>
   <tile/>
   <tile/>
   <tile/>
   <tile/>
   <tile/>
   <tile/>
   <tile/>
   <tile/>
   <tile/>
   <tile/>
   <tile/>
   <tile/>
   <tile/>
   <tile/>
   <tile/>
   <tile/>
   <tile/>
   <tile/>
   <tile/>
   <tile/>
   <tile/>
   <tile/>
   <tile/>
   <tile/>
   <tile/>
   <tile/>
   <tile/>
   <tile/>
   <tile/>
   <tile/>
   <tile/>
   <tile/>
   <tile/>
   <tile/>
   <tile/>
   <tile/>
   <tile/>
   <tile/>
   <tile/>
   <tile/>
   <tile/>
   <tile/>
   <tile/>
   <tile/>
   <tile/>
   <tile/>
   <tile/>
   <tile/>
   <tile/>
   <tile/>
   <tile/>
   <tile/>
   <tile/>
   <tile/>
   <tile/>
   <tile/>
   <tile/>
   <tile/>
   <tile/>
   <tile/>
   <tile/>
   <tile/>
   <tile/>
   <tile/>
   <tile/>
   <tile/>
   <tile/>
   <tile/>
   <tile/>
   <tile/>
   <tile/>
   <tile/>
   <tile/>
   <tile/>
   <tile/>
   <tile/>
   <tile/>
   <tile/>
   <tile/>
   <tile/>
   <tile/>
   <tile/>
   <tile/>
   <tile/>
   <tile/>
   <tile/>
   <tile/>
   <tile/>
   <tile/>
   <tile/>
   <tile/>
   <tile/>
   <tile/>
   <tile/>
   <tile/>
   <tile/>
   <tile/>
   <tile/>
   <tile/>
   <tile/>
   <tile/>
   <tile/>
   <tile/>
   <tile/>
   <tile/>
   <tile/>
   <tile/>
   <tile/>
   <tile/>
   <tile/>
   <tile/>
   <tile/>
   <tile/>
   <tile/>
   <tile/>
   <tile/>
   <tile/>
   <tile/>
   <tile/>
   <tile/>
   <tile/>
   <tile/>
   <tile/>
   <tile/>
   <tile/>
   <tile/>
   <tile/>
   <tile/>
   <tile/>
   <tile/>
   <tile/>
   <tile/>
   <tile/>
   <tile/>
   <tile/>
   <tile/>
   <tile/>
   <tile/>
   <tile/>
   <tile/>
   <tile/>
   <tile/>
   <tile/>
   <tile/>
   <tile/>
   <tile/>
   <tile/>
   <tile/>
   <tile/>
   <tile/>
   <tile/>
   <tile/>
   <tile/>
   <tile/>
   <tile/>
   <tile/>
   <tile/>
   <tile/>
   <tile/>
   <tile/>
   <tile/>
   <tile/>
   <tile/>
   <tile/>
   <tile/>
   <tile/>
   <tile/>
   <tile/>
   <tile/>
   <tile/>
   <tile/>
   <tile/>
   <tile/>
   <tile/>
   <tile/>
   <tile/>
   <tile/>
   <tile/>
   <tile/>
   <tile/>
   <tile/>
   <tile/>
   <tile/>
   <tile/>
   <tile/>
   <tile/>
   <tile/>
   <tile/>
   <tile/>
   <tile/>
   <tile/>
   <tile/>
   <tile/>
   <tile/>
   <tile/>
   <tile/>
   <tile/>
   <tile/>
   <tile/>
   <tile/>
   <tile/>
   <tile/>
   <tile/>
   <tile/>
   <tile/>
   <tile/>
   <tile/>
   <tile/>
   <tile/>
   <tile/>
   <tile/>
   <tile/>
   <tile/>
   <tile/>
   <tile/>
   <tile/>
   <tile/>
   <tile/>
   <tile/>
   <tile/>
   <tile/>
   <tile/>
   <tile/>
   <tile/>
   <tile/>
   <tile/>
   <tile/>
   <tile/>
   <tile/>
   <tile/>
   <tile/>
   <tile/>
   <tile/>
   <tile/>
   <tile/>
   <tile/>
   <tile/>
   <tile/>
   <tile/>
   <tile/>
   <tile/>
   <tile/>
   <tile/>
   <tile/>
   <tile/>
   <tile/>
   <tile/>
   <tile/>
   <tile/>
   <tile/>
   <tile/>
   <tile/>
   <tile/>
   <tile/>
   <tile/>
   <tile/>
   <tile/>
   <tile/>
   <tile/>
   <tile/>
   <tile/>
   <tile/>
   <tile/>
   <tile/>
   <tile/>
   <tile/>
   <tile/>
   <tile/>
   <tile/>
   <tile/>
   <tile/>
   <tile/>
   <tile/>
   <tile/>
   <tile/>
   <tile/>
   <tile/>
   <tile/>
   <tile/>
   <tile/>
   <tile/>
   <tile/>
   <tile/>
   <tile/>
   <tile/>
   <tile/>
   <tile/>
   <tile/>
   <tile/>
   <tile/>
   <tile/>
   <tile/>
   <tile/>
   <tile/>
   <tile/>
   <tile/>
   <tile/>
   <tile/>
   <tile/>
   <tile/>
   <tile/>
   <tile/>
   <tile/>
   <tile/>
   <tile/>
   <tile/>
   <tile/>
   <tile/>
   <tile/>
   <tile/>
   <tile/>
   <tile/>
   <tile/>
   <tile/>
   <tile/>
   <tile/>
   <tile/>
   <tile/>
   <tile/>
   <tile/>
   <tile/>
   <tile/>
   <tile/>
   <tile/>
   <tile/>
   <tile/>
   <tile/>
   <tile/>
   <tile/>
   <tile/>
   <tile/>
   <tile/>
   <tile/>
   <tile/>
   <tile/>
   <tile/>
   <tile/>
   <tile/>
   <tile/>
   <tile/>
   <tile/>
   <tile/>
   <tile/>
   <tile/>
   <tile/>
   <tile/>
   <tile/>
   <tile/>
   <tile/>
   <tile/>
   <tile/>
   <tile/>
   <tile/>
   <tile/>
   <tile/>
   <tile/>
   <tile/>
   <tile/>
   <tile/>
   <tile/>
   <tile/>
   <tile/>
   <tile/>
   <tile/>
   <tile/>
   <tile/>
   <tile/>
   <tile/>
   <tile/>
   <tile/>
   <tile/>
   <tile/>
   <tile/>
   <tile/>
   <tile/>
   <tile/>
   <tile/>
   <tile/>
   <tile/>
   <tile/>
   <tile/>
   <tile/>
   <tile/>
   <tile/>
   <tile/>
   <tile/>
   <tile/>
   <tile/>
   <tile/>
   <tile/>
   <tile/>
   <tile/>
   <tile/>
   <tile/>
   <tile/>
   <tile/>
   <tile/>
   <tile/>
   <tile/>
   <tile/>
   <tile/>
   <tile/>
   <tile/>
   <tile/>
   <tile/>
   <tile/>
   <tile/>
   <tile/>
   <tile/>
   <tile/>
   <tile/>
   <tile/>
   <tile/>
   <tile/>
   <tile/>
   <tile/>
   <tile/>
   <tile/>
   <tile/>
   <tile/>
   <tile/>
   <tile/>
   <tile/>
   <tile/>
   <tile/>
   <tile/>
   <tile/>
   <tile/>
   <tile/>
   <tile/>
   <tile/>
   <tile/>
   <tile/>
   <tile/>
   <tile/>
   <tile/>
   <tile/>
   <tile/>
   <tile/>
   <tile/>
   <tile/>
   <tile/>
   <tile/>
   <tile/>
   <tile/>
   <tile/>
   <tile/>
   <tile/>
   <tile/>
   <tile/>
   <tile/>
   <tile/>
   <tile/>
   <tile/>
   <tile/>
   <tile/>
   <tile/>
   <tile/>
   <tile/>
   <tile/>
   <tile/>
   <tile/>
   <tile/>
   <tile/>
   <tile/>
   <tile/>
   <tile/>
   <tile/>
   <tile/>
   <tile/>
   <tile/>
   <tile/>
   <tile/>
   <tile/>
   <tile/>
   <tile/>
   <tile/>
   <tile/>
   <tile/>
   <tile/>
   <tile/>
   <tile/>
   <tile/>
   <tile/>
   <tile/>
   <tile/>
   <tile/>
   <tile/>
   <tile/>
   <tile/>
   <tile/>
   <tile/>
   <tile/>
   <tile/>
   <tile/>
   <tile/>
   <tile/>
   <tile/>
   <tile/>
   <tile/>
   <tile/>
   <tile/>
   <tile/>
   <tile/>
   <tile/>
   <tile/>
   <tile/>
   <tile/>
   <tile/>
   <tile/>
   <tile/>
   <tile gid="262"/>
   <tile/>
   <tile/>
   <tile/>
   <tile/>
   <tile/>
   <tile/>
   <tile/>
   <tile/>
   <tile/>
   <tile/>
   <tile/>
   <tile/>
   <tile/>
   <tile/>
   <tile/>
   <tile/>
   <tile/>
   <tile/>
   <tile/>
   <tile/>
   <tile/>
   <tile/>
   <tile/>
   <tile/>
   <tile/>
   <tile/>
   <tile/>
   <tile/>
   <tile/>
   <tile gid="262"/>
   <tile/>
   <tile/>
   <tile/>
   <tile/>
   <tile/>
   <tile/>
   <tile/>
   <tile/>
   <tile/>
   <tile/>
   <tile/>
   <tile/>
   <tile/>
   <tile/>
   <tile/>
   <tile/>
   <tile/>
   <tile/>
   <tile/>
   <tile/>
   <tile/>
   <tile/>
   <tile/>
   <tile/>
   <tile/>
   <tile/>
   <tile/>
   <tile/>
   <tile/>
   <tile/>
   <tile/>
   <tile/>
   <tile/>
   <tile/>
   <tile/>
   <tile/>
   <tile/>
   <tile/>
   <tile/>
   <tile/>
   <tile/>
   <tile/>
   <tile/>
   <tile/>
   <tile/>
   <tile/>
   <tile/>
   <tile/>
   <tile/>
   <tile/>
   <tile/>
   <tile/>
   <tile/>
   <tile/>
   <tile/>
   <tile/>
   <tile/>
   <tile/>
   <tile/>
   <tile/>
   <tile/>
   <tile/>
   <tile/>
   <tile/>
   <tile/>
   <tile/>
   <tile/>
   <tile/>
   <tile/>
   <tile/>
   <tile/>
   <tile/>
   <tile/>
   <tile/>
   <tile/>
   <tile/>
   <tile/>
   <tile/>
   <tile/>
   <tile/>
   <tile/>
   <tile/>
   <tile/>
   <tile/>
   <tile/>
   <tile/>
   <tile/>
   <tile/>
   <tile/>
   <tile/>
   <tile/>
   <tile/>
   <tile/>
   <tile/>
   <tile/>
   <tile/>
   <tile/>
   <tile/>
   <tile/>
   <tile/>
   <tile/>
   <tile/>
   <tile/>
   <tile/>
   <tile/>
   <tile/>
   <tile/>
   <tile/>
   <tile/>
   <tile/>
   <tile/>
   <tile/>
   <tile/>
   <tile/>
   <tile/>
   <tile/>
   <tile/>
   <tile/>
   <tile/>
   <tile/>
   <tile/>
   <tile/>
   <tile/>
   <tile/>
   <tile/>
   <tile/>
   <tile/>
   <tile/>
   <tile/>
   <tile/>
   <tile/>
   <tile/>
   <tile/>
   <tile/>
   <tile/>
   <tile/>
   <tile/>
   <tile/>
   <tile/>
   <tile/>
   <tile/>
   <tile/>
   <tile/>
   <tile/>
   <tile/>
   <tile/>
   <tile/>
   <tile/>
   <tile/>
   <tile/>
   <tile/>
   <tile/>
   <tile/>
   <tile/>
   <tile/>
   <tile/>
   <tile/>
   <tile/>
   <tile/>
   <tile/>
   <tile/>
   <tile/>
   <tile/>
   <tile/>
   <tile/>
   <tile/>
   <tile/>
   <tile/>
   <tile/>
   <tile/>
   <tile/>
   <tile/>
   <tile/>
   <tile/>
   <tile/>
   <tile/>
   <tile/>
   <tile/>
   <tile/>
   <tile/>
   <tile/>
   <tile/>
   <tile/>
   <tile/>
   <tile/>
   <tile/>
   <tile/>
   <tile/>
   <tile/>
   <tile/>
   <tile/>
   <tile/>
   <tile/>
   <tile/>
   <tile/>
   <tile/>
   <tile/>
   <tile/>
   <tile/>
   <tile/>
   <tile/>
   <tile/>
   <tile/>
   <tile/>
   <tile/>
   <tile/>
   <tile/>
   <tile/>
   <tile/>
   <tile/>
   <tile/>
   <tile/>
   <tile/>
   <tile/>
   <tile/>
   <tile/>
   <tile/>
   <tile/>
   <tile/>
   <tile/>
   <tile/>
   <tile/>
   <tile/>
   <tile/>
   <tile/>
   <tile/>
   <tile/>
   <tile/>
   <tile/>
   <tile/>
   <tile/>
   <tile/>
   <tile/>
   <tile/>
   <tile/>
   <tile/>
   <tile/>
   <tile/>
   <tile/>
   <tile/>
   <tile/>
   <tile/>
   <tile/>
   <tile/>
   <tile/>
   <tile/>
   <tile/>
   <tile/>
   <tile/>
   <tile/>
   <tile/>
   <tile/>
   <tile/>
   <tile/>
   <tile/>
   <tile/>
   <tile/>
   <tile/>
   <tile/>
   <tile/>
   <tile/>
   <tile/>
   <tile/>
   <tile/>
   <tile/>
   <tile/>
   <tile/>
   <tile/>
   <tile/>
   <tile/>
   <tile/>
   <tile/>
   <tile/>
   <tile/>
   <tile/>
   <tile/>
   <tile/>
   <tile/>
   <tile/>
   <tile/>
   <tile/>
   <tile/>
   <tile/>
   <tile/>
   <tile/>
   <tile/>
   <tile/>
   <tile/>
   <tile/>
   <tile/>
   <tile/>
   <tile/>
   <tile/>
   <tile/>
   <tile/>
   <tile/>
   <tile/>
   <tile/>
   <tile/>
   <tile/>
   <tile/>
   <tile/>
   <tile/>
   <tile/>
   <tile/>
   <tile/>
   <tile/>
   <tile/>
   <tile/>
   <tile/>
   <tile/>
   <tile/>
   <tile/>
   <tile/>
   <tile/>
   <tile/>
   <tile/>
   <tile/>
   <tile/>
   <tile/>
   <tile/>
   <tile/>
   <tile/>
   <tile/>
   <tile/>
   <tile/>
   <tile/>
   <tile/>
   <tile/>
   <tile/>
   <tile/>
   <tile/>
   <tile/>
   <tile/>
   <tile/>
   <tile/>
   <tile/>
   <tile/>
   <tile/>
   <tile/>
   <tile/>
   <tile/>
   <tile/>
   <tile/>
   <tile/>
   <tile/>
   <tile/>
   <tile/>
   <tile/>
   <tile/>
   <tile/>
   <tile/>
   <tile/>
   <tile/>
   <tile/>
   <tile/>
   <tile/>
   <tile/>
   <tile/>
   <tile/>
   <tile/>
   <tile/>
   <tile/>
   <tile/>
   <tile/>
   <tile/>
   <tile/>
   <tile/>
   <tile/>
   <tile/>
   <tile/>
   <tile/>
   <tile/>
   <tile/>
   <tile/>
   <tile/>
   <tile/>
   <tile/>
   <tile/>
   <tile/>
   <tile/>
   <tile/>
   <tile/>
   <tile/>
   <tile/>
   <tile/>
   <tile/>
   <tile/>
   <tile/>
   <tile/>
   <tile/>
   <tile/>
   <tile/>
   <tile/>
   <tile/>
   <tile/>
   <tile/>
   <tile/>
   <tile/>
   <tile/>
   <tile/>
   <tile/>
   <tile/>
   <tile/>
   <tile/>
   <tile/>
   <tile/>
   <tile/>
   <tile/>
   <tile/>
   <tile/>
   <tile/>
   <tile/>
   <tile/>
   <tile/>
   <tile/>
   <tile/>
   <tile/>
   <tile/>
   <tile/>
   <tile/>
   <tile/>
   <tile/>
   <tile/>
   <tile/>
   <tile/>
   <tile/>
   <tile/>
   <tile/>
   <tile/>
   <tile/>
   <tile/>
   <tile/>
   <tile/>
   <tile/>
   <tile/>
   <tile/>
   <tile/>
   <tile/>
   <tile/>
   <tile/>
   <tile/>
   <tile/>
   <tile/>
   <tile/>
   <tile/>
   <tile/>
   <tile/>
   <tile/>
   <tile/>
   <tile/>
   <tile/>
   <tile/>
   <tile/>
   <tile/>
   <tile/>
   <tile/>
   <tile/>
   <tile/>
   <tile/>
   <tile/>
   <tile/>
   <tile/>
   <tile/>
   <tile/>
   <tile/>
   <tile/>
   <tile/>
   <tile/>
   <tile/>
   <tile/>
   <tile/>
   <tile/>
   <tile/>
   <tile/>
   <tile/>
   <tile/>
   <tile/>
   <tile/>
   <tile/>
   <tile/>
   <tile/>
   <tile/>
   <tile/>
   <tile/>
   <tile/>
   <tile/>
   <tile/>
   <tile/>
   <tile/>
   <tile/>
   <tile/>
   <tile/>
   <tile/>
   <tile/>
   <tile/>
   <tile/>
   <tile/>
   <tile/>
   <tile/>
   <tile/>
   <tile/>
   <tile/>
   <tile/>
   <tile/>
   <tile/>
   <tile/>
   <tile/>
   <tile/>
   <tile/>
   <tile/>
   <tile/>
   <tile/>
   <tile/>
   <tile/>
   <tile/>
   <tile/>
   <tile/>
   <tile/>
   <tile/>
   <tile/>
   <tile/>
   <tile/>
   <tile/>
   <tile/>
   <tile/>
   <tile/>
   <tile/>
   <tile/>
   <tile/>
   <tile/>
   <tile/>
   <tile/>
   <tile/>
   <tile/>
   <tile/>
   <tile/>
   <tile/>
   <tile/>
   <tile/>
   <tile/>
   <tile/>
   <tile/>
   <tile/>
   <tile/>
   <tile/>
   <tile/>
   <tile/>
   <tile/>
   <tile/>
   <tile/>
   <tile/>
   <tile/>
   <tile/>
   <tile/>
   <tile/>
   <tile/>
   <tile/>
   <tile/>
   <tile/>
   <tile/>
   <tile/>
   <tile/>
   <tile/>
   <tile/>
   <tile/>
   <tile/>
   <tile/>
   <tile/>
   <tile/>
   <tile/>
   <tile/>
   <tile/>
   <tile/>
   <tile/>
   <tile/>
   <tile/>
   <tile/>
   <tile/>
   <tile/>
   <tile/>
   <tile/>
   <tile/>
   <tile/>
   <tile/>
   <tile/>
   <tile/>
   <tile/>
   <tile/>
   <tile/>
   <tile/>
   <tile/>
   <tile/>
   <tile/>
   <tile/>
   <tile/>
   <tile/>
   <tile/>
   <tile/>
   <tile/>
   <tile/>
   <tile/>
   <tile/>
   <tile/>
   <tile/>
   <tile/>
   <tile/>
   <tile/>
   <tile/>
   <tile/>
   <tile/>
   <tile/>
   <tile/>
   <tile/>
   <tile/>
   <tile/>
   <tile/>
   <tile/>
   <tile/>
   <tile/>
   <tile/>
   <tile/>
   <tile/>
   <tile/>
   <tile/>
   <tile/>
   <tile/>
   <tile/>
   <tile/>
   <tile/>
   <tile/>
   <tile/>
   <tile/>
   <tile/>
   <tile/>
   <tile/>
   <tile/>
   <tile/>
   <tile/>
   <tile/>
   <tile/>
   <tile/>
   <tile/>
   <tile/>
   <tile/>
   <tile/>
   <tile/>
   <tile/>
   <tile/>
   <tile/>
   <tile/>
   <tile/>
   <tile/>
   <tile/>
   <tile/>
   <tile/>
   <tile/>
   <tile/>
   <tile/>
   <tile/>
   <tile/>
   <tile/>
   <tile/>
   <tile/>
   <tile/>
   <tile/>
   <tile/>
   <tile/>
   <tile/>
   <tile/>
   <tile/>
   <tile/>
   <tile/>
   <tile/>
   <tile/>
   <tile/>
   <tile/>
   <tile/>
   <tile/>
   <tile/>
   <tile/>
   <tile/>
   <tile/>
   <tile/>
   <tile/>
   <tile/>
   <tile/>
   <tile/>
   <tile/>
   <tile/>
   <tile/>
   <tile/>
   <tile/>
   <tile/>
   <tile/>
   <tile/>
   <tile/>
   <tile/>
   <tile/>
   <tile/>
   <tile/>
   <tile/>
   <tile/>
   <tile/>
   <tile/>
   <tile/>
   <tile/>
   <tile/>
   <tile/>
   <tile/>
   <tile/>
   <tile/>
   <tile/>
   <tile/>
   <tile/>
   <tile/>
   <tile/>
   <tile/>
   <tile/>
   <tile/>
   <tile/>
   <tile/>
   <tile/>
   <tile/>
   <tile/>
   <tile/>
   <tile/>
   <tile/>
   <tile/>
   <tile/>
   <tile/>
   <tile/>
   <tile/>
   <tile/>
   <tile/>
   <tile/>
   <tile/>
   <tile/>
   <tile/>
   <tile/>
   <tile/>
   <tile/>
   <tile/>
   <tile/>
   <tile/>
   <tile/>
   <tile/>
   <tile/>
   <tile/>
   <tile/>
   <tile/>
   <tile/>
   <tile/>
   <tile/>
   <tile/>
   <tile/>
   <tile/>
   <tile/>
   <tile/>
   <tile/>
   <tile/>
   <tile/>
   <tile/>
   <tile/>
   <tile/>
   <tile/>
   <tile/>
   <tile/>
   <tile/>
   <tile/>
   <tile/>
   <tile/>
   <tile/>
   <tile/>
   <tile/>
   <tile/>
   <tile/>
   <tile/>
   <tile/>
   <tile/>
   <tile/>
   <tile/>
   <tile/>
   <tile/>
   <tile/>
   <tile/>
   <tile/>
   <tile/>
   <tile/>
   <tile/>
   <tile/>
   <tile/>
   <tile/>
   <tile/>
   <tile/>
   <tile/>
   <tile/>
   <tile/>
   <tile/>
   <tile/>
   <tile/>
   <tile/>
   <tile/>
   <tile/>
   <tile/>
   <tile/>
   <tile/>
   <tile/>
   <tile/>
   <tile/>
   <tile/>
   <tile/>
   <tile/>
   <tile/>
   <tile/>
   <tile/>
   <tile/>
   <tile/>
   <tile/>
   <tile/>
   <tile/>
   <tile/>
   <tile/>
   <tile/>
   <tile/>
   <tile/>
   <tile/>
   <tile/>
   <tile/>
   <tile/>
   <tile/>
   <tile/>
   <tile/>
   <tile/>
   <tile/>
   <tile/>
   <tile/>
   <tile/>
   <tile/>
   <tile/>
   <tile/>
   <tile/>
   <tile/>
   <tile/>
   <tile/>
   <tile/>
   <tile/>
   <tile/>
   <tile/>
   <tile/>
   <tile/>
   <tile/>
   <tile/>
   <tile/>
   <tile/>
   <tile/>
   <tile/>
   <tile/>
   <tile/>
   <tile/>
   <tile/>
   <tile/>
   <tile/>
   <tile/>
   <tile/>
   <tile/>
   <tile/>
   <tile/>
   <tile/>
   <tile/>
   <tile/>
   <tile/>
   <tile/>
   <tile/>
   <tile/>
   <tile/>
   <tile/>
   <tile/>
   <tile/>
   <tile/>
   <tile/>
   <tile/>
   <tile/>
   <tile/>
   <tile/>
   <tile/>
   <tile/>
   <tile/>
   <tile/>
   <tile/>
   <tile/>
   <tile/>
   <tile/>
   <tile/>
   <tile/>
   <tile/>
   <tile/>
   <tile/>
   <tile/>
   <tile/>
   <tile/>
   <tile/>
   <tile/>
   <tile/>
   <tile/>
   <tile/>
   <tile/>
   <tile/>
   <tile/>
   <tile/>
   <tile/>
   <tile/>
   <tile/>
   <tile/>
   <tile/>
   <tile/>
   <tile/>
   <tile/>
   <tile/>
   <tile/>
   <tile/>
   <tile/>
   <tile/>
   <tile/>
   <tile/>
   <tile/>
   <tile/>
   <tile/>
   <tile/>
   <tile gid="261"/>
   <tile/>
   <tile/>
   <tile/>
   <tile/>
   <tile/>
   <tile/>
   <tile/>
   <tile/>
   <tile/>
   <tile/>
   <tile/>
   <tile/>
   <tile/>
   <tile/>
   <tile/>
   <tile/>
   <tile/>
   <tile/>
   <tile/>
   <tile/>
   <tile/>
   <tile/>
   <tile/>
   <tile/>
   <tile/>
   <tile/>
   <tile/>
   <tile/>
   <tile/>
   <tile gid="261"/>
   <tile/>
   <tile/>
   <tile/>
   <tile/>
   <tile/>
   <tile/>
   <tile/>
   <tile/>
   <tile/>
   <tile/>
   <tile/>
   <tile/>
   <tile/>
   <tile/>
   <tile/>
   <tile/>
   <tile/>
   <tile/>
   <tile/>
   <tile/>
   <tile/>
   <tile/>
   <tile/>
   <tile/>
   <tile/>
   <tile/>
   <tile/>
   <tile/>
   <tile/>
   <tile/>
   <tile/>
   <tile/>
   <tile/>
   <tile/>
   <tile/>
   <tile/>
   <tile/>
   <tile/>
   <tile/>
   <tile/>
   <tile/>
   <tile/>
   <tile/>
   <tile/>
   <tile/>
   <tile/>
   <tile/>
   <tile/>
   <tile/>
   <tile/>
   <tile/>
   <tile/>
   <tile/>
   <tile/>
   <tile/>
   <tile/>
   <tile/>
   <tile/>
   <tile/>
   <tile/>
   <tile/>
   <tile/>
   <tile/>
   <tile/>
   <tile/>
   <tile/>
   <tile/>
   <tile/>
   <tile/>
   <tile/>
   <tile/>
   <tile/>
   <tile/>
   <tile/>
   <tile/>
   <tile/>
   <tile/>
   <tile/>
   <tile/>
   <tile/>
   <tile/>
   <tile/>
   <tile/>
   <tile/>
   <tile/>
   <tile/>
   <tile/>
   <tile/>
   <tile/>
   <tile/>
   <tile/>
   <tile/>
   <tile/>
   <tile/>
   <tile/>
   <tile/>
   <tile/>
   <tile/>
   <tile/>
   <tile/>
   <tile/>
   <tile/>
   <tile/>
   <tile/>
   <tile/>
   <tile/>
   <tile/>
   <tile/>
   <tile/>
   <tile/>
   <tile/>
   <tile/>
   <tile/>
   <tile/>
   <tile/>
   <tile/>
   <tile/>
   <tile/>
   <tile/>
   <tile/>
   <tile/>
   <tile/>
   <tile/>
   <tile/>
   <tile/>
   <tile/>
   <tile/>
   <tile/>
   <tile/>
   <tile/>
   <tile/>
   <tile/>
   <tile/>
   <tile/>
   <tile/>
   <tile/>
   <tile/>
   <tile/>
   <tile/>
   <tile/>
   <tile/>
   <tile/>
   <tile/>
   <tile/>
   <tile/>
   <tile/>
   <tile/>
   <tile/>
   <tile/>
   <tile/>
   <tile/>
   <tile/>
   <tile/>
   <tile/>
   <tile/>
   <tile/>
   <tile/>
   <tile/>
   <tile/>
   <tile/>
   <tile/>
   <tile/>
   <tile/>
   <tile/>
   <tile/>
   <tile/>
   <tile/>
   <tile/>
   <tile/>
   <tile/>
   <tile/>
   <tile/>
   <tile/>
   <tile/>
   <tile/>
   <tile/>
   <tile/>
   <tile/>
   <tile/>
   <tile/>
   <tile/>
   <tile/>
   <tile/>
   <tile/>
   <tile/>
   <tile/>
   <tile/>
   <tile/>
   <tile/>
   <tile/>
   <tile/>
   <tile/>
   <tile/>
   <tile/>
   <tile/>
   <tile/>
   <tile/>
   <tile/>
   <tile/>
   <tile/>
   <tile/>
   <tile/>
   <tile/>
   <tile/>
   <tile/>
   <tile/>
   <tile/>
   <tile/>
   <tile/>
   <tile/>
   <tile/>
   <tile/>
   <tile/>
   <tile/>
   <tile/>
   <tile/>
   <tile/>
   <tile/>
   <tile/>
   <tile/>
   <tile/>
   <tile/>
   <tile/>
   <tile/>
   <tile/>
   <tile/>
   <tile/>
   <tile/>
   <tile/>
   <tile/>
   <tile/>
   <tile/>
   <tile/>
   <tile/>
   <tile/>
   <tile/>
   <tile/>
   <tile/>
   <tile/>
   <tile/>
   <tile/>
   <tile/>
   <tile/>
   <tile/>
   <tile/>
   <tile/>
   <tile/>
   <tile/>
   <tile/>
   <tile/>
   <tile/>
   <tile/>
   <tile/>
   <tile/>
   <tile/>
   <tile/>
   <tile/>
   <tile/>
   <tile/>
   <tile/>
   <tile/>
   <tile/>
   <tile/>
   <tile/>
   <tile/>
   <tile/>
   <tile/>
   <tile/>
   <tile/>
   <tile/>
   <tile/>
   <tile/>
   <tile/>
   <tile/>
   <tile/>
   <tile/>
   <tile/>
   <tile/>
   <tile/>
   <tile/>
   <tile/>
   <tile/>
   <tile/>
   <tile/>
   <tile/>
   <tile/>
   <tile/>
   <tile/>
   <tile/>
   <tile/>
   <tile/>
   <tile/>
   <tile/>
   <tile/>
   <tile/>
   <tile/>
   <tile/>
   <tile/>
   <tile/>
   <tile/>
   <tile/>
   <tile/>
   <tile/>
   <tile/>
   <tile/>
   <tile/>
   <tile/>
   <tile/>
   <tile/>
   <tile/>
   <tile/>
   <tile/>
   <tile/>
   <tile/>
   <tile/>
   <tile/>
   <tile/>
   <tile/>
   <tile/>
   <tile/>
   <tile/>
   <tile/>
   <tile/>
   <tile/>
   <tile/>
   <tile/>
   <tile/>
   <tile/>
   <tile/>
   <tile/>
   <tile/>
   <tile/>
   <tile/>
   <tile/>
   <tile/>
   <tile/>
   <tile/>
   <tile/>
   <tile/>
   <tile/>
   <tile/>
   <tile/>
   <tile/>
   <tile/>
   <tile/>
   <tile/>
   <tile/>
   <tile/>
   <tile/>
   <tile/>
   <tile/>
   <tile/>
   <tile/>
   <tile/>
   <tile/>
   <tile/>
   <tile/>
   <tile/>
   <tile/>
   <tile/>
   <tile/>
   <tile/>
   <tile/>
   <tile/>
   <tile/>
   <tile/>
   <tile/>
   <tile/>
   <tile/>
   <tile/>
   <tile/>
   <tile/>
   <tile/>
   <tile/>
   <tile/>
   <tile/>
   <tile/>
   <tile/>
   <tile/>
   <tile/>
   <tile/>
   <tile/>
   <tile/>
   <tile/>
   <tile/>
   <tile/>
   <tile/>
   <tile/>
   <tile/>
   <tile/>
   <tile/>
   <tile/>
   <tile/>
   <tile/>
   <tile/>
   <tile/>
   <tile/>
   <tile/>
   <tile/>
   <tile/>
   <tile/>
   <tile/>
   <tile/>
   <tile/>
   <tile/>
   <tile/>
   <tile/>
   <tile/>
   <tile/>
   <tile/>
   <tile/>
   <tile/>
   <tile/>
   <tile/>
   <tile/>
   <tile/>
   <tile/>
   <tile/>
   <tile/>
   <tile/>
   <tile/>
   <tile/>
   <tile/>
   <tile/>
   <tile/>
   <tile/>
   <tile/>
   <tile/>
   <tile/>
   <tile/>
   <tile/>
   <tile/>
   <tile/>
   <tile/>
   <tile/>
   <tile/>
   <tile/>
   <tile/>
   <tile/>
   <tile/>
   <tile/>
   <tile/>
   <tile/>
   <tile/>
   <tile/>
   <tile/>
   <tile/>
   <tile/>
   <tile/>
   <tile/>
   <tile/>
   <tile/>
   <tile/>
   <tile/>
   <tile/>
   <tile/>
   <tile/>
   <tile/>
   <tile/>
   <tile/>
   <tile/>
   <tile/>
   <tile/>
   <tile/>
   <tile/>
   <tile/>
   <tile/>
   <tile/>
   <tile/>
   <tile/>
   <tile/>
   <tile/>
   <tile/>
   <tile/>
   <tile/>
   <tile/>
   <tile/>
   <tile/>
   <tile/>
   <tile/>
   <tile/>
   <tile/>
   <tile/>
   <tile/>
   <tile/>
   <tile/>
   <tile/>
   <tile/>
   <tile/>
   <tile/>
   <tile/>
   <tile/>
   <tile/>
   <tile/>
   <tile/>
   <tile/>
   <tile/>
   <tile/>
   <tile/>
   <tile/>
   <tile/>
   <tile/>
   <tile/>
   <tile/>
   <tile/>
   <tile/>
   <tile/>
   <tile/>
   <tile/>
   <tile/>
   <tile/>
   <tile/>
   <tile/>
   <tile/>
   <tile/>
   <tile/>
   <tile/>
   <tile/>
   <tile/>
   <tile/>
   <tile/>
   <tile/>
   <tile/>
   <tile/>
   <tile/>
   <tile/>
   <tile/>
   <tile/>
   <tile/>
   <tile/>
   <tile/>
   <tile/>
   <tile/>
   <tile/>
   <tile/>
   <tile/>
   <tile/>
   <tile/>
   <tile/>
   <tile/>
   <tile/>
   <tile/>
   <tile/>
   <tile/>
   <tile/>
   <tile/>
   <tile/>
   <tile/>
   <tile/>
   <tile/>
   <tile/>
   <tile/>
   <tile/>
   <tile/>
   <tile/>
   <tile/>
   <tile/>
   <tile/>
   <tile/>
   <tile/>
   <tile/>
   <tile/>
   <tile/>
   <tile/>
   <tile/>
   <tile/>
   <tile/>
   <tile/>
   <tile/>
   <tile/>
   <tile/>
   <tile/>
   <tile/>
   <tile/>
   <tile/>
   <tile/>
   <tile/>
   <tile/>
   <tile/>
   <tile/>
   <tile/>
   <tile/>
   <tile/>
   <tile/>
   <tile/>
   <tile/>
   <tile/>
   <tile/>
   <tile/>
   <tile/>
   <tile/>
   <tile/>
   <tile/>
   <tile/>
   <tile/>
   <tile/>
   <tile/>
   <tile/>
   <tile/>
   <tile/>
   <tile/>
   <tile/>
   <tile/>
   <tile/>
   <tile/>
   <tile/>
   <tile/>
   <tile/>
   <tile/>
   <tile/>
   <tile/>
   <tile/>
   <tile/>
   <tile/>
   <tile/>
   <tile/>
   <tile/>
   <tile/>
   <tile/>
   <tile/>
   <tile/>
   <tile/>
   <tile/>
   <tile/>
   <tile/>
   <tile/>
   <tile/>
   <tile/>
   <tile/>
   <tile/>
   <tile/>
   <tile/>
   <tile/>
   <tile/>
   <tile/>
   <tile/>
   <tile/>
   <tile/>
   <tile/>
   <tile/>
   <tile/>
   <tile/>
   <tile/>
   <tile/>
   <tile/>
   <tile/>
   <tile/>
   <tile/>
   <tile/>
   <tile/>
   <tile/>
   <tile/>
   <tile/>
   <tile/>
   <tile/>
   <tile/>
   <tile/>
   <tile/>
   <tile/>
   <tile/>
   <tile/>
   <tile/>
   <tile/>
   <tile/>
   <tile/>
   <tile/>
   <tile/>
   <tile/>
   <tile/>
   <tile/>
   <tile/>
   <tile/>
   <tile/>
   <tile/>
   <tile/>
   <tile/>
   <tile/>
   <tile/>
   <tile/>
   <tile/>
   <tile/>
   <tile/>
   <tile/>
   <tile/>
   <tile/>
   <tile/>
   <tile/>
   <tile/>
   <tile/>
   <tile/>
   <tile/>
   <tile/>
   <tile/>
   <tile/>
   <tile/>
   <tile/>
   <tile/>
   <tile/>
   <tile/>
   <tile/>
   <tile/>
   <tile/>
   <tile/>
   <tile/>
   <tile/>
   <tile/>
   <tile/>
   <tile/>
   <tile/>
   <tile/>
   <tile/>
   <tile/>
   <tile/>
   <tile/>
   <tile/>
   <tile/>
   <tile/>
   <tile/>
   <tile/>
   <tile/>
   <tile/>
   <tile/>
   <tile/>
   <tile/>
   <tile/>
   <tile/>
   <tile/>
   <tile/>
   <tile/>
   <tile/>
   <tile/>
   <tile/>
   <tile/>
   <tile/>
   <tile/>
   <tile/>
   <tile/>
   <tile/>
   <tile/>
   <tile/>
   <tile/>
   <tile/>
   <tile/>
   <tile/>
   <tile/>
   <tile/>
   <tile/>
   <tile/>
   <tile/>
   <tile/>
   <tile/>
   <tile/>
   <tile/>
   <tile/>
   <tile/>
   <tile/>
   <tile/>
   <tile/>
   <tile/>
   <tile/>
   <tile/>
   <tile/>
   <tile/>
   <tile/>
   <tile/>
   <tile/>
   <tile/>
   <tile/>
   <tile/>
   <tile/>
   <tile/>
   <tile/>
   <tile/>
   <tile/>
   <tile/>
   <tile/>
   <tile/>
   <tile/>
   <tile/>
   <tile/>
   <tile/>
   <tile/>
   <tile/>
   <tile/>
   <tile/>
   <tile/>
   <tile/>
   <tile/>
   <tile/>
   <tile/>
   <tile/>
   <tile/>
   <tile/>
   <tile/>
   <tile/>
   <tile/>
   <tile/>
   <tile/>
   <tile/>
   <tile/>
   <tile/>
   <tile/>
   <tile/>
   <tile/>
   <tile/>
   <tile/>
   <tile/>
   <tile/>
   <tile/>
   <tile/>
   <tile/>
   <tile/>
   <tile/>
   <tile/>
   <tile/>
   <tile/>
   <tile/>
   <tile/>
   <tile/>
   <tile/>
   <tile/>
   <tile/>
   <tile/>
   <tile/>
   <tile/>
   <tile/>
   <tile/>
   <tile/>
   <tile/>
   <tile/>
   <tile/>
   <tile/>
   <tile/>
   <tile/>
   <tile/>
   <tile/>
   <tile/>
   <tile/>
   <tile/>
   <tile/>
   <tile/>
   <tile/>
   <tile/>
   <tile/>
   <tile/>
   <tile/>
   <tile/>
   <tile/>
   <tile/>
   <tile/>
   <tile/>
   <tile/>
   <tile/>
   <tile/>
   <tile/>
   <tile/>
   <tile/>
   <tile/>
   <tile/>
   <tile/>
   <tile/>
   <tile/>
   <tile/>
   <tile/>
   <tile/>
   <tile/>
   <tile/>
   <tile/>
   <tile/>
   <tile/>
   <tile/>
   <tile/>
   <tile/>
   <tile/>
   <tile/>
   <tile/>
   <tile/>
   <tile/>
   <tile/>
   <tile/>
   <tile/>
   <tile/>
   <tile/>
   <tile/>
   <tile/>
   <tile/>
   <tile/>
   <tile/>
   <tile/>
   <tile/>
   <tile/>
   <tile/>
   <tile/>
   <tile/>
   <tile/>
   <tile/>
   <tile/>
   <tile/>
   <tile/>
   <tile/>
   <tile/>
   <tile/>
   <tile/>
   <tile/>
   <tile/>
   <tile/>
   <tile/>
   <tile/>
   <tile/>
   <tile/>
   <tile/>
   <tile/>
   <tile/>
   <tile/>
   <tile/>
   <tile/>
   <tile/>
   <tile/>
   <tile/>
   <tile/>
   <tile/>
   <tile/>
   <tile/>
   <tile/>
   <tile/>
   <tile/>
   <tile/>
   <tile/>
   <tile/>
   <tile gid="260"/>
   <tile/>
   <tile/>
   <tile/>
   <tile/>
   <tile/>
   <tile/>
   <tile/>
   <tile/>
   <tile/>
   <tile/>
   <tile/>
   <tile/>
   <tile/>
   <tile/>
   <tile/>
   <tile/>
   <tile/>
   <tile/>
   <tile/>
   <tile/>
   <tile/>
   <tile/>
   <tile/>
   <tile/>
   <tile/>
   <tile/>
   <tile/>
   <tile/>
   <tile/>
   <tile gid="260"/>
   <tile/>
   <tile/>
   <tile/>
   <tile/>
   <tile/>
   <tile/>
   <tile/>
   <tile/>
   <tile/>
   <tile/>
   <tile/>
   <tile/>
   <tile/>
   <tile/>
   <tile/>
   <tile/>
   <tile/>
   <tile/>
   <tile/>
   <tile/>
   <tile/>
   <tile/>
   <tile/>
   <tile/>
   <tile/>
   <tile/>
   <tile/>
   <tile/>
   <tile/>
   <tile/>
   <tile/>
   <tile/>
   <tile/>
   <tile/>
   <tile/>
   <tile/>
   <tile/>
   <tile/>
   <tile/>
   <tile/>
   <tile/>
   <tile/>
   <tile/>
   <tile/>
   <tile/>
   <tile/>
   <tile/>
   <tile/>
   <tile/>
   <tile/>
   <tile/>
   <tile/>
   <tile/>
   <tile/>
   <tile/>
   <tile/>
   <tile/>
   <tile/>
   <tile/>
   <tile/>
   <tile/>
   <tile/>
   <tile/>
   <tile/>
   <tile/>
   <tile/>
   <tile/>
   <tile/>
   <tile/>
   <tile/>
   <tile/>
   <tile/>
   <tile/>
   <tile/>
   <tile/>
   <tile/>
   <tile/>
   <tile/>
   <tile/>
   <tile/>
   <tile/>
   <tile/>
   <tile/>
   <tile/>
   <tile/>
   <tile/>
   <tile/>
   <tile/>
   <tile/>
   <tile/>
   <tile/>
   <tile/>
   <tile/>
   <tile/>
   <tile/>
   <tile/>
   <tile/>
   <tile/>
   <tile/>
   <tile/>
   <tile/>
   <tile/>
   <tile/>
   <tile/>
   <tile/>
   <tile/>
   <tile/>
   <tile/>
   <tile/>
   <tile/>
   <tile/>
   <tile/>
   <tile/>
   <tile/>
   <tile/>
   <tile/>
   <tile/>
   <tile/>
   <tile/>
   <tile/>
   <tile/>
   <tile/>
   <tile/>
   <tile/>
   <tile/>
   <tile/>
   <tile/>
   <tile/>
   <tile/>
   <tile/>
   <tile/>
   <tile/>
   <tile/>
   <tile/>
   <tile/>
   <tile/>
   <tile/>
   <tile/>
   <tile/>
   <tile/>
   <tile/>
   <tile/>
   <tile/>
   <tile/>
   <tile/>
   <tile/>
   <tile/>
   <tile/>
   <tile/>
   <tile/>
   <tile/>
   <tile/>
   <tile/>
   <tile/>
   <tile/>
   <tile/>
   <tile/>
   <tile/>
   <tile/>
   <tile/>
   <tile/>
   <tile/>
   <tile/>
   <tile/>
   <tile/>
   <tile/>
   <tile/>
   <tile/>
   <tile/>
   <tile/>
   <tile/>
   <tile/>
   <tile/>
   <tile/>
   <tile/>
   <tile/>
   <tile/>
   <tile/>
   <tile/>
   <tile/>
   <tile/>
   <tile/>
   <tile/>
   <tile/>
   <tile/>
   <tile/>
   <tile/>
   <tile/>
   <tile/>
   <tile/>
   <tile/>
   <tile/>
   <tile/>
   <tile/>
   <tile/>
   <tile/>
   <tile/>
   <tile/>
   <tile/>
   <tile/>
   <tile/>
   <tile/>
   <tile/>
   <tile/>
   <tile/>
   <tile/>
   <tile/>
   <tile/>
   <tile/>
   <tile/>
   <tile/>
   <tile/>
   <tile/>
   <tile/>
   <tile/>
   <tile/>
   <tile/>
   <tile/>
   <tile/>
   <tile/>
   <tile/>
   <tile/>
   <tile/>
   <tile/>
   <tile/>
   <tile/>
   <tile/>
   <tile/>
   <tile/>
   <tile/>
   <tile/>
   <tile/>
   <tile/>
   <tile/>
   <tile/>
   <tile/>
   <tile/>
   <tile/>
   <tile/>
   <tile/>
   <tile/>
   <tile/>
   <tile/>
   <tile/>
   <tile/>
   <tile/>
   <tile/>
   <tile/>
   <tile/>
   <tile/>
   <tile/>
   <tile/>
   <tile/>
   <tile/>
   <tile/>
   <tile/>
   <tile/>
   <tile/>
   <tile/>
   <tile/>
   <tile/>
   <tile/>
   <tile/>
   <tile/>
   <tile/>
   <tile/>
   <tile/>
   <tile/>
   <tile/>
   <tile/>
   <tile/>
   <tile/>
   <tile/>
   <tile/>
   <tile/>
   <tile/>
   <tile/>
   <tile/>
   <tile/>
   <tile/>
   <tile/>
   <tile/>
   <tile/>
   <tile/>
   <tile/>
   <tile/>
   <tile/>
   <tile/>
   <tile/>
   <tile/>
   <tile/>
   <tile/>
   <tile/>
   <tile/>
   <tile/>
   <tile/>
   <tile/>
   <tile/>
   <tile/>
   <tile/>
   <tile/>
   <tile/>
   <tile/>
   <tile/>
   <tile/>
   <tile/>
   <tile/>
   <tile/>
   <tile/>
   <tile/>
   <tile/>
   <tile/>
   <tile/>
   <tile/>
   <tile/>
   <tile/>
   <tile/>
   <tile/>
   <tile/>
   <tile/>
   <tile/>
   <tile/>
   <tile/>
   <tile/>
   <tile/>
   <tile/>
   <tile/>
   <tile/>
   <tile/>
   <tile/>
   <tile/>
   <tile/>
   <tile/>
   <tile/>
   <tile/>
   <tile/>
   <tile/>
   <tile/>
   <tile/>
   <tile/>
   <tile/>
   <tile/>
   <tile/>
   <tile/>
   <tile/>
   <tile/>
   <tile/>
   <tile/>
   <tile/>
   <tile/>
   <tile/>
   <tile/>
   <tile/>
   <tile/>
   <tile/>
   <tile/>
   <tile/>
   <tile/>
   <tile/>
   <tile/>
   <tile/>
   <tile/>
   <tile/>
   <tile/>
   <tile/>
   <tile/>
   <tile/>
   <tile/>
   <tile/>
   <tile/>
   <tile/>
   <tile/>
   <tile/>
   <tile/>
   <tile/>
   <tile/>
   <tile/>
   <tile/>
   <tile/>
   <tile/>
   <tile/>
   <tile/>
   <tile/>
   <tile/>
   <tile/>
   <tile/>
   <tile/>
   <tile/>
   <tile/>
   <tile/>
   <tile/>
   <tile/>
   <tile/>
   <tile/>
   <tile/>
   <tile/>
   <tile/>
   <tile/>
   <tile/>
   <tile/>
   <tile/>
   <tile/>
   <tile/>
   <tile/>
   <tile/>
   <tile/>
   <tile/>
   <tile/>
   <tile/>
   <tile/>
   <tile/>
   <tile/>
   <tile/>
   <tile/>
   <tile/>
   <tile/>
   <tile/>
   <tile/>
   <tile/>
   <tile/>
   <tile/>
   <tile/>
   <tile/>
   <tile/>
   <tile/>
   <tile/>
   <tile/>
   <tile/>
   <tile/>
   <tile/>
   <tile/>
   <tile/>
   <tile/>
   <tile/>
   <tile/>
   <tile/>
   <tile/>
   <tile/>
   <tile/>
   <tile/>
   <tile/>
   <tile/>
   <tile/>
   <tile/>
   <tile/>
   <tile/>
   <tile/>
   <tile/>
   <tile/>
   <tile/>
   <tile/>
   <tile/>
   <tile/>
   <tile/>
   <tile/>
   <tile/>
   <tile/>
   <tile/>
   <tile/>
   <tile/>
   <tile/>
   <tile/>
   <tile/>
   <tile/>
   <tile/>
   <tile/>
   <tile/>
   <tile/>
   <tile/>
   <tile/>
   <tile/>
   <tile/>
   <tile/>
   <tile/>
   <tile/>
   <tile/>
   <tile/>
   <tile/>
   <tile/>
   <tile/>
   <tile/>
   <tile/>
   <tile/>
   <tile/>
   <tile/>
   <tile/>
   <tile/>
   <tile/>
   <tile/>
   <tile/>
   <tile/>
   <tile/>
   <tile/>
   <tile/>
   <tile/>
   <tile/>
   <tile/>
   <tile/>
   <tile/>
   <tile/>
   <tile/>
   <tile/>
   <tile/>
   <tile/>
   <tile/>
   <tile/>
   <tile/>
   <tile/>
   <tile/>
   <tile/>
   <tile/>
   <tile/>
   <tile/>
   <tile/>
   <tile/>
   <tile/>
   <tile/>
   <tile/>
   <tile/>
   <tile/>
   <tile/>
   <tile/>
   <tile/>
   <tile/>
   <tile/>
   <tile/>
   <tile/>
   <tile/>
   <tile/>
   <tile/>
   <tile/>
   <tile/>
   <tile/>
   <tile/>
   <tile/>
   <tile/>
   <tile/>
   <tile/>
   <tile/>
   <tile/>
   <tile/>
   <tile/>
   <tile/>
   <tile/>
   <tile/>
   <tile/>
   <tile/>
   <tile/>
   <tile/>
   <tile/>
   <tile/>
   <tile/>
   <tile/>
   <tile/>
   <tile/>
   <tile/>
   <tile/>
   <tile/>
   <tile/>
   <tile/>
   <tile/>
   <tile/>
   <tile/>
   <tile/>
   <tile/>
   <tile/>
   <tile/>
   <tile/>
   <tile/>
   <tile/>
   <tile/>
   <tile/>
   <tile/>
   <tile/>
   <tile/>
   <tile/>
   <tile/>
   <tile/>
   <tile/>
   <tile/>
   <tile/>
   <tile/>
   <tile/>
   <tile/>
   <tile/>
   <tile/>
   <tile/>
   <tile/>
   <tile/>
   <tile/>
   <tile/>
   <tile/>
   <tile/>
   <tile/>
   <tile/>
   <tile/>
   <tile/>
   <tile/>
   <tile/>
   <tile/>
   <tile/>
   <tile/>
   <tile/>
   <tile/>
   <tile/>
   <tile/>
   <tile/>
   <tile/>
   <tile/>
   <tile/>
   <tile/>
   <tile/>
   <tile/>
   <tile/>
   <tile/>
   <tile/>
   <tile/>
   <tile/>
   <tile/>
   <tile/>
   <tile/>
   <tile/>
   <tile/>
   <tile/>
   <tile/>
   <tile/>
   <tile/>
   <tile/>
   <tile/>
   <tile/>
   <tile/>
   <tile/>
   <tile/>
   <tile/>
   <tile/>
   <tile/>
   <tile/>
   <tile/>
   <tile/>
   <tile/>
   <tile/>
   <tile/>
   <tile/>
   <tile/>
   <tile/>
   <tile/>
   <tile/>
   <tile/>
   <tile/>
   <tile/>
   <tile/>
   <tile/>
   <tile/>
   <tile/>
   <tile/>
   <tile/>
   <tile/>
   <tile/>
   <tile/>
   <tile/>
   <tile/>
   <tile/>
   <tile/>
   <tile/>
   <tile/>
   <tile/>
   <tile/>
   <tile/>
   <tile/>
   <tile/>
   <tile/>
   <tile/>
   <tile/>
   <tile/>
   <tile/>
   <tile/>
   <tile/>
   <tile/>
   <tile/>
   <tile/>
   <tile/>
   <tile/>
   <tile/>
   <tile/>
   <tile/>
   <tile/>
   <tile/>
   <tile/>
   <tile/>
   <tile/>
   <tile/>
   <tile/>
   <tile/>
   <tile/>
   <tile/>
   <tile/>
   <tile/>
   <tile/>
   <tile/>
   <tile/>
   <tile/>
   <tile/>
   <tile/>
   <tile/>
   <tile/>
   <tile/>
   <tile/>
   <tile/>
   <tile/>
   <tile/>
   <tile/>
   <tile/>
   <tile/>
   <tile/>
   <tile/>
   <tile/>
   <tile/>
   <tile/>
   <tile/>
   <tile/>
   <tile/>
   <tile/>
   <tile/>
   <tile/>
   <tile/>
   <tile/>
   <tile/>
   <tile/>
   <tile/>
   <tile/>
   <tile/>
   <tile/>
   <tile/>
   <tile/>
   <tile/>
   <tile/>
   <tile/>
   <tile/>
   <tile/>
   <tile/>
   <tile/>
   <tile/>
   <tile/>
   <tile/>
   <tile/>
   <tile/>
   <tile/>
   <tile/>
   <tile/>
   <tile/>
   <tile/>
   <tile/>
   <tile/>
   <tile/>
   <tile/>
   <tile/>
   <tile/>
   <tile/>
   <tile/>
   <tile/>
   <tile/>
   <tile/>
   <tile/>
   <tile/>
   <tile/>
   <tile/>
   <tile/>
   <tile/>
   <tile/>
   <tile/>
   <tile/>
   <tile/>
   <tile/>
   <tile/>
   <tile/>
   <tile/>
   <tile/>
   <tile/>
   <tile/>
   <tile/>
   <tile/>
   <tile/>
   <tile/>
   <tile/>
   <tile/>
   <tile/>
   <tile/>
   <tile/>
   <tile/>
   <tile/>
   <tile/>
   <tile/>
   <tile/>
   <tile/>
   <tile/>
   <tile/>
   <tile/>
   <tile/>
   <tile/>
   <tile/>
   <tile/>
   <tile/>
   <tile/>
   <tile/>
   <tile/>
   <tile/>
   <tile/>
   <tile/>
   <tile/>
   <tile/>
   <tile/>
   <tile/>
   <tile/>
   <tile/>
   <tile/>
   <tile/>
   <tile/>
   <tile/>
   <tile/>
   <tile/>
   <tile/>
   <tile/>
   <tile/>
   <tile/>
   <tile/>
   <tile/>
   <tile/>
   <tile/>
   <tile/>
   <tile/>
   <tile/>
   <tile/>
   <tile/>
   <tile/>
   <tile/>
   <tile/>
   <tile/>
   <tile/>
   <tile/>
   <tile/>
   <tile/>
   <tile/>
   <tile/>
   <tile/>
   <tile/>
   <tile/>
   <tile/>
   <tile/>
   <tile/>
   <tile/>
   <tile/>
   <tile/>
   <tile/>
   <tile/>
   <tile/>
   <tile/>
   <tile/>
   <tile/>
   <tile/>
   <tile/>
   <tile/>
   <tile/>
   <tile/>
   <tile/>
   <tile/>
   <tile/>
   <tile/>
   <tile/>
   <tile/>
   <tile/>
   <tile/>
   <tile/>
   <tile/>
   <tile/>
   <tile/>
   <tile/>
   <tile/>
   <tile/>
   <tile/>
   <tile/>
   <tile/>
   <tile/>
   <tile/>
   <tile/>
   <tile/>
   <tile/>
   <tile/>
   <tile/>
   <tile/>
   <tile/>
   <tile/>
   <tile/>
   <tile/>
   <tile/>
   <tile/>
   <tile/>
   <tile/>
   <tile/>
   <tile/>
   <tile/>
   <tile/>
   <tile/>
   <tile/>
   <tile/>
   <tile/>
   <tile/>
   <tile/>
   <tile/>
   <tile/>
   <tile/>
   <tile/>
   <tile/>
   <tile/>
   <tile/>
   <tile/>
   <tile/>
   <tile/>
   <tile/>
   <tile/>
   <tile/>
   <tile/>
   <tile/>
   <tile/>
   <tile/>
   <tile/>
   <tile/>
   <tile/>
   <tile/>
   <tile/>
   <tile gid="259"/>
   <tile/>
   <tile/>
   <tile/>
   <tile/>
   <tile/>
   <tile/>
   <tile/>
   <tile/>
   <tile/>
   <tile/>
   <tile/>
   <tile/>
   <tile/>
   <tile/>
   <tile/>
   <tile/>
   <tile/>
   <tile/>
   <tile/>
   <tile/>
   <tile/>
   <tile/>
   <tile/>
   <tile/>
   <tile/>
   <tile/>
   <tile/>
   <tile/>
   <tile/>
   <tile gid="259"/>
   <tile/>
   <tile/>
   <tile/>
   <tile/>
   <tile/>
   <tile/>
   <tile/>
   <tile/>
   <tile/>
   <tile/>
   <tile/>
   <tile/>
   <tile/>
   <tile/>
   <tile/>
   <tile/>
   <tile/>
   <tile/>
   <tile/>
   <tile/>
   <tile/>
   <tile/>
   <tile/>
   <tile/>
   <tile/>
   <tile/>
   <tile/>
   <tile/>
   <tile/>
  </data>
 </layer>
 <layer id="6" name="Middleground" width="60" height="68">
  <properties>
   <property name="Draw" type="bool" value="true"/>
  </properties>
  <data>
   <tile/>
   <tile/>
   <tile/>
   <tile/>
   <tile/>
   <tile/>
   <tile/>
   <tile/>
   <tile/>
   <tile/>
   <tile/>
   <tile/>
   <tile/>
   <tile/>
   <tile/>
   <tile/>
   <tile/>
   <tile/>
   <tile/>
   <tile/>
   <tile/>
   <tile/>
   <tile/>
   <tile/>
   <tile/>
   <tile/>
   <tile/>
   <tile/>
   <tile/>
   <tile/>
   <tile/>
   <tile/>
   <tile/>
   <tile/>
   <tile/>
   <tile/>
   <tile/>
   <tile/>
   <tile/>
   <tile/>
   <tile/>
   <tile/>
   <tile/>
   <tile/>
   <tile/>
   <tile/>
   <tile/>
   <tile/>
   <tile/>
   <tile/>
   <tile/>
   <tile/>
   <tile/>
   <tile/>
   <tile/>
   <tile/>
   <tile/>
   <tile/>
   <tile/>
   <tile/>
   <tile/>
   <tile/>
   <tile/>
   <tile/>
   <tile/>
   <tile/>
   <tile/>
   <tile/>
   <tile/>
   <tile/>
   <tile/>
   <tile/>
   <tile/>
   <tile/>
   <tile/>
   <tile/>
   <tile/>
   <tile/>
   <tile/>
   <tile/>
   <tile/>
   <tile/>
   <tile/>
   <tile/>
   <tile/>
   <tile/>
   <tile/>
   <tile/>
   <tile/>
   <tile/>
   <tile/>
   <tile/>
   <tile/>
   <tile/>
   <tile/>
   <tile/>
   <tile/>
   <tile/>
   <tile/>
   <tile/>
   <tile/>
   <tile/>
   <tile/>
   <tile/>
   <tile/>
   <tile/>
   <tile/>
   <tile/>
   <tile/>
   <tile/>
   <tile/>
   <tile/>
   <tile/>
   <tile/>
   <tile/>
   <tile/>
   <tile/>
   <tile/>
   <tile/>
   <tile/>
   <tile/>
   <tile/>
   <tile/>
   <tile/>
   <tile/>
   <tile/>
   <tile/>
   <tile/>
   <tile/>
   <tile/>
   <tile/>
   <tile/>
   <tile/>
   <tile/>
   <tile/>
   <tile/>
   <tile/>
   <tile/>
   <tile/>
   <tile/>
   <tile/>
   <tile/>
   <tile/>
   <tile/>
   <tile/>
   <tile/>
   <tile/>
   <tile/>
   <tile/>
   <tile/>
   <tile/>
   <tile/>
   <tile/>
   <tile/>
   <tile/>
   <tile/>
   <tile/>
   <tile/>
   <tile/>
   <tile/>
   <tile/>
   <tile/>
   <tile/>
   <tile/>
   <tile/>
   <tile/>
   <tile/>
   <tile/>
   <tile/>
   <tile/>
   <tile/>
   <tile/>
   <tile/>
   <tile/>
   <tile/>
   <tile/>
   <tile/>
   <tile/>
   <tile/>
   <tile/>
   <tile/>
   <tile/>
   <tile/>
   <tile/>
   <tile/>
   <tile/>
   <tile/>
   <tile/>
   <tile/>
   <tile/>
   <tile/>
   <tile/>
   <tile/>
   <tile/>
   <tile/>
   <tile/>
   <tile/>
   <tile/>
   <tile/>
   <tile/>
   <tile/>
   <tile/>
   <tile/>
   <tile/>
   <tile/>
   <tile/>
   <tile/>
   <tile/>
   <tile/>
   <tile/>
   <tile/>
   <tile/>
   <tile/>
   <tile/>
   <tile/>
   <tile/>
   <tile/>
   <tile/>
   <tile/>
   <tile/>
   <tile/>
   <tile/>
   <tile/>
   <tile/>
   <tile/>
   <tile/>
   <tile/>
   <tile/>
   <tile/>
   <tile/>
   <tile/>
   <tile/>
   <tile/>
   <tile/>
   <tile/>
   <tile/>
   <tile/>
   <tile/>
   <tile/>
   <tile/>
   <tile/>
   <tile/>
   <tile/>
   <tile/>
   <tile/>
   <tile/>
   <tile/>
   <tile/>
   <tile/>
   <tile/>
   <tile/>
   <tile/>
   <tile/>
   <tile/>
   <tile/>
   <tile/>
   <tile/>
   <tile/>
   <tile/>
   <tile/>
   <tile/>
   <tile/>
   <tile/>
   <tile/>
   <tile/>
   <tile/>
   <tile/>
   <tile/>
   <tile/>
   <tile/>
   <tile/>
   <tile/>
   <tile/>
   <tile/>
   <tile/>
   <tile/>
   <tile/>
   <tile/>
   <tile/>
   <tile/>
   <tile/>
   <tile/>
   <tile/>
   <tile/>
   <tile/>
   <tile/>
   <tile/>
   <tile/>
   <tile/>
   <tile/>
   <tile/>
   <tile/>
   <tile/>
   <tile/>
   <tile/>
   <tile/>
   <tile/>
   <tile/>
   <tile/>
   <tile/>
   <tile/>
   <tile/>
   <tile/>
   <tile/>
   <tile/>
   <tile/>
   <tile/>
   <tile/>
   <tile/>
   <tile/>
   <tile/>
   <tile/>
   <tile/>
   <tile/>
   <tile/>
   <tile/>
   <tile/>
   <tile/>
   <tile/>
   <tile/>
   <tile/>
   <tile/>
   <tile/>
   <tile/>
   <tile/>
   <tile/>
   <tile/>
   <tile/>
   <tile/>
   <tile/>
   <tile/>
   <tile/>
   <tile/>
   <tile/>
   <tile/>
   <tile/>
   <tile/>
   <tile/>
   <tile/>
   <tile/>
   <tile/>
   <tile/>
   <tile/>
   <tile/>
   <tile/>
   <tile/>
   <tile/>
   <tile/>
   <tile/>
   <tile/>
   <tile/>
   <tile/>
   <tile/>
   <tile/>
   <tile/>
   <tile/>
   <tile/>
   <tile/>
   <tile/>
   <tile/>
   <tile/>
   <tile/>
   <tile/>
   <tile/>
   <tile/>
   <tile/>
   <tile/>
   <tile/>
   <tile/>
   <tile/>
   <tile/>
   <tile/>
   <tile/>
   <tile/>
   <tile/>
   <tile/>
   <tile/>
   <tile/>
   <tile/>
   <tile/>
   <tile/>
   <tile/>
   <tile/>
   <tile/>
   <tile/>
   <tile/>
   <tile/>
   <tile/>
   <tile/>
   <tile/>
   <tile/>
   <tile/>
   <tile/>
   <tile/>
   <tile/>
   <tile/>
   <tile/>
   <tile/>
   <tile/>
   <tile/>
   <tile/>
   <tile/>
   <tile/>
   <tile/>
   <tile/>
   <tile/>
   <tile/>
   <tile/>
   <tile/>
   <tile/>
   <tile/>
   <tile/>
   <tile/>
   <tile/>
   <tile/>
   <tile/>
   <tile/>
   <tile/>
   <tile/>
   <tile/>
   <tile/>
   <tile/>
   <tile/>
   <tile/>
   <tile/>
   <tile/>
   <tile/>
   <tile/>
   <tile/>
   <tile/>
   <tile/>
   <tile/>
   <tile/>
   <tile/>
   <tile/>
   <tile/>
   <tile/>
   <tile/>
   <tile/>
   <tile/>
   <tile/>
   <tile/>
   <tile/>
   <tile/>
   <tile/>
   <tile/>
   <tile/>
   <tile/>
   <tile/>
   <tile/>
   <tile/>
   <tile/>
   <tile/>
   <tile/>
   <tile/>
   <tile/>
   <tile/>
   <tile/>
   <tile/>
   <tile/>
   <tile/>
   <tile/>
   <tile/>
   <tile/>
   <tile/>
   <tile/>
   <tile/>
   <tile/>
   <tile/>
   <tile/>
   <tile/>
   <tile/>
   <tile/>
   <tile/>
   <tile/>
   <tile/>
   <tile/>
   <tile/>
   <tile/>
   <tile/>
   <tile/>
   <tile/>
   <tile/>
   <tile/>
   <tile/>
   <tile/>
   <tile/>
   <tile/>
   <tile/>
   <tile/>
   <tile/>
   <tile/>
   <tile/>
   <tile/>
   <tile/>
   <tile/>
   <tile/>
   <tile/>
   <tile/>
   <tile/>
   <tile/>
   <tile/>
   <tile/>
   <tile/>
   <tile/>
   <tile/>
   <tile/>
   <tile/>
   <tile/>
   <tile/>
   <tile/>
   <tile/>
   <tile/>
   <tile/>
   <tile/>
   <tile/>
   <tile/>
   <tile/>
   <tile/>
   <tile/>
   <tile/>
   <tile/>
   <tile/>
   <tile/>
   <tile/>
   <tile/>
   <tile/>
   <tile/>
   <tile/>
   <tile/>
   <tile/>
   <tile/>
   <tile/>
   <tile/>
   <tile/>
   <tile/>
   <tile/>
   <tile/>
   <tile/>
   <tile/>
   <tile/>
   <tile/>
   <tile/>
   <tile/>
   <tile/>
   <tile/>
   <tile/>
   <tile/>
   <tile/>
   <tile/>
   <tile/>
   <tile/>
   <tile/>
   <tile/>
   <tile/>
   <tile/>
   <tile/>
   <tile/>
   <tile/>
   <tile/>
   <tile/>
   <tile/>
   <tile/>
   <tile/>
   <tile/>
   <tile/>
   <tile/>
   <tile/>
   <tile/>
   <tile/>
   <tile/>
   <tile/>
   <tile/>
   <tile/>
   <tile/>
   <tile/>
   <tile/>
   <tile/>
   <tile/>
   <tile/>
   <tile/>
   <tile/>
   <tile/>
   <tile/>
   <tile/>
   <tile/>
   <tile/>
   <tile/>
   <tile/>
   <tile/>
   <tile/>
   <tile/>
   <tile/>
   <tile/>
   <tile/>
   <tile/>
   <tile/>
   <tile/>
   <tile/>
   <tile/>
   <tile/>
   <tile/>
   <tile/>
   <tile/>
   <tile/>
   <tile/>
   <tile/>
   <tile/>
   <tile/>
   <tile/>
   <tile/>
   <tile/>
   <tile/>
   <tile/>
   <tile/>
   <tile/>
   <tile/>
   <tile/>
   <tile/>
   <tile/>
   <tile/>
   <tile/>
   <tile/>
   <tile/>
   <tile/>
   <tile/>
   <tile/>
   <tile/>
   <tile/>
   <tile/>
   <tile/>
   <tile/>
   <tile/>
   <tile/>
   <tile/>
   <tile/>
   <tile/>
   <tile/>
   <tile/>
   <tile/>
   <tile/>
   <tile/>
   <tile/>
   <tile/>
   <tile/>
   <tile/>
   <tile/>
   <tile/>
   <tile/>
   <tile/>
   <tile/>
   <tile/>
   <tile/>
   <tile/>
   <tile/>
   <tile/>
   <tile/>
   <tile/>
   <tile/>
   <tile/>
   <tile/>
   <tile gid="266"/>
   <tile/>
   <tile/>
   <tile/>
   <tile/>
   <tile/>
   <tile/>
   <tile/>
   <tile/>
   <tile/>
   <tile/>
   <tile/>
   <tile/>
   <tile/>
   <tile/>
   <tile/>
   <tile/>
   <tile/>
   <tile/>
   <tile/>
   <tile/>
   <tile/>
   <tile/>
   <tile/>
   <tile/>
   <tile/>
   <tile/>
   <tile/>
   <tile/>
   <tile/>
   <tile/>
   <tile/>
   <tile/>
   <tile/>
   <tile/>
   <tile/>
   <tile/>
   <tile/>
   <tile/>
   <tile/>
   <tile/>
   <tile/>
   <tile/>
   <tile/>
   <tile/>
   <tile/>
   <tile/>
   <tile/>
   <tile/>
   <tile/>
   <tile/>
   <tile/>
   <tile/>
   <tile/>
   <tile/>
   <tile/>
   <tile/>
   <tile/>
   <tile/>
   <tile/>
   <tile/>
   <tile/>
   <tile/>
   <tile/>
   <tile/>
   <tile/>
   <tile/>
   <tile/>
   <tile/>
   <tile/>
   <tile/>
   <tile/>
   <tile/>
   <tile/>
   <tile/>
   <tile/>
   <tile/>
   <tile/>
   <tile/>
   <tile/>
   <tile/>
   <tile/>
   <tile/>
   <tile/>
   <tile/>
   <tile/>
   <tile/>
   <tile/>
   <tile/>
   <tile/>
   <tile/>
   <tile/>
   <tile/>
   <tile/>
   <tile/>
   <tile/>
   <tile/>
   <tile/>
   <tile/>
   <tile/>
   <tile/>
   <tile/>
   <tile/>
   <tile/>
   <tile/>
   <tile/>
   <tile/>
   <tile/>
   <tile/>
   <tile/>
   <tile/>
   <tile/>
   <tile/>
   <tile/>
   <tile/>
   <tile/>
   <tile/>
   <tile/>
   <tile/>
   <tile/>
   <tile/>
   <tile/>
   <tile/>
   <tile/>
   <tile/>
   <tile/>
   <tile/>
   <tile/>
   <tile/>
   <tile/>
   <tile/>
   <tile/>
   <tile/>
   <tile/>
   <tile/>
   <tile/>
   <tile/>
   <tile/>
   <tile/>
   <tile/>
   <tile/>
   <tile/>
   <tile/>
   <tile/>
   <tile/>
   <tile/>
   <tile/>
   <tile/>
   <tile/>
   <tile/>
   <tile/>
   <tile/>
   <tile/>
   <tile/>
   <tile/>
   <tile/>
   <tile/>
   <tile/>
   <tile/>
   <tile/>
   <tile/>
   <tile/>
   <tile/>
   <tile/>
   <tile/>
   <tile/>
   <tile/>
   <tile/>
   <tile/>
   <tile/>
   <tile/>
   <tile/>
   <tile/>
   <tile/>
   <tile/>
   <tile/>
   <tile/>
   <tile/>
   <tile/>
   <tile/>
   <tile/>
   <tile/>
   <tile/>
   <tile/>
   <tile/>
   <tile/>
   <tile/>
   <tile/>
   <tile/>
   <tile/>
   <tile/>
   <tile/>
   <tile/>
   <tile/>
   <tile/>
   <tile/>
   <tile/>
   <tile/>
   <tile/>
   <tile/>
   <tile/>
   <tile/>
   <tile/>
   <tile/>
   <tile/>
   <tile/>
   <tile/>
   <tile/>
   <tile/>
   <tile/>
   <tile/>
   <tile/>
   <tile/>
   <tile/>
   <tile/>
   <tile/>
   <tile/>
   <tile/>
   <tile/>
   <tile/>
   <tile/>
   <tile/>
   <tile/>
   <tile/>
   <tile/>
   <tile/>
   <tile/>
   <tile/>
   <tile/>
   <tile/>
   <tile/>
   <tile/>
   <tile/>
   <tile/>
   <tile/>
   <tile/>
   <tile/>
   <tile/>
   <tile/>
   <tile/>
   <tile/>
   <tile/>
   <tile/>
   <tile/>
   <tile/>
   <tile/>
   <tile/>
   <tile/>
   <tile/>
   <tile/>
   <tile/>
   <tile/>
   <tile/>
   <tile/>
   <tile/>
   <tile/>
   <tile/>
   <tile/>
   <tile/>
   <tile/>
   <tile/>
   <tile/>
   <tile/>
   <tile/>
   <tile/>
   <tile/>
   <tile/>
   <tile/>
   <tile/>
   <tile/>
   <tile/>
   <tile/>
   <tile/>
   <tile/>
   <tile/>
   <tile/>
   <tile/>
   <tile/>
   <tile/>
   <tile/>
   <tile/>
   <tile/>
   <tile/>
   <tile/>
   <tile/>
   <tile/>
   <tile/>
   <tile/>
   <tile/>
   <tile/>
   <tile/>
   <tile/>
   <tile/>
   <tile/>
   <tile/>
   <tile/>
   <tile/>
   <tile/>
   <tile/>
   <tile/>
   <tile/>
   <tile/>
   <tile/>
   <tile/>
   <tile/>
   <tile/>
   <tile/>
   <tile/>
   <tile/>
   <tile/>
   <tile/>
   <tile/>
   <tile/>
   <tile/>
   <tile/>
   <tile/>
   <tile/>
   <tile/>
   <tile/>
   <tile/>
   <tile/>
   <tile/>
   <tile/>
   <tile/>
   <tile/>
   <tile/>
   <tile/>
   <tile/>
   <tile/>
   <tile/>
   <tile/>
   <tile/>
   <tile/>
   <tile/>
   <tile/>
   <tile/>
   <tile/>
   <tile/>
   <tile/>
   <tile/>
   <tile/>
   <tile/>
   <tile/>
   <tile/>
   <tile/>
   <tile/>
   <tile/>
   <tile/>
   <tile/>
   <tile/>
   <tile/>
   <tile/>
   <tile/>
   <tile/>
   <tile/>
   <tile/>
   <tile/>
   <tile/>
   <tile/>
   <tile/>
   <tile/>
   <tile/>
   <tile/>
   <tile/>
   <tile/>
   <tile/>
   <tile/>
   <tile/>
   <tile/>
   <tile/>
   <tile/>
   <tile/>
   <tile/>
   <tile/>
   <tile/>
   <tile/>
   <tile/>
   <tile/>
   <tile/>
   <tile/>
   <tile/>
   <tile/>
   <tile/>
   <tile/>
   <tile/>
   <tile/>
   <tile/>
   <tile/>
   <tile/>
   <tile/>
   <tile/>
   <tile/>
   <tile/>
   <tile/>
   <tile/>
   <tile/>
   <tile/>
   <tile/>
   <tile/>
   <tile/>
   <tile/>
   <tile/>
   <tile/>
   <tile/>
   <tile/>
   <tile/>
   <tile/>
   <tile/>
   <tile/>
   <tile/>
   <tile/>
   <tile/>
   <tile/>
   <tile/>
   <tile/>
   <tile/>
   <tile/>
   <tile/>
   <tile/>
   <tile/>
   <tile/>
   <tile/>
   <tile/>
   <tile/>
   <tile/>
   <tile/>
   <tile/>
   <tile/>
   <tile/>
   <tile/>
   <tile/>
   <tile/>
   <tile/>
   <tile/>
   <tile/>
   <tile/>
   <tile/>
   <tile/>
   <tile/>
   <tile/>
   <tile/>
   <tile/>
   <tile/>
   <tile/>
   <tile/>
   <tile/>
   <tile/>
   <tile/>
   <tile/>
   <tile/>
   <tile/>
   <tile/>
   <tile/>
   <tile/>
   <tile/>
   <tile/>
   <tile/>
   <tile/>
   <tile/>
   <tile/>
   <tile/>
   <tile/>
   <tile/>
   <tile/>
   <tile/>
   <tile/>
   <tile/>
   <tile/>
   <tile/>
   <tile/>
   <tile/>
   <tile/>
   <tile/>
   <tile/>
   <tile/>
   <tile/>
   <tile/>
   <tile/>
   <tile/>
   <tile/>
   <tile/>
   <tile/>
   <tile/>
   <tile/>
   <tile/>
   <tile/>
   <tile/>
   <tile/>
   <tile/>
   <tile/>
   <tile/>
   <tile/>
   <tile/>
   <tile/>
   <tile/>
   <tile/>
   <tile/>
   <tile/>
   <tile/>
   <tile/>
   <tile/>
   <tile/>
   <tile/>
   <tile/>
   <tile/>
   <tile/>
   <tile/>
   <tile/>
   <tile/>
   <tile/>
   <tile/>
   <tile/>
   <tile/>
   <tile/>
   <tile/>
   <tile/>
   <tile/>
   <tile/>
   <tile/>
   <tile/>
   <tile/>
   <tile/>
   <tile/>
   <tile/>
   <tile/>
   <tile/>
   <tile/>
   <tile/>
   <tile/>
   <tile/>
   <tile/>
   <tile/>
   <tile/>
   <tile/>
   <tile/>
   <tile/>
   <tile/>
   <tile/>
   <tile/>
   <tile/>
   <tile/>
   <tile/>
   <tile/>
   <tile/>
   <tile/>
   <tile/>
   <tile/>
   <tile/>
   <tile/>
   <tile/>
   <tile/>
   <tile/>
   <tile/>
   <tile/>
   <tile/>
   <tile/>
   <tile/>
   <tile/>
   <tile/>
   <tile/>
   <tile/>
   <tile/>
   <tile/>
   <tile/>
   <tile/>
   <tile/>
   <tile/>
   <tile gid="267"/>
   <tile/>
   <tile/>
   <tile/>
   <tile/>
   <tile/>
   <tile/>
   <tile/>
   <tile/>
   <tile/>
   <tile/>
   <tile/>
   <tile/>
   <tile/>
   <tile/>
   <tile/>
   <tile/>
   <tile/>
   <tile/>
   <tile/>
   <tile/>
   <tile/>
   <tile/>
   <tile/>
   <tile/>
   <tile/>
   <tile/>
   <tile/>
   <tile/>
   <tile/>
   <tile/>
   <tile/>
   <tile/>
   <tile/>
   <tile/>
   <tile/>
   <tile/>
   <tile/>
   <tile/>
   <tile/>
   <tile/>
   <tile/>
   <tile/>
   <tile/>
   <tile/>
   <tile/>
   <tile/>
   <tile/>
   <tile/>
   <tile/>
   <tile/>
   <tile/>
   <tile/>
   <tile/>
   <tile/>
   <tile/>
   <tile/>
   <tile/>
   <tile/>
   <tile/>
   <tile/>
   <tile/>
   <tile/>
   <tile/>
   <tile/>
   <tile/>
   <tile/>
   <tile/>
   <tile/>
   <tile/>
   <tile/>
   <tile/>
   <tile/>
   <tile/>
   <tile/>
   <tile/>
   <tile/>
   <tile/>
   <tile/>
   <tile/>
   <tile/>
   <tile/>
   <tile/>
   <tile/>
   <tile/>
   <tile/>
   <tile/>
   <tile/>
   <tile/>
   <tile/>
   <tile/>
   <tile/>
   <tile/>
   <tile/>
   <tile/>
   <tile/>
   <tile/>
   <tile/>
   <tile/>
   <tile/>
   <tile/>
   <tile/>
   <tile/>
   <tile/>
   <tile/>
   <tile/>
   <tile/>
   <tile/>
   <tile/>
   <tile/>
   <tile/>
   <tile/>
   <tile/>
   <tile/>
   <tile/>
   <tile/>
   <tile/>
   <tile/>
   <tile/>
   <tile/>
   <tile/>
   <tile/>
   <tile/>
   <tile/>
   <tile/>
   <tile/>
   <tile/>
   <tile/>
   <tile/>
   <tile/>
   <tile/>
   <tile/>
   <tile/>
   <tile/>
   <tile/>
   <tile/>
   <tile/>
   <tile/>
   <tile/>
   <tile/>
   <tile/>
   <tile/>
   <tile/>
   <tile/>
   <tile/>
   <tile/>
   <tile/>
   <tile/>
   <tile/>
   <tile/>
   <tile/>
   <tile/>
   <tile/>
   <tile/>
   <tile/>
   <tile/>
   <tile/>
   <tile/>
   <tile/>
   <tile/>
   <tile/>
   <tile/>
   <tile/>
   <tile/>
   <tile/>
   <tile/>
   <tile/>
   <tile/>
   <tile/>
   <tile/>
   <tile/>
   <tile/>
   <tile/>
   <tile/>
   <tile/>
   <tile/>
   <tile/>
   <tile/>
   <tile/>
   <tile/>
   <tile/>
   <tile/>
   <tile/>
   <tile/>
   <tile/>
   <tile/>
   <tile/>
   <tile/>
   <tile/>
   <tile/>
   <tile/>
   <tile/>
   <tile/>
   <tile/>
   <tile/>
   <tile/>
   <tile/>
   <tile/>
   <tile/>
   <tile/>
   <tile/>
   <tile/>
   <tile/>
   <tile/>
   <tile/>
   <tile/>
   <tile/>
   <tile/>
   <tile/>
   <tile/>
   <tile/>
   <tile/>
   <tile/>
   <tile/>
   <tile/>
   <tile/>
   <tile/>
   <tile/>
   <tile/>
   <tile/>
   <tile/>
   <tile/>
   <tile/>
   <tile/>
   <tile/>
   <tile/>
   <tile/>
   <tile/>
   <tile/>
   <tile/>
   <tile/>
   <tile/>
   <tile/>
   <tile/>
   <tile/>
   <tile/>
   <tile/>
   <tile/>
   <tile/>
   <tile/>
   <tile/>
   <tile/>
   <tile/>
   <tile/>
   <tile/>
   <tile/>
   <tile/>
   <tile/>
   <tile/>
   <tile/>
   <tile/>
   <tile/>
   <tile/>
   <tile/>
   <tile/>
   <tile/>
   <tile/>
   <tile/>
   <tile/>
   <tile/>
   <tile/>
   <tile/>
   <tile/>
   <tile/>
   <tile/>
   <tile/>
   <tile/>
   <tile/>
   <tile/>
   <tile/>
   <tile/>
   <tile/>
   <tile/>
   <tile/>
   <tile/>
   <tile/>
   <tile/>
   <tile/>
   <tile/>
   <tile/>
   <tile/>
   <tile/>
   <tile/>
   <tile/>
   <tile/>
   <tile/>
   <tile/>
   <tile/>
   <tile/>
   <tile/>
   <tile/>
   <tile/>
   <tile/>
   <tile/>
   <tile/>
   <tile/>
   <tile/>
   <tile/>
   <tile/>
   <tile/>
   <tile/>
   <tile/>
   <tile/>
   <tile/>
   <tile/>
   <tile/>
   <tile/>
   <tile/>
   <tile/>
   <tile/>
   <tile/>
   <tile/>
   <tile/>
   <tile/>
   <tile/>
   <tile/>
   <tile/>
   <tile/>
   <tile/>
   <tile/>
   <tile/>
   <tile/>
   <tile/>
   <tile/>
   <tile/>
   <tile/>
   <tile/>
   <tile/>
   <tile/>
   <tile/>
   <tile/>
   <tile/>
   <tile/>
   <tile/>
   <tile/>
   <tile/>
   <tile/>
   <tile/>
   <tile/>
   <tile/>
   <tile/>
   <tile/>
   <tile/>
   <tile/>
   <tile/>
   <tile/>
   <tile/>
   <tile/>
   <tile/>
   <tile/>
   <tile/>
   <tile/>
   <tile/>
   <tile/>
   <tile/>
   <tile/>
   <tile/>
   <tile/>
   <tile/>
   <tile/>
   <tile/>
   <tile/>
   <tile/>
   <tile/>
   <tile/>
   <tile/>
   <tile/>
   <tile/>
   <tile/>
   <tile/>
   <tile/>
   <tile gid="268"/>
   <tile/>
   <tile/>
   <tile/>
   <tile/>
   <tile/>
   <tile/>
   <tile/>
   <tile/>
   <tile/>
   <tile/>
   <tile/>
   <tile/>
   <tile/>
   <tile/>
   <tile/>
   <tile/>
   <tile/>
   <tile/>
   <tile/>
   <tile/>
   <tile/>
   <tile/>
   <tile/>
   <tile/>
   <tile/>
   <tile/>
   <tile/>
   <tile/>
   <tile/>
   <tile/>
   <tile/>
   <tile/>
   <tile/>
   <tile/>
   <tile/>
   <tile/>
   <tile/>
   <tile/>
   <tile/>
   <tile/>
   <tile/>
   <tile/>
   <tile/>
   <tile/>
   <tile/>
   <tile/>
   <tile/>
   <tile/>
   <tile/>
   <tile/>
   <tile/>
   <tile/>
   <tile/>
   <tile/>
   <tile/>
   <tile/>
   <tile/>
   <tile/>
   <tile/>
   <tile/>
   <tile/>
   <tile/>
   <tile/>
   <tile/>
   <tile/>
   <tile/>
   <tile/>
   <tile/>
   <tile/>
   <tile/>
   <tile/>
   <tile/>
   <tile/>
   <tile/>
   <tile/>
   <tile/>
   <tile/>
   <tile/>
   <tile/>
   <tile/>
   <tile/>
   <tile/>
   <tile/>
   <tile/>
   <tile/>
   <tile/>
   <tile/>
   <tile/>
   <tile/>
   <tile/>
   <tile/>
   <tile/>
   <tile/>
   <tile/>
   <tile/>
   <tile/>
   <tile/>
   <tile/>
   <tile/>
   <tile/>
   <tile/>
   <tile/>
   <tile/>
   <tile/>
   <tile/>
   <tile/>
   <tile/>
   <tile/>
   <tile/>
   <tile/>
   <tile/>
   <tile/>
   <tile/>
   <tile/>
   <tile/>
   <tile/>
   <tile/>
   <tile/>
   <tile/>
   <tile/>
   <tile/>
   <tile/>
   <tile/>
   <tile/>
   <tile/>
   <tile/>
   <tile/>
   <tile/>
   <tile/>
   <tile/>
   <tile/>
   <tile/>
   <tile/>
   <tile/>
   <tile/>
   <tile/>
   <tile/>
   <tile/>
   <tile/>
   <tile/>
   <tile/>
   <tile/>
   <tile/>
   <tile/>
   <tile/>
   <tile/>
   <tile/>
   <tile/>
   <tile/>
   <tile/>
   <tile/>
   <tile/>
   <tile/>
   <tile/>
   <tile/>
   <tile/>
   <tile/>
   <tile/>
   <tile/>
   <tile/>
   <tile/>
   <tile/>
   <tile/>
   <tile/>
   <tile/>
   <tile/>
   <tile/>
   <tile/>
   <tile/>
   <tile/>
   <tile/>
   <tile/>
   <tile/>
   <tile/>
   <tile/>
   <tile/>
   <tile/>
   <tile/>
   <tile/>
   <tile/>
   <tile/>
   <tile/>
   <tile/>
   <tile/>
   <tile/>
   <tile/>
   <tile/>
   <tile/>
   <tile/>
   <tile/>
   <tile/>
   <tile/>
   <tile/>
   <tile/>
   <tile/>
   <tile/>
   <tile/>
   <tile/>
   <tile/>
   <tile/>
   <tile/>
   <tile/>
   <tile/>
   <tile/>
   <tile/>
   <tile/>
   <tile/>
   <tile/>
   <tile/>
   <tile/>
   <tile/>
   <tile/>
   <tile/>
   <tile/>
   <tile/>
   <tile/>
   <tile/>
   <tile/>
   <tile/>
   <tile/>
   <tile/>
   <tile/>
   <tile/>
   <tile/>
   <tile/>
   <tile/>
   <tile/>
   <tile/>
   <tile/>
   <tile/>
   <tile/>
   <tile/>
   <tile/>
   <tile/>
   <tile/>
   <tile/>
   <tile/>
   <tile/>
   <tile/>
   <tile/>
   <tile/>
   <tile/>
   <tile/>
   <tile/>
   <tile/>
   <tile/>
   <tile/>
   <tile/>
   <tile/>
   <tile/>
   <tile/>
   <tile/>
   <tile/>
   <tile/>
   <tile/>
   <tile/>
   <tile/>
   <tile/>
   <tile/>
   <tile/>
   <tile/>
   <tile/>
   <tile/>
   <tile/>
   <tile/>
   <tile/>
   <tile/>
   <tile/>
   <tile/>
   <tile/>
   <tile/>
   <tile/>
   <tile/>
   <tile/>
   <tile/>
   <tile/>
   <tile/>
   <tile/>
   <tile/>
   <tile/>
   <tile/>
   <tile/>
   <tile/>
   <tile/>
   <tile/>
   <tile/>
   <tile/>
   <tile/>
   <tile/>
   <tile/>
   <tile/>
   <tile/>
   <tile/>
   <tile/>
   <tile/>
   <tile/>
   <tile/>
   <tile/>
   <tile/>
   <tile/>
   <tile/>
   <tile/>
   <tile/>
   <tile/>
   <tile/>
   <tile/>
   <tile/>
   <tile/>
   <tile/>
   <tile/>
   <tile/>
   <tile/>
   <tile/>
   <tile/>
   <tile/>
   <tile/>
   <tile/>
   <tile/>
   <tile/>
   <tile/>
   <tile/>
   <tile/>
   <tile/>
   <tile/>
   <tile/>
   <tile/>
   <tile/>
   <tile/>
   <tile/>
   <tile/>
   <tile/>
   <tile/>
   <tile/>
   <tile/>
   <tile/>
   <tile/>
   <tile/>
   <tile/>
   <tile/>
   <tile/>
   <tile/>
   <tile/>
   <tile/>
   <tile/>
   <tile/>
   <tile/>
   <tile/>
   <tile/>
   <tile/>
   <tile/>
   <tile/>
   <tile/>
   <tile/>
   <tile/>
   <tile/>
   <tile/>
   <tile/>
   <tile/>
   <tile/>
   <tile/>
   <tile/>
   <tile/>
   <tile/>
   <tile/>
   <tile/>
   <tile/>
   <tile/>
   <tile/>
   <tile/>
   <tile/>
   <tile/>
   <tile/>
   <tile/>
   <tile/>
   <tile/>
   <tile/>
   <tile/>
   <tile/>
   <tile/>
   <tile/>
   <tile/>
   <tile/>
   <tile/>
   <tile/>
   <tile/>
   <tile/>
   <tile/>
   <tile/>
   <tile/>
   <tile/>
   <tile/>
   <tile/>
   <tile/>
   <tile/>
   <tile/>
   <tile/>
   <tile/>
   <tile/>
   <tile/>
   <tile/>
   <tile/>
   <tile/>
   <tile/>
   <tile/>
   <tile/>
   <tile/>
   <tile/>
   <tile/>
   <tile/>
   <tile/>
   <tile/>
   <tile/>
   <tile/>
   <tile/>
   <tile/>
   <tile/>
   <tile/>
   <tile/>
   <tile/>
   <tile/>
   <tile/>
   <tile/>
   <tile/>
   <tile/>
   <tile/>
   <tile/>
   <tile/>
   <tile/>
   <tile/>
   <tile/>
   <tile/>
   <tile/>
   <tile/>
   <tile/>
   <tile/>
   <tile/>
   <tile/>
   <tile/>
   <tile/>
   <tile/>
   <tile/>
   <tile/>
   <tile/>
   <tile/>
   <tile/>
   <tile/>
   <tile/>
   <tile/>
   <tile/>
   <tile/>
   <tile/>
   <tile/>
   <tile/>
   <tile/>
   <tile/>
   <tile/>
   <tile/>
   <tile/>
   <tile/>
   <tile/>
   <tile/>
   <tile/>
   <tile/>
   <tile/>
   <tile/>
   <tile/>
   <tile/>
   <tile/>
   <tile/>
   <tile/>
   <tile/>
   <tile/>
   <tile/>
   <tile/>
   <tile/>
   <tile/>
   <tile/>
   <tile/>
   <tile/>
   <tile/>
   <tile/>
   <tile/>
   <tile/>
   <tile/>
   <tile/>
   <tile/>
   <tile/>
   <tile/>
   <tile/>
   <tile/>
   <tile/>
   <tile/>
   <tile/>
   <tile/>
   <tile/>
   <tile/>
   <tile/>
   <tile/>
   <tile/>
   <tile/>
   <tile/>
   <tile/>
   <tile/>
   <tile/>
   <tile/>
   <tile/>
   <tile/>
   <tile/>
   <tile/>
   <tile/>
   <tile/>
   <tile/>
   <tile/>
   <tile/>
   <tile/>
   <tile/>
   <tile/>
   <tile/>
   <tile/>
   <tile/>
   <tile/>
   <tile/>
   <tile/>
   <tile/>
   <tile/>
   <tile/>
   <tile/>
   <tile/>
   <tile/>
   <tile/>
   <tile/>
   <tile/>
   <tile/>
   <tile/>
   <tile/>
   <tile/>
   <tile/>
   <tile/>
   <tile/>
   <tile/>
   <tile/>
   <tile/>
   <tile/>
   <tile/>
   <tile/>
   <tile/>
   <tile/>
   <tile/>
   <tile/>
   <tile/>
   <tile/>
   <tile/>
   <tile/>
   <tile/>
   <tile/>
   <tile/>
   <tile/>
   <tile/>
   <tile/>
   <tile/>
   <tile/>
   <tile/>
   <tile/>
   <tile/>
   <tile/>
   <tile/>
   <tile/>
   <tile/>
   <tile/>
   <tile/>
   <tile/>
   <tile/>
   <tile/>
   <tile/>
   <tile/>
   <tile/>
   <tile/>
   <tile/>
   <tile/>
   <tile/>
   <tile/>
   <tile/>
   <tile/>
   <tile/>
   <tile/>
   <tile/>
   <tile/>
   <tile/>
   <tile/>
   <tile/>
   <tile/>
   <tile/>
   <tile/>
   <tile/>
   <tile/>
   <tile/>
   <tile/>
   <tile/>
   <tile/>
   <tile/>
   <tile/>
   <tile/>
   <tile/>
   <tile/>
   <tile/>
   <tile/>
   <tile/>
   <tile/>
   <tile/>
   <tile/>
   <tile/>
   <tile/>
   <tile/>
   <tile/>
   <tile/>
   <tile/>
   <tile/>
   <tile/>
   <tile/>
   <tile/>
   <tile/>
   <tile/>
   <tile/>
   <tile/>
   <tile/>
   <tile/>
   <tile/>
   <tile/>
   <tile/>
   <tile/>
   <tile/>
   <tile/>
   <tile/>
   <tile/>
   <tile/>
   <tile/>
   <tile/>
   <tile/>
   <tile/>
   <tile/>
   <tile/>
   <tile/>
   <tile/>
   <tile/>
   <tile/>
   <tile/>
   <tile/>
   <tile/>
   <tile/>
   <tile/>
   <tile/>
   <tile/>
   <tile/>
   <tile/>
   <tile/>
   <tile/>
   <tile/>
   <tile/>
   <tile/>
   <tile/>
   <tile/>
   <tile/>
   <tile/>
   <tile/>
   <tile/>
   <tile/>
   <tile/>
   <tile/>
   <tile/>
   <tile/>
   <tile/>
   <tile/>
   <tile/>
   <tile/>
   <tile/>
   <tile/>
   <tile/>
   <tile/>
   <tile/>
   <tile/>
   <tile/>
   <tile/>
   <tile/>
   <tile/>
   <tile/>
   <tile/>
   <tile/>
   <tile/>
   <tile/>
   <tile/>
   <tile/>
   <tile/>
   <tile/>
   <tile/>
   <tile/>
   <tile/>
   <tile/>
   <tile/>
   <tile/>
   <tile/>
   <tile/>
   <tile/>
   <tile/>
   <tile/>
   <tile/>
   <tile/>
   <tile/>
   <tile/>
   <tile/>
   <tile/>
   <tile/>
   <tile/>
   <tile/>
   <tile/>
   <tile/>
   <tile/>
   <tile/>
   <tile/>
   <tile/>
   <tile/>
   <tile/>
   <tile/>
   <tile/>
   <tile/>
   <tile/>
   <tile/>
   <tile/>
   <tile/>
   <tile/>
   <tile/>
   <tile/>
   <tile/>
   <tile/>
   <tile/>
   <tile/>
   <tile/>
   <tile/>
   <tile/>
   <tile/>
   <tile/>
   <tile/>
   <tile/>
   <tile/>
   <tile/>
   <tile/>
   <tile/>
   <tile/>
   <tile/>
   <tile/>
   <tile/>
   <tile/>
   <tile/>
   <tile/>
   <tile/>
   <tile/>
   <tile/>
   <tile/>
   <tile/>
   <tile/>
   <tile/>
   <tile/>
   <tile/>
   <tile/>
   <tile/>
   <tile/>
   <tile/>
   <tile/>
   <tile/>
   <tile/>
   <tile/>
   <tile/>
   <tile/>
   <tile/>
   <tile/>
   <tile/>
   <tile/>
   <tile/>
   <tile/>
   <tile/>
   <tile/>
   <tile/>
   <tile/>
   <tile/>
   <tile/>
   <tile/>
   <tile/>
   <tile/>
   <tile/>
   <tile/>
   <tile/>
   <tile/>
   <tile/>
   <tile/>
   <tile/>
   <tile/>
   <tile/>
   <tile/>
   <tile/>
   <tile/>
   <tile/>
   <tile/>
   <tile/>
   <tile/>
   <tile/>
   <tile/>
   <tile/>
   <tile/>
   <tile/>
   <tile/>
   <tile/>
   <tile/>
   <tile/>
   <tile/>
   <tile/>
   <tile/>
   <tile/>
   <tile/>
   <tile/>
   <tile/>
   <tile/>
   <tile/>
   <tile/>
   <tile/>
   <tile/>
   <tile/>
   <tile/>
   <tile/>
   <tile/>
   <tile/>
   <tile/>
   <tile/>
   <tile/>
   <tile/>
   <tile/>
   <tile/>
   <tile/>
   <tile/>
   <tile/>
   <tile/>
   <tile/>
   <tile/>
   <tile/>
   <tile/>
   <tile/>
   <tile/>
   <tile/>
   <tile/>
   <tile/>
   <tile/>
   <tile/>
   <tile/>
   <tile/>
   <tile/>
   <tile/>
   <tile/>
   <tile/>
   <tile/>
   <tile/>
   <tile/>
   <tile/>
   <tile/>
   <tile/>
   <tile/>
   <tile/>
   <tile/>
   <tile/>
   <tile/>
   <tile/>
   <tile/>
   <tile/>
   <tile/>
   <tile/>
   <tile/>
   <tile/>
   <tile/>
   <tile/>
   <tile/>
   <tile/>
   <tile/>
   <tile/>
   <tile/>
   <tile/>
   <tile/>
   <tile/>
   <tile/>
   <tile/>
   <tile/>
   <tile/>
   <tile/>
   <tile/>
   <tile/>
   <tile/>
   <tile/>
   <tile/>
   <tile/>
   <tile/>
   <tile/>
   <tile/>
   <tile/>
   <tile/>
   <tile/>
   <tile/>
   <tile/>
   <tile/>
   <tile/>
   <tile/>
   <tile/>
   <tile/>
   <tile/>
   <tile/>
   <tile/>
   <tile/>
   <tile/>
   <tile/>
   <tile/>
   <tile/>
   <tile/>
   <tile/>
   <tile/>
   <tile/>
   <tile/>
   <tile/>
   <tile/>
   <tile/>
   <tile/>
   <tile/>
   <tile/>
   <tile/>
   <tile/>
   <tile/>
   <tile/>
   <tile/>
   <tile/>
   <tile/>
   <tile/>
   <tile/>
   <tile/>
   <tile/>
   <tile/>
   <tile/>
   <tile/>
   <tile/>
   <tile/>
   <tile/>
   <tile/>
   <tile/>
   <tile/>
   <tile/>
   <tile/>
   <tile/>
   <tile/>
   <tile/>
   <tile/>
   <tile/>
   <tile/>
   <tile/>
   <tile/>
   <tile/>
   <tile/>
   <tile/>
   <tile/>
   <tile/>
   <tile/>
   <tile/>
   <tile/>
   <tile/>
   <tile/>
   <tile/>
   <tile/>
   <tile/>
   <tile/>
   <tile/>
   <tile/>
   <tile/>
   <tile/>
   <tile/>
   <tile/>
   <tile/>
   <tile/>
   <tile/>
   <tile/>
   <tile/>
   <tile/>
   <tile/>
   <tile/>
   <tile/>
   <tile/>
   <tile/>
   <tile/>
   <tile/>
   <tile/>
   <tile/>
   <tile/>
   <tile/>
   <tile/>
   <tile/>
   <tile/>
   <tile/>
   <tile/>
   <tile/>
   <tile/>
   <tile/>
   <tile/>
   <tile/>
   <tile/>
   <tile/>
   <tile/>
   <tile/>
   <tile/>
   <tile/>
   <tile/>
   <tile/>
   <tile/>
   <tile/>
   <tile/>
   <tile/>
   <tile/>
   <tile/>
   <tile/>
   <tile/>
   <tile/>
   <tile/>
   <tile/>
   <tile/>
   <tile/>
   <tile/>
   <tile/>
   <tile/>
   <tile/>
   <tile/>
   <tile/>
   <tile/>
   <tile/>
   <tile/>
   <tile/>
   <tile/>
   <tile/>
   <tile/>
   <tile/>
   <tile/>
   <tile/>
   <tile/>
   <tile/>
   <tile/>
   <tile/>
   <tile/>
   <tile/>
   <tile/>
   <tile/>
   <tile/>
   <tile/>
   <tile/>
   <tile/>
   <tile/>
   <tile/>
   <tile/>
   <tile/>
   <tile/>
   <tile/>
   <tile/>
   <tile/>
   <tile/>
   <tile/>
   <tile/>
   <tile/>
   <tile/>
   <tile/>
   <tile/>
   <tile/>
   <tile/>
   <tile/>
   <tile/>
   <tile/>
   <tile/>
   <tile/>
   <tile/>
   <tile/>
   <tile/>
   <tile/>
   <tile/>
   <tile/>
   <tile/>
   <tile/>
   <tile/>
   <tile/>
   <tile/>
   <tile/>
   <tile/>
   <tile/>
   <tile/>
   <tile/>
   <tile/>
   <tile/>
   <tile/>
   <tile/>
   <tile/>
   <tile/>
   <tile/>
   <tile/>
   <tile/>
   <tile/>
   <tile/>
   <tile/>
   <tile/>
   <tile/>
   <tile/>
   <tile/>
   <tile/>
   <tile/>
   <tile/>
   <tile/>
   <tile/>
   <tile/>
   <tile/>
   <tile/>
   <tile/>
   <tile/>
   <tile/>
   <tile/>
   <tile/>
   <tile/>
   <tile/>
   <tile/>
   <tile/>
   <tile/>
   <tile/>
   <tile/>
   <tile/>
   <tile/>
   <tile/>
   <tile/>
   <tile/>
   <tile/>
   <tile/>
   <tile/>
   <tile/>
   <tile/>
   <tile/>
   <tile/>
   <tile/>
   <tile/>
   <tile/>
   <tile/>
   <tile/>
   <tile/>
   <tile/>
   <tile/>
   <tile/>
   <tile/>
   <tile/>
   <tile/>
   <tile/>
   <tile/>
   <tile/>
   <tile/>
   <tile/>
   <tile/>
   <tile/>
   <tile/>
   <tile/>
   <tile/>
   <tile/>
   <tile/>
   <tile/>
   <tile/>
   <tile/>
   <tile/>
   <tile/>
   <tile/>
   <tile/>
   <tile/>
   <tile/>
   <tile/>
   <tile/>
   <tile/>
   <tile/>
   <tile/>
   <tile/>
   <tile/>
   <tile/>
   <tile/>
   <tile/>
   <tile/>
   <tile/>
   <tile/>
   <tile/>
   <tile/>
   <tile/>
   <tile/>
   <tile/>
   <tile/>
   <tile/>
   <tile/>
   <tile/>
   <tile/>
   <tile/>
   <tile/>
   <tile/>
   <tile/>
   <tile/>
   <tile/>
   <tile/>
   <tile/>
   <tile/>
   <tile/>
   <tile/>
   <tile/>
   <tile/>
   <tile/>
   <tile/>
   <tile/>
   <tile/>
   <tile/>
   <tile/>
   <tile/>
   <tile/>
   <tile/>
   <tile/>
   <tile/>
   <tile/>
   <tile/>
   <tile/>
   <tile/>
   <tile/>
   <tile/>
   <tile/>
   <tile/>
   <tile/>
   <tile/>
   <tile/>
   <tile/>
   <tile/>
   <tile/>
   <tile/>
   <tile/>
   <tile/>
   <tile/>
   <tile/>
   <tile/>
   <tile/>
   <tile/>
   <tile/>
   <tile/>
   <tile/>
   <tile/>
   <tile/>
   <tile/>
   <tile/>
   <tile/>
   <tile/>
   <tile/>
   <tile/>
   <tile/>
   <tile/>
   <tile/>
   <tile/>
   <tile/>
   <tile/>
   <tile/>
   <tile/>
   <tile/>
   <tile/>
   <tile/>
   <tile/>
   <tile/>
   <tile/>
   <tile/>
   <tile/>
   <tile/>
   <tile/>
   <tile/>
   <tile/>
   <tile/>
   <tile/>
   <tile/>
   <tile/>
   <tile/>
   <tile/>
   <tile/>
   <tile/>
   <tile/>
   <tile/>
   <tile/>
   <tile/>
   <tile/>
   <tile/>
   <tile/>
   <tile/>
   <tile/>
   <tile/>
   <tile/>
   <tile/>
   <tile/>
   <tile/>
   <tile/>
   <tile/>
   <tile/>
   <tile/>
   <tile/>
   <tile/>
   <tile/>
   <tile/>
   <tile/>
   <tile/>
   <tile/>
   <tile/>
   <tile/>
   <tile/>
   <tile/>
   <tile/>
   <tile/>
   <tile/>
   <tile/>
   <tile/>
   <tile/>
   <tile/>
   <tile/>
   <tile/>
   <tile/>
   <tile/>
   <tile/>
   <tile/>
   <tile/>
   <tile/>
   <tile/>
   <tile/>
   <tile/>
   <tile/>
   <tile/>
   <tile/>
   <tile/>
   <tile/>
   <tile/>
   <tile/>
   <tile/>
   <tile/>
   <tile/>
   <tile/>
   <tile/>
   <tile/>
   <tile/>
   <tile/>
   <tile/>
   <tile/>
   <tile/>
   <tile/>
   <tile/>
   <tile/>
   <tile/>
   <tile/>
   <tile/>
   <tile/>
   <tile/>
   <tile/>
   <tile/>
   <tile/>
   <tile/>
   <tile/>
   <tile/>
   <tile/>
   <tile/>
   <tile/>
   <tile/>
   <tile/>
   <tile/>
   <tile/>
   <tile/>
   <tile/>
   <tile/>
   <tile/>
   <tile/>
   <tile/>
   <tile/>
   <tile/>
   <tile/>
   <tile/>
   <tile/>
   <tile/>
   <tile/>
   <tile/>
   <tile/>
   <tile/>
   <tile/>
   <tile/>
   <tile/>
   <tile/>
   <tile/>
   <tile/>
   <tile/>
   <tile/>
   <tile/>
   <tile/>
   <tile/>
   <tile/>
   <tile/>
   <tile/>
   <tile/>
   <tile/>
   <tile/>
   <tile/>
   <tile/>
   <tile/>
   <tile/>
   <tile/>
   <tile/>
   <tile/>
   <tile/>
   <tile/>
   <tile/>
   <tile/>
   <tile/>
   <tile/>
   <tile/>
   <tile/>
   <tile/>
   <tile/>
   <tile/>
   <tile/>
   <tile/>
   <tile/>
   <tile/>
   <tile/>
   <tile/>
   <tile/>
   <tile/>
   <tile/>
   <tile/>
   <tile/>
   <tile/>
   <tile/>
   <tile/>
   <tile/>
   <tile/>
   <tile/>
   <tile/>
   <tile/>
   <tile/>
   <tile/>
   <tile/>
   <tile/>
   <tile/>
   <tile/>
   <tile/>
   <tile/>
   <tile/>
   <tile/>
   <tile/>
   <tile/>
   <tile/>
   <tile/>
   <tile/>
   <tile/>
   <tile/>
   <tile/>
   <tile/>
   <tile/>
   <tile/>
   <tile/>
   <tile/>
   <tile/>
   <tile/>
   <tile/>
   <tile/>
   <tile/>
   <tile/>
   <tile/>
   <tile/>
   <tile/>
   <tile/>
   <tile/>
   <tile/>
   <tile/>
   <tile/>
   <tile/>
   <tile/>
   <tile/>
   <tile/>
   <tile/>
   <tile/>
   <tile/>
   <tile/>
   <tile/>
   <tile/>
   <tile/>
   <tile/>
   <tile/>
   <tile/>
   <tile/>
   <tile gid="269"/>
   <tile/>
   <tile/>
   <tile/>
   <tile/>
   <tile/>
   <tile/>
   <tile/>
   <tile/>
   <tile/>
   <tile/>
   <tile/>
   <tile/>
   <tile/>
   <tile/>
   <tile/>
   <tile/>
   <tile/>
   <tile/>
   <tile/>
   <tile/>
   <tile/>
   <tile/>
   <tile/>
   <tile/>
   <tile/>
   <tile/>
   <tile/>
   <tile/>
   <tile/>
   <tile/>
   <tile/>
   <tile/>
   <tile/>
   <tile/>
   <tile/>
   <tile/>
   <tile/>
   <tile/>
   <tile/>
   <tile/>
   <tile/>
   <tile/>
   <tile/>
   <tile/>
   <tile/>
   <tile/>
   <tile/>
   <tile/>
   <tile/>
   <tile/>
   <tile/>
   <tile/>
   <tile/>
   <tile/>
   <tile/>
   <tile/>
   <tile/>
   <tile/>
   <tile/>
   <tile/>
   <tile/>
   <tile/>
   <tile/>
   <tile/>
   <tile/>
   <tile/>
   <tile/>
   <tile/>
   <tile/>
   <tile/>
   <tile/>
   <tile/>
   <tile/>
   <tile/>
   <tile/>
   <tile/>
   <tile/>
   <tile/>
   <tile/>
   <tile/>
   <tile/>
   <tile/>
   <tile/>
   <tile/>
   <tile/>
   <tile/>
   <tile/>
   <tile/>
   <tile/>
   <tile/>
   <tile/>
   <tile/>
   <tile/>
   <tile/>
   <tile/>
   <tile/>
   <tile/>
   <tile/>
   <tile/>
   <tile/>
   <tile/>
   <tile/>
   <tile/>
   <tile/>
   <tile/>
   <tile/>
   <tile/>
   <tile/>
   <tile/>
   <tile/>
   <tile/>
   <tile/>
   <tile/>
   <tile/>
   <tile/>
   <tile/>
   <tile/>
   <tile/>
   <tile/>
   <tile/>
   <tile/>
   <tile/>
   <tile/>
   <tile/>
   <tile/>
   <tile/>
   <tile/>
   <tile/>
   <tile/>
   <tile/>
   <tile/>
   <tile/>
   <tile/>
   <tile/>
   <tile/>
   <tile/>
   <tile/>
   <tile/>
   <tile/>
   <tile/>
   <tile/>
   <tile/>
   <tile/>
   <tile/>
   <tile/>
   <tile/>
   <tile/>
   <tile/>
   <tile/>
   <tile/>
   <tile/>
   <tile/>
   <tile/>
   <tile/>
   <tile/>
   <tile/>
   <tile/>
   <tile/>
   <tile/>
   <tile/>
   <tile/>
   <tile/>
   <tile/>
   <tile/>
   <tile/>
   <tile/>
   <tile/>
   <tile/>
   <tile/>
   <tile/>
   <tile/>
   <tile/>
   <tile/>
   <tile/>
   <tile/>
   <tile/>
   <tile/>
   <tile/>
   <tile/>
   <tile/>
   <tile/>
   <tile/>
   <tile/>
   <tile/>
   <tile/>
   <tile/>
   <tile/>
   <tile/>
   <tile/>
   <tile/>
   <tile/>
   <tile/>
   <tile/>
   <tile/>
   <tile/>
   <tile/>
   <tile gid="265"/>
   <tile/>
   <tile/>
   <tile/>
   <tile/>
   <tile/>
   <tile/>
   <tile/>
   <tile/>
   <tile/>
   <tile/>
   <tile/>
   <tile/>
   <tile/>
   <tile/>
   <tile/>
   <tile/>
   <tile/>
   <tile/>
   <tile/>
   <tile/>
   <tile/>
   <tile/>
   <tile/>
   <tile/>
   <tile/>
   <tile/>
   <tile/>
   <tile/>
   <tile/>
   <tile/>
   <tile/>
   <tile/>
   <tile/>
   <tile/>
   <tile/>
   <tile/>
   <tile/>
   <tile/>
   <tile/>
   <tile/>
   <tile/>
   <tile/>
   <tile/>
   <tile/>
   <tile/>
   <tile/>
   <tile/>
   <tile/>
   <tile/>
   <tile/>
   <tile/>
   <tile/>
   <tile/>
   <tile/>
   <tile/>
   <tile/>
   <tile/>
   <tile/>
   <tile/>
   <tile/>
   <tile/>
   <tile/>
   <tile/>
   <tile/>
   <tile/>
   <tile/>
   <tile/>
   <tile/>
   <tile/>
   <tile/>
   <tile/>
   <tile/>
   <tile/>
   <tile/>
   <tile/>
   <tile/>
   <tile/>
   <tile/>
   <tile/>
   <tile/>
   <tile/>
   <tile/>
   <tile/>
   <tile/>
   <tile/>
   <tile/>
   <tile/>
   <tile/>
   <tile/>
   <tile/>
   <tile/>
   <tile/>
   <tile/>
   <tile/>
   <tile/>
   <tile/>
   <tile/>
   <tile/>
   <tile/>
   <tile/>
   <tile/>
   <tile/>
   <tile/>
   <tile/>
   <tile/>
   <tile/>
   <tile/>
   <tile/>
   <tile/>
   <tile/>
   <tile/>
   <tile/>
   <tile/>
   <tile/>
   <tile/>
   <tile/>
   <tile/>
   <tile/>
   <tile/>
   <tile/>
   <tile/>
   <tile/>
   <tile/>
   <tile/>
   <tile/>
   <tile/>
   <tile/>
   <tile/>
   <tile/>
   <tile/>
   <tile/>
   <tile/>
   <tile/>
   <tile/>
   <tile/>
   <tile/>
   <tile/>
   <tile/>
   <tile/>
   <tile/>
   <tile/>
   <tile/>
   <tile/>
   <tile/>
   <tile/>
   <tile/>
   <tile/>
   <tile/>
   <tile/>
   <tile/>
   <tile/>
   <tile/>
   <tile/>
   <tile/>
   <tile/>
   <tile/>
   <tile/>
   <tile/>
   <tile/>
   <tile/>
   <tile/>
   <tile/>
   <tile/>
   <tile/>
   <tile/>
   <tile/>
   <tile/>
   <tile/>
   <tile/>
   <tile/>
   <tile/>
   <tile/>
   <tile/>
   <tile/>
   <tile/>
   <tile/>
   <tile/>
   <tile/>
   <tile/>
   <tile/>
   <tile/>
   <tile/>
   <tile/>
   <tile/>
   <tile/>
   <tile/>
   <tile/>
   <tile/>
   <tile/>
   <tile/>
   <tile/>
   <tile/>
   <tile/>
   <tile/>
   <tile/>
   <tile/>
   <tile/>
   <tile/>
   <tile/>
   <tile/>
   <tile/>
   <tile/>
   <tile/>
   <tile/>
   <tile/>
   <tile/>
   <tile/>
   <tile/>
   <tile/>
   <tile/>
   <tile/>
   <tile/>
   <tile/>
   <tile/>
   <tile/>
   <tile/>
   <tile/>
   <tile/>
   <tile/>
   <tile/>
   <tile/>
   <tile/>
   <tile/>
   <tile/>
   <tile/>
   <tile/>
   <tile/>
   <tile/>
   <tile/>
   <tile/>
   <tile/>
   <tile/>
   <tile/>
   <tile/>
   <tile/>
   <tile/>
   <tile/>
   <tile/>
   <tile/>
   <tile/>
   <tile/>
   <tile/>
   <tile/>
   <tile/>
   <tile/>
   <tile/>
   <tile/>
   <tile/>
   <tile/>
   <tile/>
   <tile/>
   <tile/>
   <tile/>
   <tile/>
   <tile/>
   <tile/>
   <tile/>
   <tile/>
   <tile/>
   <tile/>
   <tile/>
   <tile/>
   <tile/>
   <tile/>
   <tile/>
   <tile/>
   <tile/>
   <tile/>
   <tile/>
   <tile/>
   <tile/>
   <tile/>
   <tile/>
   <tile/>
   <tile/>
   <tile/>
   <tile/>
   <tile/>
   <tile/>
   <tile/>
   <tile/>
   <tile/>
   <tile/>
   <tile/>
   <tile/>
   <tile/>
   <tile/>
   <tile/>
   <tile/>
   <tile/>
   <tile/>
   <tile/>
   <tile/>
   <tile/>
   <tile/>
   <tile/>
   <tile/>
   <tile/>
   <tile/>
   <tile/>
   <tile/>
   <tile/>
   <tile/>
   <tile/>
   <tile/>
   <tile/>
   <tile/>
   <tile/>
   <tile/>
   <tile/>
   <tile/>
   <tile/>
   <tile/>
   <tile/>
   <tile/>
   <tile/>
   <tile/>
   <tile/>
   <tile/>
   <tile/>
   <tile/>
   <tile/>
   <tile/>
   <tile/>
   <tile/>
   <tile/>
   <tile/>
   <tile/>
   <tile/>
   <tile/>
   <tile/>
   <tile/>
   <tile/>
   <tile/>
   <tile/>
   <tile/>
   <tile/>
   <tile/>
   <tile/>
   <tile/>
   <tile/>
   <tile/>
   <tile/>
   <tile/>
   <tile/>
   <tile/>
   <tile/>
   <tile/>
   <tile/>
   <tile/>
   <tile/>
   <tile/>
   <tile/>
   <tile/>
   <tile/>
   <tile/>
   <tile/>
   <tile/>
   <tile/>
   <tile/>
   <tile/>
   <tile/>
   <tile/>
   <tile/>
   <tile/>
   <tile/>
   <tile/>
   <tile/>
   <tile/>
   <tile/>
   <tile/>
   <tile/>
   <tile/>
   <tile/>
   <tile/>
   <tile/>
   <tile/>
   <tile/>
   <tile/>
   <tile/>
   <tile/>
   <tile/>
   <tile/>
   <tile/>
   <tile/>
   <tile/>
   <tile/>
   <tile/>
   <tile/>
   <tile/>
   <tile/>
   <tile/>
   <tile/>
   <tile/>
   <tile/>
   <tile/>
   <tile/>
   <tile/>
   <tile/>
   <tile/>
   <tile/>
   <tile/>
   <tile/>
   <tile/>
   <tile/>
   <tile/>
   <tile/>
   <tile/>
   <tile/>
   <tile/>
   <tile/>
   <tile/>
   <tile/>
   <tile/>
   <tile/>
   <tile/>
   <tile/>
   <tile/>
   <tile/>
   <tile/>
   <tile/>
   <tile/>
   <tile/>
   <tile/>
   <tile/>
   <tile/>
   <tile/>
   <tile/>
   <tile/>
   <tile/>
   <tile/>
   <tile/>
   <tile/>
   <tile/>
   <tile/>
   <tile/>
   <tile/>
   <tile/>
   <tile/>
   <tile/>
   <tile/>
   <tile/>
   <tile/>
   <tile/>
   <tile/>
   <tile/>
   <tile/>
   <tile/>
   <tile/>
   <tile/>
   <tile/>
   <tile/>
   <tile/>
   <tile/>
   <tile/>
   <tile/>
   <tile/>
   <tile/>
   <tile/>
   <tile/>
   <tile/>
   <tile/>
   <tile/>
   <tile/>
   <tile/>
   <tile/>
   <tile/>
   <tile/>
   <tile/>
   <tile/>
   <tile/>
   <tile/>
   <tile/>
   <tile/>
   <tile/>
   <tile/>
   <tile/>
   <tile/>
   <tile/>
   <tile/>
   <tile/>
   <tile/>
   <tile/>
   <tile/>
   <tile/>
   <tile/>
   <tile/>
   <tile/>
   <tile/>
   <tile/>
   <tile/>
   <tile/>
   <tile/>
   <tile/>
   <tile/>
   <tile/>
   <tile/>
   <tile/>
   <tile/>
   <tile/>
   <tile/>
   <tile/>
   <tile/>
   <tile/>
   <tile/>
   <tile/>
   <tile/>
   <tile/>
   <tile/>
   <tile/>
   <tile/>
   <tile/>
   <tile/>
   <tile/>
   <tile/>
   <tile/>
   <tile/>
   <tile/>
   <tile/>
   <tile/>
   <tile/>
   <tile/>
   <tile/>
   <tile/>
   <tile/>
   <tile/>
   <tile/>
   <tile/>
   <tile/>
   <tile/>
   <tile/>
   <tile/>
   <tile/>
   <tile/>
   <tile/>
   <tile/>
   <tile/>
   <tile/>
   <tile/>
   <tile/>
   <tile/>
   <tile/>
   <tile/>
   <tile/>
   <tile/>
   <tile/>
   <tile/>
   <tile/>
   <tile/>
   <tile/>
   <tile/>
   <tile/>
   <tile/>
   <tile/>
   <tile/>
   <tile/>
   <tile/>
   <tile/>
   <tile/>
   <tile/>
   <tile/>
   <tile/>
   <tile/>
   <tile/>
   <tile/>
   <tile/>
   <tile/>
   <tile/>
   <tile/>
   <tile/>
   <tile/>
   <tile/>
   <tile/>
   <tile/>
   <tile/>
   <tile/>
   <tile/>
   <tile/>
   <tile/>
   <tile/>
   <tile/>
   <tile/>
   <tile/>
   <tile/>
   <tile/>
   <tile/>
   <tile/>
   <tile/>
   <tile/>
   <tile/>
   <tile/>
   <tile/>
   <tile/>
   <tile/>
   <tile/>
   <tile/>
   <tile/>
   <tile/>
   <tile/>
   <tile/>
   <tile/>
   <tile/>
   <tile/>
   <tile/>
   <tile/>
   <tile/>
   <tile/>
   <tile/>
   <tile/>
   <tile/>
   <tile/>
   <tile/>
   <tile/>
   <tile/>
   <tile/>
   <tile/>
   <tile/>
   <tile/>
   <tile/>
   <tile/>
   <tile/>
   <tile/>
   <tile/>
   <tile/>
   <tile/>
   <tile/>
   <tile/>
   <tile/>
   <tile/>
   <tile/>
   <tile/>
   <tile/>
   <tile/>
   <tile/>
   <tile/>
   <tile/>
   <tile/>
   <tile/>
   <tile/>
   <tile/>
   <tile/>
   <tile/>
   <tile/>
   <tile/>
   <tile/>
   <tile/>
   <tile/>
   <tile/>
   <tile/>
   <tile/>
   <tile/>
   <tile/>
   <tile/>
   <tile/>
   <tile/>
   <tile/>
   <tile/>
   <tile/>
   <tile/>
   <tile/>
   <tile/>
   <tile/>
   <tile/>
   <tile/>
   <tile/>
   <tile/>
   <tile/>
   <tile/>
   <tile/>
   <tile/>
   <tile/>
   <tile/>
   <tile/>
   <tile/>
   <tile/>
   <tile/>
   <tile/>
   <tile/>
   <tile/>
   <tile/>
   <tile/>
   <tile/>
   <tile/>
   <tile/>
   <tile gid="263"/>
   <tile/>
   <tile/>
   <tile/>
   <tile/>
   <tile/>
   <tile/>
   <tile/>
   <tile/>
   <tile/>
   <tile/>
   <tile/>
   <tile/>
   <tile/>
   <tile/>
   <tile/>
   <tile/>
   <tile/>
   <tile/>
   <tile/>
   <tile/>
   <tile/>
   <tile/>
   <tile/>
   <tile/>
   <tile/>
   <tile/>
   <tile/>
   <tile/>
   <tile/>
   <tile/>
   <tile/>
   <tile/>
   <tile/>
   <tile/>
   <tile/>
   <tile/>
   <tile/>
   <tile/>
   <tile/>
   <tile/>
   <tile/>
   <tile/>
   <tile/>
   <tile/>
   <tile/>
   <tile/>
   <tile/>
   <tile/>
   <tile/>
   <tile/>
   <tile/>
   <tile/>
   <tile/>
   <tile/>
   <tile/>
   <tile/>
   <tile/>
   <tile/>
   <tile/>
   <tile/>
   <tile/>
   <tile/>
   <tile/>
   <tile/>
   <tile/>
   <tile/>
   <tile/>
   <tile/>
   <tile/>
   <tile/>
   <tile/>
   <tile/>
   <tile/>
   <tile/>
   <tile/>
   <tile/>
   <tile/>
   <tile/>
   <tile/>
   <tile/>
   <tile/>
   <tile/>
   <tile/>
   <tile/>
   <tile/>
   <tile/>
   <tile/>
   <tile/>
   <tile/>
   <tile/>
   <tile/>
   <tile/>
   <tile/>
   <tile/>
   <tile/>
   <tile/>
   <tile/>
   <tile/>
   <tile/>
   <tile/>
   <tile/>
   <tile/>
   <tile/>
   <tile/>
   <tile/>
   <tile/>
   <tile/>
   <tile/>
   <tile/>
  </data>
 </layer>
 <layer id="2" name="Solid" width="60" height="68">
  <properties>
   <property name="Draw" type="bool" value="true"/>
  </properties>
  <data>
   <tile gid="108"/>
   <tile gid="108"/>
   <tile gid="108"/>
   <tile gid="108"/>
   <tile gid="108"/>
   <tile gid="108"/>
   <tile gid="108"/>
   <tile gid="124"/>
   <tile gid="124"/>
   <tile gid="124"/>
   <tile gid="124"/>
   <tile gid="124"/>
   <tile gid="125"/>
   <tile gid="60"/>
   <tile gid="60"/>
   <tile gid="60"/>
   <tile gid="60"/>
   <tile gid="123"/>
   <tile gid="124"/>
   <tile gid="124"/>
   <tile gid="124"/>
   <tile gid="124"/>
   <tile gid="124"/>
   <tile gid="108"/>
   <tile gid="108"/>
   <tile gid="108"/>
   <tile gid="108"/>
   <tile gid="108"/>
   <tile gid="108"/>
   <tile gid="108"/>
   <tile gid="108"/>
   <tile gid="108"/>
   <tile gid="108"/>
   <tile gid="108"/>
   <tile gid="108"/>
   <tile gid="108"/>
   <tile gid="108"/>
   <tile gid="108"/>
   <tile gid="108"/>
   <tile gid="108"/>
   <tile gid="108"/>
   <tile gid="108"/>
   <tile gid="108"/>
   <tile gid="108"/>
   <tile gid="108"/>
   <tile gid="108"/>
   <tile gid="108"/>
   <tile gid="108"/>
   <tile gid="108"/>
   <tile gid="108"/>
   <tile gid="108"/>
   <tile gid="108"/>
   <tile gid="108"/>
   <tile gid="108"/>
   <tile gid="108"/>
   <tile gid="108"/>
   <tile gid="108"/>
   <tile gid="108"/>
   <tile gid="108"/>
   <tile gid="108"/>
   <tile gid="108"/>
   <tile gid="108"/>
   <tile gid="108"/>
   <tile gid="108"/>
   <tile gid="124"/>
   <tile gid="124"/>
   <tile gid="125"/>
   <tile gid="60"/>
   <tile gid="60"/>
   <tile gid="60"/>
   <tile gid="60"/>
   <tile gid="60"/>
   <tile gid="60"/>
   <tile gid="60"/>
   <tile gid="60"/>
   <tile gid="60"/>
   <tile gid="60"/>
   <tile gid="60"/>
   <tile gid="60"/>
   <tile gid="60"/>
   <tile gid="60"/>
   <tile gid="60"/>
   <tile gid="60"/>
   <tile gid="123"/>
   <tile gid="124"/>
   <tile gid="124"/>
   <tile gid="108"/>
   <tile gid="108"/>
   <tile gid="108"/>
   <tile gid="108"/>
   <tile gid="108"/>
   <tile gid="108"/>
   <tile gid="108"/>
   <tile gid="108"/>
   <tile gid="108"/>
   <tile gid="108"/>
   <tile gid="108"/>
   <tile gid="108"/>
   <tile gid="108"/>
   <tile gid="108"/>
   <tile gid="108"/>
   <tile gid="108"/>
   <tile gid="108"/>
   <tile gid="108"/>
   <tile gid="108"/>
   <tile gid="108"/>
   <tile gid="108"/>
   <tile gid="108"/>
   <tile gid="108"/>
   <tile gid="108"/>
   <tile gid="108"/>
   <tile gid="108"/>
   <tile gid="108"/>
   <tile gid="108"/>
   <tile gid="108"/>
   <tile gid="108"/>
   <tile gid="108"/>
   <tile gid="108"/>
   <tile gid="108"/>
   <tile gid="108"/>
   <tile gid="108"/>
   <tile gid="108"/>
   <tile gid="124"/>
   <tile gid="125"/>
   <tile gid="60"/>
   <tile gid="60"/>
   <tile gid="60"/>
   <tile gid="60"/>
   <tile gid="60"/>
   <tile gid="60"/>
   <tile gid="60"/>
   <tile gid="60"/>
   <tile gid="60"/>
   <tile gid="60"/>
   <tile gid="60"/>
   <tile gid="60"/>
   <tile gid="60"/>
   <tile gid="60"/>
   <tile gid="60"/>
   <tile gid="60"/>
   <tile gid="60"/>
   <tile gid="60"/>
   <tile gid="60"/>
   <tile gid="60"/>
   <tile gid="60"/>
   <tile gid="60"/>
   <tile gid="123"/>
   <tile gid="108"/>
   <tile gid="108"/>
   <tile gid="108"/>
   <tile gid="108"/>
   <tile gid="108"/>
   <tile gid="108"/>
   <tile gid="108"/>
   <tile gid="108"/>
   <tile gid="108"/>
   <tile gid="108"/>
   <tile gid="108"/>
   <tile gid="108"/>
   <tile gid="108"/>
   <tile gid="108"/>
   <tile gid="108"/>
   <tile gid="108"/>
   <tile gid="108"/>
   <tile gid="108"/>
   <tile gid="108"/>
   <tile gid="108"/>
   <tile gid="108"/>
   <tile gid="108"/>
   <tile gid="108"/>
   <tile gid="108"/>
   <tile gid="108"/>
   <tile gid="108"/>
   <tile gid="108"/>
   <tile gid="108"/>
   <tile gid="108"/>
   <tile gid="108"/>
   <tile gid="108"/>
   <tile gid="108"/>
   <tile gid="108"/>
   <tile gid="108"/>
   <tile gid="125"/>
   <tile gid="60"/>
   <tile gid="60"/>
   <tile gid="60"/>
   <tile gid="60"/>
   <tile gid="60"/>
   <tile gid="60"/>
   <tile gid="60"/>
   <tile gid="60"/>
   <tile gid="60"/>
   <tile gid="60"/>
   <tile gid="60"/>
   <tile gid="60"/>
   <tile gid="60"/>
   <tile gid="60"/>
   <tile gid="60"/>
   <tile gid="60"/>
   <tile gid="60"/>
   <tile gid="60"/>
   <tile gid="60"/>
   <tile gid="60"/>
   <tile gid="60"/>
   <tile gid="60"/>
   <tile gid="60"/>
   <tile gid="60"/>
   <tile gid="60"/>
   <tile gid="123"/>
   <tile gid="124"/>
   <tile gid="124"/>
   <tile gid="124"/>
   <tile gid="124"/>
   <tile gid="124"/>
   <tile gid="124"/>
   <tile gid="124"/>
   <tile gid="124"/>
   <tile gid="124"/>
   <tile gid="124"/>
   <tile gid="124"/>
   <tile gid="124"/>
   <tile gid="124"/>
   <tile gid="124"/>
   <tile gid="124"/>
   <tile gid="124"/>
   <tile gid="124"/>
   <tile gid="124"/>
   <tile gid="124"/>
   <tile gid="124"/>
   <tile gid="124"/>
   <tile gid="124"/>
   <tile gid="124"/>
   <tile gid="124"/>
   <tile gid="108"/>
   <tile gid="108"/>
   <tile gid="108"/>
   <tile gid="108"/>
   <tile gid="108"/>
   <tile gid="108"/>
   <tile gid="108"/>
   <tile gid="108"/>
   <tile gid="109"/>
   <tile gid="60"/>
   <tile gid="60"/>
   <tile gid="60"/>
   <tile gid="60"/>
   <tile gid="60"/>
   <tile gid="60"/>
   <tile gid="60"/>
   <tile gid="60"/>
   <tile gid="60"/>
   <tile gid="60"/>
   <tile gid="60"/>
   <tile gid="60"/>
   <tile gid="91"/>
   <tile gid="92"/>
   <tile gid="92"/>
   <tile gid="93"/>
   <tile gid="60"/>
   <tile gid="60"/>
   <tile gid="60"/>
   <tile gid="60"/>
   <tile gid="60"/>
   <tile gid="60"/>
   <tile gid="60"/>
   <tile gid="60"/>
   <tile gid="60"/>
   <tile gid="60"/>
   <tile gid="60"/>
   <tile gid="60"/>
   <tile gid="60"/>
   <tile gid="60"/>
   <tile gid="60"/>
   <tile gid="60"/>
   <tile gid="60"/>
   <tile gid="60"/>
   <tile gid="60"/>
   <tile gid="60"/>
   <tile gid="60"/>
   <tile gid="60"/>
   <tile gid="60"/>
   <tile gid="60"/>
   <tile gid="60"/>
   <tile gid="60"/>
   <tile gid="60"/>
   <tile gid="60"/>
   <tile gid="60"/>
   <tile gid="60"/>
   <tile gid="60"/>
   <tile gid="60"/>
   <tile gid="60"/>
   <tile gid="60"/>
   <tile gid="60"/>
   <tile gid="123"/>
   <tile gid="124"/>
   <tile gid="124"/>
   <tile gid="108"/>
   <tile gid="108"/>
   <tile gid="108"/>
   <tile gid="108"/>
   <tile gid="108"/>
   <tile gid="109"/>
   <tile gid="60"/>
   <tile gid="60"/>
   <tile gid="60"/>
   <tile gid="60"/>
   <tile gid="60"/>
   <tile gid="60"/>
   <tile gid="60"/>
   <tile gid="60"/>
   <tile gid="60"/>
   <tile/>
   <tile gid="60"/>
   <tile gid="60"/>
   <tile gid="123"/>
   <tile gid="124"/>
   <tile gid="124"/>
   <tile gid="125"/>
   <tile gid="60"/>
   <tile gid="60"/>
   <tile gid="60"/>
   <tile gid="60"/>
   <tile gid="60"/>
   <tile gid="60"/>
   <tile gid="60"/>
   <tile gid="60"/>
   <tile gid="60"/>
   <tile gid="60"/>
   <tile gid="60"/>
   <tile gid="60"/>
   <tile gid="60"/>
   <tile gid="60"/>
   <tile gid="60"/>
   <tile gid="60"/>
   <tile gid="60"/>
   <tile gid="60"/>
   <tile gid="60"/>
   <tile gid="60"/>
   <tile gid="60"/>
   <tile gid="60"/>
   <tile gid="60"/>
   <tile gid="60"/>
   <tile gid="60"/>
   <tile gid="60"/>
   <tile gid="60"/>
   <tile gid="60"/>
   <tile gid="60"/>
   <tile gid="60"/>
   <tile gid="60"/>
   <tile gid="60"/>
   <tile gid="60"/>
   <tile gid="60"/>
   <tile gid="60"/>
   <tile gid="60"/>
   <tile gid="60"/>
   <tile gid="60"/>
   <tile gid="123"/>
   <tile gid="124"/>
   <tile gid="108"/>
   <tile gid="108"/>
   <tile gid="108"/>
   <tile gid="109"/>
   <tile gid="60"/>
   <tile gid="60"/>
   <tile gid="60"/>
   <tile gid="60"/>
   <tile gid="60"/>
   <tile/>
   <tile gid="91"/>
   <tile gid="92"/>
   <tile gid="92"/>
   <tile gid="93"/>
   <tile gid="60"/>
   <tile gid="60"/>
   <tile/>
   <tile/>
   <tile/>
   <tile/>
   <tile gid="60"/>
   <tile gid="60"/>
   <tile gid="91"/>
   <tile gid="92"/>
   <tile gid="92"/>
   <tile gid="93"/>
   <tile/>
   <tile gid="60"/>
   <tile gid="60"/>
   <tile gid="60"/>
   <tile gid="60"/>
   <tile gid="60"/>
   <tile gid="60"/>
   <tile gid="60"/>
   <tile gid="60"/>
   <tile gid="60"/>
   <tile gid="60"/>
   <tile gid="60"/>
   <tile gid="60"/>
   <tile gid="60"/>
   <tile gid="60"/>
   <tile gid="60"/>
   <tile gid="60"/>
   <tile gid="60"/>
   <tile gid="60"/>
   <tile gid="60"/>
   <tile gid="60"/>
   <tile gid="60"/>
   <tile gid="60"/>
   <tile gid="60"/>
   <tile gid="60"/>
   <tile gid="60"/>
   <tile gid="60"/>
   <tile gid="60"/>
   <tile gid="60"/>
   <tile gid="60"/>
   <tile gid="60"/>
   <tile gid="60"/>
   <tile gid="60"/>
   <tile gid="60"/>
   <tile gid="123"/>
   <tile gid="124"/>
   <tile gid="124"/>
   <tile gid="109"/>
   <tile gid="60"/>
   <tile gid="60"/>
   <tile gid="60"/>
   <tile gid="60"/>
   <tile gid="60"/>
   <tile/>
   <tile gid="123"/>
   <tile gid="124"/>
   <tile gid="124"/>
   <tile gid="125"/>
   <tile gid="60"/>
   <tile gid="60"/>
   <tile gid="60"/>
   <tile gid="60"/>
   <tile gid="60"/>
   <tile gid="60"/>
   <tile gid="60"/>
   <tile gid="60"/>
   <tile gid="123"/>
   <tile gid="124"/>
   <tile gid="124"/>
   <tile gid="125"/>
   <tile/>
   <tile gid="60"/>
   <tile gid="60"/>
   <tile gid="60"/>
   <tile gid="60"/>
   <tile gid="60"/>
   <tile gid="60"/>
   <tile gid="60"/>
   <tile gid="60"/>
   <tile gid="60"/>
   <tile gid="60"/>
   <tile gid="60"/>
   <tile gid="60"/>
   <tile gid="60"/>
   <tile gid="60"/>
   <tile gid="60"/>
   <tile gid="60"/>
   <tile gid="60"/>
   <tile gid="60"/>
   <tile gid="60"/>
   <tile gid="60"/>
   <tile gid="60"/>
   <tile gid="60"/>
   <tile gid="60"/>
   <tile gid="60"/>
   <tile gid="60"/>
   <tile gid="60"/>
   <tile gid="60"/>
   <tile gid="60"/>
   <tile gid="60"/>
   <tile gid="60"/>
   <tile gid="60"/>
   <tile gid="60"/>
   <tile gid="60"/>
   <tile gid="60"/>
   <tile gid="60"/>
   <tile gid="60"/>
   <tile gid="109"/>
   <tile gid="60"/>
   <tile gid="60"/>
   <tile gid="60"/>
   <tile gid="60"/>
   <tile gid="60"/>
   <tile/>
   <tile gid="60"/>
   <tile gid="60"/>
   <tile gid="60"/>
   <tile gid="60"/>
   <tile gid="60"/>
   <tile gid="60"/>
   <tile gid="60"/>
   <tile gid="60"/>
   <tile gid="60"/>
   <tile gid="60"/>
   <tile gid="60"/>
   <tile gid="60"/>
   <tile gid="60"/>
   <tile gid="60"/>
   <tile gid="60"/>
   <tile gid="60"/>
   <tile/>
   <tile gid="60"/>
   <tile gid="60"/>
   <tile gid="60"/>
   <tile gid="60"/>
   <tile gid="60"/>
   <tile gid="60"/>
   <tile gid="60"/>
   <tile gid="60"/>
   <tile gid="60"/>
   <tile gid="60"/>
   <tile gid="60"/>
   <tile gid="60"/>
   <tile gid="60"/>
   <tile gid="60"/>
   <tile gid="60"/>
   <tile gid="60"/>
   <tile gid="60"/>
   <tile gid="60"/>
   <tile gid="60"/>
   <tile gid="60"/>
   <tile gid="60"/>
   <tile gid="60"/>
   <tile gid="60"/>
   <tile gid="60"/>
   <tile gid="60"/>
   <tile gid="60"/>
   <tile gid="60"/>
   <tile gid="60"/>
   <tile gid="60"/>
   <tile gid="60"/>
   <tile gid="60"/>
   <tile gid="60"/>
   <tile gid="60"/>
   <tile gid="60"/>
   <tile gid="60"/>
   <tile gid="60"/>
   <tile gid="109"/>
   <tile gid="60"/>
   <tile gid="60"/>
   <tile gid="60"/>
   <tile gid="60"/>
   <tile gid="60"/>
   <tile gid="60"/>
   <tile gid="60"/>
   <tile gid="60"/>
   <tile gid="60"/>
   <tile gid="60"/>
   <tile gid="60"/>
   <tile gid="60"/>
   <tile gid="60"/>
   <tile gid="60"/>
   <tile gid="60"/>
   <tile gid="60"/>
   <tile gid="60"/>
   <tile gid="60"/>
   <tile gid="60"/>
   <tile gid="60"/>
   <tile gid="60"/>
   <tile gid="60"/>
   <tile gid="60"/>
   <tile gid="60"/>
   <tile gid="60"/>
   <tile gid="60"/>
   <tile gid="60"/>
   <tile gid="60"/>
   <tile gid="60"/>
   <tile gid="60"/>
   <tile gid="60"/>
   <tile gid="60"/>
   <tile gid="60"/>
   <tile gid="60"/>
   <tile gid="60"/>
   <tile gid="60"/>
   <tile gid="60"/>
   <tile/>
   <tile gid="60"/>
   <tile gid="60"/>
   <tile gid="60"/>
   <tile gid="60"/>
   <tile gid="60"/>
   <tile gid="60"/>
   <tile gid="60"/>
   <tile gid="60"/>
   <tile gid="60"/>
   <tile gid="60"/>
   <tile gid="60"/>
   <tile gid="60"/>
   <tile gid="60"/>
   <tile gid="60"/>
   <tile gid="60"/>
   <tile gid="60"/>
   <tile gid="60"/>
   <tile gid="60"/>
   <tile gid="60"/>
   <tile gid="60"/>
   <tile gid="60"/>
   <tile gid="108"/>
   <tile gid="92"/>
   <tile gid="92"/>
   <tile gid="92"/>
   <tile gid="92"/>
   <tile gid="92"/>
   <tile gid="92"/>
   <tile gid="92"/>
   <tile gid="92"/>
   <tile gid="92"/>
   <tile gid="92"/>
   <tile gid="92"/>
   <tile gid="92"/>
   <tile gid="92"/>
   <tile gid="92"/>
   <tile gid="92"/>
   <tile gid="92"/>
   <tile gid="92"/>
   <tile gid="92"/>
   <tile gid="92"/>
   <tile gid="92"/>
   <tile gid="92"/>
   <tile gid="92"/>
   <tile gid="92"/>
   <tile gid="92"/>
   <tile gid="92"/>
   <tile gid="92"/>
   <tile gid="92"/>
   <tile gid="92"/>
   <tile gid="92"/>
   <tile gid="92"/>
   <tile gid="92"/>
   <tile gid="92"/>
   <tile gid="92"/>
   <tile gid="92"/>
   <tile gid="92"/>
   <tile gid="92"/>
   <tile gid="93"/>
   <tile/>
   <tile/>
   <tile/>
   <tile/>
   <tile gid="91"/>
   <tile gid="92"/>
   <tile gid="92"/>
   <tile gid="92"/>
   <tile gid="92"/>
   <tile gid="92"/>
   <tile gid="92"/>
   <tile gid="92"/>
   <tile gid="92"/>
   <tile gid="92"/>
   <tile gid="92"/>
   <tile gid="92"/>
   <tile gid="92"/>
   <tile gid="92"/>
   <tile gid="92"/>
   <tile gid="92"/>
   <tile gid="92"/>
   <tile gid="92"/>
   <tile gid="108"/>
   <tile gid="108"/>
   <tile gid="108"/>
   <tile gid="108"/>
   <tile gid="108"/>
   <tile gid="108"/>
   <tile gid="108"/>
   <tile gid="108"/>
   <tile gid="108"/>
   <tile gid="108"/>
   <tile gid="108"/>
   <tile gid="108"/>
   <tile gid="108"/>
   <tile gid="108"/>
   <tile gid="108"/>
   <tile gid="108"/>
   <tile gid="108"/>
   <tile gid="108"/>
   <tile gid="108"/>
   <tile gid="108"/>
   <tile gid="108"/>
   <tile gid="108"/>
   <tile gid="108"/>
   <tile gid="108"/>
   <tile gid="108"/>
   <tile gid="108"/>
   <tile gid="108"/>
   <tile gid="108"/>
   <tile gid="108"/>
   <tile gid="108"/>
   <tile gid="108"/>
   <tile gid="124"/>
   <tile gid="124"/>
   <tile gid="124"/>
   <tile gid="124"/>
   <tile gid="124"/>
   <tile gid="124"/>
   <tile gid="125"/>
   <tile/>
   <tile/>
   <tile/>
   <tile/>
   <tile gid="123"/>
   <tile gid="124"/>
   <tile gid="124"/>
   <tile gid="124"/>
   <tile gid="124"/>
   <tile gid="124"/>
   <tile gid="124"/>
   <tile gid="124"/>
   <tile gid="124"/>
   <tile gid="124"/>
   <tile gid="124"/>
   <tile gid="124"/>
   <tile gid="124"/>
   <tile gid="124"/>
   <tile gid="108"/>
   <tile gid="108"/>
   <tile gid="108"/>
   <tile gid="108"/>
   <tile gid="108"/>
   <tile gid="108"/>
   <tile gid="108"/>
   <tile gid="108"/>
   <tile gid="108"/>
   <tile gid="108"/>
   <tile gid="108"/>
   <tile gid="108"/>
   <tile gid="108"/>
   <tile gid="108"/>
   <tile gid="108"/>
   <tile gid="108"/>
   <tile gid="108"/>
   <tile gid="108"/>
   <tile gid="108"/>
   <tile gid="108"/>
   <tile gid="108"/>
   <tile gid="108"/>
   <tile gid="108"/>
   <tile gid="108"/>
   <tile gid="108"/>
   <tile gid="108"/>
   <tile gid="108"/>
   <tile gid="108"/>
   <tile gid="108"/>
   <tile gid="108"/>
   <tile gid="108"/>
   <tile gid="108"/>
   <tile gid="108"/>
   <tile gid="108"/>
   <tile gid="124"/>
   <tile gid="125"/>
   <tile gid="60"/>
   <tile gid="60"/>
   <tile gid="60"/>
   <tile gid="60"/>
   <tile gid="60"/>
   <tile gid="60"/>
   <tile/>
   <tile gid="60"/>
   <tile gid="60"/>
   <tile gid="60"/>
   <tile gid="60"/>
   <tile gid="60"/>
   <tile gid="60"/>
   <tile gid="60"/>
   <tile gid="60"/>
   <tile gid="60"/>
   <tile gid="60"/>
   <tile gid="60"/>
   <tile gid="60"/>
   <tile gid="60"/>
   <tile gid="60"/>
   <tile gid="60"/>
   <tile gid="60"/>
   <tile gid="60"/>
   <tile gid="123"/>
   <tile gid="124"/>
   <tile gid="108"/>
   <tile gid="108"/>
   <tile gid="108"/>
   <tile gid="108"/>
   <tile gid="108"/>
   <tile gid="108"/>
   <tile gid="108"/>
   <tile gid="108"/>
   <tile gid="108"/>
   <tile gid="108"/>
   <tile gid="108"/>
   <tile gid="108"/>
   <tile gid="108"/>
   <tile gid="108"/>
   <tile gid="108"/>
   <tile gid="108"/>
   <tile gid="108"/>
   <tile gid="108"/>
   <tile gid="108"/>
   <tile gid="108"/>
   <tile gid="108"/>
   <tile gid="108"/>
   <tile gid="108"/>
   <tile gid="108"/>
   <tile gid="108"/>
   <tile gid="108"/>
   <tile gid="108"/>
   <tile gid="108"/>
   <tile gid="108"/>
   <tile gid="108"/>
   <tile gid="108"/>
   <tile gid="125"/>
   <tile gid="60"/>
   <tile gid="60"/>
   <tile gid="60"/>
   <tile gid="60"/>
   <tile gid="60"/>
   <tile gid="60"/>
   <tile gid="60"/>
   <tile gid="60"/>
   <tile gid="60"/>
   <tile gid="60"/>
   <tile gid="60"/>
   <tile gid="60"/>
   <tile gid="60"/>
   <tile gid="60"/>
   <tile gid="60"/>
   <tile gid="60"/>
   <tile gid="60"/>
   <tile gid="60"/>
   <tile gid="60"/>
   <tile gid="60"/>
   <tile gid="60"/>
   <tile gid="60"/>
   <tile gid="60"/>
   <tile gid="60"/>
   <tile gid="60"/>
   <tile gid="60"/>
   <tile gid="60"/>
   <tile gid="60"/>
   <tile gid="107"/>
   <tile gid="108"/>
   <tile gid="108"/>
   <tile gid="108"/>
   <tile gid="108"/>
   <tile gid="108"/>
   <tile gid="108"/>
   <tile gid="108"/>
   <tile gid="108"/>
   <tile gid="108"/>
   <tile gid="108"/>
   <tile gid="108"/>
   <tile gid="108"/>
   <tile gid="108"/>
   <tile gid="108"/>
   <tile gid="108"/>
   <tile gid="108"/>
   <tile gid="108"/>
   <tile gid="108"/>
   <tile gid="108"/>
   <tile gid="108"/>
   <tile gid="108"/>
   <tile gid="108"/>
   <tile gid="108"/>
   <tile gid="108"/>
   <tile gid="108"/>
   <tile gid="108"/>
   <tile gid="108"/>
   <tile gid="108"/>
   <tile gid="124"/>
   <tile gid="125"/>
   <tile gid="60"/>
   <tile gid="60"/>
   <tile gid="60"/>
   <tile gid="60"/>
   <tile gid="60"/>
   <tile gid="60"/>
   <tile gid="60"/>
   <tile gid="60"/>
   <tile gid="60"/>
   <tile gid="60"/>
   <tile gid="60"/>
   <tile gid="60"/>
   <tile gid="60"/>
   <tile gid="60"/>
   <tile gid="60"/>
   <tile gid="60"/>
   <tile gid="60"/>
   <tile gid="60"/>
   <tile gid="60"/>
   <tile gid="60"/>
   <tile gid="60"/>
   <tile gid="60"/>
   <tile gid="60"/>
   <tile gid="60"/>
   <tile gid="60"/>
   <tile gid="60"/>
   <tile gid="60"/>
   <tile gid="60"/>
   <tile gid="60"/>
   <tile gid="123"/>
   <tile gid="108"/>
   <tile gid="108"/>
   <tile gid="108"/>
   <tile gid="108"/>
   <tile gid="108"/>
   <tile gid="108"/>
   <tile gid="108"/>
   <tile gid="108"/>
   <tile gid="108"/>
   <tile gid="108"/>
   <tile gid="108"/>
   <tile gid="108"/>
   <tile gid="108"/>
   <tile gid="108"/>
   <tile gid="108"/>
   <tile gid="108"/>
   <tile gid="108"/>
   <tile gid="108"/>
   <tile gid="108"/>
   <tile gid="108"/>
   <tile gid="108"/>
   <tile gid="108"/>
   <tile gid="108"/>
   <tile gid="108"/>
   <tile gid="108"/>
   <tile gid="108"/>
   <tile gid="124"/>
   <tile gid="125"/>
   <tile gid="60"/>
   <tile gid="60"/>
   <tile gid="60"/>
   <tile gid="60"/>
   <tile gid="60"/>
   <tile gid="60"/>
   <tile gid="60"/>
   <tile gid="60"/>
   <tile gid="60"/>
   <tile gid="60"/>
   <tile gid="60"/>
   <tile gid="60"/>
   <tile gid="60"/>
   <tile gid="60"/>
   <tile gid="60"/>
   <tile gid="60"/>
   <tile gid="60"/>
   <tile gid="60"/>
   <tile gid="60"/>
   <tile gid="60"/>
   <tile gid="60"/>
   <tile gid="60"/>
   <tile gid="60"/>
   <tile gid="60"/>
   <tile gid="60"/>
   <tile gid="60"/>
   <tile gid="60"/>
   <tile gid="60"/>
   <tile gid="60"/>
   <tile gid="60"/>
   <tile gid="60"/>
   <tile gid="60"/>
   <tile gid="107"/>
   <tile gid="108"/>
   <tile gid="108"/>
   <tile gid="108"/>
   <tile gid="108"/>
   <tile gid="108"/>
   <tile gid="108"/>
   <tile gid="108"/>
   <tile gid="108"/>
   <tile gid="108"/>
   <tile gid="108"/>
   <tile gid="108"/>
   <tile gid="108"/>
   <tile gid="108"/>
   <tile gid="108"/>
   <tile gid="108"/>
   <tile gid="108"/>
   <tile gid="108"/>
   <tile gid="108"/>
   <tile gid="108"/>
   <tile gid="108"/>
   <tile gid="108"/>
   <tile gid="108"/>
   <tile gid="108"/>
   <tile gid="124"/>
   <tile gid="125"/>
   <tile gid="60"/>
   <tile gid="60"/>
   <tile gid="60"/>
   <tile gid="60"/>
   <tile gid="60"/>
   <tile gid="60"/>
   <tile gid="60"/>
   <tile gid="60"/>
   <tile gid="60"/>
   <tile gid="60"/>
   <tile gid="60"/>
   <tile gid="60"/>
   <tile gid="60"/>
   <tile gid="60"/>
   <tile gid="60"/>
   <tile gid="60"/>
   <tile gid="60"/>
   <tile gid="60"/>
   <tile gid="60"/>
   <tile gid="60"/>
   <tile gid="60"/>
   <tile gid="60"/>
   <tile gid="60"/>
   <tile gid="60"/>
   <tile gid="60"/>
   <tile gid="60"/>
   <tile gid="60"/>
   <tile gid="60"/>
   <tile gid="60"/>
   <tile gid="60"/>
   <tile gid="60"/>
   <tile gid="60"/>
   <tile gid="60"/>
   <tile gid="60"/>
   <tile gid="107"/>
   <tile gid="124"/>
   <tile gid="124"/>
   <tile gid="124"/>
   <tile gid="124"/>
   <tile gid="124"/>
   <tile gid="124"/>
   <tile gid="124"/>
   <tile gid="124"/>
   <tile gid="124"/>
   <tile gid="124"/>
   <tile gid="108"/>
   <tile gid="108"/>
   <tile gid="108"/>
   <tile gid="108"/>
   <tile gid="108"/>
   <tile gid="108"/>
   <tile gid="108"/>
   <tile gid="108"/>
   <tile gid="108"/>
   <tile gid="108"/>
   <tile gid="124"/>
   <tile gid="124"/>
   <tile gid="125"/>
   <tile gid="60"/>
   <tile gid="60"/>
   <tile gid="60"/>
   <tile gid="60"/>
   <tile gid="60"/>
   <tile gid="60"/>
   <tile gid="60"/>
   <tile gid="60"/>
   <tile gid="60"/>
   <tile gid="60"/>
   <tile gid="60"/>
   <tile gid="60"/>
   <tile gid="60"/>
   <tile gid="60"/>
   <tile gid="60"/>
   <tile gid="60"/>
   <tile gid="60"/>
   <tile gid="60"/>
   <tile gid="60"/>
   <tile gid="60"/>
   <tile gid="60"/>
   <tile gid="60"/>
   <tile gid="60"/>
   <tile gid="60"/>
   <tile gid="60"/>
   <tile gid="60"/>
   <tile gid="60"/>
   <tile gid="60"/>
   <tile gid="60"/>
   <tile gid="60"/>
   <tile gid="60"/>
   <tile gid="60"/>
   <tile gid="60"/>
   <tile gid="60"/>
   <tile gid="60"/>
   <tile gid="60"/>
   <tile gid="107"/>
   <tile gid="60"/>
   <tile gid="60"/>
   <tile gid="60"/>
   <tile gid="60"/>
   <tile gid="60"/>
   <tile gid="60"/>
   <tile gid="60"/>
   <tile gid="60"/>
   <tile gid="60"/>
   <tile gid="60"/>
   <tile gid="107"/>
   <tile gid="108"/>
   <tile gid="108"/>
   <tile gid="108"/>
   <tile gid="108"/>
   <tile gid="108"/>
   <tile gid="108"/>
   <tile gid="108"/>
   <tile gid="124"/>
   <tile gid="125"/>
   <tile gid="60"/>
   <tile gid="60"/>
   <tile gid="60"/>
   <tile gid="60"/>
   <tile gid="60"/>
   <tile gid="60"/>
   <tile gid="60"/>
   <tile gid="60"/>
   <tile gid="60"/>
   <tile gid="60"/>
   <tile gid="60"/>
   <tile gid="60"/>
   <tile gid="60"/>
   <tile gid="60"/>
   <tile gid="60"/>
   <tile gid="60"/>
   <tile gid="60"/>
   <tile gid="60"/>
   <tile gid="60"/>
   <tile gid="60"/>
   <tile gid="60"/>
   <tile gid="60"/>
   <tile gid="60"/>
   <tile gid="60"/>
   <tile gid="60"/>
   <tile gid="60"/>
   <tile gid="60"/>
   <tile gid="60"/>
   <tile gid="60"/>
   <tile gid="60"/>
   <tile gid="60"/>
   <tile gid="60"/>
   <tile gid="60"/>
   <tile gid="60"/>
   <tile gid="60"/>
   <tile gid="60"/>
   <tile gid="60"/>
   <tile gid="60"/>
   <tile gid="60"/>
   <tile gid="107"/>
   <tile gid="60"/>
   <tile gid="60"/>
   <tile gid="60"/>
   <tile gid="60"/>
   <tile gid="60"/>
   <tile gid="60"/>
   <tile gid="60"/>
   <tile gid="60"/>
   <tile gid="60"/>
   <tile gid="60"/>
   <tile gid="107"/>
   <tile gid="108"/>
   <tile gid="108"/>
   <tile gid="108"/>
   <tile gid="108"/>
   <tile gid="108"/>
   <tile gid="108"/>
   <tile gid="125"/>
   <tile gid="60"/>
   <tile gid="60"/>
   <tile gid="60"/>
   <tile gid="60"/>
   <tile gid="60"/>
   <tile gid="60"/>
   <tile gid="60"/>
   <tile gid="60"/>
   <tile gid="60"/>
   <tile gid="60"/>
   <tile gid="60"/>
   <tile gid="60"/>
   <tile gid="60"/>
   <tile gid="60"/>
   <tile gid="60"/>
   <tile gid="60"/>
   <tile gid="60"/>
   <tile gid="60"/>
   <tile gid="60"/>
   <tile gid="60"/>
   <tile gid="60"/>
   <tile gid="60"/>
   <tile gid="60"/>
   <tile gid="60"/>
   <tile gid="60"/>
   <tile gid="60"/>
   <tile gid="60"/>
   <tile gid="60"/>
   <tile gid="60"/>
   <tile gid="60"/>
   <tile gid="60"/>
   <tile gid="60"/>
   <tile gid="60"/>
   <tile gid="60"/>
   <tile gid="60"/>
   <tile gid="60"/>
   <tile gid="60"/>
   <tile gid="60"/>
   <tile gid="60"/>
   <tile gid="60"/>
   <tile gid="60"/>
   <tile gid="107"/>
   <tile gid="60"/>
   <tile gid="60"/>
   <tile gid="60"/>
   <tile gid="60"/>
   <tile gid="60"/>
   <tile gid="60"/>
   <tile gid="60"/>
   <tile gid="60"/>
   <tile gid="60"/>
   <tile gid="60"/>
   <tile gid="123"/>
   <tile gid="124"/>
   <tile gid="124"/>
   <tile gid="124"/>
   <tile gid="124"/>
   <tile gid="124"/>
   <tile gid="125"/>
   <tile gid="60"/>
   <tile gid="60"/>
   <tile gid="60"/>
   <tile gid="60"/>
   <tile gid="60"/>
   <tile gid="60"/>
   <tile gid="60"/>
   <tile gid="60"/>
   <tile gid="60"/>
   <tile gid="60"/>
   <tile gid="60"/>
   <tile gid="60"/>
   <tile gid="60"/>
   <tile gid="60"/>
   <tile gid="60"/>
   <tile gid="60"/>
   <tile gid="60"/>
   <tile gid="60"/>
   <tile gid="60"/>
   <tile gid="60"/>
   <tile gid="60"/>
   <tile gid="60"/>
   <tile gid="60"/>
   <tile gid="60"/>
   <tile gid="60"/>
   <tile gid="60"/>
   <tile gid="60"/>
   <tile gid="60"/>
   <tile gid="60"/>
   <tile gid="60"/>
   <tile gid="60"/>
   <tile gid="60"/>
   <tile gid="60"/>
   <tile gid="60"/>
   <tile gid="60"/>
   <tile gid="60"/>
   <tile gid="60"/>
   <tile gid="60"/>
   <tile gid="60"/>
   <tile gid="60"/>
   <tile gid="60"/>
   <tile gid="60"/>
   <tile gid="107"/>
   <tile gid="60"/>
   <tile gid="60"/>
   <tile gid="60"/>
   <tile gid="60"/>
   <tile gid="60"/>
   <tile gid="60"/>
   <tile gid="60"/>
   <tile gid="60"/>
   <tile gid="60"/>
   <tile gid="60"/>
   <tile gid="60"/>
   <tile gid="60"/>
   <tile gid="60"/>
   <tile gid="60"/>
   <tile gid="60"/>
   <tile gid="60"/>
   <tile gid="60"/>
   <tile gid="60"/>
   <tile gid="60"/>
   <tile gid="60"/>
   <tile gid="60"/>
   <tile gid="60"/>
   <tile gid="60"/>
   <tile gid="60"/>
   <tile gid="60"/>
   <tile gid="60"/>
   <tile gid="60"/>
   <tile gid="60"/>
   <tile gid="60"/>
   <tile gid="60"/>
   <tile gid="60"/>
   <tile gid="60"/>
   <tile gid="60"/>
   <tile gid="60"/>
   <tile gid="60"/>
   <tile gid="60"/>
   <tile gid="60"/>
   <tile gid="60"/>
   <tile gid="60"/>
   <tile gid="60"/>
   <tile gid="60"/>
   <tile gid="60"/>
   <tile gid="60"/>
   <tile gid="60"/>
   <tile gid="60"/>
   <tile gid="60"/>
   <tile gid="60"/>
   <tile gid="60"/>
   <tile gid="60"/>
   <tile gid="60"/>
   <tile gid="60"/>
   <tile gid="60"/>
   <tile gid="60"/>
   <tile gid="60"/>
   <tile gid="60"/>
   <tile gid="60"/>
   <tile gid="60"/>
   <tile gid="60"/>
   <tile gid="91"/>
   <tile gid="108"/>
   <tile gid="92"/>
   <tile gid="92"/>
   <tile gid="92"/>
   <tile gid="92"/>
   <tile gid="92"/>
   <tile gid="92"/>
   <tile gid="92"/>
   <tile gid="92"/>
   <tile gid="92"/>
   <tile gid="92"/>
   <tile gid="92"/>
   <tile gid="92"/>
   <tile gid="92"/>
   <tile gid="92"/>
   <tile gid="92"/>
   <tile gid="92"/>
   <tile gid="92"/>
   <tile gid="92"/>
   <tile gid="92"/>
   <tile gid="92"/>
   <tile gid="92"/>
   <tile gid="92"/>
   <tile gid="92"/>
   <tile gid="92"/>
   <tile gid="92"/>
   <tile gid="92"/>
   <tile gid="92"/>
   <tile gid="92"/>
   <tile gid="92"/>
   <tile gid="92"/>
   <tile gid="92"/>
   <tile gid="92"/>
   <tile gid="92"/>
   <tile gid="92"/>
   <tile gid="92"/>
   <tile gid="92"/>
   <tile gid="92"/>
   <tile gid="93"/>
   <tile/>
   <tile/>
   <tile/>
   <tile/>
   <tile gid="91"/>
   <tile gid="92"/>
   <tile gid="92"/>
   <tile gid="92"/>
   <tile gid="92"/>
   <tile gid="92"/>
   <tile gid="92"/>
   <tile gid="92"/>
   <tile gid="92"/>
   <tile gid="92"/>
   <tile gid="92"/>
   <tile gid="92"/>
   <tile gid="92"/>
   <tile gid="92"/>
   <tile gid="92"/>
   <tile gid="92"/>
   <tile gid="108"/>
   <tile gid="108"/>
   <tile gid="108"/>
   <tile gid="108"/>
   <tile gid="108"/>
   <tile gid="108"/>
   <tile gid="108"/>
   <tile gid="108"/>
   <tile gid="108"/>
   <tile gid="108"/>
   <tile gid="108"/>
   <tile gid="108"/>
   <tile gid="108"/>
   <tile gid="108"/>
   <tile gid="108"/>
   <tile gid="108"/>
   <tile gid="108"/>
   <tile gid="108"/>
   <tile gid="108"/>
   <tile gid="108"/>
   <tile gid="108"/>
   <tile gid="108"/>
   <tile gid="108"/>
   <tile gid="108"/>
   <tile gid="108"/>
   <tile gid="108"/>
   <tile gid="108"/>
   <tile gid="108"/>
   <tile gid="108"/>
   <tile gid="108"/>
   <tile gid="108"/>
   <tile gid="108"/>
   <tile gid="108"/>
   <tile gid="108"/>
   <tile gid="108"/>
   <tile gid="108"/>
   <tile gid="108"/>
   <tile gid="108"/>
   <tile gid="108"/>
   <tile gid="109"/>
   <tile/>
   <tile/>
   <tile/>
   <tile/>
   <tile gid="107"/>
   <tile gid="108"/>
   <tile gid="108"/>
   <tile gid="108"/>
   <tile gid="108"/>
   <tile gid="108"/>
   <tile gid="108"/>
   <tile gid="108"/>
   <tile gid="108"/>
   <tile gid="108"/>
   <tile gid="108"/>
   <tile gid="108"/>
   <tile gid="108"/>
   <tile gid="108"/>
   <tile gid="108"/>
   <tile gid="108"/>
   <tile gid="108"/>
   <tile gid="108"/>
   <tile gid="108"/>
   <tile gid="108"/>
   <tile gid="108"/>
   <tile gid="108"/>
   <tile gid="108"/>
   <tile gid="108"/>
   <tile gid="108"/>
   <tile gid="108"/>
   <tile gid="108"/>
   <tile gid="108"/>
   <tile gid="108"/>
   <tile gid="108"/>
   <tile gid="108"/>
   <tile gid="108"/>
   <tile gid="108"/>
   <tile gid="108"/>
   <tile gid="108"/>
   <tile gid="108"/>
   <tile gid="108"/>
   <tile gid="108"/>
   <tile gid="108"/>
   <tile gid="108"/>
   <tile gid="108"/>
   <tile gid="108"/>
   <tile gid="108"/>
   <tile gid="108"/>
   <tile gid="108"/>
   <tile gid="108"/>
   <tile gid="108"/>
   <tile gid="108"/>
   <tile gid="108"/>
   <tile gid="108"/>
   <tile gid="108"/>
   <tile gid="108"/>
   <tile gid="108"/>
   <tile gid="108"/>
   <tile gid="108"/>
   <tile gid="109"/>
   <tile/>
   <tile/>
   <tile/>
   <tile/>
   <tile gid="107"/>
   <tile gid="108"/>
   <tile gid="108"/>
   <tile gid="108"/>
   <tile gid="108"/>
   <tile gid="108"/>
   <tile gid="108"/>
   <tile gid="108"/>
   <tile gid="108"/>
   <tile gid="108"/>
   <tile gid="108"/>
   <tile gid="108"/>
   <tile gid="108"/>
   <tile gid="108"/>
   <tile gid="108"/>
   <tile gid="108"/>
   <tile gid="108"/>
   <tile gid="108"/>
   <tile gid="108"/>
   <tile gid="108"/>
   <tile gid="108"/>
   <tile gid="108"/>
   <tile gid="108"/>
   <tile gid="108"/>
   <tile gid="108"/>
   <tile gid="108"/>
   <tile gid="108"/>
   <tile gid="108"/>
   <tile gid="108"/>
   <tile gid="108"/>
   <tile gid="108"/>
   <tile gid="108"/>
   <tile gid="108"/>
   <tile gid="108"/>
   <tile gid="108"/>
   <tile gid="108"/>
   <tile gid="108"/>
   <tile gid="108"/>
   <tile gid="108"/>
   <tile gid="108"/>
   <tile gid="108"/>
   <tile gid="108"/>
   <tile gid="108"/>
   <tile gid="108"/>
   <tile gid="108"/>
   <tile gid="108"/>
   <tile gid="108"/>
   <tile gid="108"/>
   <tile gid="108"/>
   <tile gid="108"/>
   <tile gid="108"/>
   <tile gid="108"/>
   <tile gid="108"/>
   <tile gid="108"/>
   <tile gid="108"/>
   <tile gid="109"/>
   <tile/>
   <tile/>
   <tile/>
   <tile/>
   <tile gid="107"/>
   <tile gid="108"/>
   <tile gid="108"/>
   <tile gid="108"/>
   <tile gid="108"/>
   <tile gid="108"/>
   <tile gid="108"/>
   <tile gid="108"/>
   <tile gid="108"/>
   <tile gid="108"/>
   <tile gid="108"/>
   <tile gid="108"/>
   <tile gid="108"/>
   <tile gid="108"/>
   <tile gid="108"/>
   <tile gid="108"/>
   <tile gid="108"/>
   <tile gid="108"/>
   <tile gid="108"/>
   <tile gid="108"/>
   <tile gid="108"/>
   <tile gid="108"/>
   <tile gid="108"/>
   <tile gid="108"/>
   <tile gid="108"/>
   <tile gid="108"/>
   <tile gid="108"/>
   <tile gid="108"/>
   <tile gid="108"/>
   <tile gid="108"/>
   <tile gid="108"/>
   <tile gid="108"/>
   <tile gid="108"/>
   <tile gid="108"/>
   <tile gid="108"/>
   <tile gid="108"/>
   <tile gid="108"/>
   <tile gid="108"/>
   <tile gid="108"/>
   <tile gid="108"/>
   <tile gid="108"/>
   <tile gid="108"/>
   <tile gid="108"/>
   <tile gid="108"/>
   <tile gid="108"/>
   <tile gid="108"/>
   <tile gid="108"/>
   <tile gid="108"/>
   <tile gid="108"/>
   <tile gid="108"/>
   <tile gid="108"/>
   <tile gid="108"/>
   <tile gid="108"/>
   <tile gid="108"/>
   <tile gid="108"/>
   <tile gid="109"/>
   <tile/>
   <tile/>
   <tile/>
   <tile/>
   <tile gid="107"/>
   <tile gid="108"/>
   <tile gid="108"/>
   <tile gid="108"/>
   <tile gid="108"/>
   <tile gid="108"/>
   <tile gid="108"/>
   <tile gid="108"/>
   <tile gid="108"/>
   <tile gid="108"/>
   <tile gid="108"/>
   <tile gid="108"/>
   <tile gid="108"/>
   <tile gid="108"/>
   <tile gid="108"/>
   <tile gid="108"/>
   <tile gid="108"/>
   <tile gid="108"/>
   <tile gid="108"/>
   <tile gid="108"/>
   <tile gid="108"/>
   <tile gid="108"/>
   <tile gid="108"/>
   <tile gid="108"/>
   <tile gid="108"/>
   <tile gid="108"/>
   <tile gid="108"/>
   <tile gid="108"/>
   <tile gid="108"/>
   <tile gid="108"/>
   <tile gid="108"/>
   <tile gid="108"/>
   <tile gid="108"/>
   <tile gid="108"/>
   <tile gid="108"/>
   <tile gid="108"/>
   <tile gid="108"/>
   <tile gid="108"/>
   <tile gid="108"/>
   <tile gid="108"/>
   <tile gid="108"/>
   <tile gid="108"/>
   <tile gid="108"/>
   <tile gid="108"/>
   <tile gid="108"/>
   <tile gid="108"/>
   <tile gid="108"/>
   <tile gid="108"/>
   <tile gid="108"/>
   <tile gid="108"/>
   <tile gid="108"/>
   <tile gid="108"/>
   <tile gid="108"/>
   <tile gid="108"/>
   <tile gid="108"/>
   <tile gid="109"/>
   <tile/>
   <tile/>
   <tile/>
   <tile/>
   <tile gid="107"/>
   <tile gid="108"/>
   <tile gid="108"/>
   <tile gid="108"/>
   <tile gid="108"/>
   <tile gid="108"/>
   <tile gid="108"/>
   <tile gid="108"/>
   <tile gid="108"/>
   <tile gid="108"/>
   <tile gid="108"/>
   <tile gid="108"/>
   <tile gid="108"/>
   <tile gid="108"/>
   <tile gid="108"/>
   <tile gid="108"/>
   <tile gid="108"/>
   <tile gid="108"/>
   <tile gid="108"/>
   <tile gid="108"/>
   <tile gid="108"/>
   <tile gid="108"/>
   <tile gid="108"/>
   <tile gid="108"/>
   <tile gid="108"/>
   <tile gid="108"/>
   <tile gid="108"/>
   <tile gid="108"/>
   <tile gid="108"/>
   <tile gid="108"/>
   <tile gid="108"/>
   <tile gid="108"/>
   <tile gid="108"/>
   <tile gid="108"/>
   <tile gid="108"/>
   <tile gid="108"/>
   <tile gid="108"/>
   <tile gid="108"/>
   <tile gid="108"/>
   <tile gid="108"/>
   <tile gid="108"/>
   <tile gid="108"/>
   <tile gid="108"/>
   <tile gid="108"/>
   <tile gid="108"/>
   <tile gid="108"/>
   <tile gid="108"/>
   <tile gid="108"/>
   <tile gid="108"/>
   <tile gid="108"/>
   <tile gid="108"/>
   <tile gid="108"/>
   <tile gid="108"/>
   <tile gid="108"/>
   <tile gid="108"/>
   <tile gid="109"/>
   <tile/>
   <tile/>
   <tile/>
   <tile/>
   <tile gid="107"/>
   <tile gid="108"/>
   <tile gid="108"/>
   <tile gid="108"/>
   <tile gid="108"/>
   <tile gid="108"/>
   <tile gid="108"/>
   <tile gid="108"/>
   <tile gid="108"/>
   <tile gid="108"/>
   <tile gid="108"/>
   <tile gid="108"/>
   <tile gid="108"/>
   <tile gid="108"/>
   <tile gid="108"/>
   <tile gid="108"/>
   <tile gid="108"/>
   <tile gid="108"/>
   <tile gid="108"/>
   <tile gid="108"/>
   <tile gid="108"/>
   <tile gid="108"/>
   <tile gid="108"/>
   <tile gid="108"/>
   <tile gid="108"/>
   <tile gid="108"/>
   <tile gid="108"/>
   <tile gid="108"/>
   <tile gid="108"/>
   <tile gid="108"/>
   <tile gid="108"/>
   <tile gid="108"/>
   <tile gid="108"/>
   <tile gid="108"/>
   <tile gid="108"/>
   <tile gid="108"/>
   <tile gid="108"/>
   <tile gid="108"/>
   <tile gid="108"/>
   <tile gid="108"/>
   <tile gid="108"/>
   <tile gid="108"/>
   <tile gid="108"/>
   <tile gid="108"/>
   <tile gid="108"/>
   <tile gid="108"/>
   <tile gid="108"/>
   <tile gid="108"/>
   <tile gid="108"/>
   <tile gid="108"/>
   <tile gid="108"/>
   <tile gid="108"/>
   <tile gid="108"/>
   <tile gid="108"/>
   <tile gid="108"/>
   <tile gid="109"/>
   <tile/>
   <tile/>
   <tile/>
   <tile/>
   <tile gid="107"/>
   <tile gid="108"/>
   <tile gid="108"/>
   <tile gid="108"/>
   <tile gid="108"/>
   <tile gid="108"/>
   <tile gid="108"/>
   <tile gid="108"/>
   <tile gid="108"/>
   <tile gid="108"/>
   <tile gid="108"/>
   <tile gid="108"/>
   <tile gid="108"/>
   <tile gid="108"/>
   <tile gid="108"/>
   <tile gid="108"/>
   <tile gid="108"/>
   <tile gid="108"/>
   <tile gid="108"/>
   <tile gid="108"/>
   <tile gid="108"/>
   <tile gid="108"/>
   <tile gid="108"/>
   <tile gid="108"/>
   <tile gid="108"/>
   <tile gid="108"/>
   <tile gid="108"/>
   <tile gid="108"/>
   <tile gid="108"/>
   <tile gid="108"/>
   <tile gid="108"/>
   <tile gid="108"/>
   <tile gid="108"/>
   <tile gid="108"/>
   <tile gid="108"/>
   <tile gid="108"/>
   <tile gid="108"/>
   <tile gid="108"/>
   <tile gid="108"/>
   <tile gid="108"/>
   <tile gid="108"/>
   <tile gid="108"/>
   <tile gid="108"/>
   <tile gid="108"/>
   <tile gid="108"/>
   <tile gid="108"/>
   <tile gid="108"/>
   <tile gid="108"/>
   <tile gid="108"/>
   <tile gid="108"/>
   <tile gid="108"/>
   <tile gid="108"/>
   <tile gid="108"/>
   <tile gid="108"/>
   <tile gid="108"/>
   <tile gid="109"/>
   <tile/>
   <tile/>
   <tile/>
   <tile/>
   <tile gid="107"/>
   <tile gid="108"/>
   <tile gid="108"/>
   <tile gid="108"/>
   <tile gid="108"/>
   <tile gid="108"/>
   <tile gid="108"/>
   <tile gid="108"/>
   <tile gid="108"/>
   <tile gid="108"/>
   <tile gid="108"/>
   <tile gid="108"/>
   <tile gid="108"/>
   <tile gid="108"/>
   <tile gid="108"/>
   <tile gid="108"/>
   <tile gid="108"/>
   <tile gid="108"/>
   <tile gid="108"/>
   <tile gid="108"/>
   <tile gid="108"/>
   <tile gid="108"/>
   <tile gid="108"/>
   <tile gid="108"/>
   <tile gid="108"/>
   <tile gid="108"/>
   <tile gid="108"/>
   <tile gid="108"/>
   <tile gid="108"/>
   <tile gid="108"/>
   <tile gid="108"/>
   <tile gid="108"/>
   <tile gid="108"/>
   <tile gid="108"/>
   <tile gid="108"/>
   <tile gid="108"/>
   <tile gid="108"/>
   <tile gid="108"/>
   <tile gid="108"/>
   <tile gid="108"/>
   <tile gid="108"/>
   <tile gid="108"/>
   <tile gid="108"/>
   <tile gid="108"/>
   <tile gid="108"/>
   <tile gid="108"/>
   <tile gid="108"/>
   <tile gid="108"/>
   <tile gid="108"/>
   <tile gid="108"/>
   <tile gid="108"/>
   <tile gid="108"/>
   <tile gid="108"/>
   <tile gid="108"/>
   <tile gid="108"/>
   <tile gid="109"/>
   <tile/>
   <tile/>
   <tile/>
   <tile/>
   <tile gid="107"/>
   <tile gid="108"/>
   <tile gid="108"/>
   <tile gid="108"/>
   <tile gid="108"/>
   <tile gid="108"/>
   <tile gid="108"/>
   <tile gid="108"/>
   <tile gid="108"/>
   <tile gid="108"/>
   <tile gid="108"/>
   <tile gid="108"/>
   <tile gid="108"/>
   <tile gid="108"/>
   <tile gid="108"/>
   <tile gid="108"/>
   <tile gid="108"/>
   <tile gid="108"/>
   <tile gid="108"/>
   <tile gid="108"/>
   <tile gid="108"/>
   <tile gid="108"/>
   <tile gid="108"/>
   <tile gid="108"/>
   <tile gid="108"/>
   <tile gid="108"/>
   <tile gid="108"/>
   <tile gid="108"/>
   <tile gid="108"/>
   <tile gid="108"/>
   <tile gid="108"/>
   <tile gid="108"/>
   <tile gid="108"/>
   <tile gid="108"/>
   <tile gid="108"/>
   <tile gid="108"/>
   <tile gid="108"/>
   <tile gid="108"/>
   <tile gid="108"/>
   <tile gid="108"/>
   <tile gid="108"/>
   <tile gid="108"/>
   <tile gid="108"/>
   <tile gid="108"/>
   <tile gid="108"/>
   <tile gid="108"/>
   <tile gid="108"/>
   <tile gid="108"/>
   <tile gid="108"/>
   <tile gid="108"/>
   <tile gid="108"/>
   <tile gid="108"/>
   <tile gid="108"/>
   <tile gid="108"/>
   <tile gid="108"/>
   <tile gid="109"/>
   <tile/>
   <tile/>
   <tile/>
   <tile/>
   <tile gid="107"/>
   <tile gid="108"/>
   <tile gid="108"/>
   <tile gid="108"/>
   <tile gid="108"/>
   <tile gid="108"/>
   <tile gid="108"/>
   <tile gid="108"/>
   <tile gid="108"/>
   <tile gid="108"/>
   <tile gid="108"/>
   <tile gid="108"/>
   <tile gid="108"/>
   <tile gid="108"/>
   <tile gid="108"/>
   <tile gid="108"/>
   <tile gid="108"/>
   <tile gid="108"/>
   <tile gid="108"/>
   <tile gid="108"/>
   <tile gid="108"/>
   <tile gid="108"/>
   <tile gid="108"/>
   <tile gid="108"/>
   <tile gid="108"/>
   <tile gid="108"/>
   <tile gid="108"/>
   <tile gid="108"/>
   <tile gid="108"/>
   <tile gid="108"/>
   <tile gid="108"/>
   <tile gid="108"/>
   <tile gid="108"/>
   <tile gid="108"/>
   <tile gid="108"/>
   <tile gid="108"/>
   <tile gid="108"/>
   <tile gid="108"/>
   <tile gid="108"/>
   <tile gid="108"/>
   <tile gid="108"/>
   <tile gid="108"/>
   <tile gid="108"/>
   <tile gid="108"/>
   <tile gid="108"/>
   <tile gid="108"/>
   <tile gid="108"/>
   <tile gid="108"/>
   <tile gid="108"/>
   <tile gid="108"/>
   <tile gid="108"/>
   <tile gid="108"/>
   <tile gid="108"/>
   <tile gid="124"/>
   <tile gid="124"/>
   <tile gid="125"/>
   <tile/>
   <tile/>
   <tile/>
   <tile/>
   <tile gid="123"/>
   <tile gid="124"/>
   <tile gid="108"/>
   <tile gid="108"/>
   <tile gid="108"/>
   <tile gid="108"/>
   <tile gid="108"/>
   <tile gid="108"/>
   <tile gid="108"/>
   <tile gid="108"/>
   <tile gid="108"/>
   <tile gid="108"/>
   <tile gid="108"/>
   <tile gid="108"/>
   <tile gid="108"/>
   <tile gid="108"/>
   <tile gid="108"/>
   <tile gid="108"/>
   <tile gid="108"/>
   <tile gid="108"/>
   <tile gid="108"/>
   <tile gid="108"/>
   <tile gid="108"/>
   <tile gid="108"/>
   <tile gid="108"/>
   <tile gid="108"/>
   <tile gid="108"/>
   <tile gid="108"/>
   <tile gid="108"/>
   <tile gid="108"/>
   <tile gid="108"/>
   <tile gid="108"/>
   <tile gid="108"/>
   <tile gid="108"/>
   <tile gid="108"/>
   <tile gid="108"/>
   <tile gid="108"/>
   <tile gid="108"/>
   <tile gid="108"/>
   <tile gid="108"/>
   <tile gid="108"/>
   <tile gid="108"/>
   <tile gid="108"/>
   <tile gid="108"/>
   <tile gid="108"/>
   <tile gid="108"/>
   <tile gid="108"/>
   <tile gid="108"/>
   <tile gid="108"/>
   <tile gid="108"/>
   <tile gid="108"/>
   <tile gid="124"/>
   <tile gid="125"/>
   <tile gid="60"/>
   <tile gid="60"/>
   <tile gid="60"/>
   <tile gid="60"/>
   <tile/>
   <tile gid="60"/>
   <tile gid="60"/>
   <tile gid="60"/>
   <tile gid="60"/>
   <tile gid="123"/>
   <tile gid="108"/>
   <tile gid="108"/>
   <tile gid="108"/>
   <tile gid="108"/>
   <tile gid="108"/>
   <tile gid="108"/>
   <tile gid="108"/>
   <tile gid="108"/>
   <tile gid="108"/>
   <tile gid="108"/>
   <tile gid="108"/>
   <tile gid="108"/>
   <tile gid="108"/>
   <tile gid="108"/>
   <tile gid="108"/>
   <tile gid="108"/>
   <tile gid="108"/>
   <tile gid="108"/>
   <tile gid="108"/>
   <tile gid="108"/>
   <tile gid="108"/>
   <tile gid="108"/>
   <tile gid="108"/>
   <tile gid="108"/>
   <tile gid="108"/>
   <tile gid="108"/>
   <tile gid="108"/>
   <tile gid="108"/>
   <tile gid="108"/>
   <tile gid="108"/>
   <tile gid="108"/>
   <tile gid="108"/>
   <tile gid="108"/>
   <tile gid="108"/>
   <tile gid="108"/>
   <tile gid="108"/>
   <tile gid="108"/>
   <tile gid="108"/>
   <tile gid="108"/>
   <tile gid="108"/>
   <tile gid="108"/>
   <tile gid="108"/>
   <tile gid="108"/>
   <tile gid="108"/>
   <tile gid="108"/>
   <tile gid="108"/>
   <tile gid="108"/>
   <tile gid="125"/>
   <tile gid="60"/>
   <tile gid="60"/>
   <tile gid="60"/>
   <tile gid="60"/>
   <tile gid="60"/>
   <tile gid="60"/>
   <tile gid="60"/>
   <tile gid="60"/>
   <tile gid="60"/>
   <tile gid="60"/>
   <tile gid="60"/>
   <tile gid="60"/>
   <tile gid="123"/>
   <tile gid="108"/>
   <tile gid="108"/>
   <tile gid="108"/>
   <tile gid="108"/>
   <tile gid="108"/>
   <tile gid="108"/>
   <tile gid="108"/>
   <tile gid="108"/>
   <tile gid="108"/>
   <tile gid="108"/>
   <tile gid="108"/>
   <tile gid="108"/>
   <tile gid="108"/>
   <tile gid="108"/>
   <tile gid="108"/>
   <tile gid="108"/>
   <tile gid="108"/>
   <tile gid="108"/>
   <tile gid="108"/>
   <tile gid="108"/>
   <tile gid="108"/>
   <tile gid="108"/>
   <tile gid="108"/>
   <tile gid="108"/>
   <tile gid="108"/>
   <tile gid="108"/>
   <tile gid="108"/>
   <tile gid="108"/>
   <tile gid="108"/>
   <tile gid="108"/>
   <tile gid="108"/>
   <tile gid="108"/>
   <tile gid="108"/>
   <tile gid="108"/>
   <tile gid="108"/>
   <tile gid="108"/>
   <tile gid="108"/>
   <tile gid="108"/>
   <tile gid="108"/>
   <tile gid="108"/>
   <tile gid="108"/>
   <tile gid="108"/>
   <tile gid="108"/>
   <tile gid="108"/>
   <tile gid="108"/>
   <tile gid="109"/>
   <tile gid="60"/>
   <tile gid="60"/>
   <tile gid="60"/>
   <tile gid="60"/>
   <tile gid="60"/>
   <tile gid="60"/>
   <tile gid="60"/>
   <tile gid="60"/>
   <tile gid="60"/>
   <tile gid="60"/>
   <tile gid="60"/>
   <tile gid="60"/>
   <tile gid="60"/>
   <tile gid="60"/>
   <tile gid="123"/>
   <tile gid="108"/>
   <tile gid="108"/>
   <tile gid="108"/>
   <tile gid="108"/>
   <tile gid="108"/>
   <tile gid="108"/>
   <tile gid="108"/>
   <tile gid="108"/>
   <tile gid="108"/>
   <tile gid="108"/>
   <tile gid="108"/>
   <tile gid="108"/>
   <tile gid="108"/>
   <tile gid="108"/>
   <tile gid="108"/>
   <tile gid="108"/>
   <tile gid="108"/>
   <tile gid="108"/>
   <tile gid="108"/>
   <tile gid="108"/>
   <tile gid="108"/>
   <tile gid="108"/>
   <tile gid="108"/>
   <tile gid="108"/>
   <tile gid="108"/>
   <tile gid="108"/>
   <tile gid="124"/>
   <tile gid="124"/>
   <tile gid="108"/>
   <tile gid="108"/>
   <tile gid="108"/>
   <tile gid="108"/>
   <tile gid="108"/>
   <tile gid="108"/>
   <tile gid="108"/>
   <tile gid="108"/>
   <tile gid="108"/>
   <tile gid="108"/>
   <tile gid="108"/>
   <tile gid="108"/>
   <tile gid="108"/>
   <tile gid="108"/>
   <tile gid="108"/>
   <tile gid="108"/>
   <tile gid="109"/>
   <tile gid="60"/>
   <tile gid="60"/>
   <tile gid="60"/>
   <tile gid="60"/>
   <tile gid="60"/>
   <tile gid="60"/>
   <tile gid="60"/>
   <tile gid="60"/>
   <tile gid="60"/>
   <tile gid="60"/>
   <tile gid="60"/>
   <tile gid="60"/>
   <tile gid="60"/>
   <tile gid="60"/>
   <tile gid="60"/>
   <tile gid="123"/>
   <tile gid="108"/>
   <tile gid="108"/>
   <tile gid="108"/>
   <tile gid="108"/>
   <tile gid="108"/>
   <tile gid="108"/>
   <tile gid="108"/>
   <tile gid="108"/>
   <tile gid="108"/>
   <tile gid="108"/>
   <tile gid="108"/>
   <tile gid="108"/>
   <tile gid="108"/>
   <tile gid="108"/>
   <tile gid="108"/>
   <tile gid="108"/>
   <tile gid="108"/>
   <tile gid="108"/>
   <tile gid="108"/>
   <tile gid="108"/>
   <tile gid="108"/>
   <tile gid="124"/>
   <tile gid="124"/>
   <tile gid="124"/>
   <tile gid="125"/>
   <tile gid="60"/>
   <tile gid="60"/>
   <tile gid="123"/>
   <tile gid="124"/>
   <tile gid="108"/>
   <tile gid="108"/>
   <tile gid="108"/>
   <tile gid="108"/>
   <tile gid="108"/>
   <tile gid="108"/>
   <tile gid="108"/>
   <tile gid="108"/>
   <tile gid="108"/>
   <tile gid="108"/>
   <tile gid="108"/>
   <tile gid="108"/>
   <tile gid="108"/>
   <tile gid="108"/>
   <tile gid="125"/>
   <tile gid="60"/>
   <tile gid="60"/>
   <tile gid="60"/>
   <tile gid="60"/>
   <tile gid="60"/>
   <tile gid="60"/>
   <tile gid="60"/>
   <tile gid="60"/>
   <tile gid="60"/>
   <tile gid="60"/>
   <tile gid="60"/>
   <tile gid="60"/>
   <tile gid="60"/>
   <tile gid="60"/>
   <tile gid="60"/>
   <tile gid="60"/>
   <tile gid="123"/>
   <tile gid="108"/>
   <tile gid="108"/>
   <tile gid="108"/>
   <tile gid="108"/>
   <tile gid="108"/>
   <tile gid="108"/>
   <tile gid="108"/>
   <tile gid="108"/>
   <tile gid="108"/>
   <tile gid="108"/>
   <tile gid="108"/>
   <tile gid="108"/>
   <tile gid="108"/>
   <tile gid="108"/>
   <tile gid="108"/>
   <tile gid="108"/>
   <tile gid="108"/>
   <tile gid="108"/>
   <tile gid="124"/>
   <tile gid="125"/>
   <tile gid="60"/>
   <tile gid="60"/>
   <tile gid="60"/>
   <tile gid="60"/>
   <tile gid="60"/>
   <tile gid="60"/>
   <tile gid="60"/>
   <tile gid="60"/>
   <tile gid="107"/>
   <tile gid="108"/>
   <tile gid="108"/>
   <tile gid="108"/>
   <tile gid="108"/>
   <tile gid="108"/>
   <tile gid="108"/>
   <tile gid="108"/>
   <tile gid="108"/>
   <tile gid="108"/>
   <tile gid="108"/>
   <tile gid="108"/>
   <tile gid="108"/>
   <tile gid="109"/>
   <tile gid="60"/>
   <tile gid="60"/>
   <tile gid="60"/>
   <tile gid="60"/>
   <tile gid="60"/>
   <tile gid="60"/>
   <tile gid="60"/>
   <tile gid="60"/>
   <tile gid="60"/>
   <tile gid="60"/>
   <tile gid="60"/>
   <tile gid="60"/>
   <tile gid="60"/>
   <tile gid="60"/>
   <tile gid="60"/>
   <tile gid="60"/>
   <tile gid="60"/>
   <tile gid="60"/>
   <tile gid="107"/>
   <tile gid="108"/>
   <tile gid="108"/>
   <tile gid="108"/>
   <tile gid="108"/>
   <tile gid="108"/>
   <tile gid="108"/>
   <tile gid="108"/>
   <tile gid="108"/>
   <tile gid="108"/>
   <tile gid="108"/>
   <tile gid="108"/>
   <tile gid="108"/>
   <tile gid="108"/>
   <tile gid="108"/>
   <tile gid="124"/>
   <tile gid="124"/>
   <tile gid="125"/>
   <tile gid="60"/>
   <tile gid="60"/>
   <tile gid="60"/>
   <tile gid="60"/>
   <tile gid="60"/>
   <tile gid="60"/>
   <tile gid="60"/>
   <tile gid="60"/>
   <tile gid="60"/>
   <tile gid="60"/>
   <tile gid="123"/>
   <tile gid="124"/>
   <tile gid="124"/>
   <tile gid="108"/>
   <tile gid="108"/>
   <tile gid="108"/>
   <tile gid="108"/>
   <tile gid="108"/>
   <tile gid="108"/>
   <tile gid="108"/>
   <tile gid="108"/>
   <tile gid="108"/>
   <tile gid="108"/>
   <tile gid="125"/>
   <tile gid="60"/>
   <tile gid="60"/>
   <tile gid="60"/>
   <tile gid="60"/>
   <tile gid="60"/>
   <tile gid="60"/>
   <tile gid="60"/>
   <tile gid="60"/>
   <tile gid="60"/>
   <tile gid="60"/>
   <tile gid="60"/>
   <tile gid="60"/>
   <tile gid="60"/>
   <tile gid="60"/>
   <tile gid="60"/>
   <tile gid="60"/>
   <tile gid="60"/>
   <tile gid="60"/>
   <tile gid="123"/>
   <tile gid="108"/>
   <tile gid="108"/>
   <tile gid="108"/>
   <tile gid="108"/>
   <tile gid="108"/>
   <tile gid="108"/>
   <tile gid="108"/>
   <tile gid="108"/>
   <tile gid="108"/>
   <tile gid="108"/>
   <tile gid="108"/>
   <tile gid="108"/>
   <tile gid="108"/>
   <tile gid="109"/>
   <tile gid="60"/>
   <tile gid="60"/>
   <tile gid="60"/>
   <tile gid="60"/>
   <tile gid="60"/>
   <tile gid="60"/>
   <tile gid="60"/>
   <tile gid="60"/>
   <tile gid="60"/>
   <tile gid="60"/>
   <tile gid="60"/>
   <tile gid="60"/>
   <tile gid="60"/>
   <tile gid="60"/>
   <tile gid="60"/>
   <tile gid="60"/>
   <tile gid="107"/>
   <tile gid="108"/>
   <tile gid="108"/>
   <tile gid="108"/>
   <tile gid="108"/>
   <tile gid="108"/>
   <tile gid="108"/>
   <tile gid="108"/>
   <tile gid="108"/>
   <tile gid="109"/>
   <tile gid="60"/>
   <tile gid="60"/>
   <tile gid="60"/>
   <tile gid="60"/>
   <tile gid="60"/>
   <tile gid="60"/>
   <tile gid="60"/>
   <tile gid="60"/>
   <tile gid="60"/>
   <tile gid="60"/>
   <tile gid="60"/>
   <tile gid="60"/>
   <tile gid="60"/>
   <tile gid="60"/>
   <tile gid="60"/>
   <tile gid="60"/>
   <tile gid="60"/>
   <tile gid="60"/>
   <tile gid="60"/>
   <tile gid="60"/>
   <tile gid="123"/>
   <tile gid="108"/>
   <tile gid="108"/>
   <tile gid="108"/>
   <tile gid="108"/>
   <tile gid="108"/>
   <tile gid="108"/>
   <tile gid="108"/>
   <tile gid="108"/>
   <tile gid="108"/>
   <tile gid="108"/>
   <tile gid="108"/>
   <tile gid="108"/>
   <tile gid="109"/>
   <tile gid="60"/>
   <tile gid="60"/>
   <tile gid="60"/>
   <tile gid="60"/>
   <tile gid="60"/>
   <tile gid="60"/>
   <tile gid="60"/>
   <tile gid="60"/>
   <tile gid="60"/>
   <tile gid="60"/>
   <tile gid="60"/>
   <tile gid="60"/>
   <tile gid="60"/>
   <tile gid="60"/>
   <tile gid="60"/>
   <tile gid="60"/>
   <tile gid="107"/>
   <tile gid="108"/>
   <tile gid="108"/>
   <tile gid="108"/>
   <tile gid="108"/>
   <tile gid="108"/>
   <tile gid="108"/>
   <tile gid="108"/>
   <tile gid="108"/>
   <tile gid="109"/>
   <tile gid="60"/>
   <tile gid="60"/>
   <tile gid="60"/>
   <tile gid="60"/>
   <tile gid="60"/>
   <tile gid="60"/>
   <tile gid="60"/>
   <tile gid="60"/>
   <tile gid="60"/>
   <tile gid="60"/>
   <tile gid="60"/>
   <tile gid="60"/>
   <tile gid="60"/>
   <tile gid="60"/>
   <tile gid="60"/>
   <tile gid="60"/>
   <tile gid="60"/>
   <tile gid="60"/>
   <tile gid="60"/>
   <tile gid="60"/>
   <tile gid="60"/>
   <tile gid="123"/>
   <tile gid="108"/>
   <tile gid="108"/>
   <tile gid="108"/>
   <tile gid="108"/>
   <tile gid="108"/>
   <tile gid="108"/>
   <tile gid="108"/>
   <tile gid="108"/>
   <tile gid="108"/>
   <tile gid="108"/>
   <tile gid="108"/>
   <tile gid="109"/>
   <tile gid="60"/>
   <tile gid="60"/>
   <tile gid="60"/>
   <tile gid="60"/>
   <tile gid="60"/>
   <tile gid="60"/>
   <tile gid="60"/>
   <tile gid="60"/>
   <tile gid="60"/>
   <tile gid="60"/>
   <tile gid="60"/>
   <tile gid="60"/>
   <tile gid="60"/>
   <tile gid="60"/>
   <tile gid="60"/>
   <tile gid="60"/>
   <tile gid="107"/>
   <tile gid="108"/>
   <tile gid="108"/>
   <tile gid="108"/>
   <tile gid="108"/>
   <tile gid="108"/>
   <tile gid="108"/>
   <tile gid="108"/>
   <tile gid="108"/>
   <tile gid="109"/>
   <tile gid="60"/>
   <tile gid="60"/>
   <tile gid="60"/>
   <tile gid="60"/>
   <tile gid="60"/>
   <tile gid="60"/>
   <tile gid="60"/>
   <tile gid="60"/>
   <tile gid="60"/>
   <tile gid="60"/>
   <tile gid="60"/>
   <tile gid="60"/>
   <tile gid="60"/>
   <tile gid="60"/>
   <tile gid="60"/>
   <tile gid="60"/>
   <tile gid="60"/>
   <tile gid="60"/>
   <tile gid="60"/>
   <tile gid="60"/>
   <tile gid="60"/>
   <tile gid="60"/>
   <tile gid="107"/>
   <tile gid="108"/>
   <tile gid="108"/>
   <tile gid="108"/>
   <tile gid="108"/>
   <tile gid="108"/>
   <tile gid="108"/>
   <tile gid="108"/>
   <tile gid="108"/>
   <tile gid="108"/>
   <tile gid="108"/>
   <tile gid="109"/>
   <tile gid="60"/>
   <tile gid="60"/>
   <tile gid="60"/>
   <tile gid="60"/>
   <tile gid="60"/>
   <tile gid="60"/>
   <tile gid="60"/>
   <tile gid="60"/>
   <tile gid="60"/>
   <tile gid="60"/>
   <tile gid="60"/>
   <tile gid="60"/>
   <tile gid="60"/>
   <tile gid="60"/>
   <tile gid="60"/>
   <tile gid="60"/>
   <tile gid="123"/>
   <tile gid="108"/>
   <tile gid="108"/>
   <tile gid="108"/>
   <tile gid="108"/>
   <tile gid="108"/>
   <tile gid="108"/>
   <tile gid="108"/>
   <tile gid="108"/>
   <tile gid="109"/>
   <tile gid="60"/>
   <tile gid="60"/>
   <tile gid="60"/>
   <tile gid="60"/>
   <tile gid="60"/>
   <tile gid="60"/>
   <tile gid="60"/>
   <tile gid="60"/>
   <tile gid="60"/>
   <tile gid="60"/>
   <tile gid="60"/>
   <tile gid="60"/>
   <tile gid="60"/>
   <tile gid="60"/>
   <tile gid="60"/>
   <tile gid="60"/>
   <tile gid="60"/>
   <tile gid="60"/>
   <tile gid="60"/>
   <tile gid="60"/>
   <tile gid="60"/>
   <tile gid="60"/>
   <tile gid="123"/>
   <tile gid="108"/>
   <tile gid="108"/>
   <tile gid="108"/>
   <tile gid="108"/>
   <tile gid="108"/>
   <tile gid="108"/>
   <tile gid="108"/>
   <tile gid="108"/>
   <tile gid="108"/>
   <tile gid="108"/>
   <tile gid="109"/>
   <tile gid="60"/>
   <tile gid="60"/>
   <tile gid="60"/>
   <tile gid="60"/>
   <tile gid="60"/>
   <tile gid="60"/>
   <tile gid="60"/>
   <tile gid="60"/>
   <tile gid="60"/>
   <tile gid="60"/>
   <tile gid="60"/>
   <tile gid="60"/>
   <tile gid="60"/>
   <tile gid="60"/>
   <tile gid="60"/>
   <tile gid="60"/>
   <tile gid="60"/>
   <tile gid="107"/>
   <tile gid="108"/>
   <tile gid="108"/>
   <tile gid="108"/>
   <tile gid="108"/>
   <tile gid="108"/>
   <tile gid="108"/>
   <tile gid="108"/>
   <tile gid="125"/>
   <tile gid="60"/>
   <tile gid="60"/>
   <tile gid="60"/>
   <tile gid="60"/>
   <tile gid="60"/>
   <tile gid="60"/>
   <tile gid="60"/>
   <tile gid="60"/>
   <tile gid="60"/>
   <tile gid="60"/>
   <tile gid="60"/>
   <tile gid="60"/>
   <tile gid="60"/>
   <tile gid="60"/>
   <tile gid="60"/>
   <tile gid="60"/>
   <tile gid="60"/>
   <tile gid="60"/>
   <tile gid="60"/>
   <tile gid="60"/>
   <tile gid="60"/>
   <tile gid="60"/>
   <tile gid="60"/>
   <tile gid="107"/>
   <tile gid="108"/>
   <tile gid="108"/>
   <tile gid="108"/>
   <tile gid="108"/>
   <tile gid="108"/>
   <tile gid="108"/>
   <tile gid="108"/>
   <tile gid="108"/>
   <tile gid="108"/>
   <tile gid="108"/>
   <tile gid="92"/>
   <tile gid="92"/>
   <tile gid="92"/>
   <tile gid="92"/>
   <tile gid="92"/>
   <tile gid="92"/>
   <tile gid="93"/>
   <tile gid="60"/>
   <tile gid="60"/>
   <tile gid="60"/>
   <tile gid="60"/>
   <tile gid="60"/>
   <tile gid="60"/>
   <tile gid="60"/>
   <tile gid="60"/>
   <tile gid="60"/>
   <tile gid="60"/>
   <tile gid="123"/>
   <tile gid="108"/>
   <tile gid="108"/>
   <tile gid="108"/>
   <tile gid="108"/>
   <tile gid="108"/>
   <tile gid="108"/>
   <tile gid="109"/>
   <tile gid="60"/>
   <tile gid="60"/>
   <tile gid="60"/>
   <tile gid="60"/>
   <tile gid="60"/>
   <tile gid="60"/>
   <tile gid="60"/>
   <tile gid="60"/>
   <tile gid="60"/>
   <tile gid="60"/>
   <tile gid="60"/>
   <tile gid="60"/>
   <tile gid="60"/>
   <tile gid="60"/>
   <tile gid="60"/>
   <tile gid="60"/>
   <tile gid="60"/>
   <tile gid="60"/>
   <tile gid="60"/>
   <tile gid="60"/>
   <tile gid="60"/>
   <tile gid="60"/>
   <tile gid="60"/>
   <tile gid="60"/>
   <tile gid="123"/>
   <tile gid="124"/>
   <tile gid="124"/>
   <tile gid="124"/>
   <tile gid="124"/>
   <tile gid="124"/>
   <tile gid="124"/>
   <tile gid="108"/>
   <tile gid="108"/>
   <tile gid="108"/>
   <tile gid="108"/>
   <tile gid="108"/>
   <tile gid="108"/>
   <tile gid="108"/>
   <tile gid="108"/>
   <tile gid="108"/>
   <tile gid="108"/>
   <tile gid="108"/>
   <tile gid="93"/>
   <tile gid="60"/>
   <tile gid="60"/>
   <tile gid="60"/>
   <tile gid="60"/>
   <tile gid="60"/>
   <tile gid="60"/>
   <tile gid="60"/>
   <tile gid="60"/>
   <tile gid="60"/>
   <tile gid="60"/>
   <tile gid="107"/>
   <tile gid="108"/>
   <tile gid="108"/>
   <tile gid="108"/>
   <tile gid="108"/>
   <tile gid="108"/>
   <tile gid="109"/>
   <tile gid="60"/>
   <tile gid="60"/>
   <tile gid="60"/>
   <tile gid="60"/>
   <tile gid="60"/>
   <tile gid="60"/>
   <tile gid="60"/>
   <tile gid="60"/>
   <tile gid="60"/>
   <tile gid="60"/>
   <tile gid="60"/>
   <tile gid="60"/>
   <tile gid="60"/>
   <tile gid="60"/>
   <tile gid="60"/>
   <tile gid="60"/>
   <tile gid="60"/>
   <tile gid="60"/>
   <tile gid="60"/>
   <tile gid="60"/>
   <tile gid="60"/>
   <tile gid="60"/>
   <tile gid="60"/>
   <tile gid="60"/>
   <tile gid="60"/>
   <tile gid="60"/>
   <tile gid="60"/>
   <tile gid="60"/>
   <tile gid="60"/>
   <tile gid="60"/>
   <tile gid="60"/>
   <tile gid="108"/>
   <tile gid="108"/>
   <tile gid="108"/>
   <tile gid="108"/>
   <tile gid="108"/>
   <tile gid="108"/>
   <tile gid="108"/>
   <tile gid="108"/>
   <tile gid="108"/>
   <tile gid="108"/>
   <tile gid="108"/>
   <tile gid="108"/>
   <tile gid="60"/>
   <tile gid="60"/>
   <tile gid="60"/>
   <tile gid="60"/>
   <tile gid="60"/>
   <tile gid="60"/>
   <tile gid="60"/>
   <tile gid="60"/>
   <tile gid="60"/>
   <tile gid="60"/>
   <tile gid="107"/>
   <tile gid="108"/>
   <tile gid="108"/>
   <tile gid="108"/>
   <tile gid="108"/>
   <tile gid="108"/>
   <tile gid="109"/>
   <tile gid="60"/>
   <tile gid="60"/>
   <tile gid="60"/>
   <tile gid="60"/>
   <tile gid="60"/>
   <tile gid="60"/>
   <tile gid="60"/>
   <tile/>
   <tile/>
   <tile/>
   <tile/>
   <tile/>
   <tile/>
   <tile/>
   <tile gid="60"/>
   <tile gid="60"/>
   <tile gid="60"/>
   <tile gid="60"/>
   <tile gid="60"/>
   <tile gid="60"/>
   <tile gid="60"/>
   <tile gid="60"/>
   <tile gid="60"/>
   <tile gid="60"/>
   <tile gid="60"/>
   <tile gid="60"/>
   <tile gid="60"/>
   <tile gid="60"/>
   <tile gid="60"/>
   <tile gid="60"/>
   <tile gid="60"/>
   <tile gid="108"/>
   <tile gid="108"/>
   <tile gid="108"/>
   <tile gid="108"/>
   <tile gid="108"/>
   <tile gid="108"/>
   <tile gid="108"/>
   <tile gid="108"/>
   <tile gid="108"/>
   <tile gid="108"/>
   <tile gid="108"/>
   <tile gid="108"/>
   <tile gid="93"/>
   <tile gid="60"/>
   <tile gid="60"/>
   <tile gid="60"/>
   <tile gid="60"/>
   <tile gid="60"/>
   <tile gid="60"/>
   <tile gid="60"/>
   <tile gid="60"/>
   <tile gid="60"/>
   <tile gid="107"/>
   <tile gid="108"/>
   <tile gid="108"/>
   <tile gid="108"/>
   <tile gid="108"/>
   <tile gid="108"/>
   <tile gid="109"/>
   <tile gid="60"/>
   <tile gid="60"/>
   <tile gid="60"/>
   <tile gid="60"/>
   <tile gid="60"/>
   <tile gid="60"/>
   <tile gid="60"/>
   <tile gid="60"/>
   <tile gid="60"/>
   <tile gid="60"/>
   <tile gid="60"/>
   <tile gid="60"/>
   <tile gid="60"/>
   <tile gid="60"/>
   <tile gid="60"/>
   <tile gid="60"/>
   <tile gid="60"/>
   <tile gid="60"/>
   <tile gid="60"/>
   <tile gid="60"/>
   <tile gid="60"/>
   <tile gid="60"/>
   <tile gid="60"/>
   <tile gid="60"/>
   <tile gid="60"/>
   <tile gid="60"/>
   <tile gid="60"/>
   <tile gid="60"/>
   <tile gid="60"/>
   <tile gid="60"/>
   <tile gid="60"/>
   <tile gid="108"/>
   <tile gid="108"/>
   <tile gid="108"/>
   <tile gid="108"/>
   <tile gid="108"/>
   <tile gid="108"/>
   <tile gid="108"/>
   <tile gid="108"/>
   <tile gid="108"/>
   <tile gid="108"/>
   <tile gid="108"/>
   <tile gid="108"/>
   <tile gid="108"/>
   <tile gid="92"/>
   <tile gid="92"/>
   <tile gid="93"/>
   <tile gid="60"/>
   <tile gid="60"/>
   <tile gid="60"/>
   <tile gid="60"/>
   <tile gid="60"/>
   <tile gid="60"/>
   <tile gid="107"/>
   <tile gid="108"/>
   <tile gid="108"/>
   <tile gid="108"/>
   <tile gid="108"/>
   <tile gid="108"/>
   <tile gid="125"/>
   <tile gid="60"/>
   <tile gid="60"/>
   <tile/>
   <tile/>
   <tile/>
   <tile/>
   <tile/>
   <tile/>
   <tile/>
   <tile/>
   <tile/>
   <tile gid="60"/>
   <tile gid="60"/>
   <tile gid="60"/>
   <tile/>
   <tile/>
   <tile/>
   <tile/>
   <tile/>
   <tile gid="60"/>
   <tile gid="60"/>
   <tile gid="60"/>
   <tile gid="60"/>
   <tile gid="60"/>
   <tile gid="60"/>
   <tile gid="60"/>
   <tile gid="60"/>
   <tile gid="60"/>
   <tile gid="60"/>
   <tile gid="60"/>
   <tile gid="60"/>
   <tile gid="108"/>
   <tile gid="108"/>
   <tile gid="108"/>
   <tile gid="108"/>
   <tile gid="108"/>
   <tile gid="108"/>
   <tile gid="108"/>
   <tile gid="108"/>
   <tile gid="108"/>
   <tile gid="108"/>
   <tile gid="108"/>
   <tile gid="108"/>
   <tile gid="108"/>
   <tile gid="108"/>
   <tile gid="108"/>
   <tile gid="108"/>
   <tile gid="60"/>
   <tile gid="60"/>
   <tile gid="60"/>
   <tile gid="60"/>
   <tile gid="60"/>
   <tile gid="60"/>
   <tile gid="123"/>
   <tile gid="124"/>
   <tile gid="124"/>
   <tile gid="124"/>
   <tile gid="124"/>
   <tile gid="125"/>
   <tile gid="60"/>
   <tile gid="60"/>
   <tile gid="60"/>
   <tile gid="60"/>
   <tile gid="60"/>
   <tile gid="60"/>
   <tile gid="60"/>
   <tile gid="60"/>
   <tile gid="60"/>
   <tile gid="60"/>
   <tile gid="60"/>
   <tile/>
   <tile/>
   <tile/>
   <tile/>
   <tile/>
   <tile gid="60"/>
   <tile gid="60"/>
   <tile gid="60"/>
   <tile gid="60"/>
   <tile gid="60"/>
   <tile gid="60"/>
   <tile gid="60"/>
   <tile gid="60"/>
   <tile gid="60"/>
   <tile gid="60"/>
   <tile gid="60"/>
   <tile gid="60"/>
   <tile gid="91"/>
   <tile gid="92"/>
   <tile gid="92"/>
   <tile gid="92"/>
   <tile gid="108"/>
   <tile gid="108"/>
   <tile gid="108"/>
   <tile gid="108"/>
   <tile gid="108"/>
   <tile gid="108"/>
   <tile gid="108"/>
   <tile gid="108"/>
   <tile gid="108"/>
   <tile gid="108"/>
   <tile gid="108"/>
   <tile gid="108"/>
   <tile gid="108"/>
   <tile gid="108"/>
   <tile gid="108"/>
   <tile gid="108"/>
   <tile gid="92"/>
   <tile gid="93"/>
   <tile gid="60"/>
   <tile gid="60"/>
   <tile gid="60"/>
   <tile gid="60"/>
   <tile gid="60"/>
   <tile gid="60"/>
   <tile gid="60"/>
   <tile gid="60"/>
   <tile gid="60"/>
   <tile gid="60"/>
   <tile gid="60"/>
   <tile gid="60"/>
   <tile gid="60"/>
   <tile gid="60"/>
   <tile gid="60"/>
   <tile gid="60"/>
   <tile gid="60"/>
   <tile gid="60"/>
   <tile gid="60"/>
   <tile gid="60"/>
   <tile gid="60"/>
   <tile gid="60"/>
   <tile gid="60"/>
   <tile gid="60"/>
   <tile gid="60"/>
   <tile gid="60"/>
   <tile gid="60"/>
   <tile gid="60"/>
   <tile gid="60"/>
   <tile gid="60"/>
   <tile gid="60"/>
   <tile gid="60"/>
   <tile gid="60"/>
   <tile gid="60"/>
   <tile gid="60"/>
   <tile gid="60"/>
   <tile gid="60"/>
   <tile gid="60"/>
   <tile gid="107"/>
   <tile gid="108"/>
   <tile gid="108"/>
   <tile gid="108"/>
   <tile gid="108"/>
   <tile gid="108"/>
   <tile gid="108"/>
   <tile gid="108"/>
   <tile gid="108"/>
   <tile gid="108"/>
   <tile gid="108"/>
   <tile gid="108"/>
   <tile gid="108"/>
   <tile gid="108"/>
   <tile gid="108"/>
   <tile gid="108"/>
   <tile gid="108"/>
   <tile gid="108"/>
   <tile gid="108"/>
   <tile gid="108"/>
   <tile gid="108"/>
   <tile gid="108"/>
   <tile gid="92"/>
   <tile gid="92"/>
   <tile gid="92"/>
   <tile gid="92"/>
   <tile gid="92"/>
   <tile gid="92"/>
   <tile gid="92"/>
   <tile gid="92"/>
   <tile gid="92"/>
   <tile gid="92"/>
   <tile gid="92"/>
   <tile gid="92"/>
   <tile gid="92"/>
   <tile gid="92"/>
   <tile gid="92"/>
   <tile gid="92"/>
   <tile gid="92"/>
   <tile gid="92"/>
   <tile gid="92"/>
   <tile gid="93"/>
   <tile/>
   <tile/>
   <tile/>
   <tile/>
   <tile gid="91"/>
   <tile gid="92"/>
   <tile gid="92"/>
   <tile gid="92"/>
   <tile gid="92"/>
   <tile gid="92"/>
   <tile gid="92"/>
   <tile gid="92"/>
   <tile gid="92"/>
   <tile gid="92"/>
   <tile gid="92"/>
   <tile gid="92"/>
   <tile gid="92"/>
   <tile gid="92"/>
   <tile gid="108"/>
   <tile gid="108"/>
   <tile gid="108"/>
   <tile gid="108"/>
   <tile gid="108"/>
   <tile gid="108"/>
   <tile gid="108"/>
   <tile gid="108"/>
   <tile gid="108"/>
   <tile gid="108"/>
   <tile gid="108"/>
   <tile gid="108"/>
   <tile gid="108"/>
   <tile gid="108"/>
   <tile gid="108"/>
   <tile gid="108"/>
   <tile gid="108"/>
   <tile gid="108"/>
   <tile gid="108"/>
   <tile gid="108"/>
   <tile gid="108"/>
   <tile gid="108"/>
   <tile gid="108"/>
   <tile gid="108"/>
   <tile gid="108"/>
   <tile gid="108"/>
   <tile gid="108"/>
   <tile gid="108"/>
   <tile gid="108"/>
   <tile gid="108"/>
   <tile gid="108"/>
   <tile gid="108"/>
   <tile gid="108"/>
   <tile gid="108"/>
   <tile gid="108"/>
   <tile gid="108"/>
   <tile gid="108"/>
   <tile gid="108"/>
   <tile gid="108"/>
   <tile gid="108"/>
   <tile gid="108"/>
   <tile gid="109"/>
   <tile gid="60"/>
   <tile gid="60"/>
   <tile gid="60"/>
   <tile/>
   <tile gid="107"/>
   <tile gid="108"/>
   <tile gid="108"/>
   <tile gid="108"/>
   <tile gid="108"/>
   <tile gid="108"/>
   <tile gid="108"/>
   <tile gid="108"/>
   <tile gid="108"/>
   <tile gid="108"/>
   <tile gid="108"/>
   <tile gid="108"/>
   <tile gid="108"/>
   <tile gid="108"/>
   <tile gid="108"/>
   <tile gid="108"/>
   <tile gid="108"/>
   <tile gid="108"/>
   <tile gid="108"/>
   <tile gid="108"/>
   <tile gid="108"/>
   <tile gid="108"/>
   <tile gid="108"/>
   <tile gid="108"/>
   <tile gid="108"/>
   <tile gid="108"/>
   <tile gid="108"/>
   <tile gid="108"/>
   <tile gid="108"/>
   <tile gid="108"/>
   <tile gid="108"/>
   <tile gid="108"/>
   <tile gid="108"/>
   <tile gid="108"/>
   <tile gid="108"/>
   <tile gid="108"/>
   <tile gid="108"/>
   <tile gid="108"/>
   <tile gid="108"/>
   <tile gid="108"/>
   <tile gid="108"/>
   <tile gid="108"/>
   <tile gid="108"/>
   <tile gid="108"/>
   <tile gid="108"/>
   <tile gid="108"/>
   <tile gid="108"/>
   <tile gid="108"/>
   <tile gid="108"/>
   <tile gid="108"/>
   <tile gid="108"/>
   <tile gid="108"/>
   <tile gid="108"/>
   <tile gid="108"/>
   <tile gid="108"/>
   <tile gid="109"/>
   <tile gid="60"/>
   <tile gid="60"/>
   <tile/>
   <tile gid="60"/>
   <tile gid="107"/>
   <tile gid="108"/>
   <tile gid="108"/>
   <tile gid="108"/>
   <tile gid="108"/>
   <tile gid="108"/>
   <tile gid="108"/>
   <tile gid="108"/>
   <tile gid="108"/>
   <tile gid="108"/>
   <tile gid="108"/>
   <tile gid="108"/>
   <tile gid="108"/>
   <tile gid="108"/>
   <tile gid="108"/>
   <tile gid="108"/>
   <tile gid="108"/>
   <tile gid="108"/>
   <tile gid="108"/>
   <tile gid="108"/>
   <tile gid="108"/>
   <tile gid="108"/>
   <tile gid="108"/>
   <tile gid="108"/>
   <tile gid="108"/>
   <tile gid="108"/>
   <tile gid="108"/>
   <tile gid="108"/>
   <tile gid="108"/>
   <tile gid="108"/>
   <tile gid="108"/>
   <tile gid="108"/>
   <tile gid="108"/>
   <tile gid="108"/>
   <tile gid="124"/>
   <tile gid="124"/>
   <tile gid="124"/>
   <tile gid="124"/>
   <tile gid="124"/>
   <tile gid="124"/>
   <tile gid="124"/>
   <tile gid="124"/>
   <tile gid="124"/>
   <tile gid="124"/>
   <tile gid="124"/>
   <tile gid="124"/>
   <tile gid="124"/>
   <tile gid="124"/>
   <tile gid="124"/>
   <tile gid="124"/>
   <tile gid="124"/>
   <tile gid="124"/>
   <tile gid="124"/>
   <tile gid="124"/>
   <tile gid="124"/>
   <tile gid="125"/>
   <tile gid="60"/>
   <tile gid="60"/>
   <tile/>
   <tile gid="60"/>
   <tile gid="123"/>
   <tile gid="124"/>
   <tile gid="108"/>
   <tile gid="108"/>
   <tile gid="108"/>
   <tile gid="108"/>
   <tile gid="108"/>
   <tile gid="108"/>
   <tile gid="108"/>
   <tile gid="108"/>
   <tile gid="108"/>
   <tile gid="108"/>
   <tile gid="108"/>
   <tile gid="108"/>
   <tile gid="108"/>
   <tile gid="108"/>
   <tile gid="108"/>
   <tile gid="108"/>
   <tile gid="108"/>
   <tile gid="108"/>
   <tile gid="108"/>
   <tile gid="108"/>
   <tile gid="108"/>
   <tile gid="108"/>
   <tile gid="108"/>
   <tile gid="108"/>
   <tile gid="108"/>
   <tile gid="108"/>
   <tile gid="108"/>
   <tile gid="108"/>
   <tile gid="108"/>
   <tile gid="124"/>
   <tile gid="124"/>
   <tile gid="125"/>
   <tile gid="60"/>
   <tile gid="60"/>
   <tile gid="60"/>
   <tile gid="60"/>
   <tile gid="60"/>
   <tile gid="60"/>
   <tile gid="60"/>
   <tile gid="60"/>
   <tile gid="60"/>
   <tile gid="60"/>
   <tile gid="60"/>
   <tile gid="60"/>
   <tile gid="60"/>
   <tile gid="60"/>
   <tile gid="60"/>
   <tile gid="60"/>
   <tile gid="60"/>
   <tile gid="60"/>
   <tile gid="60"/>
   <tile gid="60"/>
   <tile gid="60"/>
   <tile gid="60"/>
   <tile gid="60"/>
   <tile gid="60"/>
   <tile/>
   <tile gid="60"/>
   <tile gid="60"/>
   <tile gid="60"/>
   <tile gid="123"/>
   <tile gid="124"/>
   <tile gid="124"/>
   <tile gid="108"/>
   <tile gid="108"/>
   <tile gid="108"/>
   <tile gid="108"/>
   <tile gid="108"/>
   <tile gid="108"/>
   <tile gid="108"/>
   <tile gid="108"/>
   <tile gid="108"/>
   <tile gid="108"/>
   <tile gid="108"/>
   <tile gid="108"/>
   <tile gid="108"/>
   <tile gid="108"/>
   <tile gid="108"/>
   <tile gid="108"/>
   <tile gid="108"/>
   <tile gid="108"/>
   <tile gid="108"/>
   <tile gid="108"/>
   <tile gid="108"/>
   <tile gid="108"/>
   <tile gid="108"/>
   <tile gid="124"/>
   <tile gid="124"/>
   <tile gid="125"/>
   <tile gid="60"/>
   <tile gid="60"/>
   <tile gid="60"/>
   <tile gid="60"/>
   <tile gid="60"/>
   <tile gid="60"/>
   <tile gid="60"/>
   <tile gid="60"/>
   <tile gid="60"/>
   <tile gid="60"/>
   <tile gid="60"/>
   <tile gid="60"/>
   <tile gid="60"/>
   <tile gid="60"/>
   <tile gid="60"/>
   <tile gid="60"/>
   <tile gid="60"/>
   <tile gid="60"/>
   <tile gid="60"/>
   <tile gid="60"/>
   <tile gid="60"/>
   <tile gid="60"/>
   <tile gid="60"/>
   <tile gid="60"/>
   <tile gid="60"/>
   <tile gid="60"/>
   <tile gid="60"/>
   <tile/>
   <tile gid="60"/>
   <tile gid="60"/>
   <tile gid="60"/>
   <tile gid="60"/>
   <tile gid="60"/>
   <tile gid="60"/>
   <tile gid="123"/>
   <tile gid="124"/>
   <tile gid="108"/>
   <tile gid="108"/>
   <tile gid="108"/>
   <tile gid="108"/>
   <tile gid="108"/>
   <tile gid="108"/>
   <tile gid="108"/>
   <tile gid="108"/>
   <tile gid="108"/>
   <tile gid="108"/>
   <tile gid="108"/>
   <tile gid="108"/>
   <tile gid="108"/>
   <tile gid="108"/>
   <tile gid="108"/>
   <tile gid="108"/>
   <tile gid="108"/>
   <tile gid="108"/>
   <tile gid="108"/>
   <tile gid="124"/>
   <tile gid="125"/>
   <tile gid="60"/>
   <tile gid="60"/>
   <tile gid="60"/>
   <tile gid="60"/>
   <tile gid="60"/>
   <tile gid="60"/>
   <tile gid="60"/>
   <tile gid="60"/>
   <tile gid="60"/>
   <tile gid="60"/>
   <tile gid="60"/>
   <tile gid="60"/>
   <tile gid="60"/>
   <tile gid="60"/>
   <tile gid="60"/>
   <tile gid="60"/>
   <tile gid="60"/>
   <tile gid="60"/>
   <tile gid="60"/>
   <tile gid="60"/>
   <tile gid="60"/>
   <tile gid="60"/>
   <tile gid="60"/>
   <tile gid="60"/>
   <tile gid="60"/>
   <tile gid="60"/>
   <tile gid="60"/>
   <tile gid="60"/>
   <tile gid="60"/>
   <tile gid="60"/>
   <tile/>
   <tile gid="60"/>
   <tile gid="60"/>
   <tile gid="60"/>
   <tile gid="60"/>
   <tile gid="60"/>
   <tile gid="60"/>
   <tile gid="60"/>
   <tile gid="60"/>
   <tile gid="123"/>
   <tile gid="124"/>
   <tile gid="108"/>
   <tile gid="108"/>
   <tile gid="108"/>
   <tile gid="108"/>
   <tile gid="108"/>
   <tile gid="108"/>
   <tile gid="108"/>
   <tile gid="108"/>
   <tile gid="108"/>
   <tile gid="108"/>
   <tile gid="108"/>
   <tile gid="108"/>
   <tile gid="108"/>
   <tile gid="108"/>
   <tile gid="124"/>
   <tile gid="124"/>
   <tile gid="125"/>
   <tile gid="60"/>
   <tile gid="60"/>
   <tile gid="60"/>
   <tile gid="60"/>
   <tile gid="60"/>
   <tile gid="60"/>
   <tile gid="60"/>
   <tile gid="60"/>
   <tile gid="60"/>
   <tile gid="60"/>
   <tile gid="60"/>
   <tile gid="60"/>
   <tile gid="60"/>
   <tile gid="60"/>
   <tile gid="60"/>
   <tile gid="60"/>
   <tile gid="60"/>
   <tile gid="60"/>
   <tile gid="60"/>
   <tile gid="60"/>
   <tile gid="60"/>
   <tile gid="60"/>
   <tile gid="60"/>
   <tile gid="60"/>
   <tile gid="60"/>
   <tile gid="60"/>
   <tile gid="60"/>
   <tile gid="60"/>
   <tile gid="60"/>
   <tile gid="60"/>
   <tile gid="60"/>
   <tile gid="60"/>
   <tile/>
   <tile gid="60"/>
   <tile gid="60"/>
   <tile gid="60"/>
   <tile gid="60"/>
   <tile gid="60"/>
   <tile gid="60"/>
   <tile gid="60"/>
   <tile gid="60"/>
   <tile gid="60"/>
   <tile gid="60"/>
   <tile gid="123"/>
   <tile gid="124"/>
   <tile gid="108"/>
   <tile gid="108"/>
   <tile gid="108"/>
   <tile gid="108"/>
   <tile gid="108"/>
   <tile gid="108"/>
   <tile gid="108"/>
   <tile gid="108"/>
   <tile gid="108"/>
   <tile gid="108"/>
   <tile gid="124"/>
   <tile gid="125"/>
   <tile gid="60"/>
   <tile gid="60"/>
   <tile gid="60"/>
   <tile gid="60"/>
   <tile gid="60"/>
   <tile gid="60"/>
   <tile gid="60"/>
   <tile gid="60"/>
   <tile gid="60"/>
   <tile gid="60"/>
   <tile gid="60"/>
   <tile gid="60"/>
   <tile gid="60"/>
   <tile gid="60"/>
   <tile gid="60"/>
   <tile gid="60"/>
   <tile gid="60"/>
   <tile gid="60"/>
   <tile gid="60"/>
   <tile gid="60"/>
   <tile gid="60"/>
   <tile gid="60"/>
   <tile gid="60"/>
   <tile gid="60"/>
   <tile gid="60"/>
   <tile gid="60"/>
   <tile gid="60"/>
   <tile gid="60"/>
   <tile gid="60"/>
   <tile gid="60"/>
   <tile gid="60"/>
   <tile gid="60"/>
   <tile gid="60"/>
   <tile gid="60"/>
   <tile gid="60"/>
   <tile/>
   <tile gid="60"/>
   <tile gid="60"/>
   <tile gid="60"/>
   <tile gid="60"/>
   <tile gid="60"/>
   <tile gid="60"/>
   <tile gid="60"/>
   <tile gid="60"/>
   <tile gid="60"/>
   <tile gid="60"/>
   <tile gid="60"/>
   <tile gid="60"/>
   <tile gid="123"/>
   <tile gid="124"/>
   <tile gid="124"/>
   <tile gid="124"/>
   <tile gid="124"/>
   <tile gid="124"/>
   <tile gid="124"/>
   <tile gid="108"/>
   <tile gid="108"/>
   <tile gid="109"/>
   <tile gid="60"/>
   <tile gid="60"/>
   <tile gid="60"/>
   <tile gid="60"/>
   <tile gid="60"/>
   <tile gid="60"/>
   <tile gid="60"/>
   <tile gid="60"/>
   <tile gid="60"/>
   <tile gid="60"/>
   <tile gid="60"/>
   <tile gid="60"/>
   <tile gid="60"/>
   <tile gid="60"/>
   <tile gid="60"/>
   <tile gid="60"/>
   <tile gid="60"/>
   <tile gid="60"/>
   <tile gid="60"/>
   <tile gid="60"/>
   <tile gid="60"/>
   <tile gid="60"/>
   <tile gid="60"/>
   <tile gid="60"/>
   <tile gid="60"/>
   <tile gid="60"/>
   <tile gid="60"/>
   <tile gid="60"/>
   <tile gid="60"/>
   <tile gid="60"/>
   <tile gid="60"/>
   <tile gid="60"/>
   <tile gid="60"/>
   <tile gid="60"/>
   <tile gid="60"/>
   <tile gid="60"/>
   <tile gid="60"/>
   <tile/>
   <tile gid="60"/>
   <tile gid="60"/>
   <tile gid="60"/>
   <tile gid="60"/>
   <tile gid="60"/>
   <tile gid="60"/>
   <tile gid="60"/>
   <tile gid="60"/>
   <tile gid="60"/>
   <tile gid="60"/>
   <tile gid="60"/>
   <tile gid="60"/>
   <tile gid="60"/>
   <tile gid="60"/>
   <tile gid="60"/>
   <tile gid="60"/>
   <tile gid="60"/>
   <tile gid="60"/>
   <tile gid="60"/>
   <tile gid="108"/>
   <tile gid="108"/>
   <tile gid="109"/>
   <tile gid="60"/>
   <tile gid="60"/>
   <tile gid="60"/>
   <tile gid="60"/>
   <tile gid="60"/>
   <tile gid="60"/>
   <tile gid="60"/>
   <tile gid="60"/>
   <tile gid="60"/>
   <tile gid="60"/>
   <tile gid="60"/>
   <tile gid="60"/>
   <tile gid="60"/>
   <tile gid="60"/>
   <tile gid="60"/>
   <tile gid="60"/>
   <tile gid="60"/>
   <tile gid="60"/>
   <tile gid="60"/>
   <tile gid="60"/>
   <tile gid="60"/>
   <tile gid="60"/>
   <tile gid="60"/>
   <tile gid="60"/>
   <tile gid="60"/>
   <tile gid="60"/>
   <tile gid="60"/>
   <tile gid="60"/>
   <tile gid="60"/>
   <tile gid="60"/>
   <tile gid="60"/>
   <tile gid="60"/>
   <tile gid="60"/>
   <tile gid="60"/>
   <tile gid="60"/>
   <tile gid="60"/>
   <tile gid="60"/>
   <tile/>
   <tile gid="60"/>
   <tile gid="60"/>
   <tile gid="60"/>
   <tile gid="60"/>
   <tile gid="60"/>
   <tile gid="60"/>
   <tile gid="60"/>
   <tile gid="60"/>
   <tile gid="60"/>
   <tile gid="60"/>
   <tile gid="60"/>
   <tile gid="60"/>
   <tile gid="60"/>
   <tile gid="60"/>
   <tile gid="60"/>
   <tile gid="60"/>
   <tile gid="60"/>
   <tile gid="60"/>
   <tile gid="60"/>
   <tile gid="108"/>
   <tile gid="108"/>
   <tile gid="109"/>
   <tile gid="60"/>
   <tile gid="60"/>
   <tile gid="60"/>
   <tile gid="60"/>
   <tile gid="60"/>
   <tile gid="60"/>
   <tile gid="60"/>
   <tile gid="60"/>
   <tile gid="60"/>
   <tile gid="60"/>
   <tile gid="60"/>
   <tile gid="60"/>
   <tile gid="60"/>
   <tile gid="60"/>
   <tile gid="60"/>
   <tile gid="60"/>
   <tile gid="60"/>
   <tile gid="60"/>
   <tile gid="60"/>
   <tile gid="60"/>
   <tile gid="60"/>
   <tile gid="60"/>
   <tile gid="60"/>
   <tile gid="60"/>
   <tile gid="60"/>
   <tile gid="60"/>
   <tile gid="60"/>
   <tile gid="60"/>
   <tile gid="60"/>
   <tile gid="60"/>
   <tile gid="60"/>
   <tile gid="60"/>
   <tile gid="60"/>
   <tile gid="60"/>
   <tile gid="60"/>
   <tile gid="60"/>
   <tile gid="60"/>
   <tile/>
   <tile/>
   <tile gid="60"/>
   <tile gid="60"/>
   <tile gid="60"/>
   <tile gid="60"/>
   <tile gid="60"/>
   <tile gid="60"/>
   <tile gid="60"/>
   <tile gid="60"/>
   <tile gid="60"/>
   <tile gid="60"/>
   <tile gid="60"/>
   <tile gid="60"/>
   <tile gid="60"/>
   <tile gid="60"/>
   <tile gid="60"/>
   <tile gid="60"/>
   <tile gid="60"/>
   <tile gid="60"/>
   <tile gid="108"/>
   <tile gid="108"/>
   <tile gid="109"/>
   <tile gid="60"/>
   <tile gid="60"/>
   <tile gid="60"/>
   <tile gid="60"/>
   <tile gid="60"/>
   <tile gid="60"/>
   <tile gid="60"/>
   <tile gid="60"/>
   <tile gid="60"/>
   <tile gid="60"/>
   <tile gid="60"/>
   <tile gid="60"/>
   <tile gid="60"/>
   <tile gid="60"/>
   <tile gid="60"/>
   <tile gid="60"/>
   <tile gid="60"/>
   <tile gid="60"/>
   <tile gid="60"/>
   <tile gid="60"/>
   <tile gid="60"/>
   <tile gid="60"/>
   <tile gid="60"/>
   <tile gid="60"/>
   <tile gid="60"/>
   <tile gid="60"/>
   <tile gid="60"/>
   <tile gid="60"/>
   <tile gid="60"/>
   <tile gid="60"/>
   <tile gid="60"/>
   <tile gid="60"/>
   <tile gid="60"/>
   <tile gid="60"/>
   <tile gid="60"/>
   <tile gid="60"/>
   <tile gid="60"/>
   <tile gid="60"/>
   <tile/>
   <tile gid="60"/>
   <tile gid="60"/>
   <tile gid="60"/>
   <tile gid="60"/>
   <tile gid="60"/>
   <tile gid="60"/>
   <tile gid="60"/>
   <tile gid="60"/>
   <tile gid="60"/>
   <tile gid="60"/>
   <tile gid="60"/>
   <tile gid="60"/>
   <tile gid="60"/>
   <tile gid="60"/>
   <tile gid="60"/>
   <tile gid="60"/>
   <tile gid="60"/>
   <tile gid="60"/>
   <tile gid="108"/>
   <tile gid="108"/>
   <tile gid="108"/>
   <tile gid="92"/>
   <tile gid="92"/>
   <tile gid="92"/>
   <tile gid="92"/>
   <tile gid="92"/>
   <tile gid="92"/>
   <tile gid="92"/>
   <tile gid="92"/>
   <tile gid="92"/>
   <tile gid="92"/>
   <tile gid="92"/>
   <tile gid="92"/>
   <tile gid="92"/>
   <tile gid="92"/>
   <tile gid="92"/>
   <tile gid="92"/>
   <tile gid="92"/>
   <tile gid="92"/>
   <tile gid="92"/>
   <tile gid="92"/>
   <tile gid="92"/>
   <tile gid="92"/>
   <tile gid="92"/>
   <tile gid="92"/>
   <tile gid="92"/>
   <tile gid="92"/>
   <tile gid="92"/>
   <tile gid="92"/>
   <tile gid="92"/>
   <tile gid="92"/>
   <tile gid="92"/>
   <tile gid="92"/>
   <tile gid="92"/>
   <tile gid="92"/>
   <tile gid="93"/>
   <tile/>
   <tile/>
   <tile/>
   <tile/>
   <tile gid="91"/>
   <tile gid="92"/>
   <tile gid="92"/>
   <tile gid="92"/>
   <tile gid="92"/>
   <tile gid="92"/>
   <tile gid="92"/>
   <tile gid="92"/>
   <tile gid="92"/>
   <tile gid="92"/>
   <tile gid="92"/>
   <tile gid="92"/>
   <tile gid="92"/>
   <tile gid="92"/>
   <tile gid="92"/>
   <tile gid="92"/>
   <tile gid="92"/>
   <tile gid="92"/>
   <tile gid="108"/>
   <tile gid="108"/>
   <tile gid="108"/>
   <tile gid="108"/>
   <tile gid="108"/>
   <tile gid="108"/>
   <tile gid="108"/>
   <tile gid="108"/>
   <tile gid="108"/>
   <tile gid="108"/>
   <tile gid="108"/>
   <tile gid="108"/>
   <tile gid="108"/>
   <tile gid="108"/>
   <tile gid="108"/>
   <tile gid="108"/>
   <tile gid="108"/>
   <tile gid="108"/>
   <tile gid="108"/>
   <tile gid="108"/>
   <tile gid="108"/>
   <tile gid="108"/>
   <tile gid="108"/>
   <tile gid="108"/>
   <tile gid="108"/>
   <tile gid="108"/>
   <tile gid="108"/>
   <tile gid="108"/>
   <tile gid="108"/>
   <tile gid="108"/>
   <tile gid="108"/>
   <tile gid="108"/>
   <tile gid="108"/>
   <tile gid="108"/>
   <tile gid="108"/>
   <tile gid="108"/>
   <tile gid="108"/>
   <tile gid="109"/>
   <tile gid="60"/>
   <tile gid="60"/>
   <tile gid="60"/>
   <tile gid="60"/>
   <tile gid="107"/>
   <tile gid="108"/>
   <tile gid="108"/>
   <tile gid="108"/>
   <tile gid="108"/>
   <tile gid="108"/>
   <tile gid="108"/>
   <tile gid="108"/>
   <tile gid="108"/>
   <tile gid="108"/>
   <tile gid="108"/>
   <tile gid="108"/>
   <tile gid="108"/>
   <tile gid="108"/>
   <tile gid="108"/>
   <tile gid="108"/>
   <tile gid="108"/>
   <tile gid="108"/>
  </data>
 </layer>
 <layer id="1" name="Map" width="60" height="68">
  <properties>
   <property name="Draw" type="bool" value="true"/>
  </properties>
  <data>
   <tile/>
   <tile/>
   <tile/>
   <tile/>
   <tile/>
   <tile/>
   <tile/>
   <tile/>
   <tile/>
   <tile/>
   <tile/>
   <tile/>
   <tile/>
   <tile/>
   <tile/>
   <tile/>
   <tile/>
   <tile/>
   <tile/>
   <tile/>
   <tile/>
   <tile/>
   <tile/>
   <tile/>
   <tile/>
   <tile/>
   <tile/>
   <tile/>
   <tile/>
   <tile/>
   <tile/>
   <tile/>
   <tile/>
   <tile/>
   <tile/>
   <tile/>
   <tile/>
   <tile/>
   <tile/>
   <tile/>
   <tile/>
   <tile/>
   <tile/>
   <tile/>
   <tile/>
   <tile/>
   <tile/>
   <tile/>
   <tile/>
   <tile/>
   <tile/>
   <tile/>
   <tile/>
   <tile/>
   <tile/>
   <tile/>
   <tile/>
   <tile/>
   <tile/>
   <tile/>
   <tile/>
   <tile/>
   <tile/>
   <tile/>
   <tile/>
   <tile/>
   <tile/>
   <tile/>
   <tile/>
   <tile/>
   <tile/>
   <tile/>
   <tile/>
   <tile/>
   <tile/>
   <tile/>
   <tile/>
   <tile/>
   <tile/>
   <tile/>
   <tile/>
   <tile/>
   <tile/>
   <tile/>
   <tile/>
   <tile/>
   <tile/>
   <tile/>
   <tile/>
   <tile/>
   <tile/>
   <tile/>
   <tile/>
   <tile/>
   <tile/>
   <tile/>
   <tile/>
   <tile/>
   <tile/>
   <tile/>
   <tile/>
   <tile/>
   <tile/>
   <tile/>
   <tile/>
   <tile/>
   <tile/>
   <tile/>
   <tile/>
   <tile/>
   <tile/>
   <tile/>
   <tile/>
   <tile/>
   <tile/>
   <tile/>
   <tile/>
   <tile/>
   <tile/>
   <tile/>
   <tile/>
   <tile/>
   <tile/>
   <tile/>
   <tile/>
   <tile/>
   <tile/>
   <tile/>
   <tile/>
   <tile/>
   <tile/>
   <tile/>
   <tile/>
   <tile/>
   <tile/>
   <tile/>
   <tile/>
   <tile/>
   <tile/>
   <tile/>
   <tile/>
   <tile/>
   <tile/>
   <tile/>
   <tile/>
   <tile/>
   <tile/>
   <tile/>
   <tile/>
   <tile/>
   <tile/>
   <tile/>
   <tile/>
   <tile/>
   <tile/>
   <tile/>
   <tile/>
   <tile/>
   <tile/>
   <tile/>
   <tile/>
   <tile/>
   <tile/>
   <tile/>
   <tile/>
   <tile/>
   <tile/>
   <tile/>
   <tile/>
   <tile/>
   <tile/>
   <tile/>
   <tile/>
   <tile/>
   <tile/>
   <tile/>
   <tile/>
   <tile/>
   <tile/>
   <tile/>
   <tile/>
   <tile/>
   <tile/>
   <tile/>
   <tile/>
   <tile/>
   <tile/>
   <tile/>
   <tile/>
   <tile/>
   <tile/>
   <tile/>
   <tile/>
   <tile/>
   <tile/>
   <tile/>
   <tile/>
   <tile/>
   <tile/>
   <tile/>
   <tile/>
   <tile/>
   <tile/>
   <tile/>
   <tile/>
   <tile/>
   <tile/>
   <tile/>
   <tile/>
   <tile/>
   <tile/>
   <tile/>
   <tile/>
   <tile/>
   <tile/>
   <tile/>
   <tile/>
   <tile/>
   <tile/>
   <tile/>
   <tile/>
   <tile/>
   <tile/>
   <tile/>
   <tile/>
   <tile/>
   <tile/>
   <tile/>
   <tile/>
   <tile/>
   <tile/>
   <tile/>
   <tile/>
   <tile/>
   <tile/>
   <tile/>
   <tile/>
   <tile/>
   <tile/>
   <tile/>
   <tile/>
   <tile/>
   <tile/>
   <tile/>
   <tile/>
   <tile/>
   <tile/>
   <tile/>
   <tile/>
   <tile/>
   <tile/>
   <tile/>
   <tile/>
   <tile gid="75"/>
   <tile gid="76"/>
   <tile gid="76"/>
   <tile gid="77"/>
   <tile/>
   <tile/>
   <tile/>
   <tile/>
   <tile/>
   <tile/>
   <tile/>
   <tile/>
   <tile/>
   <tile/>
   <tile/>
   <tile/>
   <tile/>
   <tile/>
   <tile/>
   <tile/>
   <tile/>
   <tile/>
   <tile/>
   <tile/>
   <tile/>
   <tile/>
   <tile/>
   <tile/>
   <tile/>
   <tile/>
   <tile/>
   <tile/>
   <tile/>
   <tile/>
   <tile/>
   <tile/>
   <tile/>
   <tile/>
   <tile/>
   <tile/>
   <tile/>
   <tile/>
   <tile/>
   <tile/>
   <tile/>
   <tile/>
   <tile/>
   <tile/>
   <tile/>
   <tile/>
   <tile/>
   <tile/>
   <tile/>
   <tile/>
   <tile/>
   <tile/>
   <tile/>
   <tile/>
   <tile/>
   <tile/>
   <tile/>
   <tile/>
   <tile/>
   <tile/>
   <tile/>
   <tile/>
   <tile/>
   <tile/>
   <tile/>
   <tile/>
   <tile/>
   <tile/>
   <tile/>
   <tile/>
   <tile/>
   <tile/>
   <tile/>
   <tile/>
   <tile/>
   <tile/>
   <tile/>
   <tile/>
   <tile/>
   <tile/>
   <tile/>
   <tile/>
   <tile/>
   <tile/>
   <tile/>
   <tile/>
   <tile/>
   <tile/>
   <tile/>
   <tile/>
   <tile/>
   <tile/>
   <tile/>
   <tile/>
   <tile/>
   <tile/>
   <tile/>
   <tile/>
   <tile/>
   <tile/>
   <tile/>
   <tile/>
   <tile/>
   <tile/>
   <tile/>
   <tile/>
   <tile/>
   <tile/>
   <tile/>
   <tile/>
   <tile/>
   <tile/>
   <tile/>
   <tile/>
   <tile/>
   <tile/>
   <tile/>
   <tile/>
   <tile/>
   <tile/>
   <tile/>
   <tile/>
   <tile/>
   <tile/>
   <tile/>
   <tile/>
   <tile/>
   <tile/>
   <tile/>
   <tile/>
   <tile/>
   <tile/>
   <tile/>
   <tile/>
   <tile/>
   <tile/>
   <tile/>
   <tile/>
   <tile/>
   <tile/>
   <tile/>
   <tile/>
   <tile/>
   <tile/>
   <tile/>
   <tile/>
   <tile/>
   <tile/>
   <tile/>
   <tile/>
   <tile/>
   <tile/>
   <tile/>
   <tile/>
   <tile/>
   <tile/>
   <tile/>
   <tile/>
   <tile/>
   <tile/>
   <tile/>
   <tile/>
   <tile/>
   <tile/>
   <tile/>
   <tile/>
   <tile/>
   <tile/>
   <tile/>
   <tile/>
   <tile/>
   <tile/>
   <tile/>
   <tile/>
   <tile/>
   <tile/>
   <tile/>
   <tile/>
   <tile/>
   <tile/>
   <tile/>
   <tile/>
   <tile/>
   <tile/>
   <tile/>
   <tile/>
   <tile/>
   <tile/>
   <tile/>
   <tile/>
   <tile/>
   <tile/>
   <tile/>
   <tile/>
   <tile/>
   <tile/>
   <tile/>
   <tile/>
   <tile/>
   <tile/>
   <tile/>
   <tile/>
   <tile/>
   <tile/>
   <tile/>
   <tile/>
   <tile/>
   <tile/>
   <tile/>
   <tile/>
   <tile/>
   <tile/>
   <tile/>
   <tile/>
   <tile/>
   <tile/>
   <tile/>
   <tile/>
   <tile/>
   <tile/>
   <tile/>
   <tile/>
   <tile/>
   <tile/>
   <tile/>
   <tile/>
   <tile/>
   <tile/>
   <tile/>
   <tile/>
   <tile/>
   <tile/>
   <tile/>
   <tile/>
   <tile/>
   <tile/>
   <tile/>
   <tile/>
   <tile/>
   <tile/>
   <tile/>
   <tile/>
   <tile/>
   <tile/>
   <tile/>
   <tile/>
   <tile/>
   <tile/>
   <tile/>
   <tile/>
   <tile/>
   <tile/>
   <tile/>
   <tile/>
   <tile/>
   <tile/>
   <tile/>
   <tile/>
   <tile/>
   <tile/>
   <tile/>
   <tile/>
   <tile/>
   <tile/>
   <tile/>
   <tile/>
   <tile/>
   <tile/>
   <tile/>
   <tile/>
   <tile/>
   <tile/>
   <tile/>
   <tile/>
   <tile/>
   <tile/>
   <tile/>
   <tile/>
   <tile/>
   <tile/>
   <tile/>
   <tile/>
   <tile/>
   <tile/>
   <tile gid="76"/>
   <tile gid="76"/>
   <tile gid="76"/>
   <tile gid="76"/>
   <tile gid="76"/>
   <tile gid="76"/>
   <tile gid="76"/>
   <tile gid="76"/>
   <tile gid="76"/>
   <tile gid="76"/>
   <tile gid="76"/>
   <tile gid="76"/>
   <tile gid="76"/>
   <tile gid="76"/>
   <tile gid="76"/>
   <tile gid="76"/>
   <tile gid="76"/>
   <tile gid="76"/>
   <tile gid="76"/>
   <tile gid="76"/>
   <tile gid="76"/>
   <tile gid="76"/>
   <tile gid="76"/>
   <tile gid="76"/>
   <tile gid="76"/>
   <tile gid="76"/>
   <tile gid="76"/>
   <tile gid="76"/>
   <tile gid="76"/>
   <tile gid="76"/>
   <tile gid="76"/>
   <tile gid="76"/>
   <tile gid="76"/>
   <tile gid="76"/>
   <tile gid="76"/>
   <tile gid="76"/>
   <tile gid="77"/>
   <tile/>
   <tile/>
   <tile/>
   <tile/>
   <tile gid="75"/>
   <tile gid="76"/>
   <tile gid="76"/>
   <tile gid="76"/>
   <tile gid="76"/>
   <tile gid="76"/>
   <tile gid="76"/>
   <tile gid="76"/>
   <tile gid="76"/>
   <tile gid="76"/>
   <tile gid="76"/>
   <tile gid="76"/>
   <tile gid="76"/>
   <tile gid="76"/>
   <tile gid="76"/>
   <tile gid="76"/>
   <tile gid="76"/>
   <tile gid="76"/>
   <tile/>
   <tile/>
   <tile/>
   <tile/>
   <tile/>
   <tile/>
   <tile/>
   <tile/>
   <tile/>
   <tile/>
   <tile/>
   <tile/>
   <tile/>
   <tile/>
   <tile/>
   <tile/>
   <tile/>
   <tile/>
   <tile/>
   <tile/>
   <tile/>
   <tile/>
   <tile/>
   <tile/>
   <tile/>
   <tile/>
   <tile/>
   <tile/>
   <tile/>
   <tile/>
   <tile/>
   <tile/>
   <tile/>
   <tile/>
   <tile/>
   <tile/>
   <tile/>
   <tile/>
   <tile/>
   <tile/>
   <tile/>
   <tile/>
   <tile/>
   <tile/>
   <tile/>
   <tile/>
   <tile/>
   <tile/>
   <tile/>
   <tile/>
   <tile/>
   <tile/>
   <tile/>
   <tile/>
   <tile/>
   <tile/>
   <tile/>
   <tile/>
   <tile/>
   <tile/>
   <tile/>
   <tile/>
   <tile/>
   <tile/>
   <tile/>
   <tile/>
   <tile/>
   <tile/>
   <tile/>
   <tile/>
   <tile/>
   <tile/>
   <tile/>
   <tile/>
   <tile/>
   <tile/>
   <tile/>
   <tile/>
   <tile/>
   <tile/>
   <tile/>
   <tile/>
   <tile/>
   <tile/>
   <tile/>
   <tile/>
   <tile/>
   <tile/>
   <tile/>
   <tile/>
   <tile/>
   <tile/>
   <tile/>
   <tile/>
   <tile/>
   <tile/>
   <tile/>
   <tile/>
   <tile/>
   <tile/>
   <tile/>
   <tile/>
   <tile/>
   <tile/>
   <tile/>
   <tile/>
   <tile/>
   <tile/>
   <tile/>
   <tile/>
   <tile/>
   <tile/>
   <tile/>
   <tile/>
   <tile/>
   <tile/>
   <tile/>
   <tile/>
   <tile/>
   <tile/>
   <tile/>
   <tile/>
   <tile/>
   <tile/>
   <tile/>
   <tile/>
   <tile/>
   <tile/>
   <tile/>
   <tile/>
   <tile/>
   <tile/>
   <tile/>
   <tile/>
   <tile/>
   <tile/>
   <tile/>
   <tile/>
   <tile/>
   <tile/>
   <tile/>
   <tile/>
   <tile/>
   <tile/>
   <tile/>
   <tile/>
   <tile/>
   <tile/>
   <tile/>
   <tile/>
   <tile/>
   <tile/>
   <tile/>
   <tile/>
   <tile/>
   <tile/>
   <tile/>
   <tile/>
   <tile/>
   <tile/>
   <tile/>
   <tile/>
   <tile/>
   <tile/>
   <tile/>
   <tile/>
   <tile/>
   <tile/>
   <tile/>
   <tile/>
   <tile/>
   <tile/>
   <tile/>
   <tile/>
   <tile/>
   <tile/>
   <tile/>
   <tile/>
   <tile/>
   <tile/>
   <tile/>
   <tile/>
   <tile/>
   <tile/>
   <tile/>
   <tile/>
   <tile/>
   <tile/>
   <tile/>
   <tile/>
   <tile/>
   <tile/>
   <tile/>
   <tile/>
   <tile/>
   <tile/>
   <tile/>
   <tile/>
   <tile/>
   <tile/>
   <tile/>
   <tile/>
   <tile/>
   <tile/>
   <tile/>
   <tile/>
   <tile/>
   <tile/>
   <tile/>
   <tile/>
   <tile/>
   <tile/>
   <tile/>
   <tile/>
   <tile/>
   <tile/>
   <tile/>
   <tile/>
   <tile/>
   <tile/>
   <tile/>
   <tile/>
   <tile/>
   <tile/>
   <tile/>
   <tile/>
   <tile/>
   <tile/>
   <tile/>
   <tile/>
   <tile/>
   <tile/>
   <tile/>
   <tile/>
   <tile/>
   <tile/>
   <tile/>
   <tile/>
   <tile/>
   <tile/>
   <tile/>
   <tile/>
   <tile/>
   <tile/>
   <tile/>
   <tile/>
   <tile/>
   <tile/>
   <tile/>
   <tile/>
   <tile/>
   <tile/>
   <tile/>
   <tile/>
   <tile/>
   <tile/>
   <tile/>
   <tile/>
   <tile/>
   <tile/>
   <tile/>
   <tile/>
   <tile/>
   <tile/>
   <tile/>
   <tile/>
   <tile/>
   <tile/>
   <tile/>
   <tile/>
   <tile/>
   <tile/>
   <tile/>
   <tile/>
   <tile/>
   <tile/>
   <tile/>
   <tile/>
   <tile/>
   <tile/>
   <tile/>
   <tile/>
   <tile/>
   <tile/>
   <tile/>
   <tile/>
   <tile/>
   <tile/>
   <tile/>
   <tile/>
   <tile/>
   <tile/>
   <tile/>
   <tile/>
   <tile/>
   <tile/>
   <tile/>
   <tile/>
   <tile/>
   <tile/>
   <tile/>
   <tile/>
   <tile/>
   <tile/>
   <tile/>
   <tile/>
   <tile/>
   <tile/>
   <tile/>
   <tile/>
   <tile/>
   <tile/>
   <tile/>
   <tile/>
   <tile/>
   <tile/>
   <tile/>
   <tile/>
   <tile/>
   <tile/>
   <tile/>
   <tile/>
   <tile/>
   <tile/>
   <tile/>
   <tile/>
   <tile/>
   <tile/>
   <tile/>
   <tile/>
   <tile/>
   <tile/>
   <tile/>
   <tile/>
   <tile/>
   <tile/>
   <tile/>
   <tile/>
   <tile/>
   <tile/>
   <tile/>
   <tile/>
   <tile/>
   <tile/>
   <tile/>
   <tile/>
   <tile/>
   <tile/>
   <tile/>
   <tile/>
   <tile/>
   <tile/>
   <tile/>
   <tile/>
   <tile/>
   <tile/>
   <tile/>
   <tile/>
   <tile/>
   <tile/>
   <tile/>
   <tile/>
   <tile/>
   <tile/>
   <tile/>
   <tile/>
   <tile/>
   <tile/>
   <tile/>
   <tile/>
   <tile/>
   <tile/>
   <tile/>
   <tile/>
   <tile/>
   <tile/>
   <tile/>
   <tile/>
   <tile/>
   <tile/>
   <tile/>
   <tile/>
   <tile/>
   <tile/>
   <tile/>
   <tile/>
   <tile/>
   <tile/>
   <tile/>
   <tile/>
   <tile/>
   <tile/>
   <tile/>
   <tile/>
   <tile/>
   <tile/>
   <tile/>
   <tile/>
   <tile/>
   <tile/>
   <tile/>
   <tile/>
   <tile/>
   <tile/>
   <tile/>
   <tile/>
   <tile/>
   <tile/>
   <tile/>
   <tile/>
   <tile/>
   <tile/>
   <tile/>
   <tile/>
   <tile/>
   <tile/>
   <tile/>
   <tile/>
   <tile/>
   <tile/>
   <tile/>
   <tile/>
   <tile/>
   <tile/>
   <tile/>
   <tile/>
   <tile/>
   <tile/>
   <tile/>
   <tile/>
   <tile/>
   <tile/>
   <tile/>
   <tile/>
   <tile/>
   <tile/>
   <tile/>
   <tile/>
   <tile/>
   <tile/>
   <tile/>
   <tile/>
   <tile/>
   <tile/>
   <tile/>
   <tile/>
   <tile/>
   <tile/>
   <tile/>
   <tile/>
   <tile/>
   <tile/>
   <tile/>
   <tile/>
   <tile/>
   <tile/>
   <tile/>
   <tile/>
   <tile/>
   <tile/>
   <tile/>
   <tile/>
   <tile/>
   <tile/>
   <tile/>
   <tile/>
   <tile/>
   <tile/>
   <tile/>
   <tile/>
   <tile/>
   <tile/>
   <tile/>
   <tile/>
   <tile/>
   <tile/>
   <tile/>
   <tile/>
   <tile/>
   <tile/>
   <tile/>
   <tile/>
   <tile/>
   <tile/>
   <tile/>
   <tile/>
   <tile/>
   <tile/>
   <tile/>
   <tile/>
   <tile/>
   <tile/>
   <tile/>
   <tile/>
   <tile/>
   <tile/>
   <tile/>
   <tile/>
   <tile/>
   <tile/>
   <tile/>
   <tile/>
   <tile/>
   <tile/>
   <tile/>
   <tile/>
   <tile/>
   <tile/>
   <tile/>
   <tile/>
   <tile/>
   <tile/>
   <tile/>
   <tile/>
   <tile/>
   <tile/>
   <tile/>
   <tile/>
   <tile/>
   <tile/>
   <tile/>
   <tile/>
   <tile/>
   <tile/>
   <tile/>
   <tile/>
   <tile/>
   <tile/>
   <tile/>
   <tile/>
   <tile/>
   <tile/>
   <tile/>
   <tile/>
   <tile/>
   <tile/>
   <tile/>
   <tile/>
   <tile/>
   <tile/>
   <tile/>
   <tile/>
   <tile/>
   <tile/>
   <tile/>
   <tile/>
   <tile/>
   <tile/>
   <tile/>
   <tile/>
   <tile/>
   <tile/>
   <tile/>
   <tile/>
   <tile/>
   <tile/>
   <tile/>
   <tile/>
   <tile/>
   <tile/>
   <tile/>
   <tile/>
   <tile/>
   <tile/>
   <tile/>
   <tile/>
   <tile/>
   <tile/>
   <tile/>
   <tile/>
   <tile/>
   <tile/>
   <tile/>
   <tile/>
   <tile/>
   <tile/>
   <tile/>
   <tile/>
   <tile/>
   <tile/>
   <tile/>
   <tile/>
   <tile/>
   <tile/>
   <tile/>
   <tile/>
   <tile/>
   <tile/>
   <tile/>
   <tile/>
   <tile/>
   <tile/>
   <tile/>
   <tile/>
   <tile/>
   <tile/>
   <tile/>
   <tile/>
   <tile/>
   <tile/>
   <tile/>
   <tile/>
   <tile/>
   <tile/>
   <tile/>
   <tile/>
   <tile/>
   <tile/>
   <tile/>
   <tile/>
   <tile/>
   <tile/>
   <tile/>
   <tile/>
   <tile/>
   <tile/>
   <tile/>
   <tile/>
   <tile/>
   <tile/>
   <tile/>
   <tile/>
   <tile/>
   <tile/>
   <tile/>
   <tile/>
   <tile/>
   <tile/>
   <tile/>
   <tile/>
   <tile/>
   <tile/>
   <tile/>
   <tile/>
   <tile/>
   <tile/>
   <tile/>
   <tile/>
   <tile/>
   <tile/>
   <tile/>
   <tile/>
   <tile/>
   <tile/>
   <tile/>
   <tile/>
   <tile/>
   <tile/>
   <tile/>
   <tile/>
   <tile/>
   <tile/>
   <tile/>
   <tile/>
   <tile/>
   <tile/>
   <tile/>
   <tile/>
   <tile gid="75"/>
   <tile/>
   <tile gid="76"/>
   <tile gid="76"/>
   <tile gid="76"/>
   <tile gid="76"/>
   <tile gid="76"/>
   <tile gid="76"/>
   <tile gid="76"/>
   <tile gid="76"/>
   <tile gid="76"/>
   <tile gid="76"/>
   <tile gid="76"/>
   <tile gid="76"/>
   <tile gid="76"/>
   <tile gid="76"/>
   <tile gid="76"/>
   <tile gid="76"/>
   <tile gid="76"/>
   <tile gid="76"/>
   <tile gid="76"/>
   <tile gid="76"/>
   <tile gid="76"/>
   <tile gid="76"/>
   <tile gid="76"/>
   <tile gid="76"/>
   <tile gid="76"/>
   <tile gid="76"/>
   <tile gid="76"/>
   <tile gid="76"/>
   <tile gid="76"/>
   <tile gid="76"/>
   <tile gid="76"/>
   <tile gid="76"/>
   <tile gid="76"/>
   <tile gid="76"/>
   <tile gid="76"/>
   <tile gid="76"/>
   <tile gid="76"/>
   <tile gid="77"/>
   <tile/>
   <tile/>
   <tile/>
   <tile/>
   <tile gid="75"/>
   <tile gid="76"/>
   <tile gid="76"/>
   <tile gid="76"/>
   <tile gid="76"/>
   <tile gid="76"/>
   <tile gid="76"/>
   <tile gid="76"/>
   <tile gid="76"/>
   <tile gid="76"/>
   <tile gid="76"/>
   <tile gid="76"/>
   <tile gid="76"/>
   <tile gid="76"/>
   <tile gid="76"/>
   <tile gid="76"/>
   <tile/>
   <tile/>
   <tile/>
   <tile/>
   <tile/>
   <tile/>
   <tile/>
   <tile/>
   <tile/>
   <tile/>
   <tile/>
   <tile/>
   <tile/>
   <tile/>
   <tile/>
   <tile/>
   <tile/>
   <tile/>
   <tile/>
   <tile/>
   <tile/>
   <tile/>
   <tile/>
   <tile/>
   <tile/>
   <tile/>
   <tile/>
   <tile/>
   <tile/>
   <tile/>
   <tile/>
   <tile/>
   <tile/>
   <tile/>
   <tile/>
   <tile/>
   <tile/>
   <tile/>
   <tile/>
   <tile/>
   <tile/>
   <tile/>
   <tile/>
   <tile/>
   <tile/>
   <tile/>
   <tile/>
   <tile/>
   <tile/>
   <tile/>
   <tile/>
   <tile/>
   <tile/>
   <tile/>
   <tile/>
   <tile/>
   <tile/>
   <tile/>
   <tile/>
   <tile/>
   <tile/>
   <tile/>
   <tile/>
   <tile/>
   <tile/>
   <tile/>
   <tile/>
   <tile/>
   <tile/>
   <tile/>
   <tile/>
   <tile/>
   <tile/>
   <tile/>
   <tile/>
   <tile/>
   <tile/>
   <tile/>
   <tile/>
   <tile/>
   <tile/>
   <tile/>
   <tile/>
   <tile/>
   <tile/>
   <tile/>
   <tile/>
   <tile/>
   <tile/>
   <tile/>
   <tile/>
   <tile/>
   <tile/>
   <tile/>
   <tile/>
   <tile/>
   <tile/>
   <tile/>
   <tile/>
   <tile/>
   <tile/>
   <tile/>
   <tile/>
   <tile/>
   <tile/>
   <tile/>
   <tile/>
   <tile/>
   <tile/>
   <tile/>
   <tile/>
   <tile/>
   <tile/>
   <tile/>
   <tile/>
   <tile/>
   <tile/>
   <tile/>
   <tile/>
   <tile/>
   <tile/>
   <tile/>
   <tile/>
   <tile/>
   <tile/>
   <tile/>
   <tile/>
   <tile/>
   <tile/>
   <tile/>
   <tile/>
   <tile/>
   <tile/>
   <tile/>
   <tile/>
   <tile/>
   <tile/>
   <tile/>
   <tile/>
   <tile/>
   <tile/>
   <tile/>
   <tile/>
   <tile/>
   <tile/>
   <tile/>
   <tile/>
   <tile/>
   <tile/>
   <tile/>
   <tile/>
   <tile/>
   <tile/>
   <tile/>
   <tile/>
   <tile/>
   <tile/>
   <tile/>
   <tile/>
   <tile/>
   <tile/>
   <tile/>
   <tile/>
   <tile/>
   <tile/>
   <tile/>
   <tile/>
   <tile/>
   <tile/>
   <tile/>
   <tile/>
   <tile/>
   <tile/>
   <tile/>
   <tile/>
   <tile/>
   <tile/>
   <tile/>
   <tile/>
   <tile/>
   <tile/>
   <tile/>
   <tile/>
   <tile/>
   <tile/>
   <tile/>
   <tile/>
   <tile/>
   <tile/>
   <tile/>
   <tile/>
   <tile/>
   <tile/>
   <tile/>
   <tile/>
   <tile/>
   <tile/>
   <tile/>
   <tile/>
   <tile/>
   <tile/>
   <tile/>
   <tile/>
   <tile/>
   <tile/>
   <tile/>
   <tile/>
   <tile/>
   <tile/>
   <tile/>
   <tile/>
   <tile/>
   <tile/>
   <tile/>
   <tile/>
   <tile/>
   <tile/>
   <tile/>
   <tile/>
   <tile/>
   <tile/>
   <tile/>
   <tile/>
   <tile/>
   <tile/>
   <tile/>
   <tile/>
   <tile/>
   <tile/>
   <tile/>
   <tile/>
   <tile/>
   <tile/>
   <tile/>
   <tile/>
   <tile/>
   <tile/>
   <tile/>
   <tile/>
   <tile/>
   <tile/>
   <tile/>
   <tile/>
   <tile/>
   <tile/>
   <tile/>
   <tile/>
   <tile/>
   <tile/>
   <tile/>
   <tile/>
   <tile/>
   <tile/>
   <tile/>
   <tile/>
   <tile/>
   <tile/>
   <tile/>
   <tile/>
   <tile/>
   <tile/>
   <tile/>
   <tile/>
   <tile/>
   <tile/>
   <tile/>
   <tile/>
   <tile/>
   <tile/>
   <tile/>
   <tile/>
   <tile/>
   <tile/>
   <tile/>
   <tile/>
   <tile/>
   <tile/>
   <tile/>
   <tile/>
   <tile/>
   <tile/>
   <tile/>
   <tile/>
   <tile/>
   <tile/>
   <tile/>
   <tile/>
   <tile/>
   <tile/>
   <tile/>
   <tile/>
   <tile/>
   <tile/>
   <tile/>
   <tile/>
   <tile/>
   <tile/>
   <tile/>
   <tile/>
   <tile/>
   <tile/>
   <tile/>
   <tile/>
   <tile/>
   <tile/>
   <tile/>
   <tile/>
   <tile/>
   <tile/>
   <tile/>
   <tile/>
   <tile/>
   <tile/>
   <tile/>
   <tile/>
   <tile/>
   <tile/>
   <tile/>
   <tile/>
   <tile/>
   <tile/>
   <tile/>
   <tile/>
   <tile/>
   <tile/>
   <tile/>
   <tile/>
   <tile/>
   <tile/>
   <tile/>
   <tile/>
   <tile/>
   <tile/>
   <tile/>
   <tile/>
   <tile/>
   <tile/>
   <tile/>
   <tile/>
   <tile/>
   <tile/>
   <tile/>
   <tile/>
   <tile/>
   <tile/>
   <tile/>
   <tile/>
   <tile/>
   <tile/>
   <tile/>
   <tile/>
   <tile/>
   <tile/>
   <tile/>
   <tile/>
   <tile/>
   <tile/>
   <tile/>
   <tile/>
   <tile/>
   <tile/>
   <tile/>
   <tile/>
   <tile/>
   <tile/>
   <tile/>
   <tile/>
   <tile/>
   <tile/>
   <tile/>
   <tile/>
   <tile/>
   <tile/>
   <tile/>
   <tile/>
   <tile/>
   <tile/>
   <tile/>
   <tile/>
   <tile/>
   <tile/>
   <tile/>
   <tile/>
   <tile/>
   <tile/>
   <tile/>
   <tile/>
   <tile/>
   <tile/>
   <tile/>
   <tile/>
   <tile/>
   <tile/>
   <tile/>
   <tile/>
   <tile/>
   <tile/>
   <tile/>
   <tile/>
   <tile/>
   <tile/>
   <tile/>
   <tile/>
   <tile/>
   <tile/>
   <tile/>
   <tile/>
   <tile/>
   <tile/>
   <tile/>
   <tile/>
   <tile/>
   <tile/>
   <tile/>
   <tile/>
   <tile/>
   <tile/>
   <tile/>
   <tile/>
   <tile/>
   <tile/>
   <tile/>
   <tile/>
   <tile/>
   <tile/>
   <tile/>
   <tile/>
   <tile/>
   <tile/>
   <tile/>
   <tile/>
   <tile/>
   <tile/>
   <tile/>
   <tile/>
   <tile/>
   <tile/>
   <tile/>
   <tile/>
   <tile/>
   <tile/>
   <tile/>
   <tile/>
   <tile/>
   <tile/>
   <tile/>
   <tile/>
   <tile/>
   <tile/>
   <tile/>
   <tile/>
   <tile/>
   <tile/>
   <tile/>
   <tile/>
   <tile/>
   <tile/>
   <tile/>
   <tile/>
   <tile/>
   <tile/>
   <tile/>
   <tile/>
   <tile/>
   <tile/>
   <tile/>
   <tile/>
   <tile/>
   <tile/>
   <tile/>
   <tile/>
   <tile/>
   <tile/>
   <tile/>
   <tile/>
   <tile/>
   <tile/>
   <tile/>
   <tile/>
   <tile/>
   <tile/>
   <tile/>
   <tile/>
   <tile/>
   <tile/>
   <tile/>
   <tile/>
   <tile/>
   <tile/>
   <tile/>
   <tile/>
   <tile/>
   <tile/>
   <tile/>
   <tile/>
   <tile/>
   <tile/>
   <tile/>
   <tile/>
   <tile/>
   <tile/>
   <tile/>
   <tile/>
   <tile/>
   <tile/>
   <tile/>
   <tile/>
   <tile/>
   <tile/>
   <tile/>
   <tile/>
   <tile/>
   <tile/>
   <tile/>
   <tile/>
   <tile/>
   <tile/>
   <tile/>
   <tile/>
   <tile/>
   <tile/>
   <tile/>
   <tile/>
   <tile/>
   <tile/>
   <tile/>
   <tile/>
   <tile/>
   <tile/>
   <tile/>
   <tile/>
   <tile/>
   <tile/>
   <tile/>
   <tile/>
   <tile/>
   <tile/>
   <tile/>
   <tile/>
   <tile/>
   <tile/>
   <tile/>
   <tile/>
   <tile/>
   <tile/>
   <tile/>
   <tile/>
   <tile/>
   <tile/>
   <tile/>
   <tile/>
   <tile/>
   <tile/>
   <tile/>
   <tile/>
   <tile/>
   <tile/>
   <tile/>
   <tile/>
   <tile/>
   <tile/>
   <tile/>
   <tile/>
   <tile/>
   <tile/>
   <tile/>
   <tile/>
   <tile/>
   <tile/>
   <tile/>
   <tile/>
   <tile/>
   <tile/>
   <tile/>
   <tile/>
   <tile/>
   <tile/>
   <tile/>
   <tile/>
   <tile/>
   <tile/>
   <tile/>
   <tile/>
   <tile/>
   <tile/>
   <tile/>
   <tile/>
   <tile/>
   <tile/>
   <tile/>
   <tile/>
   <tile/>
   <tile/>
   <tile/>
   <tile/>
   <tile/>
   <tile/>
   <tile/>
   <tile/>
   <tile/>
   <tile/>
   <tile/>
   <tile/>
   <tile/>
   <tile/>
   <tile/>
   <tile/>
   <tile/>
   <tile/>
   <tile/>
   <tile/>
   <tile/>
   <tile/>
   <tile/>
   <tile/>
   <tile/>
   <tile/>
   <tile/>
   <tile/>
   <tile/>
   <tile/>
   <tile/>
   <tile/>
   <tile/>
   <tile/>
   <tile/>
   <tile/>
   <tile/>
   <tile/>
   <tile/>
   <tile/>
   <tile/>
   <tile/>
   <tile/>
   <tile/>
   <tile/>
   <tile/>
   <tile/>
   <tile/>
   <tile/>
   <tile/>
   <tile/>
   <tile/>
   <tile/>
   <tile/>
   <tile/>
   <tile/>
   <tile/>
   <tile/>
   <tile/>
   <tile/>
   <tile/>
   <tile/>
   <tile/>
   <tile/>
   <tile/>
   <tile/>
   <tile/>
   <tile/>
   <tile/>
   <tile/>
   <tile/>
   <tile/>
   <tile/>
   <tile/>
   <tile/>
   <tile/>
   <tile/>
   <tile/>
   <tile/>
   <tile/>
   <tile/>
   <tile/>
   <tile/>
   <tile/>
   <tile/>
   <tile/>
   <tile/>
   <tile/>
   <tile/>
   <tile/>
   <tile/>
   <tile/>
   <tile/>
   <tile/>
   <tile/>
   <tile/>
   <tile/>
   <tile/>
   <tile/>
   <tile/>
   <tile/>
   <tile/>
   <tile/>
   <tile/>
   <tile/>
   <tile/>
   <tile/>
   <tile/>
   <tile/>
   <tile/>
   <tile/>
   <tile/>
   <tile/>
   <tile/>
   <tile/>
   <tile/>
   <tile/>
   <tile/>
   <tile/>
   <tile gid="60"/>
   <tile gid="60"/>
   <tile gid="60"/>
   <tile gid="60"/>
   <tile gid="60"/>
   <tile gid="60"/>
   <tile gid="60"/>
   <tile gid="60"/>
   <tile gid="60"/>
   <tile/>
   <tile/>
   <tile/>
   <tile/>
   <tile/>
   <tile/>
   <tile/>
   <tile/>
   <tile/>
   <tile/>
   <tile/>
   <tile/>
   <tile/>
   <tile/>
   <tile/>
   <tile/>
   <tile/>
   <tile/>
   <tile/>
   <tile/>
   <tile/>
   <tile/>
   <tile/>
   <tile/>
   <tile/>
   <tile/>
   <tile/>
   <tile/>
   <tile/>
   <tile/>
   <tile/>
   <tile/>
   <tile/>
   <tile/>
   <tile/>
   <tile/>
   <tile/>
   <tile/>
   <tile/>
   <tile/>
   <tile/>
   <tile/>
   <tile/>
   <tile/>
   <tile/>
   <tile/>
   <tile/>
   <tile/>
   <tile/>
   <tile/>
   <tile/>
   <tile/>
   <tile/>
   <tile/>
   <tile/>
   <tile/>
   <tile/>
   <tile/>
   <tile/>
   <tile/>
   <tile/>
   <tile/>
   <tile/>
   <tile/>
   <tile/>
   <tile/>
   <tile/>
   <tile/>
   <tile/>
   <tile/>
   <tile/>
   <tile/>
   <tile/>
   <tile/>
   <tile/>
   <tile/>
   <tile/>
   <tile/>
   <tile/>
   <tile/>
   <tile/>
   <tile/>
   <tile/>
   <tile/>
   <tile/>
   <tile/>
   <tile/>
   <tile/>
   <tile/>
   <tile/>
   <tile/>
   <tile/>
   <tile/>
   <tile/>
   <tile/>
   <tile/>
   <tile/>
   <tile/>
   <tile/>
   <tile/>
   <tile/>
   <tile/>
   <tile/>
   <tile/>
   <tile/>
   <tile/>
   <tile/>
   <tile/>
   <tile/>
   <tile/>
   <tile/>
   <tile/>
   <tile/>
   <tile/>
   <tile/>
   <tile/>
   <tile/>
   <tile/>
   <tile/>
   <tile/>
   <tile/>
   <tile/>
   <tile/>
   <tile/>
   <tile/>
   <tile/>
   <tile/>
   <tile/>
   <tile/>
   <tile/>
   <tile/>
   <tile/>
   <tile/>
   <tile/>
   <tile/>
   <tile/>
   <tile/>
   <tile/>
   <tile/>
   <tile/>
   <tile/>
   <tile/>
   <tile/>
   <tile/>
   <tile/>
   <tile/>
   <tile/>
   <tile/>
   <tile/>
   <tile/>
   <tile/>
   <tile/>
   <tile/>
   <tile/>
   <tile/>
   <tile/>
   <tile/>
   <tile/>
   <tile/>
   <tile/>
   <tile/>
   <tile/>
   <tile/>
   <tile/>
   <tile/>
   <tile/>
   <tile/>
   <tile/>
   <tile/>
   <tile/>
   <tile/>
   <tile/>
   <tile/>
   <tile/>
   <tile/>
   <tile/>
   <tile/>
   <tile/>
   <tile/>
   <tile/>
   <tile/>
   <tile/>
   <tile/>
   <tile/>
   <tile/>
   <tile/>
   <tile/>
   <tile/>
   <tile/>
   <tile/>
   <tile/>
   <tile/>
   <tile/>
   <tile/>
   <tile/>
   <tile/>
   <tile/>
   <tile/>
   <tile/>
   <tile/>
   <tile/>
   <tile/>
   <tile/>
   <tile/>
   <tile/>
   <tile/>
   <tile/>
   <tile/>
   <tile/>
   <tile/>
   <tile/>
   <tile/>
   <tile/>
   <tile/>
   <tile/>
   <tile/>
   <tile/>
   <tile/>
   <tile/>
   <tile/>
   <tile/>
   <tile/>
   <tile/>
   <tile/>
   <tile/>
   <tile/>
   <tile/>
   <tile/>
   <tile/>
   <tile/>
   <tile/>
   <tile/>
   <tile/>
   <tile/>
   <tile/>
   <tile/>
   <tile/>
   <tile/>
   <tile/>
   <tile/>
   <tile/>
   <tile/>
   <tile/>
   <tile/>
   <tile/>
   <tile/>
   <tile/>
   <tile/>
   <tile/>
   <tile/>
   <tile/>
   <tile/>
   <tile/>
   <tile/>
   <tile/>
   <tile/>
   <tile/>
   <tile/>
   <tile/>
   <tile/>
   <tile/>
   <tile/>
   <tile/>
   <tile/>
   <tile/>
   <tile/>
   <tile/>
   <tile/>
   <tile/>
   <tile/>
   <tile/>
   <tile/>
   <tile/>
   <tile/>
   <tile/>
   <tile/>
   <tile/>
   <tile/>
   <tile/>
   <tile/>
   <tile/>
   <tile/>
   <tile/>
   <tile/>
   <tile/>
   <tile/>
   <tile/>
   <tile/>
   <tile/>
   <tile/>
   <tile/>
   <tile/>
   <tile/>
   <tile/>
   <tile/>
   <tile/>
   <tile/>
   <tile/>
   <tile/>
   <tile/>
   <tile/>
   <tile/>
   <tile/>
   <tile/>
   <tile/>
   <tile/>
   <tile/>
   <tile/>
   <tile/>
   <tile/>
   <tile/>
   <tile/>
   <tile/>
   <tile/>
   <tile/>
   <tile/>
   <tile/>
   <tile/>
   <tile/>
   <tile/>
   <tile/>
   <tile/>
   <tile/>
   <tile/>
   <tile/>
   <tile/>
   <tile/>
   <tile/>
   <tile/>
   <tile/>
   <tile/>
   <tile/>
   <tile/>
   <tile/>
   <tile/>
   <tile/>
   <tile/>
   <tile/>
   <tile/>
   <tile/>
   <tile/>
   <tile/>
   <tile/>
   <tile/>
   <tile/>
   <tile/>
   <tile/>
   <tile/>
   <tile/>
   <tile/>
   <tile/>
   <tile/>
   <tile/>
   <tile/>
   <tile/>
   <tile/>
   <tile/>
   <tile/>
   <tile/>
   <tile/>
   <tile/>
   <tile/>
   <tile/>
   <tile/>
   <tile/>
   <tile/>
   <tile/>
   <tile/>
   <tile/>
   <tile/>
   <tile/>
   <tile/>
   <tile/>
   <tile/>
   <tile/>
   <tile/>
   <tile/>
   <tile/>
   <tile/>
   <tile/>
   <tile/>
   <tile/>
   <tile/>
   <tile/>
   <tile/>
   <tile/>
   <tile/>
   <tile/>
   <tile/>
   <tile/>
   <tile/>
   <tile/>
   <tile/>
   <tile/>
   <tile/>
   <tile/>
   <tile/>
   <tile/>
   <tile/>
   <tile/>
   <tile/>
   <tile/>
   <tile/>
   <tile/>
   <tile/>
   <tile/>
   <tile/>
   <tile/>
   <tile/>
   <tile/>
   <tile/>
   <tile/>
   <tile/>
   <tile/>
   <tile/>
   <tile/>
   <tile/>
   <tile/>
   <tile/>
   <tile/>
   <tile/>
   <tile/>
   <tile/>
   <tile/>
   <tile/>
   <tile/>
   <tile/>
   <tile/>
   <tile/>
   <tile/>
   <tile/>
   <tile/>
   <tile/>
   <tile/>
   <tile/>
   <tile/>
   <tile/>
   <tile/>
   <tile/>
   <tile/>
   <tile/>
   <tile/>
   <tile/>
   <tile/>
   <tile/>
   <tile/>
   <tile/>
   <tile/>
   <tile/>
   <tile/>
   <tile/>
   <tile/>
   <tile/>
   <tile/>
   <tile/>
   <tile/>
   <tile/>
   <tile/>
   <tile/>
   <tile/>
   <tile/>
   <tile/>
   <tile/>
   <tile/>
   <tile/>
   <tile/>
   <tile/>
   <tile/>
   <tile/>
   <tile/>
   <tile/>
   <tile/>
   <tile/>
   <tile/>
   <tile/>
   <tile/>
   <tile/>
   <tile/>
   <tile/>
   <tile/>
   <tile/>
   <tile/>
   <tile/>
   <tile/>
   <tile/>
   <tile/>
   <tile/>
   <tile/>
   <tile/>
   <tile/>
   <tile/>
   <tile/>
   <tile/>
   <tile/>
   <tile/>
   <tile/>
   <tile/>
   <tile/>
   <tile/>
   <tile/>
   <tile/>
   <tile/>
   <tile/>
   <tile/>
   <tile/>
   <tile/>
   <tile/>
   <tile/>
   <tile/>
   <tile/>
   <tile/>
   <tile/>
   <tile/>
   <tile/>
   <tile/>
   <tile/>
   <tile/>
   <tile/>
   <tile/>
   <tile/>
   <tile/>
   <tile/>
   <tile/>
   <tile/>
   <tile/>
   <tile/>
   <tile/>
   <tile/>
   <tile/>
   <tile/>
   <tile/>
   <tile/>
   <tile/>
   <tile/>
   <tile/>
   <tile/>
   <tile/>
   <tile/>
   <tile/>
   <tile/>
   <tile/>
   <tile/>
   <tile/>
   <tile/>
   <tile/>
   <tile/>
   <tile/>
   <tile/>
   <tile/>
   <tile/>
   <tile/>
   <tile/>
   <tile/>
   <tile/>
   <tile/>
   <tile/>
   <tile/>
   <tile/>
   <tile/>
   <tile/>
   <tile/>
   <tile/>
   <tile/>
   <tile/>
   <tile/>
   <tile/>
   <tile/>
   <tile/>
   <tile/>
   <tile/>
   <tile/>
   <tile/>
   <tile/>
   <tile/>
   <tile/>
   <tile/>
   <tile/>
   <tile/>
   <tile/>
   <tile/>
   <tile/>
   <tile/>
   <tile/>
   <tile/>
   <tile/>
   <tile/>
   <tile/>
   <tile/>
   <tile/>
   <tile/>
   <tile/>
   <tile/>
   <tile/>
   <tile/>
   <tile/>
   <tile/>
   <tile/>
   <tile/>
   <tile/>
   <tile/>
   <tile/>
   <tile/>
   <tile/>
   <tile/>
   <tile/>
   <tile/>
   <tile/>
   <tile/>
   <tile/>
   <tile/>
   <tile/>
   <tile/>
   <tile/>
   <tile/>
   <tile/>
   <tile/>
   <tile/>
   <tile/>
   <tile/>
   <tile/>
   <tile/>
   <tile/>
   <tile/>
   <tile/>
   <tile/>
   <tile/>
   <tile/>
   <tile/>
   <tile/>
   <tile/>
   <tile/>
   <tile/>
   <tile/>
   <tile/>
   <tile/>
   <tile/>
   <tile/>
   <tile/>
   <tile/>
   <tile/>
   <tile/>
   <tile/>
   <tile/>
   <tile/>
   <tile/>
   <tile/>
   <tile/>
   <tile/>
   <tile/>
   <tile/>
   <tile/>
   <tile/>
   <tile/>
   <tile/>
   <tile/>
   <tile/>
   <tile/>
   <tile/>
   <tile/>
   <tile/>
   <tile/>
   <tile/>
   <tile/>
   <tile/>
   <tile/>
   <tile/>
   <tile/>
   <tile gid="76"/>
   <tile gid="76"/>
   <tile gid="76"/>
   <tile gid="76"/>
   <tile gid="76"/>
   <tile gid="76"/>
   <tile gid="77"/>
   <tile/>
   <tile/>
   <tile/>
   <tile/>
   <tile/>
   <tile/>
   <tile/>
   <tile/>
   <tile/>
   <tile/>
   <tile/>
   <tile/>
   <tile/>
   <tile/>
   <tile/>
   <tile/>
   <tile/>
   <tile/>
   <tile/>
   <tile/>
   <tile/>
   <tile/>
   <tile/>
   <tile/>
   <tile/>
   <tile/>
   <tile/>
   <tile/>
   <tile/>
   <tile/>
   <tile/>
   <tile/>
   <tile/>
   <tile/>
   <tile/>
   <tile/>
   <tile/>
   <tile/>
   <tile/>
   <tile/>
   <tile/>
   <tile/>
   <tile/>
   <tile/>
   <tile/>
   <tile/>
   <tile/>
   <tile/>
   <tile/>
   <tile/>
   <tile/>
   <tile/>
   <tile/>
   <tile/>
   <tile/>
   <tile/>
   <tile/>
   <tile/>
   <tile/>
   <tile/>
   <tile gid="77"/>
   <tile/>
   <tile/>
   <tile/>
   <tile/>
   <tile/>
   <tile/>
   <tile/>
   <tile/>
   <tile/>
   <tile/>
   <tile/>
   <tile/>
   <tile/>
   <tile/>
   <tile/>
   <tile/>
   <tile/>
   <tile/>
   <tile/>
   <tile/>
   <tile/>
   <tile/>
   <tile/>
   <tile/>
   <tile/>
   <tile/>
   <tile/>
   <tile/>
   <tile/>
   <tile/>
   <tile/>
   <tile/>
   <tile/>
   <tile/>
   <tile/>
   <tile/>
   <tile/>
   <tile/>
   <tile/>
   <tile/>
   <tile/>
   <tile/>
   <tile/>
   <tile/>
   <tile/>
   <tile/>
   <tile/>
   <tile/>
   <tile/>
   <tile/>
   <tile/>
   <tile/>
   <tile/>
   <tile/>
   <tile/>
   <tile/>
   <tile/>
   <tile/>
   <tile/>
   <tile/>
   <tile/>
   <tile/>
   <tile/>
   <tile/>
   <tile/>
   <tile/>
   <tile/>
   <tile/>
   <tile/>
   <tile/>
   <tile/>
   <tile/>
   <tile/>
   <tile/>
   <tile/>
   <tile/>
   <tile/>
   <tile/>
   <tile/>
   <tile/>
   <tile/>
   <tile/>
   <tile/>
   <tile/>
   <tile/>
   <tile/>
   <tile/>
   <tile/>
   <tile/>
   <tile/>
   <tile/>
   <tile/>
   <tile/>
   <tile/>
   <tile/>
   <tile/>
   <tile/>
   <tile/>
   <tile/>
   <tile/>
   <tile/>
   <tile/>
   <tile/>
   <tile/>
   <tile/>
   <tile/>
   <tile/>
   <tile/>
   <tile/>
   <tile/>
   <tile/>
   <tile/>
   <tile/>
   <tile/>
   <tile/>
   <tile/>
   <tile/>
   <tile/>
   <tile/>
   <tile/>
   <tile gid="77"/>
   <tile/>
   <tile/>
   <tile/>
   <tile/>
   <tile/>
   <tile/>
   <tile/>
   <tile/>
   <tile/>
   <tile/>
   <tile/>
   <tile/>
   <tile/>
   <tile/>
   <tile/>
   <tile/>
   <tile/>
   <tile/>
   <tile/>
   <tile/>
   <tile/>
   <tile/>
   <tile/>
   <tile/>
   <tile/>
   <tile/>
   <tile/>
   <tile/>
   <tile/>
   <tile/>
   <tile/>
   <tile/>
   <tile/>
   <tile/>
   <tile/>
   <tile/>
   <tile/>
   <tile/>
   <tile/>
   <tile/>
   <tile/>
   <tile/>
   <tile/>
   <tile/>
   <tile/>
   <tile/>
   <tile/>
   <tile/>
   <tile/>
   <tile/>
   <tile/>
   <tile/>
   <tile/>
   <tile/>
   <tile/>
   <tile/>
   <tile/>
   <tile/>
   <tile/>
   <tile/>
   <tile gid="76"/>
   <tile gid="76"/>
   <tile gid="77"/>
   <tile/>
   <tile/>
   <tile/>
   <tile/>
   <tile/>
   <tile/>
   <tile/>
   <tile/>
   <tile/>
   <tile/>
   <tile/>
   <tile/>
   <tile/>
   <tile/>
   <tile/>
   <tile/>
   <tile/>
   <tile/>
   <tile/>
   <tile/>
   <tile/>
   <tile/>
   <tile/>
   <tile/>
   <tile/>
   <tile/>
   <tile/>
   <tile/>
   <tile/>
   <tile/>
   <tile/>
   <tile/>
   <tile/>
   <tile/>
   <tile/>
   <tile/>
   <tile/>
   <tile/>
   <tile/>
   <tile/>
   <tile/>
   <tile/>
   <tile/>
   <tile/>
   <tile/>
   <tile/>
   <tile/>
   <tile/>
   <tile/>
   <tile/>
   <tile/>
   <tile/>
   <tile/>
   <tile/>
   <tile/>
   <tile/>
   <tile/>
   <tile/>
   <tile/>
   <tile/>
   <tile/>
   <tile/>
   <tile/>
   <tile/>
   <tile/>
   <tile/>
   <tile/>
   <tile/>
   <tile/>
   <tile/>
   <tile/>
   <tile/>
   <tile/>
   <tile/>
   <tile/>
   <tile/>
   <tile/>
   <tile/>
   <tile/>
   <tile/>
   <tile/>
   <tile/>
   <tile/>
   <tile/>
   <tile/>
   <tile/>
   <tile/>
   <tile/>
   <tile/>
   <tile/>
   <tile/>
   <tile/>
   <tile/>
   <tile/>
   <tile/>
   <tile/>
   <tile/>
   <tile/>
   <tile/>
   <tile/>
   <tile gid="75"/>
   <tile gid="76"/>
   <tile gid="76"/>
   <tile gid="76"/>
   <tile/>
   <tile/>
   <tile/>
   <tile/>
   <tile/>
   <tile/>
   <tile/>
   <tile/>
   <tile/>
   <tile/>
   <tile/>
   <tile/>
   <tile/>
   <tile/>
   <tile/>
   <tile/>
   <tile gid="76"/>
   <tile gid="77"/>
   <tile/>
   <tile/>
   <tile/>
   <tile/>
   <tile/>
   <tile/>
   <tile/>
   <tile/>
   <tile/>
   <tile/>
   <tile/>
   <tile/>
   <tile/>
   <tile/>
   <tile/>
   <tile/>
   <tile/>
   <tile/>
   <tile/>
   <tile/>
   <tile/>
   <tile/>
   <tile/>
   <tile/>
   <tile/>
   <tile/>
   <tile/>
   <tile/>
   <tile/>
   <tile/>
   <tile/>
   <tile/>
   <tile/>
   <tile/>
   <tile/>
   <tile/>
   <tile/>
   <tile/>
   <tile/>
   <tile/>
   <tile/>
   <tile/>
   <tile/>
   <tile/>
   <tile/>
   <tile/>
   <tile/>
   <tile/>
   <tile/>
   <tile/>
   <tile/>
   <tile/>
   <tile/>
   <tile/>
   <tile/>
   <tile/>
   <tile/>
   <tile/>
   <tile/>
   <tile/>
   <tile gid="76"/>
   <tile gid="76"/>
   <tile gid="76"/>
   <tile gid="76"/>
   <tile gid="76"/>
   <tile gid="76"/>
   <tile gid="76"/>
   <tile gid="76"/>
   <tile gid="76"/>
   <tile gid="76"/>
   <tile gid="76"/>
   <tile gid="76"/>
   <tile gid="76"/>
   <tile gid="76"/>
   <tile gid="76"/>
   <tile gid="76"/>
   <tile gid="76"/>
   <tile gid="76"/>
   <tile gid="76"/>
   <tile gid="77"/>
   <tile/>
   <tile/>
   <tile/>
   <tile/>
   <tile gid="75"/>
   <tile gid="76"/>
   <tile gid="76"/>
   <tile gid="76"/>
   <tile gid="76"/>
   <tile gid="76"/>
   <tile gid="76"/>
   <tile gid="76"/>
   <tile gid="76"/>
   <tile gid="76"/>
   <tile gid="76"/>
   <tile gid="76"/>
   <tile gid="76"/>
   <tile gid="76"/>
   <tile/>
   <tile/>
   <tile/>
   <tile/>
   <tile/>
   <tile/>
   <tile/>
   <tile/>
   <tile/>
   <tile/>
   <tile/>
   <tile/>
   <tile/>
   <tile/>
   <tile/>
   <tile/>
   <tile/>
   <tile/>
   <tile/>
   <tile/>
   <tile/>
   <tile/>
   <tile/>
   <tile/>
   <tile/>
   <tile/>
   <tile/>
   <tile/>
   <tile/>
   <tile/>
   <tile/>
   <tile/>
   <tile/>
   <tile/>
   <tile/>
   <tile/>
   <tile/>
   <tile/>
   <tile/>
   <tile/>
   <tile/>
   <tile/>
   <tile/>
   <tile/>
   <tile/>
   <tile/>
   <tile/>
   <tile/>
   <tile/>
   <tile/>
   <tile/>
   <tile/>
   <tile/>
   <tile/>
   <tile/>
   <tile/>
   <tile/>
   <tile/>
   <tile/>
   <tile/>
   <tile/>
   <tile/>
   <tile/>
   <tile/>
   <tile/>
   <tile/>
   <tile/>
   <tile/>
   <tile/>
   <tile/>
   <tile/>
   <tile/>
   <tile/>
   <tile/>
   <tile/>
   <tile/>
   <tile/>
   <tile/>
   <tile/>
   <tile/>
   <tile/>
   <tile/>
   <tile/>
   <tile/>
   <tile/>
   <tile/>
   <tile/>
   <tile/>
   <tile/>
   <tile/>
   <tile/>
   <tile/>
   <tile/>
   <tile/>
   <tile/>
   <tile/>
   <tile/>
   <tile/>
   <tile/>
   <tile/>
   <tile/>
   <tile/>
   <tile/>
   <tile/>
   <tile/>
   <tile/>
   <tile/>
   <tile/>
   <tile/>
   <tile/>
   <tile/>
   <tile/>
   <tile/>
   <tile/>
   <tile/>
   <tile/>
   <tile/>
   <tile/>
   <tile/>
   <tile/>
   <tile/>
   <tile/>
   <tile/>
   <tile/>
   <tile/>
   <tile/>
   <tile/>
   <tile/>
   <tile/>
   <tile/>
   <tile/>
   <tile/>
   <tile/>
   <tile/>
   <tile/>
   <tile/>
   <tile/>
   <tile/>
   <tile/>
   <tile/>
   <tile/>
   <tile/>
   <tile/>
   <tile/>
   <tile/>
   <tile/>
   <tile/>
   <tile/>
   <tile/>
   <tile/>
   <tile/>
   <tile/>
   <tile/>
   <tile/>
   <tile/>
   <tile/>
   <tile/>
   <tile/>
   <tile/>
   <tile/>
   <tile/>
   <tile/>
   <tile/>
   <tile/>
   <tile/>
   <tile/>
   <tile/>
   <tile/>
   <tile/>
   <tile/>
   <tile/>
   <tile/>
   <tile/>
   <tile/>
   <tile/>
   <tile/>
   <tile/>
   <tile/>
   <tile/>
   <tile/>
   <tile/>
   <tile/>
   <tile/>
   <tile/>
   <tile/>
   <tile/>
   <tile/>
   <tile/>
   <tile/>
   <tile/>
   <tile/>
   <tile/>
   <tile/>
   <tile/>
   <tile/>
   <tile/>
   <tile/>
   <tile/>
   <tile/>
   <tile/>
   <tile/>
   <tile/>
   <tile/>
   <tile/>
   <tile/>
   <tile/>
   <tile/>
   <tile/>
   <tile/>
   <tile/>
   <tile/>
   <tile/>
   <tile/>
   <tile/>
   <tile/>
   <tile/>
   <tile/>
   <tile/>
   <tile/>
   <tile/>
   <tile/>
   <tile/>
   <tile/>
   <tile/>
   <tile/>
   <tile/>
   <tile/>
   <tile/>
   <tile/>
   <tile/>
   <tile/>
   <tile/>
   <tile/>
   <tile/>
   <tile/>
   <tile/>
   <tile/>
   <tile/>
   <tile/>
   <tile/>
   <tile/>
   <tile/>
   <tile/>
   <tile/>
   <tile/>
   <tile/>
   <tile/>
   <tile/>
   <tile/>
   <tile/>
   <tile/>
   <tile/>
   <tile/>
   <tile/>
   <tile/>
   <tile/>
   <tile/>
   <tile/>
   <tile/>
   <tile/>
   <tile/>
   <tile/>
   <tile/>
   <tile/>
   <tile/>
   <tile/>
   <tile/>
   <tile/>
   <tile/>
   <tile/>
   <tile/>
   <tile/>
   <tile/>
   <tile/>
   <tile/>
   <tile/>
   <tile/>
   <tile/>
   <tile/>
   <tile/>
   <tile/>
   <tile/>
   <tile/>
   <tile/>
   <tile/>
   <tile/>
   <tile/>
   <tile/>
   <tile/>
   <tile/>
   <tile/>
   <tile/>
   <tile/>
   <tile/>
   <tile/>
   <tile/>
   <tile/>
   <tile/>
   <tile/>
   <tile/>
   <tile/>
   <tile/>
   <tile/>
   <tile/>
   <tile/>
   <tile/>
   <tile/>
   <tile/>
   <tile/>
   <tile/>
   <tile/>
   <tile/>
   <tile/>
   <tile/>
   <tile/>
   <tile/>
   <tile/>
   <tile/>
   <tile/>
   <tile/>
   <tile/>
   <tile/>
   <tile/>
   <tile/>
   <tile/>
   <tile/>
   <tile/>
   <tile/>
   <tile/>
   <tile/>
   <tile/>
   <tile/>
   <tile/>
   <tile/>
   <tile/>
   <tile/>
   <tile/>
   <tile/>
   <tile/>
   <tile/>
   <tile/>
   <tile/>
   <tile/>
   <tile/>
   <tile/>
   <tile/>
   <tile/>
   <tile/>
   <tile/>
   <tile/>
   <tile/>
   <tile/>
   <tile/>
   <tile/>
   <tile/>
   <tile/>
   <tile/>
   <tile/>
   <tile/>
   <tile/>
   <tile/>
   <tile/>
   <tile/>
   <tile/>
   <tile/>
   <tile/>
   <tile/>
   <tile/>
   <tile/>
   <tile/>
   <tile/>
   <tile/>
   <tile/>
   <tile/>
   <tile/>
   <tile/>
   <tile/>
   <tile/>
   <tile/>
   <tile/>
   <tile/>
   <tile/>
   <tile/>
   <tile/>
   <tile/>
   <tile/>
   <tile/>
   <tile/>
   <tile/>
   <tile/>
   <tile/>
   <tile/>
   <tile/>
   <tile/>
   <tile/>
   <tile/>
   <tile/>
   <tile/>
   <tile/>
   <tile/>
   <tile/>
   <tile/>
   <tile/>
   <tile/>
   <tile/>
   <tile/>
   <tile/>
   <tile/>
   <tile/>
   <tile/>
   <tile/>
   <tile/>
   <tile/>
   <tile/>
   <tile/>
   <tile/>
   <tile/>
   <tile/>
   <tile/>
   <tile/>
   <tile/>
   <tile/>
   <tile/>
   <tile/>
   <tile/>
   <tile/>
   <tile/>
   <tile/>
   <tile/>
   <tile/>
   <tile/>
   <tile/>
   <tile/>
   <tile/>
   <tile/>
   <tile/>
   <tile/>
   <tile/>
   <tile/>
   <tile/>
   <tile/>
   <tile/>
   <tile/>
   <tile/>
   <tile/>
   <tile/>
   <tile/>
   <tile/>
   <tile/>
   <tile/>
   <tile/>
   <tile/>
   <tile/>
   <tile/>
   <tile/>
   <tile/>
   <tile/>
   <tile/>
   <tile/>
   <tile/>
   <tile/>
   <tile/>
   <tile/>
   <tile/>
   <tile/>
   <tile/>
   <tile/>
   <tile/>
   <tile/>
   <tile/>
   <tile/>
   <tile/>
   <tile/>
   <tile/>
   <tile/>
   <tile/>
   <tile/>
   <tile/>
   <tile/>
   <tile/>
   <tile/>
   <tile/>
   <tile/>
   <tile/>
   <tile/>
   <tile/>
   <tile/>
   <tile/>
   <tile/>
   <tile/>
   <tile/>
   <tile/>
   <tile/>
   <tile/>
   <tile/>
   <tile/>
   <tile/>
   <tile/>
   <tile/>
   <tile/>
   <tile/>
   <tile/>
   <tile/>
   <tile/>
   <tile/>
   <tile/>
   <tile/>
   <tile/>
   <tile/>
   <tile/>
   <tile/>
   <tile/>
   <tile/>
   <tile/>
   <tile/>
   <tile/>
   <tile/>
   <tile/>
   <tile/>
   <tile/>
   <tile/>
   <tile/>
   <tile/>
   <tile/>
   <tile/>
   <tile/>
   <tile/>
   <tile/>
   <tile/>
   <tile/>
   <tile/>
   <tile/>
   <tile/>
   <tile/>
   <tile/>
   <tile/>
   <tile/>
   <tile/>
   <tile/>
   <tile/>
   <tile/>
   <tile/>
   <tile/>
   <tile/>
   <tile/>
   <tile/>
   <tile/>
   <tile/>
   <tile/>
   <tile/>
   <tile/>
   <tile/>
   <tile/>
   <tile/>
   <tile/>
   <tile/>
   <tile/>
   <tile/>
   <tile/>
   <tile/>
   <tile/>
   <tile/>
   <tile/>
   <tile/>
   <tile/>
   <tile/>
   <tile/>
   <tile/>
   <tile/>
   <tile/>
   <tile/>
   <tile/>
   <tile/>
   <tile/>
   <tile/>
   <tile/>
   <tile/>
   <tile/>
   <tile/>
   <tile/>
   <tile/>
   <tile/>
   <tile/>
   <tile/>
   <tile/>
   <tile/>
   <tile/>
   <tile/>
   <tile/>
   <tile/>
   <tile/>
   <tile/>
   <tile/>
   <tile/>
   <tile/>
   <tile/>
   <tile/>
   <tile/>
   <tile/>
   <tile/>
   <tile/>
   <tile/>
   <tile/>
   <tile/>
   <tile/>
   <tile/>
   <tile/>
   <tile/>
   <tile/>
   <tile/>
   <tile/>
   <tile/>
   <tile/>
   <tile/>
   <tile/>
   <tile/>
   <tile/>
   <tile/>
   <tile/>
   <tile/>
   <tile/>
   <tile/>
   <tile/>
   <tile/>
   <tile/>
   <tile/>
   <tile/>
   <tile/>
   <tile/>
   <tile/>
   <tile/>
   <tile/>
   <tile/>
   <tile/>
   <tile/>
   <tile/>
   <tile/>
   <tile/>
   <tile/>
   <tile/>
   <tile/>
   <tile/>
   <tile/>
   <tile/>
   <tile/>
   <tile/>
   <tile/>
   <tile/>
   <tile/>
   <tile/>
   <tile/>
   <tile/>
   <tile/>
   <tile/>
   <tile/>
   <tile/>
   <tile/>
   <tile/>
   <tile/>
   <tile/>
   <tile/>
   <tile/>
   <tile/>
   <tile/>
   <tile/>
   <tile/>
   <tile/>
   <tile/>
   <tile/>
   <tile/>
   <tile/>
   <tile/>
   <tile/>
   <tile/>
   <tile/>
   <tile/>
   <tile/>
   <tile/>
   <tile/>
   <tile/>
   <tile/>
   <tile/>
   <tile/>
   <tile/>
   <tile/>
   <tile/>
   <tile/>
   <tile/>
   <tile/>
   <tile/>
   <tile/>
   <tile/>
   <tile/>
   <tile/>
   <tile/>
   <tile/>
   <tile/>
   <tile/>
   <tile/>
   <tile/>
   <tile/>
   <tile/>
   <tile/>
   <tile/>
   <tile/>
   <tile/>
   <tile/>
   <tile/>
   <tile/>
   <tile/>
   <tile/>
   <tile/>
   <tile/>
   <tile/>
   <tile/>
   <tile/>
   <tile/>
   <tile/>
   <tile/>
   <tile/>
   <tile/>
   <tile/>
   <tile/>
   <tile/>
   <tile/>
   <tile/>
   <tile/>
   <tile gid="76"/>
   <tile gid="76"/>
   <tile gid="76"/>
   <tile gid="76"/>
   <tile gid="76"/>
   <tile gid="76"/>
   <tile gid="76"/>
   <tile gid="76"/>
   <tile gid="76"/>
   <tile gid="76"/>
   <tile gid="76"/>
   <tile gid="76"/>
   <tile gid="76"/>
   <tile gid="76"/>
   <tile gid="76"/>
   <tile gid="76"/>
   <tile gid="76"/>
   <tile gid="76"/>
   <tile gid="76"/>
   <tile gid="76"/>
   <tile gid="76"/>
   <tile gid="76"/>
   <tile gid="76"/>
   <tile gid="76"/>
   <tile gid="76"/>
   <tile gid="76"/>
   <tile gid="76"/>
   <tile gid="76"/>
   <tile gid="76"/>
   <tile gid="76"/>
   <tile gid="76"/>
   <tile gid="76"/>
   <tile gid="76"/>
   <tile gid="76"/>
   <tile gid="77"/>
   <tile/>
   <tile/>
   <tile/>
   <tile/>
   <tile gid="75"/>
   <tile gid="76"/>
   <tile gid="76"/>
   <tile gid="76"/>
   <tile gid="76"/>
   <tile gid="76"/>
   <tile gid="76"/>
   <tile gid="76"/>
   <tile gid="76"/>
   <tile gid="76"/>
   <tile gid="76"/>
   <tile gid="76"/>
   <tile gid="76"/>
   <tile gid="76"/>
   <tile gid="76"/>
   <tile gid="76"/>
   <tile gid="76"/>
   <tile gid="76"/>
   <tile/>
   <tile/>
   <tile/>
   <tile/>
   <tile/>
   <tile/>
   <tile/>
   <tile/>
   <tile/>
   <tile/>
   <tile/>
   <tile/>
   <tile/>
   <tile/>
   <tile/>
   <tile/>
   <tile/>
   <tile/>
   <tile/>
   <tile/>
   <tile/>
   <tile/>
   <tile/>
   <tile/>
   <tile/>
   <tile/>
   <tile/>
   <tile/>
   <tile/>
   <tile/>
   <tile/>
   <tile/>
   <tile/>
   <tile/>
   <tile/>
   <tile/>
   <tile/>
   <tile/>
   <tile/>
   <tile/>
   <tile/>
   <tile/>
   <tile/>
   <tile/>
   <tile/>
   <tile/>
   <tile/>
   <tile/>
   <tile/>
   <tile/>
   <tile/>
   <tile/>
   <tile/>
   <tile/>
   <tile/>
   <tile/>
   <tile/>
   <tile/>
   <tile/>
   <tile/>
   <tile/>
   <tile/>
   <tile/>
   <tile/>
   <tile/>
   <tile/>
   <tile/>
   <tile/>
   <tile/>
   <tile/>
   <tile/>
   <tile/>
   <tile/>
   <tile/>
   <tile/>
   <tile/>
   <tile/>
   <tile/>
   <tile/>
   <tile/>
   <tile/>
   <tile/>
   <tile/>
   <tile/>
   <tile/>
   <tile/>
   <tile/>
   <tile/>
   <tile/>
   <tile/>
   <tile/>
   <tile/>
   <tile/>
   <tile/>
   <tile/>
   <tile/>
   <tile/>
   <tile/>
   <tile/>
   <tile/>
   <tile/>
   <tile/>
   <tile/>
   <tile/>
   <tile/>
   <tile/>
   <tile/>
   <tile/>
   <tile/>
   <tile/>
   <tile/>
   <tile/>
   <tile/>
   <tile/>
   <tile/>
   <tile/>
   <tile/>
   <tile/>
   <tile/>
   <tile/>
  </data>
 </layer>
 <layer id="3" name="Collisions" width="60" height="68">
  <data>
   <tile/>
   <tile/>
   <tile/>
   <tile/>
   <tile/>
   <tile/>
   <tile/>
   <tile gid="258"/>
   <tile gid="258"/>
   <tile gid="258"/>
   <tile gid="258"/>
   <tile gid="258"/>
   <tile gid="258"/>
   <tile/>
   <tile/>
   <tile/>
   <tile/>
   <tile gid="258"/>
   <tile gid="258"/>
   <tile gid="258"/>
   <tile gid="258"/>
   <tile gid="258"/>
   <tile gid="258"/>
   <tile/>
   <tile/>
   <tile/>
   <tile/>
   <tile/>
   <tile/>
   <tile/>
   <tile/>
   <tile/>
   <tile/>
   <tile/>
   <tile/>
   <tile/>
   <tile/>
   <tile/>
   <tile/>
   <tile/>
   <tile/>
   <tile/>
   <tile/>
   <tile/>
   <tile/>
   <tile/>
   <tile/>
   <tile/>
   <tile/>
   <tile/>
   <tile/>
   <tile/>
   <tile/>
   <tile/>
   <tile/>
   <tile/>
   <tile/>
   <tile/>
   <tile/>
   <tile/>
   <tile/>
   <tile/>
   <tile/>
   <tile/>
   <tile gid="258"/>
   <tile gid="258"/>
   <tile gid="258"/>
   <tile/>
   <tile/>
   <tile/>
   <tile/>
   <tile/>
   <tile/>
   <tile/>
   <tile/>
   <tile/>
   <tile/>
   <tile/>
   <tile/>
   <tile/>
   <tile/>
   <tile/>
   <tile/>
   <tile gid="258"/>
   <tile gid="258"/>
   <tile gid="258"/>
   <tile/>
   <tile/>
   <tile/>
   <tile/>
   <tile/>
   <tile/>
   <tile/>
   <tile/>
   <tile/>
   <tile/>
   <tile/>
   <tile/>
   <tile/>
   <tile/>
   <tile/>
   <tile/>
   <tile/>
   <tile/>
   <tile/>
   <tile/>
   <tile/>
   <tile/>
   <tile/>
   <tile/>
   <tile/>
   <tile/>
   <tile/>
   <tile/>
   <tile/>
   <tile/>
   <tile/>
   <tile/>
   <tile/>
   <tile/>
   <tile/>
   <tile/>
   <tile gid="258"/>
   <tile gid="258"/>
   <tile/>
   <tile/>
   <tile/>
   <tile/>
   <tile/>
   <tile/>
   <tile/>
   <tile/>
   <tile/>
   <tile/>
   <tile/>
   <tile/>
   <tile/>
   <tile/>
   <tile/>
   <tile/>
   <tile/>
   <tile/>
   <tile/>
   <tile/>
   <tile/>
   <tile/>
   <tile gid="258"/>
   <tile/>
   <tile/>
   <tile/>
   <tile/>
   <tile/>
   <tile/>
   <tile/>
   <tile/>
   <tile/>
   <tile/>
   <tile/>
   <tile/>
   <tile/>
   <tile/>
   <tile/>
   <tile/>
   <tile/>
   <tile/>
   <tile/>
   <tile/>
   <tile/>
   <tile/>
   <tile/>
   <tile/>
   <tile/>
   <tile/>
   <tile/>
   <tile/>
   <tile/>
   <tile/>
   <tile/>
   <tile/>
   <tile/>
   <tile/>
   <tile gid="258"/>
   <tile/>
   <tile/>
   <tile/>
   <tile/>
   <tile/>
   <tile/>
   <tile/>
   <tile/>
   <tile/>
   <tile/>
   <tile/>
   <tile/>
   <tile/>
   <tile/>
   <tile/>
   <tile/>
   <tile/>
   <tile/>
   <tile/>
   <tile/>
   <tile/>
   <tile/>
   <tile/>
   <tile/>
   <tile/>
   <tile gid="258"/>
   <tile gid="258"/>
   <tile gid="258"/>
   <tile gid="258"/>
   <tile gid="258"/>
   <tile gid="258"/>
   <tile gid="258"/>
   <tile gid="258"/>
   <tile gid="258"/>
   <tile gid="258"/>
   <tile gid="258"/>
   <tile gid="258"/>
   <tile gid="258"/>
   <tile gid="258"/>
   <tile gid="258"/>
   <tile gid="258"/>
   <tile gid="258"/>
   <tile gid="258"/>
   <tile gid="258"/>
   <tile gid="258"/>
   <tile gid="258"/>
   <tile gid="258"/>
   <tile gid="258"/>
   <tile gid="258"/>
   <tile gid="258"/>
   <tile/>
   <tile/>
   <tile/>
   <tile/>
   <tile/>
   <tile/>
   <tile/>
   <tile/>
   <tile gid="258"/>
   <tile/>
   <tile/>
   <tile/>
   <tile/>
   <tile/>
   <tile/>
   <tile/>
   <tile/>
   <tile/>
   <tile/>
   <tile/>
   <tile/>
   <tile/>
   <tile/>
   <tile/>
   <tile/>
   <tile/>
   <tile/>
   <tile/>
   <tile/>
   <tile/>
   <tile/>
   <tile/>
   <tile/>
   <tile/>
   <tile/>
   <tile/>
   <tile/>
   <tile/>
   <tile/>
   <tile/>
   <tile/>
   <tile/>
   <tile/>
   <tile/>
   <tile/>
   <tile/>
   <tile/>
   <tile/>
   <tile/>
   <tile/>
   <tile/>
   <tile/>
   <tile/>
   <tile/>
   <tile/>
   <tile/>
   <tile/>
   <tile/>
   <tile/>
   <tile/>
   <tile gid="258"/>
   <tile gid="258"/>
   <tile gid="258"/>
   <tile/>
   <tile/>
   <tile/>
   <tile/>
   <tile/>
   <tile gid="258"/>
   <tile/>
   <tile/>
   <tile/>
   <tile/>
   <tile/>
   <tile/>
   <tile/>
   <tile/>
   <tile/>
   <tile/>
   <tile/>
   <tile/>
   <tile gid="258"/>
   <tile gid="258"/>
   <tile gid="258"/>
   <tile gid="258"/>
   <tile/>
   <tile/>
   <tile/>
   <tile/>
   <tile/>
   <tile/>
   <tile/>
   <tile/>
   <tile/>
   <tile/>
   <tile/>
   <tile/>
   <tile/>
   <tile/>
   <tile/>
   <tile/>
   <tile/>
   <tile/>
   <tile/>
   <tile/>
   <tile/>
   <tile/>
   <tile/>
   <tile/>
   <tile/>
   <tile/>
   <tile/>
   <tile/>
   <tile/>
   <tile/>
   <tile/>
   <tile/>
   <tile/>
   <tile/>
   <tile/>
   <tile/>
   <tile/>
   <tile/>
   <tile gid="258"/>
   <tile gid="258"/>
   <tile/>
   <tile/>
   <tile/>
   <tile gid="258"/>
   <tile/>
   <tile/>
   <tile/>
   <tile/>
   <tile/>
   <tile/>
   <tile/>
   <tile/>
   <tile/>
   <tile/>
   <tile/>
   <tile/>
   <tile gid="258"/>
   <tile gid="258"/>
   <tile gid="258"/>
   <tile gid="258"/>
   <tile/>
   <tile/>
   <tile/>
   <tile/>
   <tile/>
   <tile/>
   <tile/>
   <tile/>
   <tile/>
   <tile/>
   <tile/>
   <tile/>
   <tile/>
   <tile/>
   <tile/>
   <tile/>
   <tile/>
   <tile/>
   <tile/>
   <tile/>
   <tile/>
   <tile/>
   <tile/>
   <tile/>
   <tile/>
   <tile/>
   <tile/>
   <tile/>
   <tile/>
   <tile/>
   <tile/>
   <tile/>
   <tile/>
   <tile/>
   <tile/>
   <tile/>
   <tile/>
   <tile/>
   <tile/>
   <tile/>
   <tile gid="258"/>
   <tile gid="258"/>
   <tile gid="258"/>
   <tile gid="258"/>
   <tile/>
   <tile/>
   <tile/>
   <tile/>
   <tile/>
   <tile/>
   <tile/>
   <tile/>
   <tile/>
   <tile/>
   <tile/>
   <tile/>
   <tile/>
   <tile/>
   <tile/>
   <tile/>
   <tile/>
   <tile/>
   <tile/>
   <tile/>
   <tile/>
   <tile/>
   <tile/>
   <tile/>
   <tile/>
   <tile/>
   <tile/>
   <tile/>
   <tile/>
   <tile/>
   <tile/>
   <tile/>
   <tile/>
   <tile/>
   <tile/>
   <tile/>
   <tile/>
   <tile/>
   <tile/>
   <tile/>
   <tile/>
   <tile/>
   <tile/>
   <tile/>
   <tile/>
   <tile/>
   <tile/>
   <tile/>
   <tile/>
   <tile/>
   <tile/>
   <tile/>
   <tile/>
   <tile/>
   <tile/>
   <tile/>
   <tile/>
   <tile/>
   <tile/>
   <tile gid="258"/>
   <tile/>
   <tile/>
   <tile/>
   <tile/>
   <tile/>
   <tile/>
   <tile/>
   <tile/>
   <tile/>
   <tile/>
   <tile/>
   <tile/>
   <tile/>
   <tile/>
   <tile/>
   <tile/>
   <tile/>
   <tile/>
   <tile/>
   <tile/>
   <tile/>
   <tile/>
   <tile/>
   <tile/>
   <tile/>
   <tile/>
   <tile/>
   <tile/>
   <tile/>
   <tile/>
   <tile/>
   <tile/>
   <tile/>
   <tile/>
   <tile/>
   <tile/>
   <tile/>
   <tile/>
   <tile/>
   <tile/>
   <tile/>
   <tile/>
   <tile/>
   <tile/>
   <tile/>
   <tile/>
   <tile/>
   <tile/>
   <tile/>
   <tile/>
   <tile/>
   <tile/>
   <tile/>
   <tile/>
   <tile/>
   <tile/>
   <tile/>
   <tile/>
   <tile/>
   <tile gid="258"/>
   <tile/>
   <tile/>
   <tile/>
   <tile/>
   <tile/>
   <tile/>
   <tile/>
   <tile/>
   <tile/>
   <tile/>
   <tile/>
   <tile/>
   <tile/>
   <tile/>
   <tile/>
   <tile/>
   <tile/>
   <tile/>
   <tile/>
   <tile/>
   <tile/>
   <tile/>
   <tile/>
   <tile/>
   <tile/>
   <tile/>
   <tile/>
   <tile/>
   <tile/>
   <tile/>
   <tile/>
   <tile/>
   <tile/>
   <tile/>
   <tile/>
   <tile/>
   <tile/>
   <tile/>
   <tile/>
   <tile/>
   <tile/>
   <tile/>
   <tile/>
   <tile/>
   <tile/>
   <tile/>
   <tile/>
   <tile/>
   <tile/>
   <tile/>
   <tile/>
   <tile/>
   <tile/>
   <tile/>
   <tile/>
   <tile/>
   <tile/>
   <tile/>
   <tile/>
   <tile/>
   <tile gid="258"/>
   <tile gid="258"/>
   <tile gid="258"/>
   <tile gid="258"/>
   <tile gid="258"/>
   <tile gid="258"/>
   <tile gid="258"/>
   <tile gid="258"/>
   <tile gid="258"/>
   <tile gid="258"/>
   <tile gid="258"/>
   <tile gid="258"/>
   <tile gid="258"/>
   <tile gid="258"/>
   <tile gid="258"/>
   <tile gid="258"/>
   <tile gid="258"/>
   <tile gid="258"/>
   <tile gid="258"/>
   <tile gid="258"/>
   <tile gid="258"/>
   <tile gid="258"/>
   <tile gid="258"/>
   <tile gid="258"/>
   <tile gid="258"/>
   <tile gid="258"/>
   <tile gid="258"/>
   <tile gid="258"/>
   <tile gid="258"/>
   <tile gid="258"/>
   <tile gid="258"/>
   <tile gid="258"/>
   <tile gid="258"/>
   <tile gid="258"/>
   <tile gid="258"/>
   <tile gid="258"/>
   <tile gid="258"/>
   <tile/>
   <tile/>
   <tile/>
   <tile/>
   <tile gid="258"/>
   <tile gid="258"/>
   <tile gid="258"/>
   <tile gid="258"/>
   <tile gid="258"/>
   <tile gid="258"/>
   <tile gid="258"/>
   <tile gid="258"/>
   <tile gid="258"/>
   <tile gid="258"/>
   <tile gid="258"/>
   <tile gid="258"/>
   <tile gid="258"/>
   <tile gid="258"/>
   <tile gid="258"/>
   <tile gid="258"/>
   <tile gid="258"/>
   <tile gid="258"/>
   <tile/>
   <tile/>
   <tile/>
   <tile/>
   <tile/>
   <tile/>
   <tile/>
   <tile/>
   <tile/>
   <tile/>
   <tile/>
   <tile/>
   <tile/>
   <tile/>
   <tile/>
   <tile/>
   <tile/>
   <tile/>
   <tile/>
   <tile/>
   <tile/>
   <tile/>
   <tile/>
   <tile/>
   <tile/>
   <tile/>
   <tile/>
   <tile/>
   <tile/>
   <tile/>
   <tile/>
   <tile gid="258"/>
   <tile gid="258"/>
   <tile gid="258"/>
   <tile gid="258"/>
   <tile gid="258"/>
   <tile gid="258"/>
   <tile gid="258"/>
   <tile/>
   <tile/>
   <tile/>
   <tile/>
   <tile gid="258"/>
   <tile gid="258"/>
   <tile gid="258"/>
   <tile gid="258"/>
   <tile gid="258"/>
   <tile gid="258"/>
   <tile gid="258"/>
   <tile gid="258"/>
   <tile gid="258"/>
   <tile gid="258"/>
   <tile gid="258"/>
   <tile gid="258"/>
   <tile gid="258"/>
   <tile gid="258"/>
   <tile/>
   <tile/>
   <tile/>
   <tile/>
   <tile/>
   <tile/>
   <tile/>
   <tile/>
   <tile/>
   <tile/>
   <tile/>
   <tile/>
   <tile/>
   <tile/>
   <tile/>
   <tile/>
   <tile/>
   <tile/>
   <tile/>
   <tile/>
   <tile/>
   <tile/>
   <tile/>
   <tile/>
   <tile/>
   <tile/>
   <tile/>
   <tile/>
   <tile/>
   <tile/>
   <tile/>
   <tile/>
   <tile/>
   <tile/>
   <tile gid="258"/>
   <tile/>
   <tile/>
   <tile/>
   <tile/>
   <tile/>
   <tile/>
   <tile/>
   <tile/>
   <tile/>
   <tile/>
   <tile/>
   <tile/>
   <tile/>
   <tile/>
   <tile/>
   <tile/>
   <tile/>
   <tile/>
   <tile/>
   <tile/>
   <tile/>
   <tile/>
   <tile/>
   <tile/>
   <tile/>
   <tile gid="258"/>
   <tile gid="258"/>
   <tile/>
   <tile/>
   <tile/>
   <tile/>
   <tile/>
   <tile/>
   <tile/>
   <tile/>
   <tile/>
   <tile/>
   <tile/>
   <tile/>
   <tile/>
   <tile/>
   <tile/>
   <tile/>
   <tile/>
   <tile/>
   <tile/>
   <tile/>
   <tile/>
   <tile/>
   <tile/>
   <tile/>
   <tile/>
   <tile/>
   <tile/>
   <tile/>
   <tile/>
   <tile/>
   <tile/>
   <tile gid="258"/>
   <tile/>
   <tile/>
   <tile/>
   <tile/>
   <tile/>
   <tile/>
   <tile/>
   <tile/>
   <tile/>
   <tile/>
   <tile/>
   <tile/>
   <tile/>
   <tile/>
   <tile/>
   <tile/>
   <tile/>
   <tile/>
   <tile/>
   <tile/>
   <tile/>
   <tile/>
   <tile/>
   <tile/>
   <tile/>
   <tile/>
   <tile/>
   <tile/>
   <tile gid="258"/>
   <tile/>
   <tile/>
   <tile/>
   <tile/>
   <tile/>
   <tile/>
   <tile/>
   <tile/>
   <tile/>
   <tile/>
   <tile/>
   <tile/>
   <tile/>
   <tile/>
   <tile/>
   <tile/>
   <tile/>
   <tile/>
   <tile/>
   <tile/>
   <tile/>
   <tile/>
   <tile/>
   <tile/>
   <tile/>
   <tile/>
   <tile/>
   <tile/>
   <tile gid="258"/>
   <tile gid="258"/>
   <tile/>
   <tile/>
   <tile/>
   <tile/>
   <tile/>
   <tile/>
   <tile/>
   <tile/>
   <tile/>
   <tile/>
   <tile/>
   <tile/>
   <tile/>
   <tile/>
   <tile/>
   <tile/>
   <tile/>
   <tile/>
   <tile/>
   <tile/>
   <tile/>
   <tile/>
   <tile/>
   <tile/>
   <tile/>
   <tile/>
   <tile/>
   <tile/>
   <tile/>
   <tile gid="258"/>
   <tile/>
   <tile/>
   <tile/>
   <tile/>
   <tile/>
   <tile/>
   <tile/>
   <tile/>
   <tile/>
   <tile/>
   <tile/>
   <tile/>
   <tile/>
   <tile/>
   <tile/>
   <tile/>
   <tile/>
   <tile/>
   <tile/>
   <tile/>
   <tile/>
   <tile/>
   <tile/>
   <tile/>
   <tile/>
   <tile/>
   <tile gid="258"/>
   <tile gid="258"/>
   <tile/>
   <tile/>
   <tile/>
   <tile/>
   <tile/>
   <tile/>
   <tile/>
   <tile/>
   <tile/>
   <tile/>
   <tile/>
   <tile/>
   <tile/>
   <tile/>
   <tile/>
   <tile/>
   <tile/>
   <tile/>
   <tile/>
   <tile/>
   <tile/>
   <tile/>
   <tile/>
   <tile/>
   <tile/>
   <tile/>
   <tile/>
   <tile/>
   <tile/>
   <tile/>
   <tile/>
   <tile/>
   <tile gid="258"/>
   <tile/>
   <tile/>
   <tile/>
   <tile/>
   <tile/>
   <tile/>
   <tile/>
   <tile/>
   <tile/>
   <tile/>
   <tile/>
   <tile/>
   <tile/>
   <tile/>
   <tile/>
   <tile/>
   <tile/>
   <tile/>
   <tile/>
   <tile/>
   <tile/>
   <tile/>
   <tile/>
   <tile gid="258"/>
   <tile gid="258"/>
   <tile/>
   <tile/>
   <tile/>
   <tile/>
   <tile/>
   <tile/>
   <tile/>
   <tile/>
   <tile/>
   <tile/>
   <tile/>
   <tile/>
   <tile/>
   <tile/>
   <tile/>
   <tile/>
   <tile/>
   <tile/>
   <tile/>
   <tile/>
   <tile/>
   <tile/>
   <tile/>
   <tile/>
   <tile/>
   <tile/>
   <tile/>
   <tile/>
   <tile/>
   <tile/>
   <tile/>
   <tile/>
   <tile/>
   <tile/>
   <tile gid="258"/>
   <tile gid="258"/>
   <tile gid="258"/>
   <tile gid="258"/>
   <tile gid="258"/>
   <tile gid="258"/>
   <tile gid="258"/>
   <tile gid="258"/>
   <tile gid="258"/>
   <tile gid="258"/>
   <tile/>
   <tile/>
   <tile/>
   <tile/>
   <tile/>
   <tile/>
   <tile/>
   <tile/>
   <tile/>
   <tile/>
   <tile/>
   <tile gid="258"/>
   <tile gid="258"/>
   <tile gid="258"/>
   <tile/>
   <tile/>
   <tile/>
   <tile/>
   <tile/>
   <tile/>
   <tile/>
   <tile/>
   <tile/>
   <tile/>
   <tile/>
   <tile/>
   <tile/>
   <tile/>
   <tile/>
   <tile/>
   <tile/>
   <tile/>
   <tile/>
   <tile/>
   <tile/>
   <tile/>
   <tile/>
   <tile/>
   <tile/>
   <tile/>
   <tile/>
   <tile/>
   <tile/>
   <tile/>
   <tile/>
   <tile/>
   <tile/>
   <tile/>
   <tile/>
   <tile/>
   <tile gid="258"/>
   <tile/>
   <tile/>
   <tile/>
   <tile/>
   <tile/>
   <tile/>
   <tile/>
   <tile/>
   <tile/>
   <tile gid="258"/>
   <tile/>
   <tile/>
   <tile/>
   <tile/>
   <tile/>
   <tile/>
   <tile/>
   <tile/>
   <tile gid="258"/>
   <tile gid="258"/>
   <tile/>
   <tile/>
   <tile/>
   <tile/>
   <tile/>
   <tile/>
   <tile/>
   <tile/>
   <tile/>
   <tile/>
   <tile/>
   <tile/>
   <tile/>
   <tile/>
   <tile/>
   <tile/>
   <tile/>
   <tile/>
   <tile/>
   <tile/>
   <tile/>
   <tile/>
   <tile/>
   <tile/>
   <tile/>
   <tile/>
   <tile/>
   <tile/>
   <tile/>
   <tile/>
   <tile/>
   <tile/>
   <tile/>
   <tile/>
   <tile/>
   <tile/>
   <tile/>
   <tile/>
   <tile/>
   <tile gid="258"/>
   <tile/>
   <tile/>
   <tile/>
   <tile/>
   <tile/>
   <tile/>
   <tile/>
   <tile/>
   <tile/>
   <tile/>
   <tile gid="258"/>
   <tile/>
   <tile/>
   <tile/>
   <tile/>
   <tile/>
   <tile/>
   <tile gid="258"/>
   <tile/>
   <tile/>
   <tile/>
   <tile/>
   <tile/>
   <tile/>
   <tile/>
   <tile/>
   <tile/>
   <tile/>
   <tile/>
   <tile/>
   <tile/>
   <tile/>
   <tile/>
   <tile/>
   <tile/>
   <tile/>
   <tile/>
   <tile/>
   <tile/>
   <tile/>
   <tile/>
   <tile/>
   <tile/>
   <tile/>
   <tile/>
   <tile/>
   <tile/>
   <tile/>
   <tile/>
   <tile/>
   <tile/>
   <tile/>
   <tile/>
   <tile/>
   <tile/>
   <tile/>
   <tile/>
   <tile/>
   <tile/>
   <tile gid="258"/>
   <tile/>
   <tile/>
   <tile/>
   <tile/>
   <tile/>
   <tile/>
   <tile/>
   <tile/>
   <tile/>
   <tile/>
   <tile gid="258"/>
   <tile gid="258"/>
   <tile gid="258"/>
   <tile gid="258"/>
   <tile gid="258"/>
   <tile gid="258"/>
   <tile gid="258"/>
   <tile/>
   <tile/>
   <tile/>
   <tile/>
   <tile/>
   <tile/>
   <tile/>
   <tile/>
   <tile/>
   <tile/>
   <tile/>
   <tile/>
   <tile/>
   <tile/>
   <tile/>
   <tile/>
   <tile/>
   <tile/>
   <tile/>
   <tile/>
   <tile/>
   <tile/>
   <tile/>
   <tile/>
   <tile/>
   <tile/>
   <tile/>
   <tile/>
   <tile/>
   <tile/>
   <tile/>
   <tile/>
   <tile/>
   <tile/>
   <tile/>
   <tile/>
   <tile/>
   <tile/>
   <tile/>
   <tile/>
   <tile/>
   <tile/>
   <tile gid="258"/>
   <tile/>
   <tile/>
   <tile/>
   <tile/>
   <tile/>
   <tile/>
   <tile/>
   <tile/>
   <tile/>
   <tile/>
   <tile/>
   <tile/>
   <tile/>
   <tile/>
   <tile/>
   <tile/>
   <tile/>
   <tile/>
   <tile/>
   <tile/>
   <tile/>
   <tile/>
   <tile/>
   <tile/>
   <tile/>
   <tile/>
   <tile/>
   <tile/>
   <tile/>
   <tile/>
   <tile/>
   <tile/>
   <tile/>
   <tile/>
   <tile/>
   <tile/>
   <tile/>
   <tile/>
   <tile/>
   <tile/>
   <tile/>
   <tile/>
   <tile/>
   <tile/>
   <tile/>
   <tile/>
   <tile/>
   <tile/>
   <tile/>
   <tile/>
   <tile/>
   <tile/>
   <tile/>
   <tile/>
   <tile/>
   <tile/>
   <tile/>
   <tile/>
   <tile gid="258"/>
   <tile/>
   <tile gid="258"/>
   <tile gid="258"/>
   <tile gid="258"/>
   <tile gid="258"/>
   <tile gid="258"/>
   <tile gid="258"/>
   <tile gid="258"/>
   <tile gid="258"/>
   <tile gid="258"/>
   <tile gid="258"/>
   <tile gid="258"/>
   <tile gid="258"/>
   <tile gid="258"/>
   <tile gid="258"/>
   <tile gid="258"/>
   <tile gid="258"/>
   <tile gid="258"/>
   <tile gid="258"/>
   <tile gid="258"/>
   <tile gid="258"/>
   <tile gid="258"/>
   <tile gid="258"/>
   <tile gid="258"/>
   <tile gid="258"/>
   <tile gid="258"/>
   <tile gid="258"/>
   <tile gid="258"/>
   <tile gid="258"/>
   <tile gid="258"/>
   <tile gid="258"/>
   <tile gid="258"/>
   <tile gid="258"/>
   <tile gid="258"/>
   <tile gid="258"/>
   <tile gid="258"/>
   <tile gid="258"/>
   <tile gid="258"/>
   <tile gid="258"/>
   <tile/>
   <tile/>
   <tile/>
   <tile/>
   <tile gid="258"/>
   <tile gid="258"/>
   <tile gid="258"/>
   <tile gid="258"/>
   <tile gid="258"/>
   <tile gid="258"/>
   <tile gid="258"/>
   <tile gid="258"/>
   <tile gid="258"/>
   <tile gid="258"/>
   <tile gid="258"/>
   <tile gid="258"/>
   <tile gid="258"/>
   <tile gid="258"/>
   <tile gid="258"/>
   <tile gid="258"/>
   <tile/>
   <tile/>
   <tile/>
   <tile/>
   <tile/>
   <tile/>
   <tile/>
   <tile/>
   <tile/>
   <tile/>
   <tile/>
   <tile/>
   <tile/>
   <tile/>
   <tile/>
   <tile/>
   <tile/>
   <tile/>
   <tile/>
   <tile/>
   <tile/>
   <tile/>
   <tile/>
   <tile/>
   <tile/>
   <tile/>
   <tile/>
   <tile/>
   <tile/>
   <tile/>
   <tile/>
   <tile/>
   <tile/>
   <tile/>
   <tile/>
   <tile/>
   <tile/>
   <tile/>
   <tile/>
   <tile gid="258"/>
   <tile/>
   <tile/>
   <tile/>
   <tile/>
   <tile gid="258"/>
   <tile/>
   <tile/>
   <tile/>
   <tile/>
   <tile/>
   <tile/>
   <tile/>
   <tile/>
   <tile/>
   <tile/>
   <tile/>
   <tile/>
   <tile/>
   <tile/>
   <tile/>
   <tile/>
   <tile/>
   <tile/>
   <tile/>
   <tile/>
   <tile/>
   <tile/>
   <tile/>
   <tile/>
   <tile/>
   <tile/>
   <tile/>
   <tile/>
   <tile/>
   <tile/>
   <tile/>
   <tile/>
   <tile/>
   <tile/>
   <tile/>
   <tile/>
   <tile/>
   <tile/>
   <tile/>
   <tile/>
   <tile/>
   <tile/>
   <tile/>
   <tile/>
   <tile/>
   <tile/>
   <tile/>
   <tile/>
   <tile/>
   <tile/>
   <tile/>
   <tile/>
   <tile/>
   <tile/>
   <tile gid="258"/>
   <tile/>
   <tile/>
   <tile/>
   <tile/>
   <tile gid="258"/>
   <tile/>
   <tile/>
   <tile/>
   <tile/>
   <tile/>
   <tile/>
   <tile/>
   <tile/>
   <tile/>
   <tile/>
   <tile/>
   <tile/>
   <tile/>
   <tile/>
   <tile/>
   <tile/>
   <tile/>
   <tile/>
   <tile/>
   <tile/>
   <tile/>
   <tile/>
   <tile/>
   <tile/>
   <tile/>
   <tile/>
   <tile/>
   <tile/>
   <tile/>
   <tile/>
   <tile/>
   <tile/>
   <tile/>
   <tile/>
   <tile/>
   <tile/>
   <tile/>
   <tile/>
   <tile/>
   <tile/>
   <tile/>
   <tile/>
   <tile/>
   <tile/>
   <tile/>
   <tile/>
   <tile/>
   <tile/>
   <tile/>
   <tile/>
   <tile/>
   <tile/>
   <tile/>
   <tile/>
   <tile gid="258"/>
   <tile/>
   <tile/>
   <tile/>
   <tile/>
   <tile gid="258"/>
   <tile/>
   <tile/>
   <tile/>
   <tile/>
   <tile/>
   <tile/>
   <tile/>
   <tile/>
   <tile/>
   <tile/>
   <tile/>
   <tile/>
   <tile/>
   <tile/>
   <tile/>
   <tile/>
   <tile/>
   <tile/>
   <tile/>
   <tile/>
   <tile/>
   <tile/>
   <tile/>
   <tile/>
   <tile/>
   <tile/>
   <tile/>
   <tile/>
   <tile/>
   <tile/>
   <tile/>
   <tile/>
   <tile/>
   <tile/>
   <tile/>
   <tile/>
   <tile/>
   <tile/>
   <tile/>
   <tile/>
   <tile/>
   <tile/>
   <tile/>
   <tile/>
   <tile/>
   <tile/>
   <tile/>
   <tile/>
   <tile/>
   <tile/>
   <tile/>
   <tile/>
   <tile/>
   <tile/>
   <tile gid="258"/>
   <tile/>
   <tile/>
   <tile/>
   <tile/>
   <tile gid="258"/>
   <tile/>
   <tile/>
   <tile/>
   <tile/>
   <tile/>
   <tile/>
   <tile/>
   <tile/>
   <tile/>
   <tile/>
   <tile/>
   <tile/>
   <tile/>
   <tile/>
   <tile/>
   <tile/>
   <tile/>
   <tile/>
   <tile/>
   <tile/>
   <tile/>
   <tile/>
   <tile/>
   <tile/>
   <tile/>
   <tile/>
   <tile/>
   <tile/>
   <tile/>
   <tile/>
   <tile/>
   <tile/>
   <tile/>
   <tile/>
   <tile/>
   <tile/>
   <tile/>
   <tile/>
   <tile/>
   <tile/>
   <tile/>
   <tile/>
   <tile/>
   <tile/>
   <tile/>
   <tile/>
   <tile/>
   <tile/>
   <tile/>
   <tile/>
   <tile/>
   <tile/>
   <tile/>
   <tile/>
   <tile gid="258"/>
   <tile/>
   <tile/>
   <tile/>
   <tile/>
   <tile gid="258"/>
   <tile/>
   <tile/>
   <tile/>
   <tile/>
   <tile/>
   <tile/>
   <tile/>
   <tile/>
   <tile/>
   <tile/>
   <tile/>
   <tile/>
   <tile/>
   <tile/>
   <tile/>
   <tile/>
   <tile/>
   <tile/>
   <tile/>
   <tile/>
   <tile/>
   <tile/>
   <tile/>
   <tile/>
   <tile/>
   <tile/>
   <tile/>
   <tile/>
   <tile/>
   <tile/>
   <tile/>
   <tile/>
   <tile/>
   <tile/>
   <tile/>
   <tile/>
   <tile/>
   <tile/>
   <tile/>
   <tile/>
   <tile/>
   <tile/>
   <tile/>
   <tile/>
   <tile/>
   <tile/>
   <tile/>
   <tile/>
   <tile/>
   <tile/>
   <tile/>
   <tile/>
   <tile/>
   <tile/>
   <tile gid="258"/>
   <tile/>
   <tile/>
   <tile/>
   <tile/>
   <tile gid="258"/>
   <tile/>
   <tile/>
   <tile/>
   <tile/>
   <tile/>
   <tile/>
   <tile/>
   <tile/>
   <tile/>
   <tile/>
   <tile/>
   <tile/>
   <tile/>
   <tile/>
   <tile/>
   <tile/>
   <tile/>
   <tile/>
   <tile/>
   <tile/>
   <tile/>
   <tile/>
   <tile/>
   <tile/>
   <tile/>
   <tile/>
   <tile/>
   <tile/>
   <tile/>
   <tile/>
   <tile/>
   <tile/>
   <tile/>
   <tile/>
   <tile/>
   <tile/>
   <tile/>
   <tile/>
   <tile/>
   <tile/>
   <tile/>
   <tile/>
   <tile/>
   <tile/>
   <tile/>
   <tile/>
   <tile/>
   <tile/>
   <tile/>
   <tile/>
   <tile/>
   <tile/>
   <tile/>
   <tile/>
   <tile gid="258"/>
   <tile/>
   <tile/>
   <tile/>
   <tile/>
   <tile gid="258"/>
   <tile/>
   <tile/>
   <tile/>
   <tile/>
   <tile/>
   <tile/>
   <tile/>
   <tile/>
   <tile/>
   <tile/>
   <tile/>
   <tile/>
   <tile/>
   <tile/>
   <tile/>
   <tile/>
   <tile/>
   <tile/>
   <tile/>
   <tile/>
   <tile/>
   <tile/>
   <tile/>
   <tile/>
   <tile/>
   <tile/>
   <tile/>
   <tile/>
   <tile/>
   <tile/>
   <tile/>
   <tile/>
   <tile/>
   <tile/>
   <tile/>
   <tile/>
   <tile/>
   <tile/>
   <tile/>
   <tile/>
   <tile/>
   <tile/>
   <tile/>
   <tile/>
   <tile/>
   <tile/>
   <tile/>
   <tile/>
   <tile/>
   <tile/>
   <tile/>
   <tile/>
   <tile/>
   <tile/>
   <tile gid="258"/>
   <tile/>
   <tile/>
   <tile/>
   <tile/>
   <tile gid="258"/>
   <tile/>
   <tile/>
   <tile/>
   <tile/>
   <tile/>
   <tile/>
   <tile/>
   <tile/>
   <tile/>
   <tile/>
   <tile/>
   <tile/>
   <tile/>
   <tile/>
   <tile/>
   <tile/>
   <tile/>
   <tile/>
   <tile/>
   <tile/>
   <tile/>
   <tile/>
   <tile/>
   <tile/>
   <tile/>
   <tile/>
   <tile/>
   <tile/>
   <tile/>
   <tile/>
   <tile/>
   <tile/>
   <tile/>
   <tile/>
   <tile/>
   <tile/>
   <tile/>
   <tile/>
   <tile/>
   <tile/>
   <tile/>
   <tile/>
   <tile/>
   <tile/>
   <tile/>
   <tile/>
   <tile/>
   <tile/>
   <tile/>
   <tile/>
   <tile/>
   <tile/>
   <tile/>
   <tile/>
   <tile gid="258"/>
   <tile/>
   <tile/>
   <tile/>
   <tile/>
   <tile gid="258"/>
   <tile/>
   <tile/>
   <tile/>
   <tile/>
   <tile/>
   <tile/>
   <tile/>
   <tile/>
   <tile/>
   <tile/>
   <tile/>
   <tile/>
   <tile/>
   <tile/>
   <tile/>
   <tile/>
   <tile/>
   <tile/>
   <tile/>
   <tile/>
   <tile/>
   <tile/>
   <tile/>
   <tile/>
   <tile/>
   <tile/>
   <tile/>
   <tile/>
   <tile/>
   <tile/>
   <tile/>
   <tile/>
   <tile/>
   <tile/>
   <tile/>
   <tile/>
   <tile/>
   <tile/>
   <tile/>
   <tile/>
   <tile/>
   <tile/>
   <tile/>
   <tile/>
   <tile/>
   <tile/>
   <tile/>
   <tile/>
   <tile/>
   <tile/>
   <tile/>
   <tile/>
   <tile/>
   <tile/>
   <tile gid="258"/>
   <tile/>
   <tile/>
   <tile/>
   <tile/>
   <tile gid="258"/>
   <tile/>
   <tile/>
   <tile/>
   <tile/>
   <tile/>
   <tile/>
   <tile/>
   <tile/>
   <tile/>
   <tile/>
   <tile/>
   <tile/>
   <tile/>
   <tile/>
   <tile/>
   <tile/>
   <tile/>
   <tile/>
   <tile/>
   <tile/>
   <tile/>
   <tile/>
   <tile/>
   <tile/>
   <tile/>
   <tile/>
   <tile/>
   <tile/>
   <tile/>
   <tile/>
   <tile/>
   <tile/>
   <tile/>
   <tile/>
   <tile/>
   <tile/>
   <tile/>
   <tile/>
   <tile/>
   <tile/>
   <tile/>
   <tile/>
   <tile/>
   <tile/>
   <tile/>
   <tile/>
   <tile/>
   <tile/>
   <tile/>
   <tile/>
   <tile/>
   <tile/>
   <tile gid="258"/>
   <tile gid="258"/>
   <tile gid="258"/>
   <tile/>
   <tile/>
   <tile/>
   <tile/>
   <tile gid="258"/>
   <tile gid="258"/>
   <tile/>
   <tile/>
   <tile/>
   <tile/>
   <tile/>
   <tile/>
   <tile/>
   <tile/>
   <tile/>
   <tile/>
   <tile/>
   <tile/>
   <tile/>
   <tile/>
   <tile/>
   <tile/>
   <tile/>
   <tile/>
   <tile/>
   <tile/>
   <tile/>
   <tile/>
   <tile/>
   <tile/>
   <tile/>
   <tile/>
   <tile/>
   <tile/>
   <tile/>
   <tile/>
   <tile/>
   <tile/>
   <tile/>
   <tile/>
   <tile/>
   <tile/>
   <tile/>
   <tile/>
   <tile/>
   <tile/>
   <tile/>
   <tile/>
   <tile/>
   <tile/>
   <tile/>
   <tile/>
   <tile/>
   <tile/>
   <tile/>
   <tile gid="258"/>
   <tile gid="258"/>
   <tile/>
   <tile/>
   <tile/>
   <tile/>
   <tile/>
   <tile/>
   <tile/>
   <tile/>
   <tile/>
   <tile gid="258"/>
   <tile/>
   <tile/>
   <tile/>
   <tile/>
   <tile/>
   <tile/>
   <tile/>
   <tile/>
   <tile/>
   <tile/>
   <tile/>
   <tile/>
   <tile/>
   <tile/>
   <tile/>
   <tile/>
   <tile/>
   <tile/>
   <tile/>
   <tile/>
   <tile/>
   <tile/>
   <tile/>
   <tile/>
   <tile/>
   <tile/>
   <tile/>
   <tile/>
   <tile/>
   <tile/>
   <tile/>
   <tile/>
   <tile/>
   <tile/>
   <tile/>
   <tile/>
   <tile/>
   <tile/>
   <tile/>
   <tile/>
   <tile/>
   <tile/>
   <tile/>
   <tile/>
   <tile/>
   <tile/>
   <tile/>
   <tile gid="258"/>
   <tile/>
   <tile/>
   <tile/>
   <tile/>
   <tile/>
   <tile/>
   <tile/>
   <tile/>
   <tile/>
   <tile/>
   <tile/>
   <tile/>
   <tile gid="258"/>
   <tile/>
   <tile/>
   <tile/>
   <tile/>
   <tile/>
   <tile/>
   <tile/>
   <tile/>
   <tile/>
   <tile/>
   <tile/>
   <tile/>
   <tile/>
   <tile/>
   <tile/>
   <tile/>
   <tile/>
   <tile/>
   <tile/>
   <tile/>
   <tile/>
   <tile/>
   <tile/>
   <tile/>
   <tile/>
   <tile/>
   <tile/>
   <tile/>
   <tile/>
   <tile/>
   <tile/>
   <tile/>
   <tile/>
   <tile/>
   <tile/>
   <tile/>
   <tile/>
   <tile/>
   <tile/>
   <tile/>
   <tile/>
   <tile/>
   <tile/>
   <tile/>
   <tile/>
   <tile gid="258"/>
   <tile/>
   <tile/>
   <tile/>
   <tile/>
   <tile/>
   <tile/>
   <tile/>
   <tile/>
   <tile/>
   <tile/>
   <tile/>
   <tile/>
   <tile/>
   <tile/>
   <tile gid="258"/>
   <tile/>
   <tile/>
   <tile/>
   <tile/>
   <tile/>
   <tile/>
   <tile/>
   <tile/>
   <tile/>
   <tile/>
   <tile/>
   <tile/>
   <tile/>
   <tile/>
   <tile/>
   <tile/>
   <tile/>
   <tile/>
   <tile/>
   <tile/>
   <tile/>
   <tile/>
   <tile/>
   <tile/>
   <tile/>
   <tile/>
   <tile gid="258"/>
   <tile gid="258"/>
   <tile/>
   <tile/>
   <tile/>
   <tile/>
   <tile/>
   <tile/>
   <tile/>
   <tile/>
   <tile/>
   <tile/>
   <tile/>
   <tile/>
   <tile/>
   <tile/>
   <tile/>
   <tile/>
   <tile gid="258"/>
   <tile/>
   <tile/>
   <tile/>
   <tile/>
   <tile/>
   <tile/>
   <tile/>
   <tile/>
   <tile/>
   <tile/>
   <tile/>
   <tile/>
   <tile/>
   <tile/>
   <tile/>
   <tile gid="258"/>
   <tile/>
   <tile/>
   <tile/>
   <tile/>
   <tile/>
   <tile/>
   <tile/>
   <tile/>
   <tile/>
   <tile/>
   <tile/>
   <tile/>
   <tile/>
   <tile/>
   <tile/>
   <tile/>
   <tile/>
   <tile/>
   <tile/>
   <tile/>
   <tile/>
   <tile gid="258"/>
   <tile gid="258"/>
   <tile gid="258"/>
   <tile gid="258"/>
   <tile/>
   <tile/>
   <tile gid="258"/>
   <tile gid="258"/>
   <tile/>
   <tile/>
   <tile/>
   <tile/>
   <tile/>
   <tile/>
   <tile/>
   <tile/>
   <tile/>
   <tile/>
   <tile/>
   <tile/>
   <tile/>
   <tile/>
   <tile gid="258"/>
   <tile/>
   <tile/>
   <tile/>
   <tile/>
   <tile/>
   <tile/>
   <tile/>
   <tile/>
   <tile/>
   <tile/>
   <tile/>
   <tile/>
   <tile/>
   <tile/>
   <tile/>
   <tile/>
   <tile gid="258"/>
   <tile/>
   <tile/>
   <tile/>
   <tile/>
   <tile/>
   <tile/>
   <tile/>
   <tile/>
   <tile/>
   <tile/>
   <tile/>
   <tile/>
   <tile/>
   <tile/>
   <tile/>
   <tile/>
   <tile/>
   <tile/>
   <tile gid="258"/>
   <tile gid="258"/>
   <tile/>
   <tile/>
   <tile/>
   <tile/>
   <tile/>
   <tile/>
   <tile/>
   <tile/>
   <tile gid="258"/>
   <tile/>
   <tile/>
   <tile/>
   <tile/>
   <tile/>
   <tile/>
   <tile/>
   <tile/>
   <tile/>
   <tile/>
   <tile/>
   <tile/>
   <tile gid="258"/>
   <tile/>
   <tile/>
   <tile/>
   <tile/>
   <tile/>
   <tile/>
   <tile/>
   <tile/>
   <tile/>
   <tile/>
   <tile/>
   <tile/>
   <tile/>
   <tile/>
   <tile/>
   <tile/>
   <tile/>
   <tile/>
   <tile gid="258"/>
   <tile/>
   <tile/>
   <tile/>
   <tile/>
   <tile/>
   <tile/>
   <tile/>
   <tile/>
   <tile/>
   <tile/>
   <tile/>
   <tile/>
   <tile/>
   <tile/>
   <tile gid="258"/>
   <tile gid="258"/>
   <tile gid="258"/>
   <tile/>
   <tile/>
   <tile/>
   <tile/>
   <tile/>
   <tile/>
   <tile/>
   <tile/>
   <tile/>
   <tile/>
   <tile gid="258"/>
   <tile gid="258"/>
   <tile gid="258"/>
   <tile/>
   <tile/>
   <tile/>
   <tile/>
   <tile/>
   <tile/>
   <tile/>
   <tile/>
   <tile/>
   <tile/>
   <tile gid="258"/>
   <tile/>
   <tile/>
   <tile/>
   <tile/>
   <tile/>
   <tile/>
   <tile/>
   <tile/>
   <tile/>
   <tile/>
   <tile/>
   <tile/>
   <tile/>
   <tile/>
   <tile/>
   <tile/>
   <tile/>
   <tile/>
   <tile gid="258"/>
   <tile/>
   <tile/>
   <tile/>
   <tile/>
   <tile/>
   <tile/>
   <tile/>
   <tile/>
   <tile/>
   <tile/>
   <tile/>
   <tile/>
   <tile/>
   <tile gid="258"/>
   <tile/>
   <tile/>
   <tile/>
   <tile/>
   <tile/>
   <tile/>
   <tile/>
   <tile/>
   <tile/>
   <tile/>
   <tile/>
   <tile/>
   <tile/>
   <tile/>
   <tile/>
   <tile/>
   <tile gid="258"/>
   <tile/>
   <tile/>
   <tile/>
   <tile/>
   <tile/>
   <tile/>
   <tile/>
   <tile/>
   <tile gid="258"/>
   <tile/>
   <tile/>
   <tile/>
   <tile/>
   <tile/>
   <tile/>
   <tile/>
   <tile/>
   <tile/>
   <tile/>
   <tile/>
   <tile/>
   <tile/>
   <tile/>
   <tile/>
   <tile/>
   <tile/>
   <tile/>
   <tile/>
   <tile/>
   <tile gid="258"/>
   <tile/>
   <tile/>
   <tile/>
   <tile/>
   <tile/>
   <tile/>
   <tile/>
   <tile/>
   <tile/>
   <tile/>
   <tile/>
   <tile/>
   <tile gid="258"/>
   <tile/>
   <tile/>
   <tile/>
   <tile/>
   <tile/>
   <tile/>
   <tile/>
   <tile/>
   <tile/>
   <tile/>
   <tile/>
   <tile/>
   <tile/>
   <tile/>
   <tile/>
   <tile/>
   <tile gid="258"/>
   <tile/>
   <tile/>
   <tile/>
   <tile/>
   <tile/>
   <tile/>
   <tile/>
   <tile/>
   <tile gid="258"/>
   <tile/>
   <tile/>
   <tile/>
   <tile/>
   <tile/>
   <tile/>
   <tile/>
   <tile/>
   <tile/>
   <tile/>
   <tile/>
   <tile/>
   <tile/>
   <tile/>
   <tile/>
   <tile/>
   <tile/>
   <tile/>
   <tile/>
   <tile/>
   <tile/>
   <tile gid="258"/>
   <tile/>
   <tile/>
   <tile/>
   <tile/>
   <tile/>
   <tile/>
   <tile/>
   <tile/>
   <tile/>
   <tile/>
   <tile/>
   <tile gid="258"/>
   <tile/>
   <tile/>
   <tile/>
   <tile/>
   <tile/>
   <tile/>
   <tile/>
   <tile/>
   <tile/>
   <tile/>
   <tile/>
   <tile/>
   <tile/>
   <tile/>
   <tile/>
   <tile/>
   <tile gid="258"/>
   <tile/>
   <tile/>
   <tile/>
   <tile/>
   <tile/>
   <tile/>
   <tile/>
   <tile/>
   <tile gid="258"/>
   <tile/>
   <tile/>
   <tile/>
   <tile/>
   <tile/>
   <tile/>
   <tile/>
   <tile/>
   <tile/>
   <tile/>
   <tile/>
   <tile/>
   <tile/>
   <tile/>
   <tile/>
   <tile/>
   <tile/>
   <tile/>
   <tile/>
   <tile/>
   <tile/>
   <tile/>
   <tile gid="258"/>
   <tile/>
   <tile/>
   <tile/>
   <tile/>
   <tile/>
   <tile/>
   <tile/>
   <tile/>
   <tile/>
   <tile/>
   <tile gid="258"/>
   <tile/>
   <tile/>
   <tile/>
   <tile/>
   <tile/>
   <tile/>
   <tile/>
   <tile/>
   <tile/>
   <tile/>
   <tile/>
   <tile/>
   <tile/>
   <tile/>
   <tile/>
   <tile/>
   <tile gid="258"/>
   <tile/>
   <tile/>
   <tile/>
   <tile/>
   <tile/>
   <tile/>
   <tile/>
   <tile/>
   <tile gid="258"/>
   <tile/>
   <tile/>
   <tile/>
   <tile/>
   <tile/>
   <tile/>
   <tile/>
   <tile/>
   <tile/>
   <tile/>
   <tile/>
   <tile/>
   <tile/>
   <tile/>
   <tile/>
   <tile/>
   <tile/>
   <tile/>
   <tile/>
   <tile/>
   <tile/>
   <tile/>
   <tile gid="258"/>
   <tile/>
   <tile/>
   <tile/>
   <tile/>
   <tile/>
   <tile/>
   <tile/>
   <tile/>
   <tile/>
   <tile/>
   <tile gid="258"/>
   <tile/>
   <tile/>
   <tile/>
   <tile/>
   <tile/>
   <tile/>
   <tile/>
   <tile/>
   <tile/>
   <tile/>
   <tile/>
   <tile/>
   <tile/>
   <tile/>
   <tile/>
   <tile/>
   <tile/>
   <tile gid="258"/>
   <tile/>
   <tile/>
   <tile/>
   <tile/>
   <tile/>
   <tile/>
   <tile/>
   <tile gid="258"/>
   <tile/>
   <tile/>
   <tile/>
   <tile/>
   <tile/>
   <tile/>
   <tile/>
   <tile/>
   <tile/>
   <tile/>
   <tile/>
   <tile/>
   <tile/>
   <tile/>
   <tile/>
   <tile/>
   <tile/>
   <tile/>
   <tile/>
   <tile/>
   <tile/>
   <tile/>
   <tile/>
   <tile gid="258"/>
   <tile/>
   <tile/>
   <tile/>
   <tile/>
   <tile/>
   <tile/>
   <tile/>
   <tile/>
   <tile/>
   <tile/>
   <tile gid="258"/>
   <tile gid="258"/>
   <tile gid="258"/>
   <tile gid="258"/>
   <tile gid="258"/>
   <tile gid="258"/>
   <tile gid="258"/>
   <tile/>
   <tile/>
   <tile/>
   <tile/>
   <tile/>
   <tile/>
   <tile/>
   <tile/>
   <tile/>
   <tile/>
   <tile gid="258"/>
   <tile/>
   <tile/>
   <tile/>
   <tile/>
   <tile/>
   <tile/>
   <tile gid="258"/>
   <tile/>
   <tile/>
   <tile/>
   <tile/>
   <tile/>
   <tile/>
   <tile/>
   <tile/>
   <tile/>
   <tile/>
   <tile/>
   <tile/>
   <tile/>
   <tile/>
   <tile/>
   <tile/>
   <tile/>
   <tile/>
   <tile/>
   <tile/>
   <tile/>
   <tile/>
   <tile/>
   <tile/>
   <tile gid="258"/>
   <tile gid="258"/>
   <tile gid="258"/>
   <tile gid="258"/>
   <tile gid="258"/>
   <tile gid="258"/>
   <tile gid="258"/>
   <tile/>
   <tile/>
   <tile/>
   <tile/>
   <tile/>
   <tile/>
   <tile/>
   <tile/>
   <tile/>
   <tile/>
   <tile/>
   <tile gid="258"/>
   <tile/>
   <tile/>
   <tile/>
   <tile/>
   <tile/>
   <tile/>
   <tile/>
   <tile/>
   <tile/>
   <tile/>
   <tile gid="258"/>
   <tile/>
   <tile/>
   <tile/>
   <tile/>
   <tile/>
   <tile gid="258"/>
   <tile/>
   <tile/>
   <tile/>
   <tile/>
   <tile/>
   <tile/>
   <tile/>
   <tile/>
   <tile/>
   <tile/>
   <tile/>
   <tile/>
   <tile/>
   <tile/>
   <tile/>
   <tile/>
   <tile/>
   <tile/>
   <tile/>
   <tile/>
   <tile/>
   <tile/>
   <tile/>
   <tile/>
   <tile/>
   <tile/>
   <tile/>
   <tile/>
   <tile/>
   <tile/>
   <tile/>
   <tile/>
   <tile/>
   <tile/>
   <tile/>
   <tile/>
   <tile/>
   <tile/>
   <tile/>
   <tile/>
   <tile/>
   <tile/>
   <tile gid="258"/>
   <tile/>
   <tile/>
   <tile/>
   <tile/>
   <tile/>
   <tile/>
   <tile/>
   <tile/>
   <tile/>
   <tile/>
   <tile gid="258"/>
   <tile/>
   <tile/>
   <tile/>
   <tile/>
   <tile/>
   <tile gid="258"/>
   <tile/>
   <tile/>
   <tile/>
   <tile/>
   <tile/>
   <tile/>
   <tile/>
   <tile/>
   <tile/>
   <tile/>
   <tile/>
   <tile/>
   <tile/>
   <tile/>
   <tile/>
   <tile/>
   <tile/>
   <tile/>
   <tile/>
   <tile/>
   <tile/>
   <tile/>
   <tile/>
   <tile/>
   <tile/>
   <tile/>
   <tile/>
   <tile/>
   <tile/>
   <tile/>
   <tile/>
   <tile/>
   <tile/>
   <tile/>
   <tile/>
   <tile/>
   <tile/>
   <tile/>
   <tile/>
   <tile/>
   <tile/>
   <tile/>
   <tile/>
   <tile gid="258"/>
   <tile/>
   <tile/>
   <tile/>
   <tile/>
   <tile/>
   <tile/>
   <tile/>
   <tile/>
   <tile/>
   <tile gid="258"/>
   <tile/>
   <tile/>
   <tile/>
   <tile/>
   <tile/>
   <tile gid="258"/>
   <tile/>
   <tile/>
   <tile/>
   <tile/>
   <tile/>
   <tile/>
   <tile/>
   <tile/>
   <tile/>
   <tile/>
   <tile/>
   <tile/>
   <tile/>
   <tile/>
   <tile/>
   <tile/>
   <tile/>
   <tile/>
   <tile/>
   <tile/>
   <tile/>
   <tile/>
   <tile/>
   <tile/>
   <tile/>
   <tile/>
   <tile/>
   <tile/>
   <tile/>
   <tile/>
   <tile/>
   <tile/>
   <tile/>
   <tile/>
   <tile/>
   <tile/>
   <tile/>
   <tile/>
   <tile/>
   <tile/>
   <tile/>
   <tile/>
   <tile/>
   <tile/>
   <tile gid="258"/>
   <tile gid="258"/>
   <tile gid="258"/>
   <tile/>
   <tile/>
   <tile/>
   <tile/>
   <tile/>
   <tile/>
   <tile gid="258"/>
   <tile/>
   <tile/>
   <tile/>
   <tile/>
   <tile/>
   <tile gid="258"/>
   <tile/>
   <tile/>
   <tile gid="258"/>
   <tile gid="258"/>
   <tile/>
   <tile/>
   <tile/>
   <tile/>
   <tile/>
   <tile/>
   <tile/>
   <tile/>
   <tile/>
   <tile/>
   <tile/>
   <tile/>
   <tile/>
   <tile gid="258"/>
   <tile gid="258"/>
   <tile/>
   <tile/>
   <tile/>
   <tile/>
   <tile/>
   <tile/>
   <tile/>
   <tile/>
   <tile/>
   <tile/>
   <tile/>
   <tile/>
   <tile/>
   <tile/>
   <tile/>
   <tile/>
   <tile/>
   <tile/>
   <tile/>
   <tile/>
   <tile/>
   <tile/>
   <tile/>
   <tile/>
   <tile/>
   <tile/>
   <tile/>
   <tile gid="258"/>
   <tile/>
   <tile/>
   <tile/>
   <tile/>
   <tile/>
   <tile/>
   <tile gid="258"/>
   <tile gid="258"/>
   <tile gid="258"/>
   <tile gid="258"/>
   <tile gid="258"/>
   <tile gid="258"/>
   <tile/>
   <tile/>
   <tile/>
   <tile/>
   <tile/>
   <tile/>
   <tile/>
   <tile/>
   <tile/>
   <tile/>
   <tile/>
   <tile/>
   <tile/>
   <tile/>
   <tile/>
   <tile/>
   <tile/>
   <tile/>
   <tile/>
   <tile/>
   <tile/>
   <tile/>
   <tile/>
   <tile/>
   <tile/>
   <tile/>
   <tile/>
   <tile/>
   <tile gid="258"/>
   <tile gid="258"/>
   <tile gid="258"/>
   <tile gid="258"/>
   <tile/>
   <tile/>
   <tile/>
   <tile/>
   <tile/>
   <tile/>
   <tile/>
   <tile/>
   <tile/>
   <tile/>
   <tile/>
   <tile/>
   <tile/>
   <tile/>
   <tile/>
   <tile/>
   <tile gid="258"/>
   <tile gid="258"/>
   <tile/>
   <tile/>
   <tile/>
   <tile/>
   <tile/>
   <tile/>
   <tile/>
   <tile/>
   <tile/>
   <tile/>
   <tile/>
   <tile/>
   <tile/>
   <tile/>
   <tile/>
   <tile/>
   <tile/>
   <tile/>
   <tile/>
   <tile/>
   <tile/>
   <tile/>
   <tile/>
   <tile/>
   <tile/>
   <tile/>
   <tile/>
   <tile/>
   <tile/>
   <tile/>
   <tile/>
   <tile/>
   <tile/>
   <tile/>
   <tile/>
   <tile/>
   <tile/>
   <tile/>
   <tile gid="258"/>
   <tile/>
   <tile/>
   <tile/>
   <tile/>
   <tile/>
   <tile/>
   <tile/>
   <tile/>
   <tile/>
   <tile/>
   <tile/>
   <tile/>
   <tile/>
   <tile/>
   <tile/>
   <tile/>
   <tile/>
   <tile/>
   <tile/>
   <tile/>
   <tile/>
   <tile gid="258"/>
   <tile gid="258"/>
   <tile gid="258"/>
   <tile gid="258"/>
   <tile gid="258"/>
   <tile gid="258"/>
   <tile gid="258"/>
   <tile gid="258"/>
   <tile gid="258"/>
   <tile gid="258"/>
   <tile gid="258"/>
   <tile gid="258"/>
   <tile gid="258"/>
   <tile gid="258"/>
   <tile gid="258"/>
   <tile gid="258"/>
   <tile gid="258"/>
   <tile gid="258"/>
   <tile gid="258"/>
   <tile gid="258"/>
   <tile/>
   <tile/>
   <tile/>
   <tile/>
   <tile gid="258"/>
   <tile gid="258"/>
   <tile gid="258"/>
   <tile gid="258"/>
   <tile gid="258"/>
   <tile gid="258"/>
   <tile gid="258"/>
   <tile gid="258"/>
   <tile gid="258"/>
   <tile gid="258"/>
   <tile gid="258"/>
   <tile gid="258"/>
   <tile gid="258"/>
   <tile gid="258"/>
   <tile/>
   <tile/>
   <tile/>
   <tile/>
   <tile/>
   <tile/>
   <tile/>
   <tile/>
   <tile/>
   <tile/>
   <tile/>
   <tile/>
   <tile/>
   <tile/>
   <tile/>
   <tile/>
   <tile/>
   <tile/>
   <tile/>
   <tile/>
   <tile/>
   <tile/>
   <tile/>
   <tile/>
   <tile/>
   <tile/>
   <tile/>
   <tile/>
   <tile/>
   <tile/>
   <tile/>
   <tile/>
   <tile/>
   <tile/>
   <tile/>
   <tile/>
   <tile/>
   <tile/>
   <tile/>
   <tile/>
   <tile/>
   <tile gid="258"/>
   <tile/>
   <tile/>
   <tile/>
   <tile/>
   <tile gid="258"/>
   <tile/>
   <tile/>
   <tile/>
   <tile/>
   <tile/>
   <tile/>
   <tile/>
   <tile/>
   <tile/>
   <tile/>
   <tile/>
   <tile/>
   <tile/>
   <tile/>
   <tile/>
   <tile/>
   <tile/>
   <tile/>
   <tile/>
   <tile/>
   <tile/>
   <tile/>
   <tile/>
   <tile/>
   <tile/>
   <tile/>
   <tile/>
   <tile/>
   <tile/>
   <tile/>
   <tile/>
   <tile/>
   <tile/>
   <tile/>
   <tile/>
   <tile/>
   <tile/>
   <tile/>
   <tile/>
   <tile/>
   <tile/>
   <tile/>
   <tile/>
   <tile/>
   <tile/>
   <tile/>
   <tile/>
   <tile/>
   <tile/>
   <tile/>
   <tile/>
   <tile/>
   <tile/>
   <tile/>
   <tile gid="258"/>
   <tile/>
   <tile/>
   <tile/>
   <tile/>
   <tile gid="258"/>
   <tile/>
   <tile/>
   <tile/>
   <tile/>
   <tile/>
   <tile/>
   <tile/>
   <tile/>
   <tile/>
   <tile/>
   <tile/>
   <tile/>
   <tile/>
   <tile/>
   <tile/>
   <tile/>
   <tile/>
   <tile/>
   <tile/>
   <tile/>
   <tile/>
   <tile/>
   <tile/>
   <tile/>
   <tile/>
   <tile/>
   <tile/>
   <tile/>
   <tile/>
   <tile/>
   <tile/>
   <tile/>
   <tile/>
   <tile gid="258"/>
   <tile gid="258"/>
   <tile gid="258"/>
   <tile gid="258"/>
   <tile gid="258"/>
   <tile gid="258"/>
   <tile gid="258"/>
   <tile gid="258"/>
   <tile gid="258"/>
   <tile gid="258"/>
   <tile gid="258"/>
   <tile gid="258"/>
   <tile gid="258"/>
   <tile gid="258"/>
   <tile gid="258"/>
   <tile gid="258"/>
   <tile gid="258"/>
   <tile gid="258"/>
   <tile gid="258"/>
   <tile gid="258"/>
   <tile gid="258"/>
   <tile gid="258"/>
   <tile/>
   <tile/>
   <tile/>
   <tile/>
   <tile gid="258"/>
   <tile gid="258"/>
   <tile/>
   <tile/>
   <tile/>
   <tile/>
   <tile/>
   <tile/>
   <tile/>
   <tile/>
   <tile/>
   <tile/>
   <tile/>
   <tile/>
   <tile/>
   <tile/>
   <tile/>
   <tile/>
   <tile/>
   <tile/>
   <tile/>
   <tile/>
   <tile/>
   <tile/>
   <tile/>
   <tile/>
   <tile/>
   <tile/>
   <tile/>
   <tile/>
   <tile/>
   <tile gid="258"/>
   <tile gid="258"/>
   <tile gid="258"/>
   <tile/>
   <tile/>
   <tile/>
   <tile/>
   <tile/>
   <tile/>
   <tile/>
   <tile/>
   <tile/>
   <tile/>
   <tile/>
   <tile/>
   <tile/>
   <tile/>
   <tile/>
   <tile/>
   <tile/>
   <tile/>
   <tile/>
   <tile/>
   <tile/>
   <tile/>
   <tile/>
   <tile/>
   <tile/>
   <tile/>
   <tile/>
   <tile/>
   <tile gid="258"/>
   <tile gid="258"/>
   <tile gid="258"/>
   <tile/>
   <tile/>
   <tile/>
   <tile/>
   <tile/>
   <tile/>
   <tile/>
   <tile/>
   <tile/>
   <tile/>
   <tile/>
   <tile/>
   <tile/>
   <tile/>
   <tile/>
   <tile/>
   <tile/>
   <tile/>
   <tile/>
   <tile/>
   <tile/>
   <tile/>
   <tile/>
   <tile gid="258"/>
   <tile gid="258"/>
   <tile gid="258"/>
   <tile/>
   <tile/>
   <tile/>
   <tile/>
   <tile/>
   <tile/>
   <tile/>
   <tile/>
   <tile/>
   <tile/>
   <tile/>
   <tile/>
   <tile/>
   <tile/>
   <tile/>
   <tile/>
   <tile/>
   <tile/>
   <tile/>
   <tile/>
   <tile/>
   <tile/>
   <tile/>
   <tile/>
   <tile/>
   <tile/>
   <tile/>
   <tile/>
   <tile/>
   <tile/>
   <tile/>
   <tile/>
   <tile/>
   <tile/>
   <tile gid="258"/>
   <tile gid="258"/>
   <tile/>
   <tile/>
   <tile/>
   <tile/>
   <tile/>
   <tile/>
   <tile/>
   <tile/>
   <tile/>
   <tile/>
   <tile/>
   <tile/>
   <tile/>
   <tile/>
   <tile/>
   <tile/>
   <tile/>
   <tile/>
   <tile/>
   <tile gid="258"/>
   <tile gid="258"/>
   <tile/>
   <tile/>
   <tile/>
   <tile/>
   <tile/>
   <tile/>
   <tile/>
   <tile/>
   <tile/>
   <tile/>
   <tile/>
   <tile/>
   <tile/>
   <tile/>
   <tile/>
   <tile/>
   <tile/>
   <tile/>
   <tile/>
   <tile/>
   <tile/>
   <tile/>
   <tile/>
   <tile/>
   <tile/>
   <tile/>
   <tile/>
   <tile/>
   <tile/>
   <tile/>
   <tile/>
   <tile/>
   <tile/>
   <tile/>
   <tile/>
   <tile/>
   <tile/>
   <tile/>
   <tile/>
   <tile gid="258"/>
   <tile gid="258"/>
   <tile/>
   <tile/>
   <tile/>
   <tile/>
   <tile/>
   <tile/>
   <tile/>
   <tile/>
   <tile/>
   <tile/>
   <tile/>
   <tile/>
   <tile/>
   <tile/>
   <tile gid="258"/>
   <tile gid="258"/>
   <tile gid="258"/>
   <tile/>
   <tile/>
   <tile/>
   <tile/>
   <tile/>
   <tile/>
   <tile/>
   <tile/>
   <tile/>
   <tile/>
   <tile/>
   <tile/>
   <tile/>
   <tile/>
   <tile/>
   <tile/>
   <tile/>
   <tile/>
   <tile/>
   <tile/>
   <tile/>
   <tile/>
   <tile/>
   <tile/>
   <tile/>
   <tile/>
   <tile/>
   <tile/>
   <tile/>
   <tile/>
   <tile/>
   <tile/>
   <tile/>
   <tile/>
   <tile/>
   <tile/>
   <tile/>
   <tile/>
   <tile/>
   <tile/>
   <tile/>
   <tile/>
   <tile/>
   <tile gid="258"/>
   <tile gid="258"/>
   <tile/>
   <tile/>
   <tile/>
   <tile/>
   <tile/>
   <tile/>
   <tile/>
   <tile/>
   <tile/>
   <tile/>
   <tile gid="258"/>
   <tile gid="258"/>
   <tile/>
   <tile/>
   <tile/>
   <tile/>
   <tile/>
   <tile/>
   <tile/>
   <tile/>
   <tile/>
   <tile/>
   <tile/>
   <tile/>
   <tile/>
   <tile/>
   <tile/>
   <tile/>
   <tile/>
   <tile/>
   <tile/>
   <tile/>
   <tile/>
   <tile/>
   <tile/>
   <tile/>
   <tile/>
   <tile/>
   <tile/>
   <tile/>
   <tile/>
   <tile/>
   <tile/>
   <tile/>
   <tile/>
   <tile/>
   <tile/>
   <tile/>
   <tile/>
   <tile/>
   <tile/>
   <tile/>
   <tile/>
   <tile/>
   <tile/>
   <tile/>
   <tile/>
   <tile/>
   <tile/>
   <tile/>
   <tile gid="258"/>
   <tile gid="258"/>
   <tile gid="258"/>
   <tile gid="258"/>
   <tile gid="258"/>
   <tile gid="258"/>
   <tile gid="258"/>
   <tile/>
   <tile/>
   <tile gid="258"/>
   <tile/>
   <tile/>
   <tile/>
   <tile/>
   <tile/>
   <tile/>
   <tile/>
   <tile/>
   <tile/>
   <tile/>
   <tile/>
   <tile/>
   <tile/>
   <tile/>
   <tile/>
   <tile/>
   <tile/>
   <tile/>
   <tile/>
   <tile/>
   <tile/>
   <tile/>
   <tile/>
   <tile/>
   <tile/>
   <tile/>
   <tile/>
   <tile/>
   <tile/>
   <tile/>
   <tile/>
   <tile/>
   <tile/>
   <tile/>
   <tile/>
   <tile/>
   <tile/>
   <tile/>
   <tile/>
   <tile/>
   <tile/>
   <tile/>
   <tile/>
   <tile/>
   <tile/>
   <tile/>
   <tile/>
   <tile/>
   <tile/>
   <tile/>
   <tile/>
   <tile/>
   <tile/>
   <tile/>
   <tile/>
   <tile/>
   <tile/>
   <tile/>
   <tile/>
   <tile gid="258"/>
   <tile/>
   <tile/>
   <tile/>
   <tile/>
   <tile/>
   <tile/>
   <tile/>
   <tile/>
   <tile/>
   <tile/>
   <tile/>
   <tile/>
   <tile/>
   <tile/>
   <tile/>
   <tile/>
   <tile/>
   <tile/>
   <tile/>
   <tile/>
   <tile/>
   <tile/>
   <tile/>
   <tile/>
   <tile/>
   <tile/>
   <tile/>
   <tile/>
   <tile/>
   <tile/>
   <tile/>
   <tile/>
   <tile/>
   <tile/>
   <tile/>
   <tile/>
   <tile/>
   <tile/>
   <tile/>
   <tile/>
   <tile/>
   <tile/>
   <tile/>
   <tile/>
   <tile/>
   <tile/>
   <tile/>
   <tile/>
   <tile/>
   <tile/>
   <tile/>
   <tile/>
   <tile/>
   <tile/>
   <tile/>
   <tile/>
   <tile/>
   <tile/>
   <tile/>
   <tile gid="258"/>
   <tile/>
   <tile/>
   <tile/>
   <tile/>
   <tile/>
   <tile/>
   <tile/>
   <tile/>
   <tile/>
   <tile/>
   <tile/>
   <tile/>
   <tile/>
   <tile/>
   <tile/>
   <tile/>
   <tile/>
   <tile/>
   <tile/>
   <tile/>
   <tile/>
   <tile/>
   <tile/>
   <tile/>
   <tile/>
   <tile/>
   <tile/>
   <tile/>
   <tile/>
   <tile/>
   <tile/>
   <tile/>
   <tile/>
   <tile/>
   <tile/>
   <tile/>
   <tile/>
   <tile/>
   <tile/>
   <tile/>
   <tile/>
   <tile/>
   <tile/>
   <tile/>
   <tile/>
   <tile/>
   <tile/>
   <tile/>
   <tile/>
   <tile/>
   <tile/>
   <tile/>
   <tile/>
   <tile/>
   <tile/>
   <tile/>
   <tile/>
   <tile/>
   <tile/>
   <tile gid="258"/>
   <tile/>
   <tile/>
   <tile/>
   <tile/>
   <tile/>
   <tile/>
   <tile/>
   <tile/>
   <tile/>
   <tile/>
   <tile/>
   <tile/>
   <tile/>
   <tile/>
   <tile/>
   <tile/>
   <tile/>
   <tile/>
   <tile/>
   <tile/>
   <tile/>
   <tile/>
   <tile/>
   <tile/>
   <tile/>
   <tile/>
   <tile/>
   <tile/>
   <tile/>
   <tile/>
   <tile/>
   <tile/>
   <tile/>
   <tile/>
   <tile/>
   <tile/>
   <tile/>
   <tile/>
   <tile/>
   <tile/>
   <tile/>
   <tile/>
   <tile/>
   <tile/>
   <tile/>
   <tile/>
   <tile/>
   <tile/>
   <tile/>
   <tile/>
   <tile/>
   <tile/>
   <tile/>
   <tile/>
   <tile/>
   <tile/>
   <tile/>
   <tile/>
   <tile/>
   <tile/>
   <tile gid="258"/>
   <tile gid="258"/>
   <tile gid="258"/>
   <tile gid="258"/>
   <tile gid="258"/>
   <tile gid="258"/>
   <tile gid="258"/>
   <tile gid="258"/>
   <tile gid="258"/>
   <tile gid="258"/>
   <tile gid="258"/>
   <tile gid="258"/>
   <tile gid="258"/>
   <tile gid="258"/>
   <tile gid="258"/>
   <tile gid="258"/>
   <tile gid="258"/>
   <tile gid="258"/>
   <tile gid="258"/>
   <tile gid="258"/>
   <tile gid="258"/>
   <tile gid="258"/>
   <tile gid="258"/>
   <tile gid="258"/>
   <tile gid="258"/>
   <tile gid="258"/>
   <tile gid="258"/>
   <tile gid="258"/>
   <tile gid="258"/>
   <tile gid="258"/>
   <tile gid="258"/>
   <tile gid="258"/>
   <tile gid="258"/>
   <tile gid="258"/>
   <tile gid="258"/>
   <tile/>
   <tile/>
   <tile/>
   <tile/>
   <tile gid="258"/>
   <tile gid="258"/>
   <tile gid="258"/>
   <tile gid="258"/>
   <tile gid="258"/>
   <tile gid="258"/>
   <tile gid="258"/>
   <tile gid="258"/>
   <tile gid="258"/>
   <tile gid="258"/>
   <tile gid="258"/>
   <tile gid="258"/>
   <tile gid="258"/>
   <tile gid="258"/>
   <tile gid="258"/>
   <tile gid="258"/>
   <tile gid="258"/>
   <tile gid="258"/>
   <tile/>
   <tile/>
   <tile/>
   <tile/>
   <tile/>
   <tile/>
   <tile/>
   <tile/>
   <tile/>
   <tile/>
   <tile/>
   <tile/>
   <tile/>
   <tile/>
   <tile/>
   <tile/>
   <tile/>
   <tile/>
   <tile/>
   <tile/>
   <tile/>
   <tile/>
   <tile/>
   <tile/>
   <tile/>
   <tile/>
   <tile/>
   <tile/>
   <tile/>
   <tile/>
   <tile/>
   <tile/>
   <tile/>
   <tile/>
   <tile/>
   <tile/>
   <tile/>
   <tile/>
   <tile/>
   <tile/>
   <tile/>
   <tile/>
   <tile/>
   <tile/>
   <tile/>
   <tile/>
   <tile/>
   <tile/>
   <tile/>
   <tile/>
   <tile/>
   <tile/>
   <tile/>
   <tile/>
   <tile/>
   <tile/>
   <tile/>
   <tile/>
   <tile/>
   <tile/>
  </data>
 </layer>
 <objectgroup id="4" name="Entities">
  <object id="2" name="Door" type="Door" x="7.08567" y="1155.06" width="68" height="268">
   <properties>
    <property name="Destination" value="MapCor_Sala4.tmx"/>
    <property name="Type" value="Door"/>
    <property name="playerX" type="float" value="3654.55"/>
    <property name="playerY" type="float" value="1400"/>
   </properties>
  </object>
  <object id="3" name="Door" type="Door" x="3776.7" y="430.335" width="68" height="212.1">
   <properties>
    <property name="Destination" value="MapCor_Sala8.tmx"/>
    <property name="Type" value="Door"/>
    <property name="playerX" type="float" value="568"/>
    <property name="playerY" type="float" value="1484"/>
   </properties>
  </object>
  <object id="4" name="Door" type="Door" x="3766.42" y="3948.89" width="68" height="314.221">
   <properties>
    <property name="Destination" value=".tmxMapCor_Sala7.tmx"/>
    <property name="Type" value="Door"/>
    <property name="playerX" type="float" value="356"/>
    <property name="playerY" type="float" value="1678"/>
   </properties>
  </object>
  <object id="5" name="Door" type="Door" x="3771.56" y="2949.99" width="68" height="314.221">
   <properties>
    <property name="Destination" value="MapCor_Sala7.tmx"/>
    <property name="Type" value="Door"/>
    <property name="playerX" type="float" value="256"/>
    <property name="playerY" type="float" value="564"/>
   </properties>
  </object>
  <object id="10" name="Player" type="Player" x="3220.26" y="424.01">
   <point/>
  </object>
  <object id="11" name="Door" type="Door" x="822.237" y="-9.94173" width="272.379" height="48.744">
   <properties>
    <property name="Destination" value="MapCor_Sala9.tmx"/>
    <property name="Type" value="Door"/>
    <property name="playerX" type="float" value="1481"/>
    <property name="playerY" type="float" value="969"/>
   </properties>
  </object>
  <object id="12" name="Climbable" type="Climbable" x="2436" y="256" width="248" height="4096">
   <properties>
    <property name="Type" value="Climbable"/>
    <property name="isWaterfall" type="bool" value="true"/>
   </properties>
  </object>
 </objectgroup>
</map>
