<?xml version="1.0" encoding="UTF-8"?>
<map version="1.10" tiledversion="1.12.1" orientation="orthogonal" renderorder="right-down" width="30" height="51" tilewidth="64" tileheight="64" infinite="0" nextlayerid="7" nextobjectid="10">
 <tileset firstgid="1" source="Atlas_2.3.tsx"/>
 <tileset firstgid="257" name="TileMetadata" tilewidth="64" tileheight="64" tilecount="2" columns="2">
  <image source="TileMetadata.png" width="128" height="64"/>
 </tileset>
 <tileset firstgid="259" name="Atlas_general" tilewidth="64" tileheight="64" tilecount="256" columns="16">
  <image source="Atlas_general.png" width="1024" height="1024"/>
 </tileset>
 <tileset firstgid="515" source="Foreground_PNG.tsx"/>
 <tileset firstgid="3482" name="Background1_Corazon" tilewidth="1920" tileheight="1080" tilecount="1" columns="1">
  <image source="../Textures/Backgrounds/Cor/Background1_Corazon.png" width="1920" height="1080"/>
 </tileset>
 <tileset firstgid="3483" name="Background2_Corazon" tilewidth="1920" tileheight="1080" tilecount="1" columns="1">
  <image source="../Textures/Backgrounds/Cor/Background2_Corazon.png" width="1920" height="1080"/>
 </tileset>
 <tileset firstgid="3484" name="Background3_Corazon" tilewidth="1920" tileheight="1080" tilecount="1" columns="1">
  <image source="../Textures/Backgrounds/Cor/Background3_Corazon.png" width="1920" height="1080"/>
 </tileset>
 <tileset firstgid="3485" name="Background4_Corazon" tilewidth="1920" tileheight="1080" tilecount="1" columns="1">
  <image source="../Textures/Backgrounds/Cor/Background4_Corazon.png" width="1920" height="1080"/>
 </tileset>
 <tileset firstgid="3486" name="MiddlegroundCor" tilewidth="1920" tileheight="1080" tilecount="7" columns="0">
  <grid orientation="orthogonal" width="1" height="1"/>
  <tile id="0" x="200" y="0" width="1920" height="1080">
   <image source="../Textures/Middleground/Cor/Obj7.png" width="1920" height="1080"/>
  </tile>
  <tile id="1" x="200" y="0" width="1920" height="1080">
   <image source="../Textures/Middleground/Cor/Obj1.png" width="1920" height="1080"/>
  </tile>
  <tile id="2" x="100" y="0" width="1920" height="1080">
   <image source="../Textures/Middleground/Cor/Obj2.png" width="1920" height="1080"/>
  </tile>
  <tile id="3" x="240" y="0" width="1920" height="1080">
   <image source="../Textures/Middleground/Cor/Obj3.png" width="1920" height="1080"/>
  </tile>
  <tile id="4" x="490" y="0" width="1920" height="1080">
   <image source="../Textures/Middleground/Cor/Obj4.png" width="1920" height="1080"/>
  </tile>
  <tile id="5" x="70" y="0" width="1920" height="1080">
   <image source="../Textures/Middleground/Cor/Obj5.png" width="1920" height="1080"/>
  </tile>
  <tile id="6" x="270" y="0" width="1920" height="1080">
   <image source="../Textures/Middleground/Cor/Obj6.png" width="1920" height="1080"/>
  </tile>
 </tileset>
 <layer id="5" name="Background" width="30" height="51">
  <properties>
   <property name="Draw" type="bool" value="true"/>
  </properties>
  <data>
   <tile/>
   <tile/>
   <tile/>
   <tile/>
   <tile/>
   <tile/>
   <tile/>
   <tile/>
   <tile/>
   <tile/>
   <tile/>
   <tile/>
   <tile/>
   <tile/>
   <tile/>
   <tile/>
   <tile/>
   <tile/>
   <tile/>
   <tile/>
   <tile/>
   <tile/>
   <tile/>
   <tile/>
   <tile/>
   <tile/>
   <tile/>
   <tile/>
   <tile/>
   <tile/>
   <tile/>
   <tile/>
   <tile/>
   <tile/>
   <tile/>
   <tile/>
   <tile/>
   <tile/>
   <tile/>
   <tile/>
   <tile/>
   <tile/>
   <tile/>
   <tile/>
   <tile/>
   <tile/>
   <tile/>
   <tile/>
   <tile/>
   <tile/>
   <tile/>
   <tile/>
   <tile/>
   <tile/>
   <tile/>
   <tile/>
   <tile/>
   <tile/>
   <tile/>
   <tile/>
   <tile gid="3485"/>
   <tile/>
   <tile/>
   <tile/>
   <tile/>
   <tile/>
   <tile/>
   <tile/>
   <tile/>
   <tile/>
   <tile/>
   <tile/>
   <tile/>
   <tile/>
   <tile/>
   <tile/>
   <tile/>
   <tile/>
   <tile/>
   <tile/>
   <tile/>
   <tile/>
   <tile/>
   <tile/>
   <tile/>
   <tile/>
   <tile/>
   <tile/>
   <tile/>
   <tile/>
   <tile/>
   <tile/>
   <tile/>
   <tile/>
   <tile/>
   <tile/>
   <tile/>
   <tile/>
   <tile/>
   <tile/>
   <tile/>
   <tile/>
   <tile/>
   <tile/>
   <tile/>
   <tile/>
   <tile/>
   <tile/>
   <tile/>
   <tile/>
   <tile/>
   <tile/>
   <tile/>
   <tile/>
   <tile/>
   <tile/>
   <tile/>
   <tile/>
   <tile/>
   <tile/>
   <tile/>
   <tile/>
   <tile/>
   <tile/>
   <tile/>
   <tile/>
   <tile/>
   <tile/>
   <tile/>
   <tile/>
   <tile/>
   <tile/>
   <tile/>
   <tile/>
   <tile/>
   <tile/>
   <tile/>
   <tile/>
   <tile/>
   <tile/>
   <tile/>
   <tile/>
   <tile/>
   <tile/>
   <tile/>
   <tile/>
   <tile/>
   <tile/>
   <tile/>
   <tile/>
   <tile/>
   <tile/>
   <tile/>
   <tile/>
   <tile/>
   <tile/>
   <tile/>
   <tile/>
   <tile/>
   <tile/>
   <tile/>
   <tile/>
   <tile/>
   <tile/>
   <tile/>
   <tile/>
   <tile/>
   <tile/>
   <tile/>
   <tile/>
   <tile/>
   <tile/>
   <tile/>
   <tile/>
   <tile/>
   <tile/>
   <tile/>
   <tile/>
   <tile/>
   <tile/>
   <tile/>
   <tile/>
   <tile/>
   <tile/>
   <tile/>
   <tile/>
   <tile/>
   <tile/>
   <tile/>
   <tile/>
   <tile/>
   <tile/>
   <tile/>
   <tile/>
   <tile/>
   <tile/>
   <tile/>
   <tile/>
   <tile/>
   <tile/>
   <tile/>
   <tile/>
   <tile/>
   <tile/>
   <tile/>
   <tile/>
   <tile/>
   <tile/>
   <tile/>
   <tile/>
   <tile/>
   <tile/>
   <tile/>
   <tile/>
   <tile/>
   <tile/>
   <tile/>
   <tile/>
   <tile/>
   <tile/>
   <tile/>
   <tile/>
   <tile/>
   <tile/>
   <tile/>
   <tile/>
   <tile/>
   <tile/>
   <tile/>
   <tile/>
   <tile/>
   <tile/>
   <tile/>
   <tile/>
   <tile/>
   <tile/>
   <tile/>
   <tile/>
   <tile/>
   <tile/>
   <tile/>
   <tile/>
   <tile/>
   <tile/>
   <tile/>
   <tile/>
   <tile/>
   <tile/>
   <tile/>
   <tile/>
   <tile/>
   <tile/>
   <tile/>
   <tile/>
   <tile/>
   <tile/>
   <tile/>
   <tile/>
   <tile/>
   <tile/>
   <tile/>
   <tile/>
   <tile/>
   <tile/>
   <tile/>
   <tile/>
   <tile/>
   <tile/>
   <tile/>
   <tile/>
   <tile/>
   <tile/>
   <tile/>
   <tile/>
   <tile/>
   <tile/>
   <tile/>
   <tile/>
   <tile/>
   <tile/>
   <tile/>
   <tile/>
   <tile/>
   <tile/>
   <tile/>
   <tile/>
   <tile/>
   <tile/>
   <tile/>
   <tile/>
   <tile/>
   <tile/>
   <tile/>
   <tile/>
   <tile/>
   <tile/>
   <tile/>
   <tile/>
   <tile/>
   <tile/>
   <tile/>
   <tile/>
   <tile/>
   <tile/>
   <tile/>
   <tile/>
   <tile/>
   <tile/>
   <tile/>
   <tile/>
   <tile/>
   <tile/>
   <tile/>
   <tile/>
   <tile/>
   <tile/>
   <tile/>
   <tile/>
   <tile/>
   <tile/>
   <tile/>
   <tile/>
   <tile/>
   <tile/>
   <tile/>
   <tile/>
   <tile/>
   <tile/>
   <tile/>
   <tile/>
   <tile/>
   <tile/>
   <tile/>
   <tile/>
   <tile/>
   <tile/>
   <tile/>
   <tile/>
   <tile/>
   <tile/>
   <tile/>
   <tile/>
   <tile/>
   <tile/>
   <tile/>
   <tile/>
   <tile/>
   <tile/>
   <tile/>
   <tile/>
   <tile/>
   <tile/>
   <tile/>
   <tile/>
   <tile/>
   <tile/>
   <tile/>
   <tile/>
   <tile/>
   <tile/>
   <tile/>
   <tile/>
   <tile/>
   <tile/>
   <tile/>
   <tile/>
   <tile/>
   <tile/>
   <tile/>
   <tile/>
   <tile/>
   <tile/>
   <tile/>
   <tile/>
   <tile/>
   <tile/>
   <tile/>
   <tile/>
   <tile/>
   <tile/>
   <tile/>
   <tile/>
   <tile/>
   <tile/>
   <tile/>
   <tile/>
   <tile/>
   <tile/>
   <tile/>
   <tile/>
   <tile/>
   <tile/>
   <tile/>
   <tile/>
   <tile/>
   <tile/>
   <tile/>
   <tile/>
   <tile/>
   <tile/>
   <tile/>
   <tile/>
   <tile/>
   <tile/>
   <tile/>
   <tile/>
   <tile/>
   <tile/>
   <tile/>
   <tile/>
   <tile/>
   <tile/>
   <tile/>
   <tile/>
   <tile/>
   <tile/>
   <tile/>
   <tile/>
   <tile/>
   <tile/>
   <tile/>
   <tile/>
   <tile/>
   <tile/>
   <tile/>
   <tile/>
   <tile/>
   <tile/>
   <tile/>
   <tile/>
   <tile/>
   <tile/>
   <tile/>
   <tile/>
   <tile/>
   <tile/>
   <tile/>
   <tile/>
   <tile/>
   <tile/>
   <tile/>
   <tile/>
   <tile/>
   <tile/>
   <tile/>
   <tile/>
   <tile/>
   <tile/>
   <tile/>
   <tile/>
   <tile/>
   <tile/>
   <tile/>
   <tile/>
   <tile/>
   <tile/>
   <tile/>
   <tile/>
   <tile/>
   <tile/>
   <tile/>
   <tile/>
   <tile/>
   <tile/>
   <tile/>
   <tile/>
   <tile/>
   <tile/>
   <tile/>
   <tile/>
   <tile/>
   <tile/>
   <tile/>
   <tile/>
   <tile/>
   <tile/>
   <tile/>
   <tile/>
   <tile/>
   <tile/>
   <tile/>
   <tile/>
   <tile/>
   <tile/>
   <tile/>
   <tile/>
   <tile/>
   <tile/>
   <tile/>
   <tile/>
   <tile/>
   <tile/>
   <tile/>
   <tile/>
   <tile/>
   <tile/>
   <tile/>
   <tile/>
   <tile/>
   <tile/>
   <tile/>
   <tile/>
   <tile/>
   <tile/>
   <tile/>
   <tile/>
   <tile/>
   <tile/>
   <tile/>
   <tile/>
   <tile/>
   <tile/>
   <tile/>
   <tile/>
   <tile/>
   <tile/>
   <tile/>
   <tile/>
   <tile/>
   <tile/>
   <tile/>
   <tile/>
   <tile/>
   <tile/>
   <tile/>
   <tile/>
   <tile/>
   <tile/>
   <tile/>
   <tile/>
   <tile/>
   <tile/>
   <tile/>
   <tile/>
   <tile/>
   <tile/>
   <tile/>
   <tile/>
   <tile/>
   <tile/>
   <tile gid="3483"/>
   <tile/>
   <tile/>
   <tile/>
   <tile/>
   <tile/>
   <tile/>
   <tile/>
   <tile/>
   <tile/>
   <tile/>
   <tile/>
   <tile/>
   <tile/>
   <tile/>
   <tile/>
   <tile/>
   <tile/>
   <tile/>
   <tile/>
   <tile/>
   <tile/>
   <tile/>
   <tile/>
   <tile/>
   <tile/>
   <tile/>
   <tile/>
   <tile/>
   <tile/>
   <tile/>
   <tile/>
   <tile/>
   <tile/>
   <tile/>
   <tile/>
   <tile/>
   <tile/>
   <tile/>
   <tile/>
   <tile/>
   <tile/>
   <tile/>
   <tile/>
   <tile/>
   <tile/>
   <tile/>
   <tile/>
   <tile/>
   <tile/>
   <tile/>
   <tile/>
   <tile/>
   <tile/>
   <tile/>
   <tile/>
   <tile/>
   <tile/>
   <tile/>
   <tile/>
   <tile/>
   <tile/>
   <tile/>
   <tile/>
   <tile/>
   <tile/>
   <tile/>
   <tile/>
   <tile/>
   <tile/>
   <tile/>
   <tile/>
   <tile/>
   <tile/>
   <tile/>
   <tile/>
   <tile/>
   <tile/>
   <tile/>
   <tile/>
   <tile/>
   <tile/>
   <tile/>
   <tile/>
   <tile/>
   <tile/>
   <tile/>
   <tile/>
   <tile/>
   <tile/>
   <tile/>
   <tile/>
   <tile/>
   <tile/>
   <tile/>
   <tile/>
   <tile/>
   <tile/>
   <tile/>
   <tile/>
   <tile/>
   <tile/>
   <tile/>
   <tile/>
   <tile/>
   <tile/>
   <tile/>
   <tile/>
   <tile/>
   <tile/>
   <tile/>
   <tile/>
   <tile/>
   <tile/>
   <tile/>
   <tile/>
   <tile/>
   <tile/>
   <tile/>
   <tile/>
   <tile/>
   <tile/>
   <tile/>
   <tile/>
   <tile/>
   <tile/>
   <tile/>
   <tile/>
   <tile/>
   <tile/>
   <tile/>
   <tile/>
   <tile/>
   <tile/>
   <tile/>
   <tile/>
   <tile/>
   <tile/>
   <tile/>
   <tile/>
   <tile/>
   <tile/>
   <tile/>
   <tile/>
   <tile/>
   <tile/>
   <tile/>
   <tile/>
   <tile/>
   <tile/>
   <tile/>
   <tile/>
   <tile/>
   <tile/>
   <tile/>
   <tile/>
   <tile/>
   <tile/>
   <tile/>
   <tile/>
   <tile/>
   <tile/>
   <tile/>
   <tile/>
   <tile/>
   <tile/>
   <tile/>
   <tile/>
   <tile/>
   <tile/>
   <tile/>
   <tile/>
   <tile/>
   <tile/>
   <tile/>
   <tile/>
   <tile/>
   <tile/>
   <tile/>
   <tile/>
   <tile/>
   <tile/>
   <tile/>
   <tile/>
   <tile/>
   <tile/>
   <tile/>
   <tile/>
   <tile/>
   <tile/>
   <tile/>
   <tile/>
   <tile/>
   <tile/>
   <tile/>
   <tile/>
   <tile/>
   <tile/>
   <tile/>
   <tile/>
   <tile/>
   <tile/>
   <tile/>
   <tile/>
   <tile/>
   <tile/>
   <tile/>
   <tile/>
   <tile/>
   <tile/>
   <tile/>
   <tile/>
   <tile/>
   <tile/>
   <tile/>
   <tile/>
   <tile/>
   <tile/>
   <tile/>
   <tile/>
   <tile/>
   <tile/>
   <tile/>
   <tile/>
   <tile/>
   <tile/>
   <tile/>
   <tile/>
   <tile/>
   <tile/>
   <tile/>
   <tile/>
   <tile/>
   <tile/>
   <tile/>
   <tile/>
   <tile/>
   <tile/>
   <tile/>
   <tile/>
   <tile/>
   <tile/>
   <tile/>
   <tile/>
   <tile/>
   <tile/>
   <tile/>
   <tile/>
   <tile/>
   <tile/>
   <tile/>
   <tile/>
   <tile/>
   <tile/>
   <tile/>
   <tile/>
   <tile/>
   <tile/>
   <tile/>
   <tile/>
   <tile/>
   <tile/>
   <tile/>
   <tile/>
   <tile/>
   <tile/>
   <tile/>
   <tile/>
   <tile/>
   <tile/>
   <tile/>
   <tile/>
   <tile/>
   <tile/>
   <tile/>
   <tile/>
   <tile/>
   <tile/>
   <tile/>
   <tile/>
   <tile/>
   <tile/>
   <tile/>
   <tile/>
   <tile/>
   <tile/>
   <tile/>
   <tile/>
   <tile/>
   <tile/>
   <tile/>
   <tile/>
   <tile/>
   <tile/>
   <tile/>
   <tile/>
   <tile/>
   <tile/>
   <tile/>
   <tile/>
   <tile/>
   <tile/>
   <tile/>
   <tile/>
   <tile/>
   <tile/>
   <tile/>
   <tile/>
   <tile/>
   <tile/>
   <tile/>
   <tile/>
   <tile/>
   <tile/>
   <tile/>
   <tile/>
   <tile/>
   <tile/>
   <tile/>
   <tile/>
   <tile/>
   <tile/>
   <tile/>
   <tile/>
   <tile/>
   <tile/>
   <tile/>
   <tile/>
   <tile/>
   <tile/>
   <tile/>
   <tile/>
   <tile/>
   <tile/>
   <tile/>
   <tile/>
   <tile/>
   <tile/>
   <tile/>
   <tile/>
   <tile/>
   <tile/>
   <tile/>
   <tile/>
   <tile/>
   <tile/>
   <tile/>
   <tile/>
   <tile/>
   <tile/>
   <tile/>
   <tile/>
   <tile/>
   <tile/>
   <tile/>
   <tile/>
   <tile/>
   <tile/>
   <tile/>
   <tile/>
   <tile/>
   <tile/>
   <tile/>
   <tile/>
   <tile/>
   <tile/>
   <tile/>
   <tile/>
   <tile/>
   <tile/>
   <tile/>
   <tile/>
   <tile/>
   <tile/>
   <tile/>
   <tile/>
   <tile/>
   <tile/>
   <tile/>
   <tile/>
   <tile/>
   <tile/>
   <tile/>
   <tile/>
   <tile/>
   <tile/>
   <tile/>
   <tile/>
   <tile/>
   <tile/>
   <tile/>
   <tile/>
   <tile/>
   <tile/>
   <tile/>
   <tile/>
   <tile/>
   <tile/>
   <tile/>
   <tile/>
   <tile/>
   <tile/>
   <tile/>
   <tile/>
   <tile/>
   <tile/>
   <tile/>
   <tile/>
   <tile/>
   <tile/>
   <tile/>
   <tile/>
   <tile/>
   <tile/>
   <tile/>
   <tile/>
   <tile/>
   <tile/>
   <tile/>
   <tile/>
   <tile/>
   <tile/>
   <tile/>
   <tile/>
   <tile/>
   <tile/>
   <tile/>
   <tile/>
   <tile/>
   <tile/>
   <tile/>
   <tile/>
   <tile/>
   <tile/>
   <tile/>
   <tile/>
   <tile/>
   <tile/>
   <tile/>
   <tile/>
   <tile/>
   <tile/>
   <tile/>
   <tile/>
   <tile/>
   <tile/>
   <tile/>
   <tile/>
   <tile/>
   <tile/>
   <tile/>
   <tile/>
   <tile/>
   <tile/>
   <tile/>
   <tile/>
   <tile/>
   <tile/>
   <tile/>
   <tile/>
   <tile/>
   <tile/>
   <tile/>
   <tile/>
   <tile/>
   <tile/>
   <tile/>
   <tile/>
   <tile/>
   <tile/>
   <tile/>
   <tile/>
   <tile/>
   <tile/>
   <tile/>
   <tile/>
   <tile/>
   <tile/>
   <tile/>
   <tile/>
   <tile gid="3483"/>
   <tile/>
   <tile/>
   <tile/>
   <tile/>
   <tile/>
   <tile/>
   <tile/>
   <tile/>
   <tile/>
   <tile/>
   <tile/>
   <tile/>
   <tile/>
   <tile/>
   <tile/>
   <tile/>
   <tile/>
   <tile/>
   <tile/>
   <tile/>
   <tile/>
   <tile/>
   <tile/>
   <tile/>
   <tile/>
   <tile/>
   <tile/>
   <tile/>
   <tile/>
   <tile/>
   <tile/>
   <tile/>
   <tile/>
   <tile/>
   <tile/>
   <tile/>
   <tile/>
   <tile/>
   <tile/>
   <tile/>
   <tile/>
   <tile/>
   <tile/>
   <tile/>
   <tile/>
   <tile/>
   <tile/>
   <tile/>
   <tile/>
   <tile/>
   <tile/>
   <tile/>
   <tile/>
   <tile/>
   <tile/>
   <tile/>
   <tile/>
   <tile/>
   <tile/>
   <tile/>
   <tile/>
   <tile/>
   <tile/>
   <tile/>
   <tile/>
   <tile/>
   <tile/>
   <tile/>
   <tile/>
   <tile/>
   <tile/>
   <tile/>
   <tile/>
   <tile/>
   <tile/>
   <tile/>
   <tile/>
   <tile/>
   <tile/>
   <tile/>
   <tile/>
   <tile/>
   <tile/>
   <tile/>
   <tile/>
   <tile/>
   <tile/>
   <tile/>
   <tile/>
   <tile/>
   <tile/>
   <tile/>
   <tile/>
   <tile/>
   <tile/>
   <tile/>
   <tile/>
   <tile/>
   <tile/>
   <tile/>
   <tile/>
   <tile/>
   <tile/>
   <tile/>
   <tile/>
   <tile/>
   <tile/>
   <tile/>
   <tile/>
   <tile/>
   <tile/>
   <tile/>
   <tile/>
   <tile/>
   <tile/>
   <tile/>
   <tile/>
   <tile/>
   <tile/>
   <tile/>
   <tile/>
   <tile/>
   <tile/>
   <tile/>
   <tile/>
   <tile/>
   <tile/>
   <tile/>
   <tile/>
   <tile/>
   <tile/>
   <tile/>
   <tile/>
   <tile/>
   <tile/>
   <tile/>
   <tile/>
   <tile/>
   <tile/>
   <tile/>
   <tile/>
   <tile/>
   <tile/>
   <tile/>
   <tile/>
   <tile/>
   <tile/>
   <tile/>
   <tile/>
   <tile/>
   <tile/>
   <tile/>
   <tile/>
   <tile/>
   <tile/>
   <tile/>
   <tile/>
   <tile/>
   <tile/>
   <tile/>
   <tile/>
   <tile/>
   <tile/>
   <tile/>
   <tile/>
   <tile/>
   <tile/>
   <tile/>
   <tile/>
   <tile/>
   <tile/>
   <tile/>
   <tile/>
   <tile/>
   <tile/>
   <tile/>
   <tile/>
   <tile/>
   <tile/>
   <tile/>
   <tile/>
   <tile/>
   <tile/>
   <tile/>
   <tile/>
   <tile/>
   <tile/>
   <tile/>
   <tile/>
   <tile/>
   <tile/>
   <tile/>
   <tile/>
   <tile/>
   <tile/>
   <tile/>
   <tile/>
   <tile/>
   <tile/>
   <tile/>
   <tile/>
   <tile/>
   <tile/>
   <tile/>
   <tile/>
   <tile/>
   <tile/>
   <tile/>
   <tile/>
   <tile/>
   <tile/>
   <tile/>
   <tile/>
   <tile/>
   <tile/>
   <tile/>
   <tile/>
   <tile/>
   <tile/>
   <tile/>
   <tile/>
   <tile/>
   <tile/>
   <tile/>
   <tile/>
   <tile/>
   <tile/>
   <tile/>
   <tile/>
   <tile/>
   <tile/>
   <tile/>
   <tile/>
   <tile/>
   <tile/>
   <tile/>
   <tile/>
   <tile/>
   <tile/>
   <tile/>
   <tile/>
   <tile/>
   <tile/>
   <tile/>
   <tile/>
   <tile/>
   <tile/>
   <tile/>
   <tile/>
   <tile/>
   <tile/>
   <tile/>
   <tile/>
   <tile/>
   <tile/>
   <tile/>
   <tile/>
   <tile/>
   <tile/>
   <tile/>
   <tile/>
   <tile/>
   <tile/>
   <tile/>
   <tile/>
   <tile/>
   <tile/>
   <tile/>
   <tile/>
   <tile/>
   <tile/>
   <tile/>
   <tile/>
   <tile/>
   <tile/>
   <tile/>
   <tile/>
   <tile/>
   <tile/>
   <tile/>
   <tile/>
   <tile/>
   <tile/>
   <tile/>
   <tile/>
   <tile/>
   <tile/>
   <tile/>
   <tile/>
   <tile/>
   <tile/>
   <tile/>
   <tile/>
   <tile/>
   <tile/>
   <tile/>
   <tile/>
   <tile/>
   <tile/>
   <tile/>
   <tile/>
   <tile/>
   <tile/>
   <tile/>
   <tile/>
   <tile/>
   <tile/>
   <tile/>
   <tile/>
   <tile/>
   <tile/>
   <tile/>
   <tile/>
   <tile/>
   <tile/>
   <tile/>
   <tile/>
   <tile/>
   <tile/>
   <tile/>
   <tile/>
   <tile/>
   <tile/>
   <tile/>
   <tile/>
   <tile/>
   <tile/>
   <tile/>
   <tile/>
   <tile/>
   <tile/>
   <tile/>
   <tile/>
   <tile/>
   <tile/>
   <tile/>
   <tile/>
   <tile/>
   <tile/>
   <tile/>
   <tile/>
   <tile/>
   <tile/>
   <tile/>
   <tile/>
   <tile/>
   <tile/>
   <tile/>
   <tile/>
   <tile/>
   <tile/>
   <tile/>
   <tile/>
   <tile/>
   <tile/>
   <tile/>
   <tile/>
   <tile/>
   <tile/>
   <tile/>
   <tile/>
   <tile/>
   <tile/>
   <tile/>
   <tile/>
   <tile/>
   <tile/>
   <tile/>
   <tile/>
   <tile/>
   <tile/>
   <tile/>
   <tile/>
   <tile/>
   <tile/>
   <tile/>
   <tile/>
   <tile/>
   <tile/>
   <tile/>
   <tile/>
   <tile/>
   <tile/>
   <tile/>
   <tile/>
   <tile/>
   <tile/>
   <tile/>
   <tile/>
   <tile/>
   <tile/>
   <tile/>
   <tile/>
   <tile/>
   <tile/>
   <tile/>
   <tile/>
   <tile/>
   <tile/>
   <tile/>
   <tile/>
   <tile/>
   <tile/>
   <tile/>
   <tile/>
   <tile/>
   <tile/>
   <tile/>
   <tile/>
   <tile/>
   <tile/>
   <tile/>
   <tile/>
   <tile/>
   <tile/>
   <tile/>
   <tile/>
   <tile/>
   <tile/>
   <tile/>
   <tile/>
   <tile/>
   <tile/>
   <tile/>
   <tile/>
   <tile/>
   <tile/>
   <tile/>
   <tile/>
   <tile/>
   <tile/>
   <tile/>
   <tile/>
   <tile/>
   <tile/>
   <tile/>
   <tile/>
   <tile/>
   <tile/>
   <tile/>
   <tile/>
   <tile/>
   <tile/>
   <tile/>
   <tile/>
   <tile/>
   <tile/>
   <tile/>
   <tile/>
   <tile/>
   <tile/>
   <tile/>
   <tile/>
   <tile/>
   <tile/>
   <tile/>
   <tile/>
   <tile/>
   <tile/>
   <tile/>
   <tile/>
   <tile/>
   <tile/>
   <tile/>
   <tile/>
   <tile/>
   <tile/>
   <tile/>
   <tile/>
   <tile/>
   <tile/>
   <tile/>
   <tile/>
   <tile/>
   <tile/>
   <tile/>
   <tile/>
   <tile/>
   <tile/>
   <tile gid="3482"/>
   <tile/>
   <tile/>
   <tile/>
   <tile/>
   <tile/>
   <tile/>
   <tile/>
   <tile/>
   <tile/>
   <tile/>
   <tile/>
   <tile/>
   <tile/>
   <tile/>
   <tile/>
   <tile/>
   <tile/>
   <tile/>
   <tile/>
   <tile/>
   <tile/>
   <tile/>
   <tile/>
   <tile/>
   <tile/>
   <tile/>
   <tile/>
   <tile/>
   <tile/>
  </data>
 </layer>
 <layer id="6" name="Middleground" width="30" height="51">
  <properties>
   <property name="Draw" type="bool" value="true"/>
  </properties>
  <data>
   <tile/>
   <tile/>
   <tile/>
   <tile/>
   <tile/>
   <tile/>
   <tile/>
   <tile/>
   <tile/>
   <tile/>
   <tile/>
   <tile/>
   <tile/>
   <tile/>
   <tile/>
   <tile/>
   <tile/>
   <tile/>
   <tile/>
   <tile/>
   <tile/>
   <tile/>
   <tile/>
   <tile/>
   <tile/>
   <tile/>
   <tile/>
   <tile/>
   <tile/>
   <tile/>
   <tile/>
   <tile/>
   <tile/>
   <tile/>
   <tile/>
   <tile/>
   <tile/>
   <tile/>
   <tile/>
   <tile/>
   <tile/>
   <tile/>
   <tile/>
   <tile/>
   <tile/>
   <tile/>
   <tile/>
   <tile/>
   <tile/>
   <tile/>
   <tile/>
   <tile/>
   <tile/>
   <tile/>
   <tile/>
   <tile/>
   <tile/>
   <tile/>
   <tile/>
   <tile/>
   <tile/>
   <tile/>
   <tile/>
   <tile/>
   <tile/>
   <tile/>
   <tile/>
   <tile/>
   <tile/>
   <tile/>
   <tile/>
   <tile/>
   <tile/>
   <tile/>
   <tile/>
   <tile/>
   <tile/>
   <tile/>
   <tile/>
   <tile/>
   <tile/>
   <tile/>
   <tile/>
   <tile/>
   <tile/>
   <tile/>
   <tile/>
   <tile/>
   <tile/>
   <tile/>
   <tile/>
   <tile/>
   <tile/>
   <tile/>
   <tile/>
   <tile/>
   <tile/>
   <tile/>
   <tile/>
   <tile/>
   <tile/>
   <tile/>
   <tile/>
   <tile/>
   <tile/>
   <tile/>
   <tile/>
   <tile/>
   <tile/>
   <tile/>
   <tile/>
   <tile/>
   <tile/>
   <tile/>
   <tile/>
   <tile/>
   <tile/>
   <tile/>
   <tile/>
   <tile/>
   <tile/>
   <tile/>
   <tile/>
   <tile/>
   <tile/>
   <tile/>
   <tile/>
   <tile/>
   <tile/>
   <tile/>
   <tile/>
   <tile/>
   <tile/>
   <tile/>
   <tile/>
   <tile/>
   <tile/>
   <tile/>
   <tile/>
   <tile/>
   <tile/>
   <tile/>
   <tile/>
   <tile/>
   <tile/>
   <tile/>
   <tile/>
   <tile/>
   <tile/>
   <tile/>
   <tile/>
   <tile/>
   <tile/>
   <tile/>
   <tile/>
   <tile/>
   <tile/>
   <tile/>
   <tile/>
   <tile/>
   <tile/>
   <tile/>
   <tile/>
   <tile/>
   <tile/>
   <tile/>
   <tile/>
   <tile/>
   <tile/>
   <tile/>
   <tile/>
   <tile/>
   <tile/>
   <tile/>
   <tile/>
   <tile/>
   <tile/>
   <tile/>
   <tile/>
   <tile/>
   <tile/>
   <tile/>
   <tile/>
   <tile/>
   <tile/>
   <tile/>
   <tile/>
   <tile/>
   <tile/>
   <tile/>
   <tile/>
   <tile/>
   <tile/>
   <tile/>
   <tile/>
   <tile/>
   <tile/>
   <tile/>
   <tile/>
   <tile/>
   <tile/>
   <tile/>
   <tile/>
   <tile/>
   <tile/>
   <tile/>
   <tile/>
   <tile/>
   <tile/>
   <tile/>
   <tile/>
   <tile/>
   <tile/>
   <tile/>
   <tile/>
   <tile/>
   <tile/>
   <tile/>
   <tile/>
   <tile/>
   <tile/>
   <tile/>
   <tile/>
   <tile/>
   <tile/>
   <tile/>
   <tile/>
   <tile/>
   <tile/>
   <tile/>
   <tile/>
   <tile/>
   <tile/>
   <tile/>
   <tile/>
   <tile/>
   <tile/>
   <tile/>
   <tile/>
   <tile/>
   <tile/>
   <tile/>
   <tile/>
   <tile/>
   <tile/>
   <tile/>
   <tile/>
   <tile/>
   <tile/>
   <tile/>
   <tile/>
   <tile/>
   <tile/>
   <tile/>
   <tile/>
   <tile/>
   <tile/>
   <tile/>
   <tile/>
   <tile/>
   <tile/>
   <tile/>
   <tile/>
   <tile/>
   <tile/>
   <tile/>
   <tile/>
   <tile/>
   <tile/>
   <tile/>
   <tile/>
   <tile/>
   <tile/>
   <tile/>
   <tile/>
   <tile/>
   <tile/>
   <tile/>
   <tile/>
   <tile/>
   <tile/>
   <tile/>
   <tile/>
   <tile/>
   <tile/>
   <tile/>
   <tile/>
   <tile/>
   <tile/>
   <tile/>
   <tile/>
   <tile/>
   <tile/>
   <tile/>
   <tile/>
   <tile/>
   <tile/>
   <tile/>
   <tile/>
   <tile/>
   <tile/>
   <tile/>
   <tile/>
   <tile/>
   <tile/>
   <tile/>
   <tile/>
   <tile/>
   <tile/>
   <tile/>
   <tile/>
   <tile/>
   <tile/>
   <tile/>
   <tile/>
   <tile/>
   <tile/>
   <tile/>
   <tile/>
   <tile/>
   <tile/>
   <tile/>
   <tile/>
   <tile/>
   <tile/>
   <tile/>
   <tile/>
   <tile/>
   <tile/>
   <tile/>
   <tile/>
   <tile/>
   <tile/>
   <tile/>
   <tile/>
   <tile/>
   <tile/>
   <tile/>
   <tile/>
   <tile/>
   <tile/>
   <tile/>
   <tile/>
   <tile/>
   <tile/>
   <tile/>
   <tile/>
   <tile/>
   <tile/>
   <tile/>
   <tile/>
   <tile/>
   <tile/>
   <tile/>
   <tile/>
   <tile/>
   <tile/>
   <tile/>
   <tile/>
   <tile/>
   <tile/>
   <tile/>
   <tile/>
   <tile/>
   <tile/>
   <tile/>
   <tile/>
   <tile/>
   <tile/>
   <tile/>
   <tile/>
   <tile/>
   <tile/>
   <tile/>
   <tile/>
   <tile/>
   <tile/>
   <tile/>
   <tile/>
   <tile/>
   <tile/>
   <tile/>
   <tile/>
   <tile/>
   <tile/>
   <tile/>
   <tile/>
   <tile/>
   <tile/>
   <tile/>
   <tile/>
   <tile/>
   <tile/>
   <tile/>
   <tile/>
   <tile/>
   <tile/>
   <tile/>
   <tile/>
   <tile/>
   <tile/>
   <tile/>
   <tile/>
   <tile/>
   <tile/>
   <tile/>
   <tile/>
   <tile/>
   <tile/>
   <tile/>
   <tile/>
   <tile/>
   <tile/>
   <tile/>
   <tile/>
   <tile/>
   <tile/>
   <tile/>
   <tile/>
   <tile/>
   <tile/>
   <tile/>
   <tile/>
   <tile/>
   <tile/>
   <tile/>
   <tile/>
   <tile/>
   <tile/>
   <tile/>
   <tile/>
   <tile/>
   <tile/>
   <tile/>
   <tile/>
   <tile/>
   <tile/>
   <tile/>
   <tile/>
   <tile/>
   <tile/>
   <tile/>
   <tile/>
   <tile/>
   <tile/>
   <tile/>
   <tile/>
   <tile/>
   <tile/>
   <tile/>
   <tile/>
   <tile/>
   <tile/>
   <tile/>
   <tile/>
   <tile/>
   <tile/>
   <tile/>
   <tile/>
   <tile/>
   <tile/>
   <tile/>
   <tile/>
   <tile/>
   <tile/>
   <tile/>
   <tile/>
   <tile/>
   <tile/>
   <tile/>
   <tile/>
   <tile/>
   <tile/>
   <tile/>
   <tile/>
   <tile/>
   <tile/>
   <tile/>
   <tile/>
   <tile/>
   <tile/>
   <tile/>
   <tile/>
   <tile/>
   <tile/>
   <tile/>
   <tile/>
   <tile/>
   <tile/>
   <tile/>
   <tile/>
   <tile/>
   <tile/>
   <tile/>
   <tile/>
   <tile/>
   <tile/>
   <tile/>
   <tile/>
   <tile/>
   <tile/>
   <tile/>
   <tile/>
   <tile/>
   <tile/>
   <tile/>
   <tile/>
   <tile/>
   <tile/>
   <tile/>
   <tile/>
   <tile/>
   <tile/>
   <tile/>
   <tile/>
   <tile/>
   <tile/>
   <tile/>
   <tile/>
   <tile/>
   <tile/>
   <tile/>
   <tile/>
   <tile/>
   <tile/>
   <tile/>
   <tile/>
   <tile/>
   <tile/>
   <tile/>
   <tile/>
   <tile/>
   <tile/>
   <tile/>
   <tile/>
   <tile/>
   <tile/>
   <tile/>
   <tile/>
   <tile/>
   <tile/>
   <tile/>
   <tile/>
   <tile/>
   <tile/>
   <tile/>
   <tile/>
   <tile/>
   <tile/>
   <tile/>
   <tile/>
   <tile/>
   <tile/>
   <tile/>
   <tile/>
   <tile/>
   <tile/>
   <tile/>
   <tile/>
   <tile/>
   <tile/>
   <tile/>
   <tile/>
   <tile/>
   <tile/>
   <tile/>
   <tile/>
   <tile/>
   <tile/>
   <tile/>
   <tile/>
   <tile/>
   <tile/>
   <tile/>
   <tile/>
   <tile/>
   <tile/>
   <tile/>
   <tile/>
   <tile/>
   <tile/>
   <tile gid="3492"/>
   <tile/>
   <tile/>
   <tile/>
   <tile/>
   <tile/>
   <tile/>
   <tile/>
   <tile/>
   <tile/>
   <tile/>
   <tile/>
   <tile/>
   <tile/>
   <tile/>
   <tile/>
   <tile/>
   <tile/>
   <tile/>
   <tile/>
   <tile/>
   <tile/>
   <tile/>
   <tile/>
   <tile/>
   <tile/>
   <tile/>
   <tile/>
   <tile/>
   <tile/>
   <tile/>
   <tile/>
   <tile/>
   <tile/>
   <tile/>
   <tile/>
   <tile/>
   <tile/>
   <tile/>
   <tile/>
   <tile/>
   <tile/>
   <tile/>
   <tile/>
   <tile/>
   <tile/>
   <tile/>
   <tile/>
   <tile/>
   <tile/>
   <tile/>
   <tile/>
   <tile/>
   <tile/>
   <tile/>
   <tile/>
   <tile/>
   <tile/>
   <tile/>
   <tile/>
   <tile/>
   <tile/>
   <tile/>
   <tile/>
   <tile/>
   <tile/>
   <tile/>
   <tile/>
   <tile/>
   <tile/>
   <tile/>
   <tile/>
   <tile/>
   <tile/>
   <tile/>
   <tile/>
   <tile/>
   <tile/>
   <tile/>
   <tile/>
   <tile/>
   <tile/>
   <tile/>
   <tile/>
   <tile/>
   <tile/>
   <tile/>
   <tile/>
   <tile/>
   <tile/>
   <tile/>
   <tile/>
   <tile/>
   <tile/>
   <tile/>
   <tile/>
   <tile/>
   <tile/>
   <tile/>
   <tile/>
   <tile/>
   <tile/>
   <tile/>
   <tile/>
   <tile/>
   <tile/>
   <tile/>
   <tile/>
   <tile/>
   <tile/>
   <tile/>
   <tile/>
   <tile/>
   <tile/>
   <tile/>
   <tile/>
   <tile/>
   <tile/>
   <tile/>
   <tile/>
   <tile/>
   <tile/>
   <tile/>
   <tile/>
   <tile/>
   <tile/>
   <tile/>
   <tile/>
   <tile/>
   <tile/>
   <tile/>
   <tile/>
   <tile/>
   <tile/>
   <tile/>
   <tile/>
   <tile/>
   <tile/>
   <tile/>
   <tile/>
   <tile/>
   <tile/>
   <tile/>
   <tile/>
   <tile/>
   <tile/>
   <tile/>
   <tile/>
   <tile/>
   <tile/>
   <tile/>
   <tile/>
   <tile/>
   <tile/>
   <tile/>
   <tile/>
   <tile/>
   <tile/>
   <tile/>
   <tile/>
   <tile/>
   <tile/>
   <tile/>
   <tile/>
   <tile/>
   <tile/>
   <tile/>
   <tile/>
   <tile/>
   <tile/>
   <tile/>
   <tile/>
   <tile/>
   <tile/>
   <tile/>
   <tile/>
   <tile/>
   <tile/>
   <tile/>
   <tile/>
   <tile/>
   <tile/>
   <tile/>
   <tile/>
   <tile/>
   <tile/>
   <tile/>
   <tile/>
   <tile/>
   <tile/>
   <tile/>
   <tile/>
   <tile/>
   <tile/>
   <tile/>
   <tile/>
   <tile/>
   <tile/>
   <tile/>
   <tile/>
   <tile/>
   <tile/>
   <tile/>
   <tile/>
   <tile/>
   <tile/>
   <tile/>
   <tile/>
   <tile/>
   <tile/>
   <tile/>
   <tile/>
   <tile/>
   <tile/>
   <tile/>
   <tile/>
   <tile/>
   <tile/>
   <tile/>
   <tile/>
   <tile/>
   <tile/>
   <tile/>
   <tile/>
   <tile/>
   <tile/>
   <tile/>
   <tile/>
   <tile/>
   <tile/>
   <tile/>
   <tile/>
   <tile/>
   <tile/>
   <tile/>
   <tile/>
   <tile/>
   <tile/>
   <tile/>
   <tile/>
   <tile/>
   <tile/>
   <tile/>
   <tile/>
   <tile/>
   <tile/>
   <tile/>
   <tile/>
   <tile/>
   <tile/>
   <tile/>
   <tile/>
   <tile/>
   <tile/>
   <tile/>
   <tile/>
   <tile/>
   <tile/>
   <tile/>
   <tile/>
   <tile/>
   <tile/>
   <tile/>
   <tile/>
   <tile/>
   <tile/>
   <tile/>
   <tile/>
   <tile/>
   <tile/>
   <tile/>
   <tile/>
   <tile/>
   <tile/>
   <tile/>
   <tile/>
   <tile/>
   <tile/>
   <tile/>
   <tile/>
   <tile/>
   <tile/>
   <tile/>
   <tile/>
   <tile/>
   <tile/>
   <tile/>
   <tile/>
   <tile/>
   <tile/>
   <tile/>
   <tile/>
   <tile/>
   <tile/>
   <tile/>
   <tile/>
   <tile/>
   <tile/>
   <tile/>
   <tile/>
   <tile/>
   <tile/>
   <tile/>
   <tile/>
   <tile/>
   <tile/>
   <tile/>
   <tile/>
   <tile/>
   <tile/>
   <tile/>
   <tile/>
   <tile/>
   <tile/>
   <tile/>
   <tile/>
   <tile/>
   <tile/>
   <tile/>
   <tile/>
   <tile/>
   <tile/>
   <tile/>
   <tile/>
   <tile/>
   <tile/>
   <tile/>
   <tile/>
   <tile/>
   <tile/>
   <tile/>
   <tile/>
   <tile/>
   <tile/>
   <tile/>
   <tile/>
   <tile/>
   <tile/>
   <tile/>
   <tile/>
   <tile/>
   <tile/>
   <tile/>
   <tile/>
   <tile/>
   <tile/>
   <tile/>
   <tile/>
   <tile/>
   <tile/>
   <tile/>
   <tile/>
   <tile/>
   <tile/>
   <tile/>
   <tile/>
   <tile/>
   <tile/>
   <tile/>
   <tile/>
   <tile/>
   <tile/>
   <tile/>
   <tile/>
   <tile/>
   <tile/>
   <tile/>
   <tile/>
   <tile/>
   <tile/>
   <tile/>
   <tile/>
   <tile/>
   <tile/>
   <tile/>
   <tile/>
   <tile/>
   <tile/>
   <tile/>
   <tile/>
   <tile/>
   <tile/>
   <tile/>
   <tile/>
   <tile/>
   <tile/>
   <tile/>
   <tile/>
   <tile/>
   <tile/>
   <tile/>
   <tile/>
   <tile/>
   <tile/>
   <tile/>
   <tile/>
   <tile/>
   <tile/>
   <tile/>
   <tile/>
   <tile/>
   <tile/>
   <tile/>
   <tile/>
   <tile/>
   <tile/>
   <tile/>
   <tile/>
   <tile/>
   <tile/>
   <tile/>
   <tile/>
   <tile/>
   <tile/>
   <tile/>
   <tile/>
   <tile/>
   <tile/>
   <tile/>
   <tile/>
   <tile/>
   <tile/>
   <tile/>
   <tile/>
   <tile/>
   <tile/>
   <tile/>
   <tile/>
   <tile/>
   <tile/>
   <tile/>
   <tile/>
   <tile/>
   <tile/>
   <tile/>
   <tile/>
   <tile/>
   <tile/>
   <tile/>
   <tile/>
   <tile/>
   <tile/>
   <tile/>
   <tile/>
   <tile/>
   <tile/>
   <tile/>
   <tile/>
   <tile/>
   <tile/>
   <tile/>
   <tile/>
   <tile/>
   <tile/>
   <tile/>
   <tile/>
   <tile/>
   <tile/>
   <tile/>
   <tile/>
   <tile/>
   <tile/>
   <tile/>
   <tile/>
   <tile/>
   <tile/>
   <tile/>
   <tile/>
   <tile/>
   <tile/>
   <tile/>
   <tile/>
   <tile/>
   <tile/>
   <tile/>
   <tile gid="3490"/>
   <tile/>
   <tile/>
   <tile/>
   <tile/>
   <tile/>
   <tile/>
   <tile/>
   <tile/>
   <tile/>
   <tile/>
   <tile/>
   <tile/>
   <tile/>
   <tile/>
   <tile/>
   <tile/>
   <tile/>
   <tile/>
   <tile/>
   <tile/>
   <tile/>
   <tile/>
   <tile/>
   <tile/>
   <tile/>
   <tile/>
   <tile/>
   <tile/>
   <tile/>
   <tile/>
   <tile/>
   <tile/>
   <tile/>
   <tile/>
   <tile/>
   <tile/>
   <tile/>
   <tile/>
   <tile/>
   <tile/>
   <tile/>
   <tile/>
   <tile/>
   <tile/>
   <tile/>
   <tile/>
   <tile/>
   <tile/>
   <tile/>
   <tile/>
   <tile/>
   <tile/>
   <tile/>
   <tile/>
   <tile/>
   <tile/>
   <tile/>
   <tile/>
   <tile/>
   <tile/>
   <tile/>
   <tile/>
   <tile/>
   <tile/>
   <tile/>
   <tile/>
   <tile/>
   <tile/>
   <tile/>
   <tile/>
   <tile/>
   <tile/>
   <tile/>
   <tile/>
   <tile/>
   <tile/>
   <tile/>
   <tile/>
   <tile/>
   <tile/>
   <tile/>
   <tile/>
   <tile/>
   <tile/>
   <tile/>
   <tile/>
   <tile/>
   <tile/>
   <tile/>
   <tile/>
   <tile/>
   <tile/>
   <tile/>
   <tile/>
   <tile/>
   <tile/>
   <tile/>
   <tile/>
   <tile/>
   <tile/>
   <tile/>
   <tile/>
   <tile/>
   <tile/>
   <tile/>
   <tile/>
   <tile/>
   <tile/>
   <tile/>
   <tile/>
   <tile/>
   <tile/>
   <tile/>
   <tile/>
   <tile/>
   <tile/>
   <tile/>
   <tile/>
   <tile/>
   <tile/>
   <tile/>
   <tile/>
   <tile/>
   <tile/>
   <tile/>
   <tile/>
   <tile/>
   <tile/>
   <tile/>
   <tile/>
   <tile/>
   <tile/>
   <tile/>
   <tile/>
   <tile/>
   <tile/>
   <tile/>
   <tile/>
   <tile/>
   <tile/>
   <tile/>
   <tile/>
   <tile/>
   <tile/>
   <tile/>
   <tile/>
   <tile/>
   <tile/>
   <tile/>
   <tile/>
   <tile/>
   <tile/>
   <tile/>
   <tile/>
   <tile/>
   <tile/>
   <tile/>
   <tile/>
   <tile/>
   <tile/>
   <tile/>
   <tile/>
   <tile/>
   <tile/>
   <tile/>
   <tile/>
   <tile/>
   <tile/>
   <tile/>
   <tile/>
   <tile/>
   <tile/>
   <tile/>
   <tile/>
   <tile/>
   <tile/>
   <tile/>
   <tile/>
   <tile/>
   <tile/>
   <tile/>
   <tile/>
   <tile/>
   <tile/>
   <tile/>
   <tile/>
   <tile/>
   <tile/>
   <tile/>
   <tile/>
   <tile/>
   <tile/>
   <tile/>
   <tile/>
   <tile/>
   <tile/>
   <tile/>
   <tile/>
   <tile/>
   <tile/>
   <tile/>
   <tile/>
   <tile/>
   <tile/>
   <tile/>
   <tile/>
   <tile/>
   <tile/>
   <tile/>
   <tile/>
   <tile/>
   <tile/>
   <tile/>
   <tile/>
   <tile/>
   <tile/>
   <tile/>
   <tile/>
   <tile/>
   <tile/>
   <tile/>
   <tile/>
   <tile/>
   <tile/>
   <tile/>
   <tile/>
   <tile/>
   <tile/>
   <tile/>
   <tile/>
   <tile/>
   <tile/>
   <tile/>
   <tile/>
   <tile/>
   <tile/>
   <tile/>
   <tile/>
   <tile/>
   <tile/>
   <tile/>
   <tile/>
   <tile/>
   <tile/>
   <tile/>
   <tile/>
   <tile/>
   <tile/>
   <tile/>
   <tile/>
   <tile/>
   <tile/>
   <tile/>
   <tile/>
   <tile/>
   <tile/>
   <tile/>
   <tile/>
   <tile/>
   <tile/>
   <tile/>
   <tile/>
   <tile/>
   <tile/>
   <tile/>
   <tile/>
   <tile/>
   <tile/>
   <tile/>
   <tile/>
   <tile/>
   <tile/>
   <tile/>
   <tile/>
   <tile/>
   <tile/>
   <tile/>
   <tile/>
   <tile/>
   <tile/>
   <tile/>
   <tile/>
   <tile/>
   <tile/>
   <tile/>
   <tile/>
   <tile/>
   <tile/>
   <tile/>
   <tile/>
   <tile/>
   <tile/>
   <tile/>
   <tile/>
   <tile/>
   <tile/>
   <tile/>
   <tile/>
   <tile/>
   <tile/>
   <tile/>
   <tile/>
   <tile/>
   <tile/>
   <tile/>
   <tile/>
   <tile/>
   <tile/>
   <tile/>
   <tile/>
   <tile/>
   <tile/>
   <tile/>
   <tile/>
   <tile/>
   <tile/>
   <tile/>
   <tile/>
   <tile/>
   <tile/>
   <tile/>
   <tile/>
   <tile/>
   <tile/>
   <tile/>
   <tile/>
   <tile/>
   <tile/>
   <tile/>
   <tile/>
   <tile/>
   <tile/>
   <tile/>
   <tile/>
   <tile/>
   <tile/>
   <tile/>
   <tile/>
   <tile/>
   <tile/>
   <tile/>
   <tile/>
   <tile/>
   <tile/>
   <tile/>
   <tile/>
   <tile/>
   <tile/>
   <tile/>
   <tile/>
   <tile/>
   <tile/>
   <tile/>
   <tile/>
   <tile/>
   <tile/>
   <tile/>
   <tile/>
   <tile/>
   <tile/>
   <tile/>
   <tile/>
   <tile/>
   <tile/>
   <tile/>
   <tile/>
   <tile/>
   <tile/>
   <tile/>
   <tile/>
   <tile/>
   <tile/>
   <tile/>
   <tile/>
   <tile/>
   <tile/>
   <tile/>
   <tile/>
   <tile/>
   <tile/>
   <tile/>
   <tile/>
   <tile/>
   <tile/>
   <tile/>
   <tile/>
   <tile/>
   <tile/>
   <tile/>
   <tile/>
   <tile/>
   <tile/>
   <tile/>
   <tile/>
   <tile/>
   <tile/>
   <tile/>
   <tile/>
   <tile/>
   <tile/>
   <tile/>
   <tile/>
   <tile/>
   <tile/>
   <tile/>
   <tile/>
   <tile/>
   <tile/>
   <tile/>
   <tile/>
   <tile/>
   <tile/>
   <tile/>
   <tile/>
   <tile/>
   <tile/>
   <tile/>
   <tile/>
   <tile/>
   <tile/>
   <tile/>
   <tile/>
   <tile/>
   <tile/>
   <tile/>
   <tile/>
   <tile/>
   <tile/>
   <tile/>
   <tile/>
   <tile/>
   <tile/>
   <tile/>
   <tile/>
   <tile/>
   <tile/>
   <tile/>
   <tile/>
   <tile/>
   <tile/>
   <tile/>
   <tile/>
   <tile/>
   <tile/>
   <tile/>
   <tile/>
   <tile/>
   <tile/>
   <tile/>
   <tile/>
   <tile gid="3488"/>
   <tile/>
   <tile/>
   <tile/>
   <tile/>
   <tile/>
   <tile/>
   <tile/>
   <tile/>
   <tile/>
   <tile/>
   <tile/>
   <tile/>
   <tile/>
   <tile/>
   <tile/>
   <tile/>
   <tile/>
   <tile/>
   <tile/>
   <tile/>
   <tile/>
   <tile/>
  </data>
 </layer>
 <layer id="1" name="Solid" width="30" height="51">
  <properties>
   <property name="Draw" type="bool" value="true"/>
  </properties>
  <data>
   <tile gid="366"/>
   <tile gid="366"/>
   <tile gid="366"/>
   <tile gid="366"/>
   <tile gid="366"/>
   <tile gid="366"/>
   <tile gid="366"/>
   <tile gid="366"/>
   <tile gid="366"/>
   <tile gid="366"/>
   <tile gid="366"/>
   <tile gid="367"/>
   <tile gid="317"/>
   <tile gid="317"/>
   <tile gid="317"/>
   <tile gid="317"/>
   <tile gid="318"/>
   <tile gid="318"/>
   <tile gid="365"/>
   <tile gid="366"/>
   <tile gid="366"/>
   <tile gid="366"/>
   <tile gid="366"/>
   <tile gid="366"/>
   <tile gid="366"/>
   <tile gid="366"/>
   <tile gid="366"/>
   <tile gid="366"/>
   <tile gid="366"/>
   <tile gid="366"/>
   <tile gid="366"/>
   <tile gid="366"/>
   <tile gid="366"/>
   <tile gid="366"/>
   <tile gid="366"/>
   <tile gid="366"/>
   <tile gid="366"/>
   <tile gid="366"/>
   <tile gid="366"/>
   <tile gid="366"/>
   <tile gid="366"/>
   <tile gid="367"/>
   <tile gid="724"/>
   <tile gid="317"/>
   <tile gid="317"/>
   <tile gid="317"/>
   <tile gid="318"/>
   <tile gid="318"/>
   <tile gid="365"/>
   <tile gid="366"/>
   <tile gid="366"/>
   <tile gid="366"/>
   <tile gid="366"/>
   <tile gid="366"/>
   <tile gid="366"/>
   <tile gid="366"/>
   <tile gid="366"/>
   <tile gid="366"/>
   <tile gid="366"/>
   <tile gid="366"/>
   <tile gid="366"/>
   <tile gid="366"/>
   <tile gid="366"/>
   <tile gid="366"/>
   <tile gid="366"/>
   <tile gid="366"/>
   <tile gid="366"/>
   <tile gid="366"/>
   <tile gid="366"/>
   <tile gid="366"/>
   <tile gid="382"/>
   <tile gid="383"/>
   <tile gid="724"/>
   <tile gid="317"/>
   <tile gid="317"/>
   <tile gid="317"/>
   <tile gid="318"/>
   <tile gid="318"/>
   <tile gid="381"/>
   <tile gid="382"/>
   <tile gid="366"/>
   <tile gid="366"/>
   <tile gid="366"/>
   <tile gid="366"/>
   <tile gid="366"/>
   <tile gid="366"/>
   <tile gid="366"/>
   <tile gid="366"/>
   <tile gid="366"/>
   <tile gid="366"/>
   <tile gid="366"/>
   <tile gid="366"/>
   <tile gid="366"/>
   <tile gid="366"/>
   <tile gid="366"/>
   <tile gid="366"/>
   <tile gid="366"/>
   <tile gid="366"/>
   <tile gid="366"/>
   <tile gid="383"/>
   <tile gid="318"/>
   <tile gid="318"/>
   <tile gid="318"/>
   <tile gid="317"/>
   <tile gid="317"/>
   <tile gid="724"/>
   <tile gid="318"/>
   <tile gid="318"/>
   <tile gid="318"/>
   <tile gid="318"/>
   <tile gid="381"/>
   <tile gid="366"/>
   <tile gid="366"/>
   <tile gid="366"/>
   <tile gid="366"/>
   <tile gid="366"/>
   <tile gid="366"/>
   <tile gid="366"/>
   <tile gid="366"/>
   <tile gid="366"/>
   <tile gid="366"/>
   <tile gid="366"/>
   <tile gid="366"/>
   <tile gid="366"/>
   <tile gid="366"/>
   <tile gid="366"/>
   <tile gid="366"/>
   <tile gid="366"/>
   <tile gid="367"/>
   <tile gid="318"/>
   <tile gid="318"/>
   <tile gid="318"/>
   <tile gid="318"/>
   <tile gid="724"/>
   <tile gid="317"/>
   <tile gid="724"/>
   <tile gid="318"/>
   <tile gid="318"/>
   <tile gid="318"/>
   <tile gid="318"/>
   <tile gid="318"/>
   <tile gid="365"/>
   <tile gid="366"/>
   <tile gid="366"/>
   <tile gid="366"/>
   <tile gid="366"/>
   <tile gid="366"/>
   <tile gid="366"/>
   <tile gid="366"/>
   <tile gid="366"/>
   <tile gid="366"/>
   <tile gid="366"/>
   <tile gid="366"/>
   <tile gid="366"/>
   <tile gid="366"/>
   <tile gid="366"/>
   <tile gid="366"/>
   <tile gid="366"/>
   <tile gid="367"/>
   <tile gid="318"/>
   <tile gid="318"/>
   <tile gid="318"/>
   <tile gid="724"/>
   <tile gid="724"/>
   <tile gid="724"/>
   <tile gid="724"/>
   <tile gid="318"/>
   <tile gid="318"/>
   <tile gid="318"/>
   <tile gid="318"/>
   <tile gid="318"/>
   <tile gid="365"/>
   <tile gid="366"/>
   <tile gid="366"/>
   <tile gid="366"/>
   <tile gid="366"/>
   <tile gid="366"/>
   <tile gid="366"/>
   <tile gid="366"/>
   <tile gid="366"/>
   <tile gid="366"/>
   <tile gid="366"/>
   <tile gid="366"/>
   <tile gid="366"/>
   <tile gid="366"/>
   <tile gid="366"/>
   <tile gid="366"/>
   <tile gid="366"/>
   <tile gid="367"/>
   <tile gid="318"/>
   <tile gid="318"/>
   <tile gid="318"/>
   <tile gid="724"/>
   <tile gid="724"/>
   <tile gid="724"/>
   <tile gid="724"/>
   <tile gid="318"/>
   <tile gid="318"/>
   <tile gid="318"/>
   <tile gid="318"/>
   <tile gid="318"/>
   <tile gid="365"/>
   <tile gid="366"/>
   <tile gid="366"/>
   <tile gid="366"/>
   <tile gid="366"/>
   <tile gid="366"/>
   <tile gid="366"/>
   <tile gid="366"/>
   <tile gid="366"/>
   <tile gid="366"/>
   <tile gid="366"/>
   <tile gid="366"/>
   <tile gid="366"/>
   <tile gid="366"/>
   <tile gid="366"/>
   <tile gid="366"/>
   <tile gid="366"/>
   <tile gid="366"/>
   <tile gid="351"/>
   <tile gid="318"/>
   <tile gid="318"/>
   <tile gid="724"/>
   <tile gid="724"/>
   <tile gid="724"/>
   <tile gid="724"/>
   <tile gid="318"/>
   <tile gid="318"/>
   <tile gid="318"/>
   <tile gid="318"/>
   <tile gid="349"/>
   <tile gid="366"/>
   <tile gid="366"/>
   <tile gid="366"/>
   <tile gid="366"/>
   <tile gid="366"/>
   <tile gid="366"/>
   <tile gid="366"/>
   <tile gid="366"/>
   <tile gid="366"/>
   <tile gid="366"/>
   <tile gid="366"/>
   <tile gid="366"/>
   <tile gid="366"/>
   <tile gid="366"/>
   <tile gid="366"/>
   <tile gid="366"/>
   <tile gid="366"/>
   <tile gid="366"/>
   <tile gid="367"/>
   <tile gid="318"/>
   <tile gid="318"/>
   <tile gid="724"/>
   <tile gid="724"/>
   <tile gid="724"/>
   <tile gid="724"/>
   <tile gid="318"/>
   <tile gid="318"/>
   <tile gid="318"/>
   <tile gid="318"/>
   <tile gid="365"/>
   <tile gid="366"/>
   <tile gid="366"/>
   <tile gid="366"/>
   <tile gid="366"/>
   <tile gid="366"/>
   <tile gid="366"/>
   <tile gid="366"/>
   <tile gid="366"/>
   <tile gid="366"/>
   <tile gid="366"/>
   <tile gid="366"/>
   <tile gid="366"/>
   <tile gid="366"/>
   <tile gid="366"/>
   <tile gid="366"/>
   <tile gid="366"/>
   <tile gid="366"/>
   <tile gid="366"/>
   <tile gid="366"/>
   <tile gid="351"/>
   <tile gid="318"/>
   <tile gid="724"/>
   <tile gid="724"/>
   <tile gid="724"/>
   <tile gid="724"/>
   <tile gid="318"/>
   <tile gid="318"/>
   <tile gid="318"/>
   <tile gid="349"/>
   <tile gid="366"/>
   <tile gid="366"/>
   <tile gid="366"/>
   <tile gid="366"/>
   <tile gid="366"/>
   <tile gid="366"/>
   <tile gid="366"/>
   <tile gid="366"/>
   <tile gid="366"/>
   <tile gid="366"/>
   <tile gid="366"/>
   <tile gid="366"/>
   <tile gid="366"/>
   <tile gid="366"/>
   <tile gid="366"/>
   <tile gid="366"/>
   <tile gid="366"/>
   <tile gid="366"/>
   <tile gid="366"/>
   <tile gid="366"/>
   <tile gid="366"/>
   <tile gid="351"/>
   <tile gid="724"/>
   <tile gid="724"/>
   <tile gid="724"/>
   <tile gid="724"/>
   <tile gid="318"/>
   <tile gid="318"/>
   <tile gid="349"/>
   <tile gid="366"/>
   <tile gid="366"/>
   <tile gid="366"/>
   <tile gid="366"/>
   <tile gid="366"/>
   <tile gid="366"/>
   <tile gid="366"/>
   <tile gid="366"/>
   <tile gid="366"/>
   <tile gid="366"/>
   <tile gid="366"/>
   <tile gid="366"/>
   <tile gid="366"/>
   <tile gid="366"/>
   <tile gid="366"/>
   <tile gid="366"/>
   <tile gid="366"/>
   <tile gid="366"/>
   <tile gid="366"/>
   <tile gid="366"/>
   <tile gid="366"/>
   <tile gid="366"/>
   <tile gid="383"/>
   <tile gid="724"/>
   <tile gid="724"/>
   <tile gid="724"/>
   <tile gid="724"/>
   <tile gid="318"/>
   <tile gid="318"/>
   <tile gid="381"/>
   <tile gid="366"/>
   <tile gid="366"/>
   <tile gid="366"/>
   <tile gid="366"/>
   <tile gid="366"/>
   <tile gid="366"/>
   <tile gid="366"/>
   <tile gid="366"/>
   <tile gid="366"/>
   <tile gid="366"/>
   <tile gid="366"/>
   <tile gid="366"/>
   <tile gid="366"/>
   <tile gid="366"/>
   <tile gid="366"/>
   <tile gid="366"/>
   <tile gid="366"/>
   <tile gid="366"/>
   <tile gid="366"/>
   <tile gid="382"/>
   <tile gid="382"/>
   <tile gid="383"/>
   <tile gid="318"/>
   <tile gid="724"/>
   <tile gid="724"/>
   <tile gid="724"/>
   <tile gid="724"/>
   <tile gid="318"/>
   <tile gid="318"/>
   <tile gid="318"/>
   <tile gid="381"/>
   <tile gid="382"/>
   <tile gid="382"/>
   <tile gid="366"/>
   <tile gid="366"/>
   <tile gid="366"/>
   <tile gid="366"/>
   <tile gid="366"/>
   <tile gid="366"/>
   <tile gid="366"/>
   <tile gid="366"/>
   <tile gid="366"/>
   <tile gid="366"/>
   <tile gid="366"/>
   <tile gid="366"/>
   <tile gid="366"/>
   <tile gid="366"/>
   <tile gid="366"/>
   <tile gid="383"/>
   <tile/>
   <tile/>
   <tile/>
   <tile/>
   <tile/>
   <tile/>
   <tile/>
   <tile/>
   <tile/>
   <tile/>
   <tile/>
   <tile/>
   <tile/>
   <tile/>
   <tile gid="381"/>
   <tile gid="366"/>
   <tile gid="366"/>
   <tile gid="366"/>
   <tile gid="366"/>
   <tile gid="366"/>
   <tile gid="366"/>
   <tile gid="366"/>
   <tile gid="366"/>
   <tile gid="366"/>
   <tile gid="366"/>
   <tile gid="366"/>
   <tile gid="366"/>
   <tile gid="366"/>
   <tile gid="367"/>
   <tile/>
   <tile/>
   <tile/>
   <tile/>
   <tile/>
   <tile/>
   <tile/>
   <tile/>
   <tile/>
   <tile/>
   <tile/>
   <tile/>
   <tile/>
   <tile/>
   <tile/>
   <tile gid="318"/>
   <tile gid="365"/>
   <tile gid="366"/>
   <tile gid="366"/>
   <tile gid="366"/>
   <tile gid="366"/>
   <tile gid="366"/>
   <tile gid="366"/>
   <tile gid="366"/>
   <tile gid="366"/>
   <tile gid="366"/>
   <tile gid="366"/>
   <tile gid="366"/>
   <tile gid="366"/>
   <tile gid="383"/>
   <tile/>
   <tile/>
   <tile/>
   <tile/>
   <tile/>
   <tile/>
   <tile/>
   <tile/>
   <tile/>
   <tile/>
   <tile/>
   <tile/>
   <tile/>
   <tile gid="318"/>
   <tile gid="318"/>
   <tile gid="318"/>
   <tile gid="381"/>
   <tile gid="366"/>
   <tile gid="366"/>
   <tile gid="366"/>
   <tile gid="366"/>
   <tile gid="366"/>
   <tile gid="366"/>
   <tile gid="366"/>
   <tile gid="366"/>
   <tile gid="366"/>
   <tile gid="366"/>
   <tile gid="366"/>
   <tile gid="367"/>
   <tile gid="318"/>
   <tile/>
   <tile/>
   <tile/>
   <tile/>
   <tile gid="318"/>
   <tile gid="318"/>
   <tile gid="318"/>
   <tile gid="318"/>
   <tile gid="318"/>
   <tile gid="318"/>
   <tile/>
   <tile/>
   <tile/>
   <tile/>
   <tile/>
   <tile gid="318"/>
   <tile gid="318"/>
   <tile gid="365"/>
   <tile gid="366"/>
   <tile gid="366"/>
   <tile gid="366"/>
   <tile gid="366"/>
   <tile gid="366"/>
   <tile gid="366"/>
   <tile gid="366"/>
   <tile gid="366"/>
   <tile gid="366"/>
   <tile gid="366"/>
   <tile gid="367"/>
   <tile/>
   <tile/>
   <tile/>
   <tile/>
   <tile/>
   <tile gid="318"/>
   <tile gid="349"/>
   <tile gid="350"/>
   <tile gid="350"/>
   <tile gid="350"/>
   <tile gid="350"/>
   <tile gid="351"/>
   <tile/>
   <tile/>
   <tile gid="318"/>
   <tile/>
   <tile/>
   <tile gid="318"/>
   <tile gid="365"/>
   <tile gid="366"/>
   <tile gid="366"/>
   <tile gid="366"/>
   <tile gid="366"/>
   <tile gid="366"/>
   <tile gid="366"/>
   <tile gid="366"/>
   <tile gid="366"/>
   <tile gid="366"/>
   <tile gid="366"/>
   <tile gid="383"/>
   <tile/>
   <tile/>
   <tile/>
   <tile/>
   <tile gid="318"/>
   <tile gid="349"/>
   <tile gid="366"/>
   <tile gid="366"/>
   <tile gid="366"/>
   <tile gid="366"/>
   <tile gid="366"/>
   <tile gid="366"/>
   <tile gid="351"/>
   <tile/>
   <tile gid="17"/>
   <tile/>
   <tile/>
   <tile gid="318"/>
   <tile gid="381"/>
   <tile gid="366"/>
   <tile gid="366"/>
   <tile gid="366"/>
   <tile gid="366"/>
   <tile gid="366"/>
   <tile gid="366"/>
   <tile gid="366"/>
   <tile gid="366"/>
   <tile gid="366"/>
   <tile gid="383"/>
   <tile/>
   <tile gid="318"/>
   <tile/>
   <tile/>
   <tile/>
   <tile gid="349"/>
   <tile gid="366"/>
   <tile gid="366"/>
   <tile gid="366"/>
   <tile gid="366"/>
   <tile gid="366"/>
   <tile gid="366"/>
   <tile gid="366"/>
   <tile gid="366"/>
   <tile gid="351"/>
   <tile/>
   <tile gid="318"/>
   <tile/>
   <tile/>
   <tile gid="318"/>
   <tile gid="381"/>
   <tile gid="366"/>
   <tile gid="366"/>
   <tile gid="366"/>
   <tile gid="366"/>
   <tile gid="366"/>
   <tile gid="366"/>
   <tile gid="366"/>
   <tile gid="367"/>
   <tile gid="318"/>
   <tile/>
   <tile gid="318"/>
   <tile/>
   <tile/>
   <tile/>
   <tile gid="365"/>
   <tile gid="366"/>
   <tile gid="366"/>
   <tile gid="366"/>
   <tile gid="366"/>
   <tile gid="366"/>
   <tile gid="366"/>
   <tile gid="366"/>
   <tile gid="366"/>
   <tile gid="367"/>
   <tile/>
   <tile/>
   <tile/>
   <tile/>
   <tile/>
   <tile gid="318"/>
   <tile gid="365"/>
   <tile gid="366"/>
   <tile gid="366"/>
   <tile gid="366"/>
   <tile gid="366"/>
   <tile gid="366"/>
   <tile gid="366"/>
   <tile gid="383"/>
   <tile gid="318"/>
   <tile/>
   <tile gid="318"/>
   <tile/>
   <tile/>
   <tile/>
   <tile gid="381"/>
   <tile gid="382"/>
   <tile gid="382"/>
   <tile gid="382"/>
   <tile gid="382"/>
   <tile gid="382"/>
   <tile gid="382"/>
   <tile gid="382"/>
   <tile gid="382"/>
   <tile gid="383"/>
   <tile/>
   <tile/>
   <tile/>
   <tile gid="318"/>
   <tile/>
   <tile gid="318"/>
   <tile gid="381"/>
   <tile gid="366"/>
   <tile gid="366"/>
   <tile gid="366"/>
   <tile gid="366"/>
   <tile gid="382"/>
   <tile gid="383"/>
   <tile gid="318"/>
   <tile/>
   <tile/>
   <tile gid="318"/>
   <tile/>
   <tile/>
   <tile/>
   <tile/>
   <tile/>
   <tile/>
   <tile gid="318"/>
   <tile gid="318"/>
   <tile/>
   <tile/>
   <tile/>
   <tile/>
   <tile/>
   <tile/>
   <tile/>
   <tile/>
   <tile gid="318"/>
   <tile/>
   <tile/>
   <tile gid="318"/>
   <tile gid="381"/>
   <tile gid="382"/>
   <tile gid="366"/>
   <tile gid="367"/>
   <tile gid="318"/>
   <tile gid="318"/>
   <tile/>
   <tile/>
   <tile/>
   <tile/>
   <tile gid="318"/>
   <tile/>
   <tile/>
   <tile/>
   <tile/>
   <tile/>
   <tile/>
   <tile/>
   <tile/>
   <tile/>
   <tile/>
   <tile/>
   <tile/>
   <tile/>
   <tile/>
   <tile/>
   <tile gid="17"/>
   <tile gid="318"/>
   <tile/>
   <tile gid="318"/>
   <tile gid="318"/>
   <tile gid="318"/>
   <tile gid="365"/>
   <tile gid="367"/>
   <tile gid="17"/>
   <tile/>
   <tile/>
   <tile/>
   <tile gid="17"/>
   <tile gid="318"/>
   <tile gid="318"/>
   <tile gid="318"/>
   <tile gid="318"/>
   <tile gid="318"/>
   <tile gid="33"/>
   <tile/>
   <tile/>
   <tile gid="318"/>
   <tile gid="318"/>
   <tile gid="318"/>
   <tile gid="318"/>
   <tile gid="318"/>
   <tile gid="318"/>
   <tile gid="318"/>
   <tile/>
   <tile/>
   <tile/>
   <tile/>
   <tile gid="318"/>
   <tile/>
   <tile gid="318"/>
   <tile gid="318"/>
   <tile gid="365"/>
   <tile gid="367"/>
   <tile gid="17"/>
   <tile/>
   <tile/>
   <tile/>
   <tile/>
   <tile gid="318"/>
   <tile gid="318"/>
   <tile gid="318"/>
   <tile gid="318"/>
   <tile gid="318"/>
   <tile gid="17"/>
   <tile/>
   <tile/>
   <tile gid="318"/>
   <tile gid="318"/>
   <tile gid="318"/>
   <tile gid="318"/>
   <tile gid="318"/>
   <tile gid="318"/>
   <tile gid="318"/>
   <tile gid="318"/>
   <tile/>
   <tile/>
   <tile/>
   <tile gid="318"/>
   <tile/>
   <tile gid="318"/>
   <tile gid="318"/>
   <tile gid="365"/>
   <tile gid="367"/>
   <tile/>
   <tile/>
   <tile/>
   <tile/>
   <tile gid="349"/>
   <tile gid="350"/>
   <tile gid="350"/>
   <tile gid="350"/>
   <tile gid="350"/>
   <tile gid="350"/>
   <tile gid="351"/>
   <tile/>
   <tile/>
   <tile/>
   <tile gid="318"/>
   <tile gid="318"/>
   <tile gid="318"/>
   <tile gid="349"/>
   <tile gid="350"/>
   <tile gid="350"/>
   <tile gid="350"/>
   <tile gid="350"/>
   <tile gid="350"/>
   <tile gid="351"/>
   <tile gid="318"/>
   <tile/>
   <tile/>
   <tile gid="318"/>
   <tile gid="365"/>
   <tile gid="367"/>
   <tile/>
   <tile/>
   <tile/>
   <tile/>
   <tile gid="365"/>
   <tile gid="366"/>
   <tile gid="366"/>
   <tile gid="366"/>
   <tile gid="366"/>
   <tile gid="366"/>
   <tile gid="367"/>
   <tile/>
   <tile/>
   <tile/>
   <tile/>
   <tile gid="318"/>
   <tile gid="318"/>
   <tile gid="365"/>
   <tile gid="366"/>
   <tile gid="366"/>
   <tile gid="366"/>
   <tile gid="366"/>
   <tile gid="366"/>
   <tile gid="367"/>
   <tile gid="318"/>
   <tile/>
   <tile/>
   <tile gid="318"/>
   <tile gid="365"/>
   <tile gid="367"/>
   <tile/>
   <tile/>
   <tile/>
   <tile/>
   <tile gid="381"/>
   <tile gid="366"/>
   <tile gid="366"/>
   <tile gid="366"/>
   <tile gid="366"/>
   <tile gid="366"/>
   <tile gid="383"/>
   <tile/>
   <tile/>
   <tile/>
   <tile/>
   <tile gid="318"/>
   <tile gid="318"/>
   <tile gid="381"/>
   <tile gid="366"/>
   <tile gid="366"/>
   <tile gid="366"/>
   <tile gid="366"/>
   <tile gid="366"/>
   <tile gid="383"/>
   <tile/>
   <tile/>
   <tile gid="318"/>
   <tile gid="318"/>
   <tile gid="365"/>
   <tile gid="367"/>
   <tile/>
   <tile/>
   <tile gid="33"/>
   <tile/>
   <tile gid="318"/>
   <tile gid="381"/>
   <tile gid="382"/>
   <tile gid="382"/>
   <tile gid="382"/>
   <tile gid="383"/>
   <tile/>
   <tile/>
   <tile/>
   <tile/>
   <tile/>
   <tile/>
   <tile gid="318"/>
   <tile gid="318"/>
   <tile gid="381"/>
   <tile gid="382"/>
   <tile gid="382"/>
   <tile gid="382"/>
   <tile gid="383"/>
   <tile/>
   <tile/>
   <tile gid="318"/>
   <tile gid="318"/>
   <tile gid="318"/>
   <tile gid="365"/>
   <tile gid="367"/>
   <tile/>
   <tile/>
   <tile gid="33"/>
   <tile gid="17"/>
   <tile gid="318"/>
   <tile gid="318"/>
   <tile gid="318"/>
   <tile gid="318"/>
   <tile/>
   <tile/>
   <tile/>
   <tile/>
   <tile/>
   <tile/>
   <tile/>
   <tile/>
   <tile/>
   <tile gid="318"/>
   <tile gid="318"/>
   <tile gid="318"/>
   <tile gid="17"/>
   <tile/>
   <tile/>
   <tile/>
   <tile gid="318"/>
   <tile gid="318"/>
   <tile gid="318"/>
   <tile gid="318"/>
   <tile gid="365"/>
   <tile gid="367"/>
   <tile gid="17"/>
   <tile/>
   <tile/>
   <tile/>
   <tile/>
   <tile gid="17"/>
   <tile gid="318"/>
   <tile gid="318"/>
   <tile gid="318"/>
   <tile gid="318"/>
   <tile gid="318"/>
   <tile gid="318"/>
   <tile gid="318"/>
   <tile gid="318"/>
   <tile gid="318"/>
   <tile gid="318"/>
   <tile/>
   <tile/>
   <tile/>
   <tile/>
   <tile/>
   <tile/>
   <tile/>
   <tile gid="17"/>
   <tile gid="318"/>
   <tile gid="318"/>
   <tile gid="318"/>
   <tile gid="318"/>
   <tile gid="365"/>
   <tile gid="367"/>
   <tile gid="318"/>
   <tile gid="318"/>
   <tile gid="318"/>
   <tile gid="318"/>
   <tile/>
   <tile/>
   <tile gid="318"/>
   <tile gid="318"/>
   <tile gid="318"/>
   <tile gid="318"/>
   <tile gid="318"/>
   <tile gid="318"/>
   <tile gid="318"/>
   <tile gid="318"/>
   <tile gid="318"/>
   <tile gid="318"/>
   <tile gid="318"/>
   <tile gid="318"/>
   <tile gid="318"/>
   <tile gid="318"/>
   <tile/>
   <tile/>
   <tile gid="318"/>
   <tile gid="318"/>
   <tile gid="318"/>
   <tile gid="318"/>
   <tile gid="318"/>
   <tile gid="318"/>
   <tile gid="365"/>
   <tile gid="367"/>
   <tile gid="318"/>
   <tile gid="318"/>
   <tile gid="318"/>
   <tile gid="318"/>
   <tile/>
   <tile/>
   <tile/>
   <tile/>
   <tile/>
   <tile/>
   <tile/>
   <tile/>
   <tile/>
   <tile/>
   <tile/>
   <tile/>
   <tile/>
   <tile/>
   <tile/>
   <tile/>
   <tile/>
   <tile gid="17"/>
   <tile gid="318"/>
   <tile gid="318"/>
   <tile gid="318"/>
   <tile gid="318"/>
   <tile gid="318"/>
   <tile gid="318"/>
   <tile gid="365"/>
   <tile gid="367"/>
   <tile gid="318"/>
   <tile gid="318"/>
   <tile gid="318"/>
   <tile gid="318"/>
   <tile gid="318"/>
   <tile/>
   <tile gid="349"/>
   <tile gid="350"/>
   <tile gid="350"/>
   <tile gid="350"/>
   <tile gid="350"/>
   <tile gid="350"/>
   <tile gid="350"/>
   <tile gid="350"/>
   <tile gid="350"/>
   <tile gid="350"/>
   <tile gid="350"/>
   <tile gid="350"/>
   <tile gid="350"/>
   <tile gid="350"/>
   <tile gid="351"/>
   <tile gid="318"/>
   <tile gid="318"/>
   <tile gid="318"/>
   <tile gid="318"/>
   <tile gid="318"/>
   <tile gid="318"/>
   <tile gid="318"/>
   <tile gid="365"/>
   <tile gid="367"/>
   <tile gid="318"/>
   <tile gid="318"/>
   <tile gid="318"/>
   <tile gid="318"/>
   <tile gid="318"/>
   <tile gid="318"/>
   <tile gid="381"/>
   <tile gid="382"/>
   <tile gid="382"/>
   <tile gid="382"/>
   <tile gid="382"/>
   <tile gid="382"/>
   <tile gid="382"/>
   <tile gid="382"/>
   <tile gid="382"/>
   <tile gid="382"/>
   <tile gid="382"/>
   <tile gid="382"/>
   <tile gid="382"/>
   <tile gid="382"/>
   <tile gid="383"/>
   <tile gid="318"/>
   <tile gid="318"/>
   <tile gid="318"/>
   <tile gid="318"/>
   <tile gid="318"/>
   <tile gid="318"/>
   <tile gid="318"/>
   <tile gid="365"/>
   <tile gid="366"/>
   <tile gid="350"/>
   <tile gid="351"/>
   <tile gid="318"/>
   <tile gid="318"/>
   <tile gid="318"/>
   <tile gid="318"/>
   <tile gid="318"/>
   <tile gid="318"/>
   <tile/>
   <tile/>
   <tile/>
   <tile/>
   <tile/>
   <tile/>
   <tile/>
   <tile gid="318"/>
   <tile gid="318"/>
   <tile gid="318"/>
   <tile gid="318"/>
   <tile gid="318"/>
   <tile gid="318"/>
   <tile gid="318"/>
   <tile gid="318"/>
   <tile gid="318"/>
   <tile gid="318"/>
   <tile gid="318"/>
   <tile gid="349"/>
   <tile gid="350"/>
   <tile gid="366"/>
   <tile gid="366"/>
   <tile gid="366"/>
   <tile gid="366"/>
   <tile gid="350"/>
   <tile gid="351"/>
   <tile gid="318"/>
   <tile gid="318"/>
   <tile gid="318"/>
   <tile gid="318"/>
   <tile gid="318"/>
   <tile gid="318"/>
   <tile gid="318"/>
   <tile/>
   <tile/>
   <tile/>
   <tile/>
   <tile/>
   <tile/>
   <tile gid="33"/>
   <tile gid="318"/>
   <tile gid="318"/>
   <tile gid="318"/>
   <tile gid="318"/>
   <tile gid="318"/>
   <tile gid="318"/>
   <tile gid="349"/>
   <tile gid="350"/>
   <tile gid="366"/>
   <tile gid="366"/>
   <tile gid="366"/>
   <tile gid="366"/>
   <tile gid="366"/>
   <tile gid="366"/>
   <tile gid="366"/>
   <tile gid="366"/>
   <tile gid="351"/>
   <tile gid="318"/>
   <tile gid="318"/>
   <tile gid="318"/>
   <tile/>
   <tile/>
   <tile/>
   <tile gid="318"/>
   <tile gid="318"/>
   <tile gid="318"/>
   <tile gid="318"/>
   <tile gid="318"/>
   <tile gid="318"/>
   <tile gid="318"/>
   <tile gid="318"/>
   <tile gid="318"/>
   <tile gid="318"/>
   <tile gid="318"/>
   <tile gid="318"/>
   <tile gid="349"/>
   <tile gid="366"/>
   <tile gid="366"/>
   <tile gid="366"/>
   <tile gid="366"/>
   <tile gid="366"/>
   <tile gid="366"/>
   <tile gid="366"/>
   <tile gid="366"/>
   <tile gid="366"/>
   <tile gid="366"/>
   <tile gid="367"/>
   <tile gid="318"/>
   <tile gid="318"/>
   <tile gid="318"/>
   <tile gid="318"/>
   <tile gid="318"/>
   <tile gid="318"/>
   <tile gid="318"/>
   <tile gid="318"/>
   <tile gid="318"/>
   <tile gid="318"/>
   <tile gid="318"/>
   <tile gid="318"/>
   <tile gid="318"/>
   <tile gid="318"/>
   <tile gid="318"/>
   <tile gid="318"/>
   <tile gid="318"/>
   <tile gid="318"/>
   <tile gid="365"/>
   <tile gid="366"/>
   <tile gid="366"/>
   <tile gid="366"/>
   <tile gid="366"/>
   <tile gid="366"/>
   <tile gid="366"/>
   <tile gid="366"/>
   <tile gid="366"/>
   <tile gid="366"/>
   <tile gid="366"/>
   <tile gid="366"/>
   <tile gid="351"/>
   <tile gid="318"/>
   <tile gid="318"/>
   <tile/>
   <tile/>
   <tile/>
   <tile/>
   <tile/>
   <tile/>
   <tile/>
   <tile/>
   <tile/>
   <tile gid="318"/>
   <tile gid="318"/>
   <tile gid="318"/>
   <tile gid="318"/>
   <tile gid="318"/>
   <tile gid="349"/>
   <tile gid="366"/>
   <tile gid="366"/>
   <tile gid="366"/>
   <tile gid="366"/>
   <tile gid="366"/>
   <tile gid="366"/>
   <tile gid="366"/>
   <tile gid="366"/>
   <tile gid="366"/>
   <tile gid="366"/>
   <tile gid="366"/>
   <tile gid="366"/>
   <tile gid="367"/>
   <tile gid="318"/>
   <tile gid="318"/>
   <tile/>
   <tile/>
   <tile/>
   <tile/>
   <tile/>
   <tile/>
   <tile/>
   <tile/>
   <tile gid="318"/>
   <tile gid="318"/>
   <tile gid="318"/>
   <tile gid="318"/>
   <tile gid="318"/>
   <tile gid="318"/>
   <tile gid="365"/>
   <tile gid="366"/>
   <tile gid="366"/>
   <tile gid="366"/>
   <tile gid="366"/>
   <tile gid="366"/>
   <tile gid="366"/>
   <tile gid="366"/>
   <tile gid="366"/>
   <tile gid="366"/>
   <tile gid="366"/>
   <tile gid="366"/>
   <tile gid="366"/>
   <tile gid="367"/>
   <tile gid="318"/>
   <tile gid="318"/>
   <tile/>
   <tile/>
   <tile/>
   <tile/>
   <tile/>
   <tile/>
   <tile/>
   <tile gid="318"/>
   <tile gid="318"/>
   <tile/>
   <tile gid="318"/>
   <tile gid="318"/>
   <tile gid="318"/>
   <tile gid="318"/>
   <tile gid="365"/>
   <tile gid="366"/>
   <tile gid="366"/>
   <tile gid="366"/>
   <tile gid="366"/>
   <tile gid="366"/>
   <tile gid="366"/>
   <tile gid="366"/>
   <tile gid="366"/>
   <tile gid="366"/>
   <tile gid="366"/>
   <tile gid="366"/>
   <tile gid="366"/>
   <tile gid="367"/>
   <tile gid="318"/>
   <tile gid="318"/>
   <tile/>
   <tile/>
   <tile/>
   <tile/>
   <tile/>
   <tile/>
   <tile gid="318"/>
   <tile gid="318"/>
   <tile/>
   <tile/>
   <tile gid="318"/>
   <tile gid="318"/>
   <tile gid="318"/>
   <tile gid="318"/>
   <tile gid="365"/>
   <tile gid="366"/>
   <tile gid="366"/>
   <tile gid="366"/>
   <tile gid="366"/>
   <tile gid="366"/>
   <tile gid="366"/>
   <tile gid="366"/>
   <tile gid="366"/>
   <tile gid="366"/>
   <tile gid="366"/>
   <tile gid="366"/>
   <tile gid="366"/>
   <tile gid="367"/>
   <tile gid="318"/>
   <tile gid="318"/>
   <tile/>
   <tile/>
   <tile/>
   <tile/>
   <tile/>
   <tile gid="318"/>
   <tile/>
   <tile/>
   <tile/>
   <tile/>
   <tile gid="318"/>
   <tile gid="318"/>
   <tile gid="318"/>
   <tile gid="318"/>
   <tile gid="365"/>
   <tile gid="366"/>
   <tile gid="366"/>
   <tile gid="366"/>
   <tile gid="366"/>
   <tile gid="366"/>
   <tile gid="366"/>
   <tile gid="366"/>
   <tile gid="366"/>
   <tile gid="366"/>
   <tile gid="366"/>
   <tile gid="366"/>
   <tile gid="366"/>
   <tile gid="367"/>
   <tile gid="318"/>
   <tile gid="318"/>
   <tile/>
   <tile/>
   <tile/>
   <tile/>
   <tile gid="318"/>
   <tile/>
   <tile/>
   <tile/>
   <tile/>
   <tile/>
   <tile gid="318"/>
   <tile gid="318"/>
   <tile gid="318"/>
   <tile gid="318"/>
   <tile gid="365"/>
   <tile gid="366"/>
   <tile gid="366"/>
   <tile gid="366"/>
   <tile gid="366"/>
   <tile gid="366"/>
   <tile gid="366"/>
   <tile gid="366"/>
   <tile gid="366"/>
   <tile gid="366"/>
   <tile gid="366"/>
   <tile gid="366"/>
   <tile gid="366"/>
   <tile gid="367"/>
   <tile gid="318"/>
   <tile gid="318"/>
   <tile/>
   <tile/>
   <tile/>
   <tile gid="318"/>
   <tile gid="318"/>
   <tile/>
   <tile/>
   <tile/>
   <tile/>
   <tile/>
   <tile gid="318"/>
   <tile gid="318"/>
   <tile gid="318"/>
   <tile gid="318"/>
   <tile gid="365"/>
   <tile gid="366"/>
   <tile gid="366"/>
   <tile gid="366"/>
   <tile gid="366"/>
   <tile gid="366"/>
   <tile gid="366"/>
   <tile gid="366"/>
   <tile gid="366"/>
   <tile gid="366"/>
   <tile gid="366"/>
   <tile gid="366"/>
   <tile gid="366"/>
   <tile gid="367"/>
   <tile gid="318"/>
   <tile gid="318"/>
   <tile/>
   <tile/>
   <tile gid="318"/>
   <tile/>
   <tile/>
   <tile/>
   <tile/>
   <tile/>
   <tile/>
   <tile/>
   <tile gid="318"/>
   <tile gid="318"/>
   <tile gid="318"/>
   <tile gid="318"/>
   <tile gid="365"/>
   <tile gid="366"/>
   <tile gid="366"/>
   <tile gid="366"/>
   <tile gid="366"/>
   <tile gid="366"/>
   <tile gid="366"/>
   <tile gid="366"/>
   <tile gid="366"/>
   <tile gid="366"/>
   <tile gid="366"/>
   <tile gid="366"/>
   <tile gid="366"/>
   <tile gid="367"/>
   <tile gid="318"/>
   <tile gid="318"/>
   <tile/>
   <tile gid="318"/>
   <tile gid="318"/>
   <tile/>
   <tile/>
   <tile/>
   <tile/>
   <tile/>
   <tile/>
   <tile/>
   <tile gid="318"/>
   <tile gid="318"/>
   <tile gid="318"/>
   <tile gid="318"/>
   <tile gid="365"/>
   <tile gid="366"/>
   <tile gid="366"/>
   <tile gid="366"/>
   <tile gid="366"/>
   <tile gid="366"/>
   <tile gid="366"/>
   <tile gid="366"/>
   <tile gid="366"/>
   <tile gid="366"/>
   <tile gid="366"/>
   <tile gid="366"/>
   <tile gid="366"/>
   <tile gid="367"/>
   <tile gid="318"/>
   <tile gid="318"/>
   <tile gid="318"/>
   <tile/>
   <tile/>
   <tile/>
   <tile/>
   <tile/>
   <tile/>
   <tile/>
   <tile/>
   <tile/>
   <tile gid="318"/>
   <tile gid="318"/>
   <tile gid="318"/>
   <tile gid="318"/>
   <tile gid="365"/>
   <tile gid="366"/>
   <tile gid="366"/>
   <tile gid="366"/>
   <tile gid="366"/>
   <tile gid="366"/>
   <tile gid="366"/>
   <tile gid="366"/>
   <tile gid="366"/>
   <tile gid="366"/>
   <tile gid="366"/>
   <tile gid="366"/>
   <tile gid="366"/>
   <tile gid="367"/>
   <tile gid="318"/>
   <tile gid="318"/>
   <tile/>
   <tile/>
   <tile/>
   <tile/>
   <tile/>
   <tile/>
   <tile/>
   <tile/>
   <tile/>
   <tile/>
   <tile gid="318"/>
   <tile gid="318"/>
   <tile gid="318"/>
   <tile gid="318"/>
   <tile gid="365"/>
   <tile gid="366"/>
   <tile gid="366"/>
   <tile gid="366"/>
   <tile gid="366"/>
   <tile gid="366"/>
   <tile gid="366"/>
  </data>
 </layer>
 <layer id="2" name="Map" width="30" height="51">
  <properties>
   <property name="Draw" type="bool" value="true"/>
  </properties>
  <data>
   <tile/>
   <tile/>
   <tile/>
   <tile/>
   <tile/>
   <tile/>
   <tile/>
   <tile gid="33"/>
   <tile/>
   <tile gid="724"/>
   <tile gid="724"/>
   <tile/>
   <tile/>
   <tile/>
   <tile/>
   <tile/>
   <tile/>
   <tile/>
   <tile gid="33"/>
   <tile/>
   <tile/>
   <tile/>
   <tile/>
   <tile/>
   <tile/>
   <tile/>
   <tile gid="275"/>
   <tile gid="275"/>
   <tile gid="275"/>
   <tile gid="275"/>
   <tile/>
   <tile/>
   <tile/>
   <tile/>
   <tile/>
   <tile/>
   <tile/>
   <tile gid="724"/>
   <tile gid="724"/>
   <tile gid="724"/>
   <tile gid="724"/>
   <tile gid="724"/>
   <tile gid="724"/>
   <tile/>
   <tile/>
   <tile/>
   <tile/>
   <tile/>
   <tile gid="724"/>
   <tile gid="724"/>
   <tile/>
   <tile/>
   <tile/>
   <tile/>
   <tile/>
   <tile/>
   <tile gid="275"/>
   <tile gid="275"/>
   <tile gid="275"/>
   <tile gid="275"/>
   <tile/>
   <tile/>
   <tile/>
   <tile/>
   <tile/>
   <tile/>
   <tile/>
   <tile gid="724"/>
   <tile gid="724"/>
   <tile gid="724"/>
   <tile gid="724"/>
   <tile gid="724"/>
   <tile gid="724"/>
   <tile/>
   <tile/>
   <tile/>
   <tile/>
   <tile gid="724"/>
   <tile gid="724"/>
   <tile gid="724"/>
   <tile/>
   <tile/>
   <tile/>
   <tile/>
   <tile/>
   <tile/>
   <tile gid="275"/>
   <tile gid="275"/>
   <tile gid="275"/>
   <tile gid="275"/>
   <tile/>
   <tile/>
   <tile/>
   <tile/>
   <tile/>
   <tile/>
   <tile/>
   <tile gid="33"/>
   <tile gid="724"/>
   <tile/>
   <tile gid="724"/>
   <tile/>
   <tile gid="724"/>
   <tile gid="724"/>
   <tile/>
   <tile/>
   <tile gid="724"/>
   <tile gid="724"/>
   <tile gid="724"/>
   <tile/>
   <tile/>
   <tile/>
   <tile/>
   <tile/>
   <tile/>
   <tile/>
   <tile gid="275"/>
   <tile gid="275"/>
   <tile gid="275"/>
   <tile gid="275"/>
   <tile/>
   <tile/>
   <tile/>
   <tile/>
   <tile/>
   <tile/>
   <tile/>
   <tile/>
   <tile gid="724"/>
   <tile gid="724"/>
   <tile gid="724"/>
   <tile gid="724"/>
   <tile/>
   <tile gid="724"/>
   <tile/>
   <tile gid="724"/>
   <tile gid="724"/>
   <tile gid="724"/>
   <tile gid="724"/>
   <tile/>
   <tile/>
   <tile/>
   <tile/>
   <tile/>
   <tile/>
   <tile/>
   <tile gid="275"/>
   <tile gid="275"/>
   <tile gid="275"/>
   <tile gid="275"/>
   <tile/>
   <tile/>
   <tile/>
   <tile/>
   <tile/>
   <tile/>
   <tile/>
   <tile/>
   <tile gid="724"/>
   <tile gid="724"/>
   <tile gid="724"/>
   <tile gid="724"/>
   <tile/>
   <tile gid="724"/>
   <tile/>
   <tile gid="724"/>
   <tile gid="724"/>
   <tile gid="724"/>
   <tile/>
   <tile/>
   <tile/>
   <tile/>
   <tile/>
   <tile/>
   <tile/>
   <tile/>
   <tile gid="275"/>
   <tile gid="275"/>
   <tile gid="275"/>
   <tile gid="275"/>
   <tile/>
   <tile/>
   <tile/>
   <tile/>
   <tile/>
   <tile/>
   <tile/>
   <tile/>
   <tile gid="724"/>
   <tile gid="335"/>
   <tile gid="724"/>
   <tile gid="724"/>
   <tile gid="724"/>
   <tile gid="724"/>
   <tile/>
   <tile gid="724"/>
   <tile gid="724"/>
   <tile gid="33"/>
   <tile/>
   <tile/>
   <tile gid="333"/>
   <tile/>
   <tile/>
   <tile/>
   <tile/>
   <tile/>
   <tile gid="275"/>
   <tile gid="275"/>
   <tile/>
   <tile gid="275"/>
   <tile/>
   <tile/>
   <tile/>
   <tile/>
   <tile/>
   <tile/>
   <tile/>
   <tile/>
   <tile gid="724"/>
   <tile gid="724"/>
   <tile gid="724"/>
   <tile gid="724"/>
   <tile gid="724"/>
   <tile/>
   <tile/>
   <tile gid="724"/>
   <tile gid="724"/>
   <tile/>
   <tile/>
   <tile/>
   <tile/>
   <tile/>
   <tile/>
   <tile/>
   <tile/>
   <tile/>
   <tile gid="275"/>
   <tile/>
   <tile/>
   <tile/>
   <tile/>
   <tile/>
   <tile/>
   <tile/>
   <tile/>
   <tile/>
   <tile/>
   <tile/>
   <tile gid="724"/>
   <tile gid="724"/>
   <tile gid="335"/>
   <tile gid="724"/>
   <tile gid="724"/>
   <tile/>
   <tile/>
   <tile gid="724"/>
   <tile gid="724"/>
   <tile/>
   <tile/>
   <tile gid="333"/>
   <tile/>
   <tile/>
   <tile/>
   <tile/>
   <tile/>
   <tile/>
   <tile/>
   <tile/>
   <tile/>
   <tile/>
   <tile/>
   <tile/>
   <tile/>
   <tile/>
   <tile/>
   <tile/>
   <tile/>
   <tile/>
   <tile/>
   <tile gid="33"/>
   <tile gid="724"/>
   <tile gid="335"/>
   <tile/>
   <tile gid="724"/>
   <tile/>
   <tile gid="724"/>
   <tile gid="724"/>
   <tile/>
   <tile gid="333"/>
   <tile/>
   <tile/>
   <tile/>
   <tile/>
   <tile/>
   <tile/>
   <tile/>
   <tile/>
   <tile/>
   <tile/>
   <tile/>
   <tile/>
   <tile/>
   <tile/>
   <tile/>
   <tile/>
   <tile/>
   <tile/>
   <tile/>
   <tile/>
   <tile gid="724"/>
   <tile gid="724"/>
   <tile gid="724"/>
   <tile/>
   <tile gid="724"/>
   <tile/>
   <tile gid="724"/>
   <tile/>
   <tile/>
   <tile/>
   <tile/>
   <tile/>
   <tile/>
   <tile/>
   <tile/>
   <tile/>
   <tile/>
   <tile/>
   <tile/>
   <tile/>
   <tile/>
   <tile/>
   <tile/>
   <tile/>
   <tile/>
   <tile/>
   <tile/>
   <tile/>
   <tile/>
   <tile/>
   <tile/>
   <tile gid="724"/>
   <tile/>
   <tile/>
   <tile gid="724"/>
   <tile/>
   <tile gid="724"/>
   <tile/>
   <tile/>
   <tile/>
   <tile/>
   <tile/>
   <tile/>
   <tile/>
   <tile/>
   <tile/>
   <tile/>
   <tile/>
   <tile/>
   <tile/>
   <tile/>
   <tile/>
   <tile/>
   <tile/>
   <tile/>
   <tile/>
   <tile/>
   <tile/>
   <tile gid="33"/>
   <tile gid="33"/>
   <tile gid="33"/>
   <tile gid="33"/>
   <tile/>
   <tile/>
   <tile gid="724"/>
   <tile/>
   <tile gid="724"/>
   <tile gid="33"/>
   <tile gid="33"/>
   <tile/>
   <tile/>
   <tile/>
   <tile/>
   <tile/>
   <tile/>
   <tile/>
   <tile/>
   <tile/>
   <tile/>
   <tile/>
   <tile/>
   <tile/>
   <tile/>
   <tile/>
   <tile/>
   <tile/>
   <tile/>
   <tile gid="33"/>
   <tile gid="33"/>
   <tile/>
   <tile/>
   <tile/>
   <tile/>
   <tile/>
   <tile/>
   <tile/>
   <tile/>
   <tile/>
   <tile gid="33"/>
   <tile gid="33"/>
   <tile/>
   <tile/>
   <tile/>
   <tile/>
   <tile/>
   <tile/>
   <tile/>
   <tile/>
   <tile/>
   <tile/>
   <tile/>
   <tile/>
   <tile/>
   <tile/>
   <tile/>
   <tile/>
   <tile/>
   <tile gid="33"/>
   <tile gid="33"/>
   <tile/>
   <tile/>
   <tile/>
   <tile/>
   <tile/>
   <tile gid="724"/>
   <tile/>
   <tile/>
   <tile/>
   <tile/>
   <tile gid="33"/>
   <tile gid="33"/>
   <tile/>
   <tile/>
   <tile/>
   <tile/>
   <tile/>
   <tile/>
   <tile/>
   <tile/>
   <tile/>
   <tile/>
   <tile/>
   <tile/>
   <tile/>
   <tile/>
   <tile/>
   <tile gid="33"/>
   <tile gid="33"/>
   <tile/>
   <tile/>
   <tile/>
   <tile/>
   <tile gid="724"/>
   <tile gid="724"/>
   <tile/>
   <tile/>
   <tile/>
   <tile/>
   <tile/>
   <tile/>
   <tile gid="33"/>
   <tile gid="33"/>
   <tile/>
   <tile/>
   <tile/>
   <tile/>
   <tile/>
   <tile/>
   <tile/>
   <tile/>
   <tile/>
   <tile/>
   <tile/>
   <tile/>
   <tile/>
   <tile gid="33"/>
   <tile gid="33"/>
   <tile gid="33"/>
   <tile/>
   <tile/>
   <tile/>
   <tile gid="724"/>
   <tile gid="724"/>
   <tile gid="333"/>
   <tile gid="334"/>
   <tile gid="334"/>
   <tile gid="334"/>
   <tile gid="334"/>
   <tile gid="335"/>
   <tile/>
   <tile/>
   <tile gid="33"/>
   <tile/>
   <tile/>
   <tile/>
   <tile/>
   <tile/>
   <tile/>
   <tile/>
   <tile/>
   <tile/>
   <tile/>
   <tile/>
   <tile/>
   <tile/>
   <tile gid="33"/>
   <tile gid="33"/>
   <tile/>
   <tile/>
   <tile/>
   <tile gid="724"/>
   <tile gid="724"/>
   <tile gid="333"/>
   <tile gid="724"/>
   <tile gid="724"/>
   <tile gid="724"/>
   <tile gid="724"/>
   <tile gid="724"/>
   <tile gid="724"/>
   <tile gid="335"/>
   <tile gid="724"/>
   <tile gid="33"/>
   <tile/>
   <tile/>
   <tile/>
   <tile/>
   <tile/>
   <tile/>
   <tile/>
   <tile/>
   <tile/>
   <tile/>
   <tile/>
   <tile/>
   <tile gid="33"/>
   <tile gid="33"/>
   <tile/>
   <tile/>
   <tile/>
   <tile/>
   <tile gid="17"/>
   <tile gid="333"/>
   <tile gid="33"/>
   <tile gid="33"/>
   <tile gid="724"/>
   <tile gid="724"/>
   <tile gid="724"/>
   <tile gid="724"/>
   <tile gid="724"/>
   <tile gid="724"/>
   <tile gid="335"/>
   <tile gid="33"/>
   <tile gid="33"/>
   <tile/>
   <tile/>
   <tile/>
   <tile/>
   <tile/>
   <tile/>
   <tile/>
   <tile/>
   <tile/>
   <tile/>
   <tile/>
   <tile gid="33"/>
   <tile/>
   <tile/>
   <tile/>
   <tile/>
   <tile/>
   <tile gid="33"/>
   <tile gid="724"/>
   <tile gid="724"/>
   <tile gid="724"/>
   <tile gid="724"/>
   <tile gid="33"/>
   <tile/>
   <tile/>
   <tile/>
   <tile/>
   <tile/>
   <tile/>
   <tile gid="33"/>
   <tile gid="33"/>
   <tile/>
   <tile/>
   <tile/>
   <tile/>
   <tile/>
   <tile/>
   <tile/>
   <tile/>
   <tile/>
   <tile gid="33"/>
   <tile gid="33"/>
   <tile/>
   <tile/>
   <tile/>
   <tile/>
   <tile/>
   <tile gid="724"/>
   <tile/>
   <tile/>
   <tile/>
   <tile/>
   <tile/>
   <tile/>
   <tile/>
   <tile/>
   <tile/>
   <tile/>
   <tile/>
   <tile/>
   <tile gid="33"/>
   <tile gid="33"/>
   <tile/>
   <tile/>
   <tile/>
   <tile/>
   <tile/>
   <tile/>
   <tile/>
   <tile/>
   <tile gid="33"/>
   <tile gid="33"/>
   <tile/>
   <tile/>
   <tile gid="724"/>
   <tile gid="724"/>
   <tile/>
   <tile/>
   <tile/>
   <tile/>
   <tile/>
   <tile/>
   <tile/>
   <tile/>
   <tile/>
   <tile/>
   <tile/>
   <tile/>
   <tile/>
   <tile/>
   <tile/>
   <tile gid="33"/>
   <tile gid="33"/>
   <tile/>
   <tile/>
   <tile/>
   <tile/>
   <tile/>
   <tile/>
   <tile/>
   <tile gid="33"/>
   <tile/>
   <tile gid="724"/>
   <tile gid="724"/>
   <tile/>
   <tile/>
   <tile/>
   <tile/>
   <tile/>
   <tile/>
   <tile/>
   <tile gid="724"/>
   <tile gid="724"/>
   <tile gid="724"/>
   <tile gid="724"/>
   <tile gid="724"/>
   <tile gid="724"/>
   <tile gid="724"/>
   <tile gid="724"/>
   <tile gid="724"/>
   <tile/>
   <tile gid="33"/>
   <tile gid="33"/>
   <tile/>
   <tile/>
   <tile/>
   <tile/>
   <tile/>
   <tile gid="724"/>
   <tile gid="724"/>
   <tile gid="724"/>
   <tile gid="724"/>
   <tile gid="724"/>
   <tile gid="724"/>
   <tile gid="724"/>
   <tile gid="724"/>
   <tile gid="724"/>
   <tile gid="724"/>
   <tile/>
   <tile/>
   <tile/>
   <tile gid="724"/>
   <tile gid="724"/>
   <tile gid="724"/>
   <tile gid="724"/>
   <tile/>
   <tile/>
   <tile/>
   <tile/>
   <tile/>
   <tile/>
   <tile gid="724"/>
   <tile gid="33"/>
   <tile/>
   <tile/>
   <tile/>
   <tile/>
   <tile/>
   <tile gid="33"/>
   <tile/>
   <tile/>
   <tile/>
   <tile/>
   <tile gid="33"/>
   <tile gid="33"/>
   <tile gid="33"/>
   <tile gid="33"/>
   <tile gid="33"/>
   <tile gid="33"/>
   <tile gid="33"/>
   <tile/>
   <tile/>
   <tile/>
   <tile gid="724"/>
   <tile gid="724"/>
   <tile/>
   <tile gid="724"/>
   <tile gid="724"/>
   <tile gid="33"/>
   <tile/>
   <tile/>
   <tile/>
   <tile/>
   <tile/>
   <tile/>
   <tile/>
   <tile/>
   <tile/>
   <tile gid="33"/>
   <tile/>
   <tile/>
   <tile/>
   <tile/>
   <tile gid="333"/>
   <tile gid="334"/>
   <tile gid="334"/>
   <tile gid="334"/>
   <tile gid="334"/>
   <tile gid="334"/>
   <tile gid="335"/>
   <tile/>
   <tile/>
   <tile gid="33"/>
   <tile gid="33"/>
   <tile gid="33"/>
   <tile gid="33"/>
   <tile gid="333"/>
   <tile gid="334"/>
   <tile gid="334"/>
   <tile gid="334"/>
   <tile gid="334"/>
   <tile gid="334"/>
   <tile gid="335"/>
   <tile/>
   <tile/>
   <tile/>
   <tile/>
   <tile/>
   <tile gid="33"/>
   <tile/>
   <tile/>
   <tile/>
   <tile/>
   <tile/>
   <tile/>
   <tile/>
   <tile/>
   <tile/>
   <tile/>
   <tile/>
   <tile/>
   <tile/>
   <tile/>
   <tile/>
   <tile gid="33"/>
   <tile gid="33"/>
   <tile gid="33"/>
   <tile gid="33"/>
   <tile/>
   <tile/>
   <tile/>
   <tile/>
   <tile/>
   <tile gid="724"/>
   <tile/>
   <tile gid="724"/>
   <tile/>
   <tile/>
   <tile gid="33"/>
   <tile/>
   <tile/>
   <tile/>
   <tile/>
   <tile/>
   <tile/>
   <tile/>
   <tile/>
   <tile/>
   <tile/>
   <tile/>
   <tile/>
   <tile/>
   <tile/>
   <tile/>
   <tile/>
   <tile/>
   <tile/>
   <tile gid="724"/>
   <tile gid="724"/>
   <tile gid="724"/>
   <tile gid="724"/>
   <tile gid="724"/>
   <tile gid="724"/>
   <tile gid="724"/>
   <tile/>
   <tile gid="724"/>
   <tile gid="724"/>
   <tile/>
   <tile gid="724"/>
   <tile gid="724"/>
   <tile gid="724"/>
   <tile gid="724"/>
   <tile gid="724"/>
   <tile gid="724"/>
   <tile gid="724"/>
   <tile gid="724"/>
   <tile gid="724"/>
   <tile gid="724"/>
   <tile gid="724"/>
   <tile gid="724"/>
   <tile gid="724"/>
   <tile gid="724"/>
   <tile/>
   <tile gid="724"/>
   <tile gid="724"/>
   <tile gid="724"/>
   <tile gid="724"/>
   <tile gid="724"/>
   <tile gid="724"/>
   <tile/>
   <tile/>
   <tile/>
   <tile/>
   <tile gid="33"/>
   <tile/>
   <tile/>
   <tile/>
   <tile/>
   <tile gid="724"/>
   <tile gid="724"/>
   <tile gid="724"/>
   <tile gid="724"/>
   <tile gid="724"/>
   <tile gid="724"/>
   <tile gid="724"/>
   <tile gid="724"/>
   <tile gid="724"/>
   <tile gid="724"/>
   <tile gid="724"/>
   <tile gid="724"/>
   <tile gid="724"/>
   <tile gid="724"/>
   <tile/>
   <tile gid="724"/>
   <tile gid="724"/>
   <tile gid="724"/>
   <tile gid="724"/>
   <tile gid="724"/>
   <tile gid="724"/>
   <tile gid="724"/>
   <tile gid="724"/>
   <tile/>
   <tile/>
   <tile gid="33"/>
   <tile/>
   <tile gid="724"/>
   <tile/>
   <tile/>
   <tile gid="33"/>
   <tile/>
   <tile/>
   <tile/>
   <tile/>
   <tile gid="17"/>
   <tile gid="724"/>
   <tile gid="724"/>
   <tile gid="724"/>
   <tile gid="724"/>
   <tile gid="724"/>
   <tile gid="724"/>
   <tile gid="724"/>
   <tile gid="724"/>
   <tile/>
   <tile/>
   <tile gid="724"/>
   <tile gid="724"/>
   <tile gid="724"/>
   <tile gid="724"/>
   <tile gid="724"/>
   <tile gid="724"/>
   <tile/>
   <tile/>
   <tile/>
   <tile gid="724"/>
   <tile/>
   <tile/>
   <tile/>
   <tile/>
   <tile gid="724"/>
   <tile gid="724"/>
   <tile gid="724"/>
   <tile gid="724"/>
   <tile gid="724"/>
   <tile gid="724"/>
   <tile gid="724"/>
   <tile gid="724"/>
   <tile gid="724"/>
   <tile gid="724"/>
   <tile gid="724"/>
   <tile gid="724"/>
   <tile gid="724"/>
   <tile gid="724"/>
   <tile gid="724"/>
   <tile/>
   <tile/>
   <tile/>
   <tile gid="724"/>
   <tile gid="17"/>
   <tile/>
   <tile/>
   <tile/>
   <tile gid="724"/>
   <tile/>
   <tile/>
   <tile/>
   <tile/>
   <tile/>
   <tile/>
   <tile/>
   <tile gid="33"/>
   <tile gid="724"/>
   <tile gid="724"/>
   <tile gid="724"/>
   <tile gid="724"/>
   <tile gid="724"/>
   <tile gid="724"/>
   <tile gid="724"/>
   <tile gid="724"/>
   <tile gid="17"/>
   <tile gid="17"/>
   <tile gid="17"/>
   <tile gid="17"/>
   <tile gid="17"/>
   <tile gid="17"/>
   <tile gid="17"/>
   <tile/>
   <tile/>
   <tile/>
   <tile/>
   <tile/>
   <tile/>
   <tile/>
   <tile/>
   <tile/>
   <tile/>
   <tile/>
   <tile/>
   <tile/>
   <tile gid="724"/>
   <tile gid="724"/>
   <tile gid="724"/>
   <tile gid="724"/>
   <tile gid="724"/>
   <tile gid="724"/>
   <tile gid="724"/>
   <tile gid="333"/>
   <tile gid="334"/>
   <tile gid="334"/>
   <tile gid="334"/>
   <tile gid="334"/>
   <tile gid="334"/>
   <tile gid="334"/>
   <tile gid="334"/>
   <tile gid="334"/>
   <tile gid="334"/>
   <tile gid="334"/>
   <tile gid="334"/>
   <tile gid="334"/>
   <tile gid="334"/>
   <tile gid="335"/>
   <tile gid="724"/>
   <tile gid="33"/>
   <tile gid="724"/>
   <tile/>
   <tile/>
   <tile/>
   <tile/>
   <tile/>
   <tile/>
   <tile/>
   <tile gid="724"/>
   <tile gid="724"/>
   <tile gid="724"/>
   <tile gid="724"/>
   <tile gid="724"/>
   <tile gid="724"/>
   <tile gid="724"/>
   <tile/>
   <tile/>
   <tile/>
   <tile/>
   <tile/>
   <tile/>
   <tile/>
   <tile/>
   <tile/>
   <tile/>
   <tile/>
   <tile gid="724"/>
   <tile gid="724"/>
   <tile gid="724"/>
   <tile gid="724"/>
   <tile gid="724"/>
   <tile gid="724"/>
   <tile gid="724"/>
   <tile gid="724"/>
   <tile gid="724"/>
   <tile gid="724"/>
   <tile/>
   <tile gid="334"/>
   <tile gid="335"/>
   <tile gid="724"/>
   <tile gid="724"/>
   <tile gid="724"/>
   <tile gid="724"/>
   <tile gid="724"/>
   <tile gid="724"/>
   <tile gid="724"/>
   <tile gid="724"/>
   <tile gid="724"/>
   <tile gid="724"/>
   <tile gid="724"/>
   <tile gid="724"/>
   <tile gid="724"/>
   <tile gid="724"/>
   <tile gid="724"/>
   <tile gid="724"/>
   <tile gid="724"/>
   <tile gid="724"/>
   <tile gid="724"/>
   <tile gid="724"/>
   <tile gid="724"/>
   <tile gid="724"/>
   <tile gid="724"/>
   <tile gid="724"/>
   <tile gid="333"/>
   <tile gid="334"/>
   <tile/>
   <tile/>
   <tile/>
   <tile/>
   <tile gid="334"/>
   <tile gid="335"/>
   <tile gid="33"/>
   <tile gid="33"/>
   <tile/>
   <tile/>
   <tile/>
   <tile/>
   <tile/>
   <tile/>
   <tile/>
   <tile/>
   <tile/>
   <tile/>
   <tile/>
   <tile gid="724"/>
   <tile gid="724"/>
   <tile gid="33"/>
   <tile/>
   <tile/>
   <tile/>
   <tile/>
   <tile gid="333"/>
   <tile gid="334"/>
   <tile/>
   <tile/>
   <tile/>
   <tile/>
   <tile/>
   <tile/>
   <tile/>
   <tile/>
   <tile gid="335"/>
   <tile gid="33"/>
   <tile/>
   <tile/>
   <tile/>
   <tile/>
   <tile/>
   <tile/>
   <tile/>
   <tile/>
   <tile/>
   <tile/>
   <tile/>
   <tile/>
   <tile gid="33"/>
   <tile/>
   <tile/>
   <tile/>
   <tile/>
   <tile gid="333"/>
   <tile/>
   <tile/>
   <tile/>
   <tile/>
   <tile/>
   <tile/>
   <tile/>
   <tile/>
   <tile/>
   <tile/>
   <tile/>
   <tile gid="33"/>
   <tile/>
   <tile/>
   <tile/>
   <tile/>
   <tile/>
   <tile/>
   <tile/>
   <tile/>
   <tile/>
   <tile/>
   <tile/>
   <tile/>
   <tile gid="33"/>
   <tile/>
   <tile/>
   <tile/>
   <tile/>
   <tile/>
   <tile/>
   <tile/>
   <tile/>
   <tile/>
   <tile/>
   <tile/>
   <tile/>
   <tile/>
   <tile/>
   <tile/>
   <tile/>
   <tile gid="335"/>
   <tile/>
   <tile/>
   <tile/>
   <tile/>
   <tile/>
   <tile/>
   <tile/>
   <tile/>
   <tile/>
   <tile/>
   <tile/>
   <tile/>
   <tile gid="33"/>
   <tile/>
   <tile/>
   <tile/>
   <tile gid="333"/>
   <tile/>
   <tile/>
   <tile/>
   <tile/>
   <tile/>
   <tile/>
   <tile gid="275"/>
   <tile gid="275"/>
   <tile gid="275"/>
   <tile gid="275"/>
   <tile/>
   <tile/>
   <tile gid="33"/>
   <tile/>
   <tile/>
   <tile/>
   <tile/>
   <tile/>
   <tile/>
   <tile/>
   <tile/>
   <tile/>
   <tile/>
   <tile/>
   <tile/>
   <tile gid="33"/>
   <tile/>
   <tile/>
   <tile/>
   <tile/>
   <tile/>
   <tile/>
   <tile/>
   <tile/>
   <tile/>
   <tile/>
   <tile gid="275"/>
   <tile gid="275"/>
   <tile gid="275"/>
   <tile gid="275"/>
   <tile gid="275"/>
   <tile gid="275"/>
   <tile gid="275"/>
   <tile gid="275"/>
   <tile/>
   <tile/>
   <tile/>
   <tile/>
   <tile/>
   <tile/>
   <tile/>
   <tile/>
   <tile/>
   <tile/>
   <tile/>
   <tile gid="33"/>
   <tile/>
   <tile/>
   <tile/>
   <tile/>
   <tile/>
   <tile/>
   <tile/>
   <tile/>
   <tile/>
   <tile/>
   <tile gid="275"/>
   <tile gid="275"/>
   <tile gid="275"/>
   <tile gid="275"/>
   <tile gid="275"/>
   <tile gid="275"/>
   <tile gid="275"/>
   <tile/>
   <tile/>
   <tile/>
   <tile/>
   <tile/>
   <tile/>
   <tile/>
   <tile/>
   <tile/>
   <tile/>
   <tile/>
   <tile/>
   <tile/>
   <tile/>
   <tile/>
   <tile/>
   <tile/>
   <tile/>
   <tile/>
   <tile/>
   <tile/>
   <tile/>
   <tile/>
   <tile gid="275"/>
   <tile gid="275"/>
   <tile gid="275"/>
   <tile gid="275"/>
   <tile gid="275"/>
   <tile gid="275"/>
   <tile gid="275"/>
   <tile/>
   <tile/>
   <tile/>
   <tile/>
   <tile/>
   <tile/>
   <tile/>
   <tile/>
   <tile/>
   <tile/>
   <tile/>
   <tile/>
   <tile/>
   <tile/>
   <tile/>
   <tile/>
   <tile/>
   <tile/>
   <tile/>
   <tile/>
   <tile/>
   <tile/>
   <tile/>
   <tile gid="275"/>
   <tile gid="275"/>
   <tile gid="275"/>
   <tile gid="275"/>
   <tile gid="275"/>
   <tile gid="275"/>
   <tile/>
   <tile/>
   <tile/>
   <tile/>
   <tile/>
   <tile/>
   <tile/>
   <tile/>
   <tile/>
   <tile/>
   <tile/>
   <tile/>
   <tile/>
   <tile/>
   <tile/>
   <tile/>
   <tile/>
   <tile/>
   <tile/>
   <tile/>
   <tile/>
   <tile/>
   <tile/>
   <tile/>
   <tile gid="275"/>
   <tile gid="275"/>
   <tile gid="275"/>
   <tile gid="275"/>
   <tile gid="275"/>
   <tile gid="275"/>
   <tile/>
   <tile/>
   <tile/>
   <tile/>
   <tile/>
   <tile/>
   <tile/>
   <tile/>
   <tile/>
   <tile/>
   <tile/>
   <tile/>
   <tile/>
   <tile/>
   <tile/>
   <tile/>
   <tile/>
   <tile/>
   <tile/>
   <tile/>
   <tile/>
   <tile/>
   <tile/>
   <tile/>
   <tile gid="275"/>
   <tile gid="275"/>
   <tile gid="275"/>
   <tile gid="275"/>
   <tile gid="275"/>
   <tile gid="275"/>
   <tile/>
   <tile/>
   <tile/>
   <tile/>
   <tile/>
   <tile/>
   <tile/>
   <tile/>
   <tile/>
   <tile/>
   <tile/>
   <tile/>
   <tile/>
   <tile/>
   <tile/>
   <tile/>
   <tile/>
   <tile/>
   <tile/>
   <tile/>
   <tile/>
   <tile/>
   <tile/>
   <tile/>
   <tile gid="275"/>
   <tile gid="275"/>
   <tile gid="275"/>
   <tile gid="275"/>
   <tile gid="275"/>
   <tile gid="275"/>
   <tile/>
   <tile/>
   <tile/>
   <tile/>
   <tile/>
   <tile/>
   <tile/>
   <tile/>
   <tile/>
   <tile/>
   <tile/>
   <tile/>
   <tile/>
   <tile/>
   <tile/>
   <tile/>
   <tile/>
   <tile/>
   <tile/>
   <tile/>
   <tile/>
   <tile/>
   <tile/>
   <tile/>
   <tile gid="275"/>
   <tile gid="275"/>
   <tile gid="275"/>
   <tile gid="275"/>
   <tile gid="275"/>
   <tile gid="275"/>
   <tile/>
   <tile/>
   <tile/>
   <tile/>
   <tile/>
   <tile/>
   <tile/>
   <tile/>
   <tile/>
   <tile/>
   <tile/>
   <tile/>
   <tile/>
   <tile/>
   <tile/>
   <tile/>
   <tile/>
   <tile/>
   <tile/>
   <tile/>
   <tile/>
   <tile/>
   <tile/>
   <tile/>
   <tile gid="275"/>
   <tile gid="275"/>
   <tile gid="275"/>
   <tile gid="275"/>
   <tile gid="275"/>
   <tile gid="275"/>
   <tile/>
   <tile/>
   <tile/>
   <tile/>
   <tile/>
   <tile/>
   <tile/>
   <tile/>
   <tile/>
   <tile/>
   <tile/>
   <tile/>
   <tile/>
   <tile/>
   <tile/>
   <tile/>
   <tile/>
   <tile/>
   <tile/>
   <tile/>
   <tile/>
   <tile/>
   <tile/>
   <tile/>
   <tile gid="275"/>
   <tile gid="275"/>
   <tile gid="275"/>
   <tile gid="275"/>
   <tile gid="275"/>
   <tile gid="275"/>
   <tile/>
   <tile/>
   <tile/>
   <tile/>
   <tile/>
   <tile/>
   <tile/>
   <tile/>
   <tile/>
   <tile/>
   <tile/>
   <tile/>
   <tile/>
   <tile/>
   <tile/>
   <tile/>
   <tile/>
   <tile/>
   <tile/>
   <tile/>
   <tile/>
   <tile/>
   <tile/>
   <tile/>
  </data>
 </layer>
 <layer id="4" name="Collisions" width="30" height="51">
  <data>
   <tile/>
   <tile/>
   <tile/>
   <tile/>
   <tile/>
   <tile/>
   <tile/>
   <tile/>
   <tile/>
   <tile/>
   <tile/>
   <tile gid="258"/>
   <tile/>
   <tile/>
   <tile/>
   <tile/>
   <tile/>
   <tile/>
   <tile gid="258"/>
   <tile/>
   <tile/>
   <tile/>
   <tile/>
   <tile/>
   <tile/>
   <tile/>
   <tile/>
   <tile/>
   <tile/>
   <tile/>
   <tile/>
   <tile/>
   <tile/>
   <tile/>
   <tile/>
   <tile/>
   <tile/>
   <tile/>
   <tile/>
   <tile/>
   <tile/>
   <tile gid="258"/>
   <tile/>
   <tile/>
   <tile/>
   <tile/>
   <tile/>
   <tile/>
   <tile gid="258"/>
   <tile/>
   <tile/>
   <tile/>
   <tile/>
   <tile/>
   <tile/>
   <tile/>
   <tile/>
   <tile/>
   <tile/>
   <tile/>
   <tile/>
   <tile/>
   <tile/>
   <tile/>
   <tile/>
   <tile/>
   <tile/>
   <tile/>
   <tile/>
   <tile/>
   <tile gid="258"/>
   <tile gid="258"/>
   <tile/>
   <tile/>
   <tile/>
   <tile/>
   <tile/>
   <tile/>
   <tile gid="258"/>
   <tile gid="258"/>
   <tile/>
   <tile/>
   <tile/>
   <tile/>
   <tile/>
   <tile/>
   <tile/>
   <tile/>
   <tile/>
   <tile/>
   <tile/>
   <tile/>
   <tile/>
   <tile/>
   <tile/>
   <tile/>
   <tile/>
   <tile/>
   <tile/>
   <tile gid="258"/>
   <tile/>
   <tile/>
   <tile/>
   <tile/>
   <tile/>
   <tile/>
   <tile/>
   <tile/>
   <tile/>
   <tile/>
   <tile gid="258"/>
   <tile/>
   <tile/>
   <tile/>
   <tile/>
   <tile/>
   <tile/>
   <tile/>
   <tile/>
   <tile/>
   <tile/>
   <tile/>
   <tile/>
   <tile/>
   <tile/>
   <tile/>
   <tile/>
   <tile/>
   <tile gid="258"/>
   <tile/>
   <tile/>
   <tile/>
   <tile/>
   <tile/>
   <tile/>
   <tile/>
   <tile/>
   <tile/>
   <tile/>
   <tile/>
   <tile/>
   <tile gid="258"/>
   <tile/>
   <tile/>
   <tile/>
   <tile/>
   <tile/>
   <tile/>
   <tile/>
   <tile/>
   <tile/>
   <tile/>
   <tile/>
   <tile/>
   <tile/>
   <tile/>
   <tile/>
   <tile/>
   <tile gid="258"/>
   <tile/>
   <tile/>
   <tile/>
   <tile/>
   <tile/>
   <tile/>
   <tile/>
   <tile/>
   <tile/>
   <tile/>
   <tile/>
   <tile/>
   <tile gid="258"/>
   <tile/>
   <tile/>
   <tile/>
   <tile/>
   <tile/>
   <tile/>
   <tile/>
   <tile/>
   <tile/>
   <tile/>
   <tile/>
   <tile/>
   <tile/>
   <tile/>
   <tile/>
   <tile/>
   <tile gid="258"/>
   <tile/>
   <tile/>
   <tile/>
   <tile/>
   <tile/>
   <tile/>
   <tile/>
   <tile/>
   <tile/>
   <tile/>
   <tile/>
   <tile/>
   <tile gid="258"/>
   <tile/>
   <tile/>
   <tile/>
   <tile/>
   <tile/>
   <tile/>
   <tile/>
   <tile/>
   <tile/>
   <tile/>
   <tile/>
   <tile/>
   <tile/>
   <tile/>
   <tile/>
   <tile/>
   <tile/>
   <tile gid="258"/>
   <tile/>
   <tile/>
   <tile/>
   <tile/>
   <tile/>
   <tile/>
   <tile/>
   <tile/>
   <tile/>
   <tile/>
   <tile gid="258"/>
   <tile/>
   <tile/>
   <tile/>
   <tile/>
   <tile/>
   <tile/>
   <tile/>
   <tile/>
   <tile/>
   <tile/>
   <tile/>
   <tile/>
   <tile/>
   <tile/>
   <tile/>
   <tile/>
   <tile/>
   <tile/>
   <tile gid="258"/>
   <tile/>
   <tile/>
   <tile/>
   <tile/>
   <tile/>
   <tile/>
   <tile/>
   <tile/>
   <tile/>
   <tile/>
   <tile/>
   <tile/>
   <tile/>
   <tile/>
   <tile/>
   <tile/>
   <tile/>
   <tile/>
   <tile/>
   <tile/>
   <tile/>
   <tile/>
   <tile/>
   <tile/>
   <tile/>
   <tile/>
   <tile/>
   <tile/>
   <tile/>
   <tile/>
   <tile gid="258"/>
   <tile/>
   <tile/>
   <tile/>
   <tile/>
   <tile/>
   <tile/>
   <tile/>
   <tile/>
   <tile gid="258"/>
   <tile/>
   <tile/>
   <tile/>
   <tile/>
   <tile/>
   <tile/>
   <tile/>
   <tile/>
   <tile/>
   <tile/>
   <tile/>
   <tile/>
   <tile/>
   <tile/>
   <tile/>
   <tile/>
   <tile/>
   <tile/>
   <tile/>
   <tile/>
   <tile/>
   <tile gid="258"/>
   <tile/>
   <tile/>
   <tile/>
   <tile/>
   <tile/>
   <tile/>
   <tile gid="258"/>
   <tile/>
   <tile/>
   <tile/>
   <tile/>
   <tile/>
   <tile/>
   <tile/>
   <tile/>
   <tile/>
   <tile/>
   <tile/>
   <tile/>
   <tile/>
   <tile/>
   <tile/>
   <tile/>
   <tile/>
   <tile/>
   <tile/>
   <tile/>
   <tile/>
   <tile/>
   <tile gid="258"/>
   <tile/>
   <tile/>
   <tile/>
   <tile/>
   <tile/>
   <tile/>
   <tile gid="258"/>
   <tile/>
   <tile/>
   <tile/>
   <tile/>
   <tile/>
   <tile/>
   <tile/>
   <tile/>
   <tile/>
   <tile/>
   <tile/>
   <tile/>
   <tile/>
   <tile/>
   <tile/>
   <tile/>
   <tile/>
   <tile/>
   <tile/>
   <tile gid="258"/>
   <tile gid="258"/>
   <tile gid="258"/>
   <tile/>
   <tile/>
   <tile/>
   <tile/>
   <tile/>
   <tile/>
   <tile/>
   <tile/>
   <tile gid="258"/>
   <tile gid="258"/>
   <tile gid="258"/>
   <tile/>
   <tile/>
   <tile/>
   <tile/>
   <tile/>
   <tile/>
   <tile/>
   <tile/>
   <tile/>
   <tile/>
   <tile/>
   <tile/>
   <tile/>
   <tile/>
   <tile/>
   <tile gid="258"/>
   <tile/>
   <tile/>
   <tile/>
   <tile/>
   <tile/>
   <tile/>
   <tile/>
   <tile/>
   <tile/>
   <tile/>
   <tile/>
   <tile/>
   <tile/>
   <tile/>
   <tile gid="258"/>
   <tile/>
   <tile/>
   <tile/>
   <tile/>
   <tile/>
   <tile/>
   <tile/>
   <tile/>
   <tile/>
   <tile/>
   <tile/>
   <tile/>
   <tile/>
   <tile gid="258"/>
   <tile/>
   <tile/>
   <tile/>
   <tile/>
   <tile/>
   <tile/>
   <tile/>
   <tile/>
   <tile/>
   <tile/>
   <tile/>
   <tile/>
   <tile/>
   <tile/>
   <tile/>
   <tile/>
   <tile gid="258"/>
   <tile/>
   <tile/>
   <tile/>
   <tile/>
   <tile/>
   <tile/>
   <tile/>
   <tile/>
   <tile/>
   <tile/>
   <tile/>
   <tile/>
   <tile gid="258"/>
   <tile/>
   <tile/>
   <tile/>
   <tile/>
   <tile/>
   <tile/>
   <tile/>
   <tile/>
   <tile/>
   <tile/>
   <tile/>
   <tile/>
   <tile/>
   <tile/>
   <tile/>
   <tile/>
   <tile gid="258"/>
   <tile/>
   <tile/>
   <tile/>
   <tile/>
   <tile/>
   <tile/>
   <tile/>
   <tile/>
   <tile/>
   <tile/>
   <tile/>
   <tile gid="258"/>
   <tile/>
   <tile/>
   <tile/>
   <tile/>
   <tile/>
   <tile/>
   <tile/>
   <tile/>
   <tile/>
   <tile/>
   <tile/>
   <tile/>
   <tile/>
   <tile/>
   <tile/>
   <tile/>
   <tile/>
   <tile/>
   <tile gid="258"/>
   <tile/>
   <tile/>
   <tile/>
   <tile/>
   <tile/>
   <tile/>
   <tile/>
   <tile/>
   <tile/>
   <tile/>
   <tile gid="258"/>
   <tile/>
   <tile/>
   <tile/>
   <tile/>
   <tile/>
   <tile/>
   <tile gid="258"/>
   <tile gid="258"/>
   <tile gid="258"/>
   <tile gid="258"/>
   <tile gid="258"/>
   <tile gid="258"/>
   <tile/>
   <tile/>
   <tile/>
   <tile/>
   <tile/>
   <tile/>
   <tile gid="258"/>
   <tile/>
   <tile/>
   <tile/>
   <tile/>
   <tile/>
   <tile/>
   <tile/>
   <tile/>
   <tile/>
   <tile/>
   <tile gid="258"/>
   <tile/>
   <tile/>
   <tile/>
   <tile/>
   <tile/>
   <tile gid="258"/>
   <tile/>
   <tile/>
   <tile/>
   <tile/>
   <tile/>
   <tile/>
   <tile gid="258"/>
   <tile/>
   <tile/>
   <tile/>
   <tile/>
   <tile/>
   <tile gid="258"/>
   <tile/>
   <tile/>
   <tile/>
   <tile/>
   <tile/>
   <tile/>
   <tile/>
   <tile/>
   <tile/>
   <tile gid="258"/>
   <tile/>
   <tile/>
   <tile/>
   <tile/>
   <tile/>
   <tile gid="258"/>
   <tile/>
   <tile/>
   <tile/>
   <tile/>
   <tile/>
   <tile/>
   <tile/>
   <tile/>
   <tile gid="258"/>
   <tile/>
   <tile/>
   <tile/>
   <tile/>
   <tile/>
   <tile gid="258"/>
   <tile/>
   <tile/>
   <tile/>
   <tile/>
   <tile/>
   <tile/>
   <tile/>
   <tile gid="258"/>
   <tile/>
   <tile/>
   <tile/>
   <tile/>
   <tile/>
   <tile/>
   <tile gid="258"/>
   <tile/>
   <tile/>
   <tile/>
   <tile/>
   <tile/>
   <tile/>
   <tile/>
   <tile/>
   <tile gid="258"/>
   <tile/>
   <tile/>
   <tile/>
   <tile/>
   <tile/>
   <tile/>
   <tile gid="258"/>
   <tile/>
   <tile/>
   <tile/>
   <tile/>
   <tile/>
   <tile/>
   <tile gid="258"/>
   <tile/>
   <tile/>
   <tile/>
   <tile/>
   <tile/>
   <tile/>
   <tile gid="258"/>
   <tile gid="258"/>
   <tile gid="258"/>
   <tile gid="258"/>
   <tile gid="258"/>
   <tile gid="258"/>
   <tile gid="258"/>
   <tile gid="258"/>
   <tile gid="258"/>
   <tile gid="258"/>
   <tile/>
   <tile/>
   <tile/>
   <tile/>
   <tile/>
   <tile/>
   <tile gid="258"/>
   <tile/>
   <tile/>
   <tile/>
   <tile/>
   <tile gid="258"/>
   <tile gid="258"/>
   <tile/>
   <tile/>
   <tile/>
   <tile/>
   <tile/>
   <tile/>
   <tile/>
   <tile/>
   <tile/>
   <tile/>
   <tile/>
   <tile/>
   <tile/>
   <tile/>
   <tile/>
   <tile/>
   <tile/>
   <tile/>
   <tile/>
   <tile/>
   <tile/>
   <tile/>
   <tile/>
   <tile/>
   <tile gid="258"/>
   <tile gid="258"/>
   <tile gid="258"/>
   <tile gid="258"/>
   <tile/>
   <tile/>
   <tile/>
   <tile/>
   <tile/>
   <tile/>
   <tile/>
   <tile/>
   <tile/>
   <tile/>
   <tile/>
   <tile/>
   <tile/>
   <tile/>
   <tile/>
   <tile/>
   <tile/>
   <tile/>
   <tile/>
   <tile/>
   <tile/>
   <tile/>
   <tile/>
   <tile/>
   <tile/>
   <tile/>
   <tile/>
   <tile/>
   <tile gid="258"/>
   <tile gid="258"/>
   <tile/>
   <tile/>
   <tile/>
   <tile/>
   <tile/>
   <tile/>
   <tile/>
   <tile/>
   <tile/>
   <tile/>
   <tile/>
   <tile/>
   <tile/>
   <tile/>
   <tile/>
   <tile/>
   <tile/>
   <tile/>
   <tile/>
   <tile/>
   <tile/>
   <tile/>
   <tile/>
   <tile/>
   <tile/>
   <tile/>
   <tile/>
   <tile/>
   <tile gid="258"/>
   <tile gid="258"/>
   <tile/>
   <tile/>
   <tile/>
   <tile/>
   <tile/>
   <tile/>
   <tile/>
   <tile/>
   <tile/>
   <tile/>
   <tile/>
   <tile/>
   <tile/>
   <tile/>
   <tile/>
   <tile/>
   <tile/>
   <tile/>
   <tile/>
   <tile/>
   <tile/>
   <tile/>
   <tile/>
   <tile/>
   <tile/>
   <tile/>
   <tile/>
   <tile/>
   <tile gid="258"/>
   <tile gid="258"/>
   <tile/>
   <tile/>
   <tile/>
   <tile/>
   <tile gid="258"/>
   <tile gid="258"/>
   <tile gid="258"/>
   <tile gid="258"/>
   <tile gid="258"/>
   <tile gid="258"/>
   <tile gid="258"/>
   <tile/>
   <tile/>
   <tile/>
   <tile/>
   <tile/>
   <tile/>
   <tile gid="258"/>
   <tile gid="258"/>
   <tile gid="258"/>
   <tile gid="258"/>
   <tile gid="258"/>
   <tile gid="258"/>
   <tile gid="258"/>
   <tile/>
   <tile/>
   <tile/>
   <tile/>
   <tile gid="258"/>
   <tile gid="258"/>
   <tile/>
   <tile/>
   <tile/>
   <tile/>
   <tile gid="258"/>
   <tile/>
   <tile/>
   <tile/>
   <tile/>
   <tile/>
   <tile gid="258"/>
   <tile/>
   <tile/>
   <tile/>
   <tile/>
   <tile/>
   <tile/>
   <tile gid="258"/>
   <tile/>
   <tile/>
   <tile/>
   <tile/>
   <tile/>
   <tile gid="258"/>
   <tile/>
   <tile/>
   <tile/>
   <tile/>
   <tile gid="258"/>
   <tile gid="258"/>
   <tile/>
   <tile/>
   <tile/>
   <tile/>
   <tile gid="258"/>
   <tile/>
   <tile/>
   <tile/>
   <tile/>
   <tile/>
   <tile gid="258"/>
   <tile/>
   <tile/>
   <tile/>
   <tile/>
   <tile/>
   <tile/>
   <tile gid="258"/>
   <tile/>
   <tile/>
   <tile/>
   <tile/>
   <tile/>
   <tile gid="258"/>
   <tile/>
   <tile/>
   <tile/>
   <tile/>
   <tile gid="258"/>
   <tile gid="258"/>
   <tile/>
   <tile/>
   <tile/>
   <tile/>
   <tile/>
   <tile gid="258"/>
   <tile gid="258"/>
   <tile gid="258"/>
   <tile gid="258"/>
   <tile gid="258"/>
   <tile/>
   <tile/>
   <tile/>
   <tile/>
   <tile/>
   <tile/>
   <tile/>
   <tile/>
   <tile gid="258"/>
   <tile gid="258"/>
   <tile gid="258"/>
   <tile gid="258"/>
   <tile gid="258"/>
   <tile/>
   <tile/>
   <tile/>
   <tile/>
   <tile/>
   <tile gid="258"/>
   <tile gid="258"/>
   <tile/>
   <tile/>
   <tile/>
   <tile/>
   <tile/>
   <tile/>
   <tile/>
   <tile/>
   <tile/>
   <tile/>
   <tile/>
   <tile/>
   <tile/>
   <tile/>
   <tile/>
   <tile/>
   <tile/>
   <tile/>
   <tile/>
   <tile/>
   <tile/>
   <tile/>
   <tile/>
   <tile/>
   <tile/>
   <tile/>
   <tile/>
   <tile/>
   <tile gid="258"/>
   <tile gid="258"/>
   <tile/>
   <tile/>
   <tile/>
   <tile/>
   <tile/>
   <tile/>
   <tile/>
   <tile/>
   <tile/>
   <tile/>
   <tile/>
   <tile/>
   <tile/>
   <tile/>
   <tile/>
   <tile/>
   <tile/>
   <tile/>
   <tile/>
   <tile/>
   <tile/>
   <tile/>
   <tile/>
   <tile/>
   <tile/>
   <tile/>
   <tile/>
   <tile/>
   <tile gid="258"/>
   <tile gid="258"/>
   <tile/>
   <tile/>
   <tile/>
   <tile/>
   <tile/>
   <tile/>
   <tile/>
   <tile/>
   <tile/>
   <tile/>
   <tile/>
   <tile/>
   <tile/>
   <tile/>
   <tile/>
   <tile/>
   <tile/>
   <tile/>
   <tile/>
   <tile/>
   <tile/>
   <tile/>
   <tile/>
   <tile/>
   <tile/>
   <tile/>
   <tile/>
   <tile/>
   <tile gid="258"/>
   <tile gid="258"/>
   <tile/>
   <tile/>
   <tile/>
   <tile/>
   <tile/>
   <tile/>
   <tile/>
   <tile/>
   <tile/>
   <tile/>
   <tile/>
   <tile/>
   <tile/>
   <tile/>
   <tile/>
   <tile/>
   <tile/>
   <tile/>
   <tile/>
   <tile/>
   <tile/>
   <tile/>
   <tile/>
   <tile/>
   <tile/>
   <tile/>
   <tile/>
   <tile/>
   <tile gid="258"/>
   <tile gid="258"/>
   <tile/>
   <tile/>
   <tile/>
   <tile/>
   <tile/>
   <tile/>
   <tile gid="258"/>
   <tile gid="258"/>
   <tile gid="258"/>
   <tile gid="258"/>
   <tile gid="258"/>
   <tile gid="258"/>
   <tile gid="258"/>
   <tile gid="258"/>
   <tile gid="258"/>
   <tile gid="258"/>
   <tile gid="258"/>
   <tile gid="258"/>
   <tile gid="258"/>
   <tile gid="258"/>
   <tile gid="258"/>
   <tile/>
   <tile/>
   <tile/>
   <tile/>
   <tile/>
   <tile/>
   <tile/>
   <tile gid="258"/>
   <tile gid="258"/>
   <tile/>
   <tile/>
   <tile/>
   <tile/>
   <tile/>
   <tile/>
   <tile gid="258"/>
   <tile gid="258"/>
   <tile gid="258"/>
   <tile gid="258"/>
   <tile gid="258"/>
   <tile gid="258"/>
   <tile gid="258"/>
   <tile gid="258"/>
   <tile gid="258"/>
   <tile gid="258"/>
   <tile gid="258"/>
   <tile gid="258"/>
   <tile gid="258"/>
   <tile gid="258"/>
   <tile gid="258"/>
   <tile/>
   <tile/>
   <tile/>
   <tile/>
   <tile/>
   <tile/>
   <tile/>
   <tile gid="258"/>
   <tile/>
   <tile gid="258"/>
   <tile gid="258"/>
   <tile/>
   <tile/>
   <tile/>
   <tile/>
   <tile/>
   <tile/>
   <tile/>
   <tile/>
   <tile/>
   <tile/>
   <tile/>
   <tile/>
   <tile/>
   <tile/>
   <tile/>
   <tile/>
   <tile/>
   <tile/>
   <tile/>
   <tile/>
   <tile/>
   <tile/>
   <tile/>
   <tile/>
   <tile gid="258"/>
   <tile gid="258"/>
   <tile/>
   <tile/>
   <tile/>
   <tile/>
   <tile gid="258"/>
   <tile gid="258"/>
   <tile/>
   <tile/>
   <tile/>
   <tile/>
   <tile/>
   <tile/>
   <tile/>
   <tile/>
   <tile/>
   <tile/>
   <tile/>
   <tile/>
   <tile/>
   <tile/>
   <tile/>
   <tile/>
   <tile/>
   <tile/>
   <tile/>
   <tile/>
   <tile gid="258"/>
   <tile gid="258"/>
   <tile/>
   <tile/>
   <tile/>
   <tile/>
   <tile/>
   <tile/>
   <tile/>
   <tile/>
   <tile gid="258"/>
   <tile/>
   <tile/>
   <tile/>
   <tile/>
   <tile/>
   <tile/>
   <tile/>
   <tile/>
   <tile/>
   <tile/>
   <tile/>
   <tile/>
   <tile/>
   <tile/>
   <tile/>
   <tile/>
   <tile/>
   <tile/>
   <tile gid="258"/>
   <tile/>
   <tile/>
   <tile/>
   <tile/>
   <tile/>
   <tile/>
   <tile/>
   <tile/>
   <tile/>
   <tile/>
   <tile gid="258"/>
   <tile/>
   <tile/>
   <tile/>
   <tile/>
   <tile/>
   <tile/>
   <tile/>
   <tile/>
   <tile/>
   <tile/>
   <tile/>
   <tile/>
   <tile/>
   <tile/>
   <tile/>
   <tile/>
   <tile/>
   <tile/>
   <tile gid="258"/>
   <tile/>
   <tile/>
   <tile/>
   <tile/>
   <tile/>
   <tile/>
   <tile/>
   <tile/>
   <tile/>
   <tile/>
   <tile/>
   <tile gid="258"/>
   <tile/>
   <tile/>
   <tile/>
   <tile/>
   <tile/>
   <tile/>
   <tile/>
   <tile/>
   <tile/>
   <tile/>
   <tile/>
   <tile/>
   <tile/>
   <tile/>
   <tile/>
   <tile/>
   <tile gid="258"/>
   <tile/>
   <tile/>
   <tile/>
   <tile/>
   <tile/>
   <tile/>
   <tile/>
   <tile/>
   <tile/>
   <tile/>
   <tile/>
   <tile/>
   <tile gid="258"/>
   <tile/>
   <tile/>
   <tile/>
   <tile/>
   <tile/>
   <tile/>
   <tile/>
   <tile/>
   <tile/>
   <tile/>
   <tile/>
   <tile/>
   <tile/>
   <tile/>
   <tile/>
   <tile/>
   <tile gid="258"/>
   <tile/>
   <tile/>
   <tile/>
   <tile/>
   <tile/>
   <tile/>
   <tile/>
   <tile/>
   <tile/>
   <tile/>
   <tile/>
   <tile/>
   <tile gid="258"/>
   <tile/>
   <tile/>
   <tile/>
   <tile/>
   <tile/>
   <tile/>
   <tile/>
   <tile/>
   <tile/>
   <tile/>
   <tile/>
   <tile/>
   <tile/>
   <tile/>
   <tile/>
   <tile/>
   <tile gid="258"/>
   <tile/>
   <tile/>
   <tile/>
   <tile/>
   <tile/>
   <tile/>
   <tile/>
   <tile/>
   <tile/>
   <tile/>
   <tile/>
   <tile/>
   <tile gid="258"/>
   <tile/>
   <tile/>
   <tile/>
   <tile/>
   <tile/>
   <tile/>
   <tile/>
   <tile/>
   <tile/>
   <tile/>
   <tile/>
   <tile/>
   <tile/>
   <tile/>
   <tile/>
   <tile/>
   <tile gid="258"/>
   <tile/>
   <tile/>
   <tile/>
   <tile/>
   <tile/>
   <tile/>
   <tile/>
   <tile/>
   <tile/>
   <tile/>
   <tile/>
   <tile/>
   <tile gid="258"/>
   <tile/>
   <tile/>
   <tile/>
   <tile/>
   <tile/>
   <tile/>
   <tile/>
   <tile/>
   <tile/>
   <tile/>
   <tile/>
   <tile/>
   <tile/>
   <tile/>
   <tile/>
   <tile/>
   <tile gid="258"/>
   <tile/>
   <tile/>
   <tile/>
   <tile/>
   <tile/>
   <tile/>
   <tile/>
   <tile/>
   <tile/>
   <tile/>
   <tile/>
   <tile/>
   <tile gid="258"/>
   <tile/>
   <tile/>
   <tile/>
   <tile/>
   <tile/>
   <tile/>
   <tile/>
   <tile/>
   <tile/>
   <tile/>
   <tile/>
   <tile/>
   <tile/>
   <tile/>
   <tile/>
   <tile/>
   <tile gid="258"/>
   <tile/>
   <tile/>
   <tile/>
   <tile/>
   <tile/>
   <tile/>
   <tile/>
   <tile/>
   <tile/>
   <tile/>
   <tile/>
   <tile/>
   <tile gid="258"/>
   <tile/>
   <tile/>
   <tile/>
   <tile/>
   <tile/>
   <tile/>
   <tile/>
   <tile/>
   <tile/>
   <tile/>
   <tile/>
   <tile/>
   <tile/>
   <tile/>
   <tile/>
   <tile/>
   <tile gid="258"/>
   <tile/>
   <tile/>
   <tile/>
   <tile/>
   <tile/>
   <tile/>
   <tile/>
   <tile/>
   <tile/>
   <tile/>
   <tile/>
   <tile/>
   <tile gid="258"/>
   <tile/>
   <tile/>
   <tile/>
   <tile/>
   <tile/>
   <tile/>
   <tile/>
   <tile/>
   <tile/>
   <tile/>
   <tile/>
   <tile/>
   <tile/>
   <tile/>
   <tile/>
   <tile/>
   <tile gid="258"/>
   <tile/>
   <tile/>
   <tile/>
   <tile/>
   <tile/>
   <tile/>
   <tile/>
   <tile/>
   <tile/>
   <tile/>
   <tile/>
   <tile/>
   <tile gid="258"/>
   <tile/>
   <tile/>
   <tile/>
   <tile/>
   <tile/>
   <tile/>
   <tile/>
   <tile/>
   <tile/>
   <tile/>
   <tile/>
   <tile/>
   <tile/>
   <tile/>
   <tile/>
   <tile/>
   <tile gid="258"/>
   <tile/>
   <tile/>
   <tile/>
   <tile/>
   <tile/>
   <tile/>
   <tile/>
   <tile/>
   <tile/>
   <tile/>
   <tile/>
   <tile/>
   <tile gid="258"/>
   <tile/>
   <tile/>
   <tile/>
   <tile/>
   <tile/>
   <tile/>
   <tile/>
   <tile/>
   <tile/>
   <tile/>
   <tile/>
   <tile/>
   <tile/>
   <tile/>
   <tile/>
   <tile/>
   <tile gid="258"/>
   <tile/>
   <tile/>
   <tile/>
   <tile/>
   <tile/>
   <tile/>
   <tile/>
   <tile/>
   <tile/>
   <tile/>
   <tile/>
   <tile/>
   <tile gid="258"/>
   <tile/>
   <tile/>
   <tile/>
   <tile/>
   <tile/>
   <tile/>
   <tile/>
   <tile/>
   <tile/>
   <tile/>
   <tile/>
   <tile/>
   <tile/>
   <tile/>
   <tile/>
   <tile/>
   <tile gid="258"/>
   <tile/>
   <tile/>
   <tile/>
   <tile/>
   <tile/>
   <tile/>
  </data>
 </layer>
 <objectgroup id="3" name="Entities">
  <object id="1" name="Door" type="Door" x="763.258" y="-33.3075" width="390.216" height="55.8449">
   <properties>
    <property name="Type" value="Door"/>
   </properties>
  </object>
  <object id="3" name="Door" type="Door" x="432.425" y="3236.03" width="1076.96" height="55.8449">
   <properties>
    <property name="Destination" value="MapCor_Sala4.tmx"/>
    <property name="Type" value="Door"/>
    <property name="playerX" type="float" value="2957.25"/>
    <property name="playerY" type="float" value="118.29"/>
   </properties>
  </object>
  <object id="4" name="Eosinofilo" type="Enemy" x="1656.73" y="2158.55">
   <point/>
  </object>
  <object id="5" name="Eosinofilo" type="Enemy" x="232" y="2167.03">
   <point/>
  </object>
  <object id="6" name="Streptococus" type="Enemy" x="467.394" y="1572.48">
   <point/>
  </object>
  <object id="7" name="Streptococus" type="Enemy" x="1466.91" y="1534.55">
   <point/>
  </object>
  <object id="9" name="Player" type="Player" x="956.735" y="940.878">
   <point/>
  </object>
 </objectgroup>
</map>
