<?xml version="1.0" encoding="UTF-8"?>
<map version="1.10" tiledversion="1.12.1" orientation="orthogonal" renderorder="right-down" width="30" height="34" tilewidth="64" tileheight="64" infinite="0" nextlayerid="8" nextobjectid="11">
 <tileset firstgid="1" source="Atlas_2.3.tsx"/>
 <tileset firstgid="257" name="TileMetadata" tilewidth="64" tileheight="64" tilecount="2" columns="2">
  <image source="TileMetadata.png" width="128" height="64"/>
 </tileset>
 <tileset firstgid="259" name="Atlas_general" tilewidth="64" tileheight="64" tilecount="256" columns="16">
  <image source="Atlas_general.png" width="1024" height="1024"/>
 </tileset>
 <tileset firstgid="515" source="Foreground_PNG.tsx"/>
 <tileset firstgid="3482" name="MiddlegroundCor" tilewidth="1920" tileheight="1080" tilecount="7" columns="0">
  <grid orientation="orthogonal" width="1" height="1"/>
  <tile id="0" x="260" y="0" width="1920" height="1080">
   <image source="../Textures/Middleground/Cor/Obj3.png" width="1920" height="1080"/>
  </tile>
  <tile id="1" x="490" y="0" width="1920" height="1080">
   <image source="../Textures/Middleground/Cor/Obj4.png" width="1920" height="1080"/>
  </tile>
  <tile id="2" x="70" y="0" width="1920" height="1080">
   <image source="../Textures/Middleground/Cor/Obj5.png" width="1920" height="1080"/>
  </tile>
  <tile id="3" x="290" y="0" width="1920" height="1080">
   <image source="../Textures/Middleground/Cor/Obj6.png" width="1920" height="1080"/>
  </tile>
  <tile id="4" x="200" y="0" width="1920" height="1080">
   <image source="../Textures/Middleground/Cor/Obj7.png" width="1920" height="1080"/>
  </tile>
  <tile id="5" x="130" y="0" width="1920" height="1080">
   <image source="../Textures/Middleground/Cor/Obj1.png" width="1920" height="1080"/>
  </tile>
  <tile id="6" x="100" y="0" width="1920" height="1080">
   <image source="../Textures/Middleground/Cor/Obj2.png" width="1920" height="1080"/>
  </tile>
 </tileset>
 <tileset firstgid="3489" name="Background4_Corazon" tilewidth="64" tileheight="64" tilecount="480" columns="30">
  <image source="../Textures/Backgrounds/Cor/Background4_Corazon.png" width="1920" height="1080"/>
 </tileset>
 <tileset firstgid="3969" name="MiddleSala2" tilewidth="64" tileheight="64" tilecount="1020" columns="30">
  <image source="../Textures/Middleground/Cor/MiddleSala2.png" width="1920" height="2176"/>
 </tileset>
 <layer id="5" name="Background" width="30" height="34">
  <properties>
   <property name="Draw" type="bool" value="true"/>
  </properties>
  <data>
   <tile/>
   <tile/>
   <tile/>
   <tile/>
   <tile/>
   <tile/>
   <tile/>
   <tile/>
   <tile/>
   <tile/>
   <tile/>
   <tile/>
   <tile/>
   <tile/>
   <tile/>
   <tile/>
   <tile/>
   <tile/>
   <tile/>
   <tile/>
   <tile/>
   <tile/>
   <tile/>
   <tile/>
   <tile/>
   <tile/>
   <tile/>
   <tile/>
   <tile/>
   <tile/>
   <tile/>
   <tile/>
   <tile/>
   <tile/>
   <tile/>
   <tile/>
   <tile/>
   <tile/>
   <tile/>
   <tile/>
   <tile/>
   <tile/>
   <tile/>
   <tile/>
   <tile/>
   <tile/>
   <tile/>
   <tile/>
   <tile/>
   <tile/>
   <tile/>
   <tile/>
   <tile/>
   <tile/>
   <tile/>
   <tile/>
   <tile/>
   <tile/>
   <tile/>
   <tile/>
   <tile gid="3489"/>
   <tile gid="3490"/>
   <tile gid="3491"/>
   <tile gid="3492"/>
   <tile gid="3493"/>
   <tile gid="3494"/>
   <tile gid="3495"/>
   <tile gid="3496"/>
   <tile gid="3497"/>
   <tile gid="3498"/>
   <tile gid="3499"/>
   <tile gid="3500"/>
   <tile gid="3501"/>
   <tile gid="3502"/>
   <tile gid="3503"/>
   <tile gid="3504"/>
   <tile gid="3505"/>
   <tile gid="3506"/>
   <tile gid="3507"/>
   <tile gid="3508"/>
   <tile gid="3509"/>
   <tile gid="3510"/>
   <tile gid="3511"/>
   <tile gid="3512"/>
   <tile gid="3513"/>
   <tile gid="3514"/>
   <tile gid="3515"/>
   <tile gid="3516"/>
   <tile gid="3517"/>
   <tile gid="3518"/>
   <tile gid="3519"/>
   <tile gid="3520"/>
   <tile gid="3521"/>
   <tile gid="3522"/>
   <tile gid="3523"/>
   <tile gid="3524"/>
   <tile gid="3525"/>
   <tile gid="3526"/>
   <tile gid="3527"/>
   <tile gid="3528"/>
   <tile gid="3529"/>
   <tile gid="3530"/>
   <tile gid="3531"/>
   <tile gid="3532"/>
   <tile gid="3533"/>
   <tile gid="3534"/>
   <tile gid="3535"/>
   <tile gid="3536"/>
   <tile gid="3537"/>
   <tile gid="3538"/>
   <tile gid="3539"/>
   <tile gid="3540"/>
   <tile gid="3541"/>
   <tile gid="3542"/>
   <tile gid="3543"/>
   <tile gid="3544"/>
   <tile gid="3545"/>
   <tile gid="3546"/>
   <tile gid="3547"/>
   <tile gid="3548"/>
   <tile gid="3549"/>
   <tile gid="3550"/>
   <tile gid="3551"/>
   <tile gid="3552"/>
   <tile gid="3553"/>
   <tile gid="3554"/>
   <tile gid="3555"/>
   <tile gid="3556"/>
   <tile gid="3557"/>
   <tile gid="3558"/>
   <tile gid="3559"/>
   <tile gid="3560"/>
   <tile gid="3561"/>
   <tile gid="3562"/>
   <tile gid="3563"/>
   <tile gid="3564"/>
   <tile gid="3565"/>
   <tile gid="3566"/>
   <tile gid="3567"/>
   <tile gid="3568"/>
   <tile gid="3569"/>
   <tile gid="3570"/>
   <tile gid="3571"/>
   <tile gid="3572"/>
   <tile gid="3573"/>
   <tile gid="3574"/>
   <tile gid="3575"/>
   <tile gid="3576"/>
   <tile gid="3577"/>
   <tile gid="3578"/>
   <tile gid="3579"/>
   <tile gid="3580"/>
   <tile gid="3581"/>
   <tile gid="3582"/>
   <tile gid="3583"/>
   <tile gid="3584"/>
   <tile gid="3585"/>
   <tile gid="3586"/>
   <tile gid="3587"/>
   <tile gid="3588"/>
   <tile gid="3589"/>
   <tile gid="3590"/>
   <tile gid="3591"/>
   <tile gid="3592"/>
   <tile gid="3593"/>
   <tile gid="3594"/>
   <tile gid="3595"/>
   <tile gid="3596"/>
   <tile gid="3597"/>
   <tile gid="3598"/>
   <tile gid="3599"/>
   <tile gid="3600"/>
   <tile gid="3601"/>
   <tile gid="3602"/>
   <tile gid="3603"/>
   <tile gid="3604"/>
   <tile gid="3605"/>
   <tile gid="3606"/>
   <tile gid="3607"/>
   <tile gid="3608"/>
   <tile gid="3609"/>
   <tile gid="3610"/>
   <tile gid="3611"/>
   <tile gid="3612"/>
   <tile gid="3613"/>
   <tile gid="3614"/>
   <tile gid="3615"/>
   <tile gid="3616"/>
   <tile gid="3617"/>
   <tile gid="3618"/>
   <tile gid="3619"/>
   <tile gid="3620"/>
   <tile gid="3621"/>
   <tile gid="3622"/>
   <tile gid="3623"/>
   <tile gid="3624"/>
   <tile gid="3625"/>
   <tile gid="3626"/>
   <tile gid="3627"/>
   <tile gid="3628"/>
   <tile gid="3629"/>
   <tile gid="3630"/>
   <tile gid="3631"/>
   <tile gid="3632"/>
   <tile gid="3633"/>
   <tile gid="3634"/>
   <tile gid="3635"/>
   <tile gid="3636"/>
   <tile gid="3637"/>
   <tile gid="3638"/>
   <tile gid="3639"/>
   <tile gid="3640"/>
   <tile gid="3641"/>
   <tile gid="3642"/>
   <tile gid="3643"/>
   <tile gid="3644"/>
   <tile gid="3645"/>
   <tile gid="3646"/>
   <tile gid="3647"/>
   <tile gid="3648"/>
   <tile gid="3649"/>
   <tile gid="3650"/>
   <tile gid="3651"/>
   <tile gid="3652"/>
   <tile gid="3653"/>
   <tile gid="3654"/>
   <tile gid="3655"/>
   <tile gid="3656"/>
   <tile gid="3657"/>
   <tile gid="3658"/>
   <tile gid="3659"/>
   <tile gid="3660"/>
   <tile gid="3661"/>
   <tile gid="3662"/>
   <tile gid="3663"/>
   <tile gid="3664"/>
   <tile gid="3665"/>
   <tile gid="3666"/>
   <tile gid="3667"/>
   <tile gid="3668"/>
   <tile gid="3669"/>
   <tile gid="3670"/>
   <tile gid="3671"/>
   <tile gid="3672"/>
   <tile gid="3673"/>
   <tile gid="3674"/>
   <tile gid="3675"/>
   <tile gid="3676"/>
   <tile gid="3677"/>
   <tile gid="3678"/>
   <tile gid="3679"/>
   <tile gid="3680"/>
   <tile gid="3681"/>
   <tile gid="3682"/>
   <tile gid="3683"/>
   <tile gid="3684"/>
   <tile gid="3685"/>
   <tile gid="3686"/>
   <tile gid="3687"/>
   <tile gid="3688"/>
   <tile gid="3689"/>
   <tile gid="3690"/>
   <tile gid="3691"/>
   <tile gid="3692"/>
   <tile gid="3693"/>
   <tile gid="3694"/>
   <tile gid="3695"/>
   <tile gid="3696"/>
   <tile gid="3697"/>
   <tile gid="3698"/>
   <tile gid="3699"/>
   <tile gid="3700"/>
   <tile gid="3701"/>
   <tile gid="3702"/>
   <tile gid="3703"/>
   <tile gid="3704"/>
   <tile gid="3705"/>
   <tile gid="3706"/>
   <tile gid="3707"/>
   <tile gid="3708"/>
   <tile gid="3709"/>
   <tile gid="3710"/>
   <tile gid="3711"/>
   <tile gid="3712"/>
   <tile gid="3713"/>
   <tile gid="3714"/>
   <tile gid="3715"/>
   <tile gid="3716"/>
   <tile gid="3717"/>
   <tile gid="3718"/>
   <tile gid="3719"/>
   <tile gid="3720"/>
   <tile gid="3721"/>
   <tile gid="3722"/>
   <tile gid="3723"/>
   <tile gid="3724"/>
   <tile gid="3725"/>
   <tile gid="3726"/>
   <tile gid="3727"/>
   <tile gid="3728"/>
   <tile gid="3729"/>
   <tile gid="3730"/>
   <tile gid="3731"/>
   <tile gid="3732"/>
   <tile gid="3733"/>
   <tile gid="3734"/>
   <tile gid="3735"/>
   <tile gid="3736"/>
   <tile gid="3737"/>
   <tile gid="3738"/>
   <tile gid="3739"/>
   <tile gid="3740"/>
   <tile gid="3741"/>
   <tile gid="3742"/>
   <tile gid="3743"/>
   <tile gid="3744"/>
   <tile gid="3745"/>
   <tile gid="3746"/>
   <tile gid="3747"/>
   <tile gid="3748"/>
   <tile gid="3749"/>
   <tile gid="3750"/>
   <tile gid="3751"/>
   <tile gid="3752"/>
   <tile gid="3753"/>
   <tile gid="3754"/>
   <tile gid="3755"/>
   <tile gid="3756"/>
   <tile gid="3757"/>
   <tile gid="3758"/>
   <tile gid="3759"/>
   <tile gid="3760"/>
   <tile gid="3761"/>
   <tile gid="3762"/>
   <tile gid="3763"/>
   <tile gid="3764"/>
   <tile gid="3765"/>
   <tile gid="3766"/>
   <tile gid="3767"/>
   <tile gid="3768"/>
   <tile gid="3769"/>
   <tile gid="3770"/>
   <tile gid="3771"/>
   <tile gid="3772"/>
   <tile gid="3773"/>
   <tile gid="3774"/>
   <tile gid="3775"/>
   <tile gid="3776"/>
   <tile gid="3777"/>
   <tile gid="3778"/>
   <tile gid="3779"/>
   <tile gid="3780"/>
   <tile gid="3781"/>
   <tile gid="3782"/>
   <tile gid="3783"/>
   <tile gid="3784"/>
   <tile gid="3785"/>
   <tile gid="3786"/>
   <tile gid="3787"/>
   <tile gid="3788"/>
   <tile gid="3789"/>
   <tile gid="3790"/>
   <tile gid="3791"/>
   <tile gid="3792"/>
   <tile gid="3793"/>
   <tile gid="3794"/>
   <tile gid="3795"/>
   <tile gid="3796"/>
   <tile gid="3797"/>
   <tile gid="3798"/>
   <tile gid="3799"/>
   <tile gid="3800"/>
   <tile gid="3801"/>
   <tile gid="3802"/>
   <tile gid="3803"/>
   <tile gid="3804"/>
   <tile gid="3805"/>
   <tile gid="3806"/>
   <tile gid="3807"/>
   <tile gid="3808"/>
   <tile gid="3809"/>
   <tile gid="3810"/>
   <tile gid="3811"/>
   <tile gid="3812"/>
   <tile gid="3813"/>
   <tile gid="3814"/>
   <tile gid="3815"/>
   <tile gid="3816"/>
   <tile gid="3817"/>
   <tile gid="3818"/>
   <tile gid="3819"/>
   <tile gid="3820"/>
   <tile gid="3821"/>
   <tile gid="3822"/>
   <tile gid="3823"/>
   <tile gid="3824"/>
   <tile gid="3825"/>
   <tile gid="3826"/>
   <tile gid="3827"/>
   <tile gid="3828"/>
   <tile gid="3829"/>
   <tile gid="3830"/>
   <tile gid="3831"/>
   <tile gid="3832"/>
   <tile gid="3833"/>
   <tile gid="3834"/>
   <tile gid="3835"/>
   <tile gid="3836"/>
   <tile gid="3837"/>
   <tile gid="3838"/>
   <tile gid="3839"/>
   <tile gid="3840"/>
   <tile gid="3841"/>
   <tile gid="3842"/>
   <tile gid="3843"/>
   <tile gid="3844"/>
   <tile gid="3845"/>
   <tile gid="3846"/>
   <tile gid="3847"/>
   <tile gid="3848"/>
   <tile gid="3849"/>
   <tile gid="3850"/>
   <tile gid="3851"/>
   <tile gid="3852"/>
   <tile gid="3853"/>
   <tile gid="3854"/>
   <tile gid="3855"/>
   <tile gid="3856"/>
   <tile gid="3857"/>
   <tile gid="3858"/>
   <tile gid="3859"/>
   <tile gid="3860"/>
   <tile gid="3861"/>
   <tile gid="3862"/>
   <tile gid="3863"/>
   <tile gid="3864"/>
   <tile gid="3865"/>
   <tile gid="3866"/>
   <tile gid="3867"/>
   <tile gid="3868"/>
   <tile gid="3869"/>
   <tile gid="3870"/>
   <tile gid="3871"/>
   <tile gid="3872"/>
   <tile gid="3873"/>
   <tile gid="3874"/>
   <tile gid="3875"/>
   <tile gid="3876"/>
   <tile gid="3877"/>
   <tile gid="3878"/>
   <tile gid="3879"/>
   <tile gid="3880"/>
   <tile gid="3881"/>
   <tile gid="3882"/>
   <tile gid="3883"/>
   <tile gid="3884"/>
   <tile gid="3885"/>
   <tile gid="3886"/>
   <tile gid="3887"/>
   <tile gid="3888"/>
   <tile gid="3889"/>
   <tile gid="3890"/>
   <tile gid="3891"/>
   <tile gid="3892"/>
   <tile gid="3893"/>
   <tile gid="3894"/>
   <tile gid="3895"/>
   <tile gid="3896"/>
   <tile gid="3897"/>
   <tile gid="3898"/>
   <tile gid="3899"/>
   <tile gid="3900"/>
   <tile gid="3901"/>
   <tile gid="3902"/>
   <tile gid="3903"/>
   <tile gid="3904"/>
   <tile gid="3905"/>
   <tile gid="3906"/>
   <tile gid="3907"/>
   <tile gid="3908"/>
   <tile gid="3909"/>
   <tile gid="3910"/>
   <tile gid="3911"/>
   <tile gid="3912"/>
   <tile gid="3913"/>
   <tile gid="3914"/>
   <tile gid="3915"/>
   <tile gid="3916"/>
   <tile gid="3917"/>
   <tile gid="3918"/>
   <tile gid="3919"/>
   <tile gid="3920"/>
   <tile gid="3921"/>
   <tile gid="3922"/>
   <tile gid="3923"/>
   <tile gid="3924"/>
   <tile gid="3925"/>
   <tile gid="3926"/>
   <tile gid="3927"/>
   <tile gid="3928"/>
   <tile gid="3929"/>
   <tile gid="3930"/>
   <tile gid="3931"/>
   <tile gid="3932"/>
   <tile gid="3933"/>
   <tile gid="3934"/>
   <tile gid="3935"/>
   <tile gid="3936"/>
   <tile gid="3937"/>
   <tile gid="3938"/>
   <tile gid="3939"/>
   <tile gid="3940"/>
   <tile gid="3941"/>
   <tile gid="3942"/>
   <tile gid="3943"/>
   <tile gid="3944"/>
   <tile gid="3945"/>
   <tile gid="3946"/>
   <tile gid="3947"/>
   <tile gid="3948"/>
   <tile gid="3949"/>
   <tile gid="3950"/>
   <tile gid="3951"/>
   <tile gid="3952"/>
   <tile gid="3953"/>
   <tile gid="3954"/>
   <tile gid="3955"/>
   <tile gid="3956"/>
   <tile gid="3957"/>
   <tile gid="3958"/>
   <tile gid="3959"/>
   <tile gid="3960"/>
   <tile gid="3961"/>
   <tile gid="3962"/>
   <tile gid="3963"/>
   <tile gid="3964"/>
   <tile gid="3965"/>
   <tile gid="3966"/>
   <tile gid="3967"/>
   <tile gid="3968"/>
   <tile gid="3489"/>
   <tile gid="3490"/>
   <tile gid="3491"/>
   <tile gid="3492"/>
   <tile gid="3493"/>
   <tile gid="3494"/>
   <tile gid="3495"/>
   <tile gid="3496"/>
   <tile gid="3497"/>
   <tile gid="3498"/>
   <tile gid="3499"/>
   <tile gid="3500"/>
   <tile gid="3501"/>
   <tile gid="3502"/>
   <tile gid="3503"/>
   <tile gid="3504"/>
   <tile gid="3505"/>
   <tile gid="3506"/>
   <tile gid="3507"/>
   <tile gid="3508"/>
   <tile gid="3509"/>
   <tile gid="3510"/>
   <tile gid="3511"/>
   <tile gid="3512"/>
   <tile gid="3513"/>
   <tile gid="3514"/>
   <tile gid="3515"/>
   <tile gid="3516"/>
   <tile gid="3517"/>
   <tile gid="3518"/>
   <tile gid="3519"/>
   <tile gid="3520"/>
   <tile gid="3521"/>
   <tile gid="3522"/>
   <tile gid="3523"/>
   <tile gid="3524"/>
   <tile gid="3525"/>
   <tile gid="3526"/>
   <tile gid="3527"/>
   <tile gid="3528"/>
   <tile gid="3529"/>
   <tile gid="3530"/>
   <tile gid="3531"/>
   <tile gid="3532"/>
   <tile gid="3533"/>
   <tile gid="3534"/>
   <tile gid="3535"/>
   <tile gid="3536"/>
   <tile gid="3537"/>
   <tile gid="3538"/>
   <tile gid="3539"/>
   <tile gid="3540"/>
   <tile gid="3541"/>
   <tile gid="3542"/>
   <tile gid="3543"/>
   <tile gid="3544"/>
   <tile gid="3545"/>
   <tile gid="3546"/>
   <tile gid="3547"/>
   <tile gid="3548"/>
   <tile gid="3549"/>
   <tile gid="3550"/>
   <tile gid="3551"/>
   <tile gid="3552"/>
   <tile gid="3553"/>
   <tile gid="3554"/>
   <tile gid="3555"/>
   <tile gid="3556"/>
   <tile gid="3557"/>
   <tile gid="3558"/>
   <tile gid="3559"/>
   <tile gid="3560"/>
   <tile gid="3561"/>
   <tile gid="3562"/>
   <tile gid="3563"/>
   <tile gid="3564"/>
   <tile gid="3565"/>
   <tile gid="3566"/>
   <tile gid="3567"/>
   <tile gid="3568"/>
   <tile gid="3569"/>
   <tile gid="3570"/>
   <tile gid="3571"/>
   <tile gid="3572"/>
   <tile gid="3573"/>
   <tile gid="3574"/>
   <tile gid="3575"/>
   <tile gid="3576"/>
   <tile gid="3577"/>
   <tile gid="3578"/>
   <tile gid="3579"/>
   <tile gid="3580"/>
   <tile gid="3581"/>
   <tile gid="3582"/>
   <tile gid="3583"/>
   <tile gid="3584"/>
   <tile gid="3585"/>
   <tile gid="3586"/>
   <tile gid="3587"/>
   <tile gid="3588"/>
   <tile gid="3589"/>
   <tile gid="3590"/>
   <tile gid="3591"/>
   <tile gid="3592"/>
   <tile gid="3593"/>
   <tile gid="3594"/>
   <tile gid="3595"/>
   <tile gid="3596"/>
   <tile gid="3597"/>
   <tile gid="3598"/>
   <tile gid="3599"/>
   <tile gid="3600"/>
   <tile gid="3601"/>
   <tile gid="3602"/>
   <tile gid="3603"/>
   <tile gid="3604"/>
   <tile gid="3605"/>
   <tile gid="3606"/>
   <tile gid="3607"/>
   <tile gid="3608"/>
   <tile gid="3609"/>
   <tile gid="3610"/>
   <tile gid="3611"/>
   <tile gid="3612"/>
   <tile gid="3613"/>
   <tile gid="3614"/>
   <tile gid="3615"/>
   <tile gid="3616"/>
   <tile gid="3617"/>
   <tile gid="3618"/>
   <tile gid="3619"/>
   <tile gid="3620"/>
   <tile gid="3621"/>
   <tile gid="3622"/>
   <tile gid="3623"/>
   <tile gid="3624"/>
   <tile gid="3625"/>
   <tile gid="3626"/>
   <tile gid="3627"/>
   <tile gid="3628"/>
   <tile gid="3629"/>
   <tile gid="3630"/>
   <tile gid="3631"/>
   <tile gid="3632"/>
   <tile gid="3633"/>
   <tile gid="3634"/>
   <tile gid="3635"/>
   <tile gid="3636"/>
   <tile gid="3637"/>
   <tile gid="3638"/>
   <tile gid="3639"/>
   <tile gid="3640"/>
   <tile gid="3641"/>
   <tile gid="3642"/>
   <tile gid="3643"/>
   <tile gid="3644"/>
   <tile gid="3645"/>
   <tile gid="3646"/>
   <tile gid="3647"/>
   <tile gid="3648"/>
   <tile gid="3649"/>
   <tile gid="3650"/>
   <tile gid="3651"/>
   <tile gid="3652"/>
   <tile gid="3653"/>
   <tile gid="3654"/>
   <tile gid="3655"/>
   <tile gid="3656"/>
   <tile gid="3657"/>
   <tile gid="3658"/>
   <tile gid="3659"/>
   <tile gid="3660"/>
   <tile gid="3661"/>
   <tile gid="3662"/>
   <tile gid="3663"/>
   <tile gid="3664"/>
   <tile gid="3665"/>
   <tile gid="3666"/>
   <tile gid="3667"/>
   <tile gid="3668"/>
   <tile gid="3669"/>
   <tile gid="3670"/>
   <tile gid="3671"/>
   <tile gid="3672"/>
   <tile gid="3673"/>
   <tile gid="3674"/>
   <tile gid="3675"/>
   <tile gid="3676"/>
   <tile gid="3677"/>
   <tile gid="3678"/>
   <tile gid="3679"/>
   <tile gid="3680"/>
   <tile gid="3681"/>
   <tile gid="3682"/>
   <tile gid="3683"/>
   <tile gid="3684"/>
   <tile gid="3685"/>
   <tile gid="3686"/>
   <tile gid="3687"/>
   <tile gid="3688"/>
   <tile gid="3689"/>
   <tile gid="3690"/>
   <tile gid="3691"/>
   <tile gid="3692"/>
   <tile gid="3693"/>
   <tile gid="3694"/>
   <tile gid="3695"/>
   <tile gid="3696"/>
   <tile gid="3697"/>
   <tile gid="3698"/>
   <tile gid="3699"/>
   <tile gid="3700"/>
   <tile gid="3701"/>
   <tile gid="3702"/>
   <tile gid="3703"/>
   <tile gid="3704"/>
   <tile gid="3705"/>
   <tile gid="3706"/>
   <tile gid="3707"/>
   <tile gid="3708"/>
   <tile gid="3709"/>
   <tile gid="3710"/>
   <tile gid="3711"/>
   <tile gid="3712"/>
   <tile gid="3713"/>
   <tile gid="3714"/>
   <tile gid="3715"/>
   <tile gid="3716"/>
   <tile gid="3717"/>
   <tile gid="3718"/>
   <tile gid="3719"/>
   <tile gid="3720"/>
   <tile gid="3721"/>
   <tile gid="3722"/>
   <tile gid="3723"/>
   <tile gid="3724"/>
   <tile gid="3725"/>
   <tile gid="3726"/>
   <tile gid="3727"/>
   <tile gid="3728"/>
   <tile gid="3729"/>
   <tile gid="3730"/>
   <tile gid="3731"/>
   <tile gid="3732"/>
   <tile gid="3733"/>
   <tile gid="3734"/>
   <tile gid="3735"/>
   <tile gid="3736"/>
   <tile gid="3737"/>
   <tile gid="3738"/>
   <tile gid="3739"/>
   <tile gid="3740"/>
   <tile gid="3741"/>
   <tile gid="3742"/>
   <tile gid="3743"/>
   <tile gid="3744"/>
   <tile gid="3745"/>
   <tile gid="3746"/>
   <tile gid="3747"/>
   <tile gid="3748"/>
   <tile gid="3749"/>
   <tile gid="3750"/>
   <tile gid="3751"/>
   <tile gid="3752"/>
   <tile gid="3753"/>
   <tile gid="3754"/>
   <tile gid="3755"/>
   <tile gid="3756"/>
   <tile gid="3757"/>
   <tile gid="3758"/>
   <tile gid="3759"/>
   <tile gid="3760"/>
   <tile gid="3761"/>
   <tile gid="3762"/>
   <tile gid="3763"/>
   <tile gid="3764"/>
   <tile gid="3765"/>
   <tile gid="3766"/>
   <tile gid="3767"/>
   <tile gid="3768"/>
   <tile gid="3769"/>
   <tile gid="3770"/>
   <tile gid="3771"/>
   <tile gid="3772"/>
   <tile gid="3773"/>
   <tile gid="3774"/>
   <tile gid="3775"/>
   <tile gid="3776"/>
   <tile gid="3777"/>
   <tile gid="3778"/>
   <tile gid="3779"/>
   <tile gid="3780"/>
   <tile gid="3781"/>
   <tile gid="3782"/>
   <tile gid="3783"/>
   <tile gid="3784"/>
   <tile gid="3785"/>
   <tile gid="3786"/>
   <tile gid="3787"/>
   <tile gid="3788"/>
   <tile gid="3789"/>
   <tile gid="3790"/>
   <tile gid="3791"/>
   <tile gid="3792"/>
   <tile gid="3793"/>
   <tile gid="3794"/>
   <tile gid="3795"/>
   <tile gid="3796"/>
   <tile gid="3797"/>
   <tile gid="3798"/>
   <tile gid="3799"/>
   <tile gid="3800"/>
   <tile gid="3801"/>
   <tile gid="3802"/>
   <tile gid="3803"/>
   <tile gid="3804"/>
   <tile gid="3805"/>
   <tile gid="3806"/>
   <tile gid="3807"/>
   <tile gid="3808"/>
   <tile gid="3809"/>
   <tile gid="3810"/>
   <tile gid="3811"/>
   <tile gid="3812"/>
   <tile gid="3813"/>
   <tile gid="3814"/>
   <tile gid="3815"/>
   <tile gid="3816"/>
   <tile gid="3817"/>
   <tile gid="3818"/>
   <tile gid="3819"/>
   <tile gid="3820"/>
   <tile gid="3821"/>
   <tile gid="3822"/>
   <tile gid="3823"/>
   <tile gid="3824"/>
   <tile gid="3825"/>
   <tile gid="3826"/>
   <tile gid="3827"/>
   <tile gid="3828"/>
   <tile gid="3829"/>
   <tile gid="3830"/>
   <tile gid="3831"/>
   <tile gid="3832"/>
   <tile gid="3833"/>
   <tile gid="3834"/>
   <tile gid="3835"/>
   <tile gid="3836"/>
   <tile gid="3837"/>
   <tile gid="3838"/>
   <tile gid="3839"/>
   <tile gid="3840"/>
   <tile gid="3841"/>
   <tile gid="3842"/>
   <tile gid="3843"/>
   <tile gid="3844"/>
   <tile gid="3845"/>
   <tile gid="3846"/>
   <tile gid="3847"/>
   <tile gid="3848"/>
   <tile gid="3849"/>
   <tile gid="3850"/>
   <tile gid="3851"/>
   <tile gid="3852"/>
   <tile gid="3853"/>
   <tile gid="3854"/>
   <tile gid="3855"/>
   <tile gid="3856"/>
   <tile gid="3857"/>
   <tile gid="3858"/>
   <tile gid="3859"/>
   <tile gid="3860"/>
   <tile gid="3861"/>
   <tile gid="3862"/>
   <tile gid="3863"/>
   <tile gid="3864"/>
   <tile gid="3865"/>
   <tile gid="3866"/>
   <tile gid="3867"/>
   <tile gid="3868"/>
   <tile gid="3869"/>
   <tile gid="3870"/>
   <tile gid="3871"/>
   <tile gid="3872"/>
   <tile gid="3873"/>
   <tile gid="3874"/>
   <tile gid="3875"/>
   <tile gid="3876"/>
   <tile gid="3877"/>
   <tile gid="3878"/>
   <tile gid="3879"/>
   <tile gid="3880"/>
   <tile gid="3881"/>
   <tile gid="3882"/>
   <tile gid="3883"/>
   <tile gid="3884"/>
   <tile gid="3885"/>
   <tile gid="3886"/>
   <tile gid="3887"/>
   <tile gid="3888"/>
   <tile gid="3889"/>
   <tile gid="3890"/>
   <tile gid="3891"/>
   <tile gid="3892"/>
   <tile gid="3893"/>
   <tile gid="3894"/>
   <tile gid="3895"/>
   <tile gid="3896"/>
   <tile gid="3897"/>
   <tile gid="3898"/>
   <tile gid="3899"/>
   <tile gid="3900"/>
   <tile gid="3901"/>
   <tile gid="3902"/>
   <tile gid="3903"/>
   <tile gid="3904"/>
   <tile gid="3905"/>
   <tile gid="3906"/>
   <tile gid="3907"/>
   <tile gid="3908"/>
   <tile gid="3909"/>
   <tile gid="3910"/>
   <tile gid="3911"/>
   <tile gid="3912"/>
   <tile gid="3913"/>
   <tile gid="3914"/>
   <tile gid="3915"/>
   <tile gid="3916"/>
   <tile gid="3917"/>
   <tile gid="3918"/>
   <tile gid="3919"/>
   <tile gid="3920"/>
   <tile gid="3921"/>
   <tile gid="3922"/>
   <tile gid="3923"/>
   <tile gid="3924"/>
   <tile gid="3925"/>
   <tile gid="3926"/>
   <tile gid="3927"/>
   <tile gid="3928"/>
   <tile gid="3929"/>
   <tile gid="3930"/>
   <tile gid="3931"/>
   <tile gid="3932"/>
   <tile gid="3933"/>
   <tile gid="3934"/>
   <tile gid="3935"/>
   <tile gid="3936"/>
   <tile gid="3937"/>
   <tile gid="3938"/>
   <tile gid="3939"/>
   <tile gid="3940"/>
   <tile gid="3941"/>
   <tile gid="3942"/>
   <tile gid="3943"/>
   <tile gid="3944"/>
   <tile gid="3945"/>
   <tile gid="3946"/>
   <tile gid="3947"/>
   <tile gid="3948"/>
   <tile gid="3949"/>
   <tile gid="3950"/>
   <tile gid="3951"/>
   <tile gid="3952"/>
   <tile gid="3953"/>
   <tile gid="3954"/>
   <tile gid="3955"/>
   <tile gid="3956"/>
   <tile gid="3957"/>
   <tile gid="3958"/>
   <tile gid="3959"/>
   <tile gid="3960"/>
   <tile gid="3961"/>
   <tile gid="3962"/>
   <tile gid="3963"/>
   <tile gid="3964"/>
   <tile gid="3965"/>
   <tile gid="3966"/>
   <tile gid="3967"/>
   <tile gid="3968"/>
  </data>
 </layer>
 <layer id="7" name="Middleground" width="30" height="34">
  <properties>
   <property name="Draw" type="bool" value="true"/>
  </properties>
  <data>
   <tile gid="3969"/>
   <tile gid="3970"/>
   <tile gid="3971"/>
   <tile gid="3972"/>
   <tile gid="3973"/>
   <tile gid="3974"/>
   <tile gid="3975"/>
   <tile gid="3976"/>
   <tile gid="3977"/>
   <tile gid="3978"/>
   <tile gid="3979"/>
   <tile gid="3980"/>
   <tile gid="3981"/>
   <tile gid="3982"/>
   <tile gid="3983"/>
   <tile gid="3984"/>
   <tile gid="3985"/>
   <tile gid="3986"/>
   <tile gid="3987"/>
   <tile gid="3988"/>
   <tile gid="3989"/>
   <tile gid="3990"/>
   <tile gid="3991"/>
   <tile gid="3992"/>
   <tile gid="3993"/>
   <tile gid="3994"/>
   <tile gid="3995"/>
   <tile gid="3996"/>
   <tile gid="3997"/>
   <tile gid="3998"/>
   <tile gid="3999"/>
   <tile gid="4000"/>
   <tile gid="4001"/>
   <tile gid="4002"/>
   <tile gid="4003"/>
   <tile gid="4004"/>
   <tile gid="4005"/>
   <tile gid="4006"/>
   <tile gid="4007"/>
   <tile gid="4008"/>
   <tile gid="4009"/>
   <tile gid="4010"/>
   <tile gid="4011"/>
   <tile gid="4012"/>
   <tile gid="4013"/>
   <tile gid="4014"/>
   <tile gid="4015"/>
   <tile gid="4016"/>
   <tile gid="4017"/>
   <tile gid="4018"/>
   <tile gid="4019"/>
   <tile gid="4020"/>
   <tile gid="4021"/>
   <tile gid="4022"/>
   <tile gid="4023"/>
   <tile gid="4024"/>
   <tile gid="4025"/>
   <tile gid="4026"/>
   <tile gid="4027"/>
   <tile gid="4028"/>
   <tile gid="4029"/>
   <tile gid="4030"/>
   <tile gid="4031"/>
   <tile gid="4032"/>
   <tile gid="4033"/>
   <tile gid="4034"/>
   <tile gid="4035"/>
   <tile gid="4036"/>
   <tile gid="4037"/>
   <tile gid="4038"/>
   <tile gid="4039"/>
   <tile gid="4040"/>
   <tile gid="4041"/>
   <tile gid="4042"/>
   <tile gid="4043"/>
   <tile gid="4044"/>
   <tile gid="4045"/>
   <tile gid="4046"/>
   <tile gid="4047"/>
   <tile gid="4048"/>
   <tile gid="4049"/>
   <tile gid="4050"/>
   <tile gid="4051"/>
   <tile gid="4052"/>
   <tile gid="4053"/>
   <tile gid="4054"/>
   <tile gid="4055"/>
   <tile gid="4056"/>
   <tile gid="4057"/>
   <tile gid="4058"/>
   <tile gid="4059"/>
   <tile gid="4060"/>
   <tile gid="4061"/>
   <tile gid="4062"/>
   <tile gid="4063"/>
   <tile gid="4064"/>
   <tile gid="4065"/>
   <tile gid="4066"/>
   <tile gid="4067"/>
   <tile gid="4068"/>
   <tile gid="4069"/>
   <tile gid="4070"/>
   <tile gid="4071"/>
   <tile gid="4072"/>
   <tile gid="4073"/>
   <tile gid="4074"/>
   <tile gid="4075"/>
   <tile gid="4076"/>
   <tile gid="4077"/>
   <tile gid="4078"/>
   <tile gid="4079"/>
   <tile gid="4080"/>
   <tile gid="4081"/>
   <tile gid="4082"/>
   <tile gid="4083"/>
   <tile gid="4084"/>
   <tile gid="4085"/>
   <tile gid="4086"/>
   <tile gid="4087"/>
   <tile gid="4088"/>
   <tile gid="4089"/>
   <tile gid="4090"/>
   <tile gid="4091"/>
   <tile gid="4092"/>
   <tile gid="4093"/>
   <tile gid="4094"/>
   <tile gid="4095"/>
   <tile gid="4096"/>
   <tile gid="4097"/>
   <tile gid="4098"/>
   <tile gid="4099"/>
   <tile gid="4100"/>
   <tile gid="4101"/>
   <tile gid="4102"/>
   <tile gid="4103"/>
   <tile gid="4104"/>
   <tile gid="4105"/>
   <tile gid="4106"/>
   <tile gid="4107"/>
   <tile gid="4108"/>
   <tile gid="4109"/>
   <tile gid="4110"/>
   <tile gid="4111"/>
   <tile gid="4112"/>
   <tile gid="4113"/>
   <tile gid="4114"/>
   <tile gid="4115"/>
   <tile gid="4116"/>
   <tile gid="4117"/>
   <tile gid="4118"/>
   <tile gid="4119"/>
   <tile gid="4120"/>
   <tile gid="4121"/>
   <tile gid="4122"/>
   <tile gid="4123"/>
   <tile gid="4124"/>
   <tile gid="4125"/>
   <tile gid="4126"/>
   <tile gid="4127"/>
   <tile gid="4128"/>
   <tile gid="4129"/>
   <tile gid="4130"/>
   <tile gid="4131"/>
   <tile gid="4132"/>
   <tile gid="4133"/>
   <tile gid="4134"/>
   <tile gid="4135"/>
   <tile gid="4136"/>
   <tile gid="4137"/>
   <tile gid="4138"/>
   <tile gid="4139"/>
   <tile gid="4140"/>
   <tile gid="4141"/>
   <tile gid="4142"/>
   <tile gid="4143"/>
   <tile gid="4144"/>
   <tile gid="4145"/>
   <tile gid="4146"/>
   <tile gid="4147"/>
   <tile gid="4148"/>
   <tile gid="4149"/>
   <tile gid="4150"/>
   <tile gid="4151"/>
   <tile gid="4152"/>
   <tile gid="4153"/>
   <tile gid="4154"/>
   <tile gid="4155"/>
   <tile gid="4156"/>
   <tile gid="4157"/>
   <tile gid="4158"/>
   <tile gid="4159"/>
   <tile gid="4160"/>
   <tile gid="4161"/>
   <tile gid="4162"/>
   <tile gid="4163"/>
   <tile gid="4164"/>
   <tile gid="4165"/>
   <tile gid="4166"/>
   <tile gid="4167"/>
   <tile gid="4168"/>
   <tile gid="4169"/>
   <tile gid="4170"/>
   <tile gid="4171"/>
   <tile gid="4172"/>
   <tile gid="4173"/>
   <tile gid="4174"/>
   <tile gid="4175"/>
   <tile gid="4176"/>
   <tile gid="4177"/>
   <tile gid="4178"/>
   <tile gid="4179"/>
   <tile gid="4180"/>
   <tile gid="4181"/>
   <tile gid="4182"/>
   <tile gid="4183"/>
   <tile gid="4184"/>
   <tile gid="4185"/>
   <tile gid="4186"/>
   <tile gid="4187"/>
   <tile gid="4188"/>
   <tile gid="4189"/>
   <tile gid="4190"/>
   <tile gid="4191"/>
   <tile gid="4192"/>
   <tile gid="4193"/>
   <tile gid="4194"/>
   <tile gid="4195"/>
   <tile gid="4196"/>
   <tile gid="4197"/>
   <tile gid="4198"/>
   <tile gid="4199"/>
   <tile gid="4200"/>
   <tile gid="4201"/>
   <tile gid="4202"/>
   <tile gid="4203"/>
   <tile gid="4204"/>
   <tile gid="4205"/>
   <tile gid="4206"/>
   <tile gid="4207"/>
   <tile gid="4208"/>
   <tile gid="4209"/>
   <tile gid="4210"/>
   <tile gid="4211"/>
   <tile gid="4212"/>
   <tile gid="4213"/>
   <tile gid="4214"/>
   <tile gid="4215"/>
   <tile gid="4216"/>
   <tile gid="4217"/>
   <tile gid="4218"/>
   <tile gid="4219"/>
   <tile gid="4220"/>
   <tile gid="4221"/>
   <tile gid="4222"/>
   <tile gid="4223"/>
   <tile gid="4224"/>
   <tile gid="4225"/>
   <tile gid="4226"/>
   <tile gid="4227"/>
   <tile gid="4228"/>
   <tile gid="4229"/>
   <tile gid="4230"/>
   <tile gid="4231"/>
   <tile gid="4232"/>
   <tile gid="4233"/>
   <tile gid="4234"/>
   <tile gid="4235"/>
   <tile gid="4236"/>
   <tile gid="4237"/>
   <tile gid="4238"/>
   <tile gid="4239"/>
   <tile gid="4240"/>
   <tile gid="4241"/>
   <tile gid="4242"/>
   <tile gid="4243"/>
   <tile gid="4244"/>
   <tile gid="4245"/>
   <tile gid="4246"/>
   <tile gid="4247"/>
   <tile gid="4248"/>
   <tile gid="4249"/>
   <tile gid="4250"/>
   <tile gid="4251"/>
   <tile gid="4252"/>
   <tile gid="4253"/>
   <tile gid="4254"/>
   <tile gid="4255"/>
   <tile gid="4256"/>
   <tile gid="4257"/>
   <tile gid="4258"/>
   <tile gid="4259"/>
   <tile gid="4260"/>
   <tile gid="4261"/>
   <tile gid="4262"/>
   <tile gid="4263"/>
   <tile gid="4264"/>
   <tile gid="4265"/>
   <tile gid="4266"/>
   <tile gid="4267"/>
   <tile gid="4268"/>
   <tile gid="4269"/>
   <tile gid="4270"/>
   <tile gid="4271"/>
   <tile gid="4272"/>
   <tile gid="4273"/>
   <tile gid="4274"/>
   <tile gid="4275"/>
   <tile gid="4276"/>
   <tile gid="4277"/>
   <tile gid="4278"/>
   <tile gid="4279"/>
   <tile gid="4280"/>
   <tile gid="4281"/>
   <tile gid="4282"/>
   <tile gid="4283"/>
   <tile gid="4284"/>
   <tile gid="4285"/>
   <tile gid="4286"/>
   <tile gid="4287"/>
   <tile gid="4288"/>
   <tile gid="4289"/>
   <tile gid="4290"/>
   <tile gid="4291"/>
   <tile gid="4292"/>
   <tile gid="4293"/>
   <tile gid="4294"/>
   <tile gid="4295"/>
   <tile gid="4296"/>
   <tile gid="4297"/>
   <tile gid="4298"/>
   <tile gid="4299"/>
   <tile gid="4300"/>
   <tile gid="4301"/>
   <tile gid="4302"/>
   <tile gid="4303"/>
   <tile gid="4304"/>
   <tile gid="4305"/>
   <tile gid="4306"/>
   <tile gid="4307"/>
   <tile gid="4308"/>
   <tile gid="4309"/>
   <tile gid="4310"/>
   <tile gid="4311"/>
   <tile gid="4312"/>
   <tile gid="4313"/>
   <tile gid="4314"/>
   <tile gid="4315"/>
   <tile gid="4316"/>
   <tile gid="4317"/>
   <tile gid="4318"/>
   <tile gid="4319"/>
   <tile gid="4320"/>
   <tile gid="4321"/>
   <tile gid="4322"/>
   <tile gid="4323"/>
   <tile gid="4324"/>
   <tile gid="4325"/>
   <tile gid="4326"/>
   <tile gid="4327"/>
   <tile gid="4328"/>
   <tile gid="4329"/>
   <tile gid="4330"/>
   <tile gid="4331"/>
   <tile gid="4332"/>
   <tile gid="4333"/>
   <tile gid="4334"/>
   <tile gid="4335"/>
   <tile gid="4336"/>
   <tile gid="4337"/>
   <tile gid="4338"/>
   <tile gid="4339"/>
   <tile gid="4340"/>
   <tile gid="4341"/>
   <tile gid="4342"/>
   <tile gid="4343"/>
   <tile gid="4344"/>
   <tile gid="4345"/>
   <tile gid="4346"/>
   <tile gid="4347"/>
   <tile gid="4348"/>
   <tile gid="4349"/>
   <tile gid="4350"/>
   <tile gid="4351"/>
   <tile gid="4352"/>
   <tile gid="4353"/>
   <tile gid="4354"/>
   <tile gid="4355"/>
   <tile gid="4356"/>
   <tile gid="4357"/>
   <tile gid="4358"/>
   <tile gid="4359"/>
   <tile gid="4360"/>
   <tile gid="4361"/>
   <tile gid="4362"/>
   <tile gid="4363"/>
   <tile gid="4364"/>
   <tile gid="4365"/>
   <tile gid="4366"/>
   <tile gid="4367"/>
   <tile gid="4368"/>
   <tile gid="4369"/>
   <tile gid="4370"/>
   <tile gid="4371"/>
   <tile gid="4372"/>
   <tile gid="4373"/>
   <tile gid="4374"/>
   <tile gid="4375"/>
   <tile gid="4376"/>
   <tile gid="4377"/>
   <tile gid="4378"/>
   <tile gid="4379"/>
   <tile gid="4380"/>
   <tile gid="4381"/>
   <tile gid="4382"/>
   <tile gid="4383"/>
   <tile gid="4384"/>
   <tile gid="4385"/>
   <tile gid="4386"/>
   <tile gid="4387"/>
   <tile gid="4388"/>
   <tile gid="4389"/>
   <tile gid="4390"/>
   <tile gid="4391"/>
   <tile gid="4392"/>
   <tile gid="4393"/>
   <tile gid="4394"/>
   <tile gid="4395"/>
   <tile gid="4396"/>
   <tile gid="4397"/>
   <tile gid="4398"/>
   <tile gid="4399"/>
   <tile gid="4400"/>
   <tile gid="4401"/>
   <tile gid="4402"/>
   <tile gid="4403"/>
   <tile gid="4404"/>
   <tile gid="4405"/>
   <tile gid="4406"/>
   <tile gid="4407"/>
   <tile gid="4408"/>
   <tile gid="4409"/>
   <tile gid="4410"/>
   <tile gid="4411"/>
   <tile gid="4412"/>
   <tile gid="4413"/>
   <tile gid="4414"/>
   <tile gid="4415"/>
   <tile gid="4416"/>
   <tile gid="4417"/>
   <tile gid="4418"/>
   <tile gid="4419"/>
   <tile gid="4420"/>
   <tile gid="4421"/>
   <tile gid="4422"/>
   <tile gid="4423"/>
   <tile gid="4424"/>
   <tile gid="4425"/>
   <tile gid="4426"/>
   <tile gid="4427"/>
   <tile gid="4428"/>
   <tile gid="4429"/>
   <tile gid="4430"/>
   <tile gid="4431"/>
   <tile gid="4432"/>
   <tile gid="4433"/>
   <tile gid="4434"/>
   <tile gid="4435"/>
   <tile gid="4436"/>
   <tile gid="4437"/>
   <tile gid="4438"/>
   <tile gid="4439"/>
   <tile gid="4440"/>
   <tile gid="4441"/>
   <tile gid="4442"/>
   <tile gid="4443"/>
   <tile gid="4444"/>
   <tile gid="4445"/>
   <tile gid="4446"/>
   <tile gid="4447"/>
   <tile gid="4448"/>
   <tile gid="4449"/>
   <tile gid="4450"/>
   <tile gid="4451"/>
   <tile gid="4452"/>
   <tile gid="4453"/>
   <tile gid="4454"/>
   <tile gid="4455"/>
   <tile gid="4456"/>
   <tile gid="4457"/>
   <tile gid="4458"/>
   <tile gid="4459"/>
   <tile gid="4460"/>
   <tile gid="4461"/>
   <tile gid="4462"/>
   <tile gid="4463"/>
   <tile gid="4464"/>
   <tile gid="4465"/>
   <tile gid="4466"/>
   <tile gid="4467"/>
   <tile gid="4468"/>
   <tile gid="4469"/>
   <tile gid="4470"/>
   <tile gid="4471"/>
   <tile gid="4472"/>
   <tile gid="4473"/>
   <tile gid="4474"/>
   <tile gid="4475"/>
   <tile gid="4476"/>
   <tile gid="4477"/>
   <tile gid="4478"/>
   <tile gid="4479"/>
   <tile gid="4480"/>
   <tile gid="4481"/>
   <tile gid="4482"/>
   <tile gid="4483"/>
   <tile gid="4484"/>
   <tile gid="4485"/>
   <tile gid="4486"/>
   <tile gid="4487"/>
   <tile gid="4488"/>
   <tile gid="4489"/>
   <tile gid="4490"/>
   <tile gid="4491"/>
   <tile gid="4492"/>
   <tile gid="4493"/>
   <tile gid="4494"/>
   <tile gid="4495"/>
   <tile gid="4496"/>
   <tile gid="4497"/>
   <tile gid="4498"/>
   <tile gid="4499"/>
   <tile gid="4500"/>
   <tile gid="4501"/>
   <tile gid="4502"/>
   <tile gid="4503"/>
   <tile gid="4504"/>
   <tile gid="4505"/>
   <tile gid="4506"/>
   <tile gid="4507"/>
   <tile gid="4508"/>
   <tile gid="4509"/>
   <tile gid="4510"/>
   <tile gid="4511"/>
   <tile gid="4512"/>
   <tile gid="4513"/>
   <tile gid="4514"/>
   <tile gid="4515"/>
   <tile gid="4516"/>
   <tile gid="4517"/>
   <tile gid="4518"/>
   <tile gid="4519"/>
   <tile gid="4520"/>
   <tile gid="4521"/>
   <tile gid="4522"/>
   <tile gid="4523"/>
   <tile gid="4524"/>
   <tile gid="4525"/>
   <tile gid="4526"/>
   <tile gid="4527"/>
   <tile gid="4528"/>
   <tile gid="4529"/>
   <tile gid="4530"/>
   <tile gid="4531"/>
   <tile gid="4532"/>
   <tile gid="4533"/>
   <tile gid="4534"/>
   <tile gid="4535"/>
   <tile gid="4536"/>
   <tile gid="4537"/>
   <tile gid="4538"/>
   <tile gid="4539"/>
   <tile gid="4540"/>
   <tile gid="4541"/>
   <tile gid="4542"/>
   <tile gid="4543"/>
   <tile gid="4544"/>
   <tile gid="4545"/>
   <tile gid="4546"/>
   <tile gid="4547"/>
   <tile gid="4548"/>
   <tile gid="4549"/>
   <tile gid="4550"/>
   <tile gid="4551"/>
   <tile gid="4552"/>
   <tile gid="4553"/>
   <tile gid="4554"/>
   <tile gid="4555"/>
   <tile gid="4556"/>
   <tile gid="4557"/>
   <tile gid="4558"/>
   <tile gid="4559"/>
   <tile gid="4560"/>
   <tile gid="4561"/>
   <tile gid="4562"/>
   <tile gid="4563"/>
   <tile gid="4564"/>
   <tile gid="4565"/>
   <tile gid="4566"/>
   <tile gid="4567"/>
   <tile gid="4568"/>
   <tile gid="4569"/>
   <tile gid="4570"/>
   <tile gid="4571"/>
   <tile gid="4572"/>
   <tile gid="4573"/>
   <tile gid="4574"/>
   <tile gid="4575"/>
   <tile gid="4576"/>
   <tile gid="4577"/>
   <tile gid="4578"/>
   <tile gid="4579"/>
   <tile gid="4580"/>
   <tile gid="4581"/>
   <tile gid="4582"/>
   <tile gid="4583"/>
   <tile gid="4584"/>
   <tile gid="4585"/>
   <tile gid="4586"/>
   <tile gid="4587"/>
   <tile gid="4588"/>
   <tile gid="4589"/>
   <tile gid="4590"/>
   <tile gid="4591"/>
   <tile gid="4592"/>
   <tile gid="4593"/>
   <tile gid="4594"/>
   <tile gid="4595"/>
   <tile gid="4596"/>
   <tile gid="4597"/>
   <tile gid="4598"/>
   <tile gid="4599"/>
   <tile gid="4600"/>
   <tile gid="4601"/>
   <tile gid="4602"/>
   <tile gid="4603"/>
   <tile gid="4604"/>
   <tile gid="4605"/>
   <tile gid="4606"/>
   <tile gid="4607"/>
   <tile gid="4608"/>
   <tile gid="4609"/>
   <tile gid="4610"/>
   <tile gid="4611"/>
   <tile gid="4612"/>
   <tile gid="4613"/>
   <tile gid="4614"/>
   <tile gid="4615"/>
   <tile gid="4616"/>
   <tile gid="4617"/>
   <tile gid="4618"/>
   <tile gid="4619"/>
   <tile gid="4620"/>
   <tile gid="4621"/>
   <tile gid="4622"/>
   <tile gid="4623"/>
   <tile gid="4624"/>
   <tile gid="4625"/>
   <tile gid="4626"/>
   <tile gid="4627"/>
   <tile gid="4628"/>
   <tile gid="4629"/>
   <tile gid="4630"/>
   <tile gid="4631"/>
   <tile gid="4632"/>
   <tile gid="4633"/>
   <tile gid="4634"/>
   <tile gid="4635"/>
   <tile gid="4636"/>
   <tile gid="4637"/>
   <tile gid="4638"/>
   <tile gid="4639"/>
   <tile gid="4640"/>
   <tile gid="4641"/>
   <tile gid="4642"/>
   <tile gid="4643"/>
   <tile gid="4644"/>
   <tile gid="4645"/>
   <tile gid="4646"/>
   <tile gid="4647"/>
   <tile gid="4648"/>
   <tile gid="4649"/>
   <tile gid="4650"/>
   <tile gid="4651"/>
   <tile gid="4652"/>
   <tile gid="4653"/>
   <tile gid="4654"/>
   <tile gid="4655"/>
   <tile gid="4656"/>
   <tile gid="4657"/>
   <tile gid="4658"/>
   <tile gid="4659"/>
   <tile gid="4660"/>
   <tile gid="4661"/>
   <tile gid="4662"/>
   <tile gid="4663"/>
   <tile gid="4664"/>
   <tile gid="4665"/>
   <tile gid="4666"/>
   <tile gid="4667"/>
   <tile gid="4668"/>
   <tile gid="4669"/>
   <tile gid="4670"/>
   <tile gid="4671"/>
   <tile gid="4672"/>
   <tile gid="4673"/>
   <tile gid="4674"/>
   <tile gid="4675"/>
   <tile gid="4676"/>
   <tile gid="4677"/>
   <tile gid="4678"/>
   <tile gid="4679"/>
   <tile gid="4680"/>
   <tile gid="4681"/>
   <tile gid="4682"/>
   <tile gid="4683"/>
   <tile gid="4684"/>
   <tile gid="4685"/>
   <tile gid="4686"/>
   <tile gid="4687"/>
   <tile gid="4688"/>
   <tile gid="4689"/>
   <tile gid="4690"/>
   <tile gid="4691"/>
   <tile gid="4692"/>
   <tile gid="4693"/>
   <tile gid="4694"/>
   <tile gid="4695"/>
   <tile gid="4696"/>
   <tile gid="4697"/>
   <tile gid="4698"/>
   <tile gid="4699"/>
   <tile gid="4700"/>
   <tile gid="4701"/>
   <tile gid="4702"/>
   <tile gid="4703"/>
   <tile gid="4704"/>
   <tile gid="4705"/>
   <tile gid="4706"/>
   <tile gid="4707"/>
   <tile gid="4708"/>
   <tile gid="4709"/>
   <tile gid="4710"/>
   <tile gid="4711"/>
   <tile gid="4712"/>
   <tile gid="4713"/>
   <tile gid="4714"/>
   <tile gid="4715"/>
   <tile gid="4716"/>
   <tile gid="4717"/>
   <tile gid="4718"/>
   <tile gid="4719"/>
   <tile gid="4720"/>
   <tile gid="4721"/>
   <tile gid="4722"/>
   <tile gid="4723"/>
   <tile gid="4724"/>
   <tile gid="4725"/>
   <tile gid="4726"/>
   <tile gid="4727"/>
   <tile gid="4728"/>
   <tile gid="4729"/>
   <tile gid="4730"/>
   <tile gid="4731"/>
   <tile gid="4732"/>
   <tile gid="4733"/>
   <tile gid="4734"/>
   <tile gid="4735"/>
   <tile gid="4736"/>
   <tile gid="4737"/>
   <tile gid="4738"/>
   <tile gid="4739"/>
   <tile gid="4740"/>
   <tile gid="4741"/>
   <tile gid="4742"/>
   <tile gid="4743"/>
   <tile gid="4744"/>
   <tile gid="4745"/>
   <tile gid="4746"/>
   <tile gid="4747"/>
   <tile gid="4748"/>
   <tile gid="4749"/>
   <tile gid="4750"/>
   <tile gid="4751"/>
   <tile gid="4752"/>
   <tile gid="4753"/>
   <tile gid="4754"/>
   <tile gid="4755"/>
   <tile gid="4756"/>
   <tile gid="4757"/>
   <tile gid="4758"/>
   <tile gid="4759"/>
   <tile gid="4760"/>
   <tile gid="4761"/>
   <tile gid="4762"/>
   <tile gid="4763"/>
   <tile gid="4764"/>
   <tile gid="4765"/>
   <tile gid="4766"/>
   <tile gid="4767"/>
   <tile gid="4768"/>
   <tile gid="4769"/>
   <tile gid="4770"/>
   <tile gid="4771"/>
   <tile gid="4772"/>
   <tile gid="4773"/>
   <tile gid="4774"/>
   <tile gid="4775"/>
   <tile gid="4776"/>
   <tile gid="4777"/>
   <tile gid="4778"/>
   <tile gid="4779"/>
   <tile gid="4780"/>
   <tile gid="4781"/>
   <tile gid="4782"/>
   <tile gid="4783"/>
   <tile gid="4784"/>
   <tile gid="4785"/>
   <tile gid="4786"/>
   <tile gid="4787"/>
   <tile gid="4788"/>
   <tile gid="4789"/>
   <tile gid="4790"/>
   <tile gid="4791"/>
   <tile gid="4792"/>
   <tile gid="4793"/>
   <tile gid="4794"/>
   <tile gid="4795"/>
   <tile gid="4796"/>
   <tile gid="4797"/>
   <tile gid="4798"/>
   <tile gid="4799"/>
   <tile gid="4800"/>
   <tile gid="4801"/>
   <tile gid="4802"/>
   <tile gid="4803"/>
   <tile gid="4804"/>
   <tile gid="4805"/>
   <tile gid="4806"/>
   <tile gid="4807"/>
   <tile gid="4808"/>
   <tile gid="4809"/>
   <tile gid="4810"/>
   <tile gid="4811"/>
   <tile gid="4812"/>
   <tile gid="4813"/>
   <tile gid="4814"/>
   <tile gid="4815"/>
   <tile gid="4816"/>
   <tile gid="4817"/>
   <tile gid="4818"/>
   <tile gid="4819"/>
   <tile gid="4820"/>
   <tile gid="4821"/>
   <tile gid="4822"/>
   <tile gid="4823"/>
   <tile gid="4824"/>
   <tile gid="4825"/>
   <tile gid="4826"/>
   <tile gid="4827"/>
   <tile gid="4828"/>
   <tile gid="4829"/>
   <tile gid="4830"/>
   <tile gid="4831"/>
   <tile gid="4832"/>
   <tile gid="4833"/>
   <tile gid="4834"/>
   <tile gid="4835"/>
   <tile gid="4836"/>
   <tile gid="4837"/>
   <tile gid="4838"/>
   <tile gid="4839"/>
   <tile gid="4840"/>
   <tile gid="4841"/>
   <tile gid="4842"/>
   <tile gid="4843"/>
   <tile gid="4844"/>
   <tile gid="4845"/>
   <tile gid="4846"/>
   <tile gid="4847"/>
   <tile gid="4848"/>
   <tile gid="4849"/>
   <tile gid="4850"/>
   <tile gid="4851"/>
   <tile gid="4852"/>
   <tile gid="4853"/>
   <tile gid="4854"/>
   <tile gid="4855"/>
   <tile gid="4856"/>
   <tile gid="4857"/>
   <tile gid="4858"/>
   <tile gid="4859"/>
   <tile gid="4860"/>
   <tile gid="4861"/>
   <tile gid="4862"/>
   <tile gid="4863"/>
   <tile gid="4864"/>
   <tile gid="4865"/>
   <tile gid="4866"/>
   <tile gid="4867"/>
   <tile gid="4868"/>
   <tile/>
   <tile/>
   <tile/>
   <tile/>
   <tile/>
   <tile/>
   <tile/>
   <tile/>
   <tile/>
   <tile/>
   <tile/>
   <tile/>
   <tile/>
   <tile/>
   <tile/>
   <tile/>
   <tile/>
   <tile/>
   <tile/>
   <tile/>
   <tile/>
   <tile/>
   <tile/>
   <tile/>
   <tile/>
   <tile/>
   <tile/>
   <tile/>
   <tile/>
   <tile/>
   <tile/>
   <tile/>
   <tile/>
   <tile/>
   <tile/>
   <tile/>
   <tile/>
   <tile/>
   <tile/>
   <tile/>
   <tile/>
   <tile/>
   <tile/>
   <tile/>
   <tile/>
   <tile/>
   <tile/>
   <tile/>
   <tile/>
   <tile/>
   <tile/>
   <tile/>
   <tile/>
   <tile/>
   <tile/>
   <tile/>
   <tile/>
   <tile/>
   <tile/>
   <tile/>
   <tile/>
   <tile/>
   <tile/>
   <tile/>
   <tile/>
   <tile/>
   <tile/>
   <tile/>
   <tile/>
   <tile/>
   <tile/>
   <tile/>
   <tile/>
   <tile/>
   <tile/>
   <tile/>
   <tile/>
   <tile/>
   <tile/>
   <tile/>
   <tile/>
   <tile/>
   <tile/>
   <tile/>
   <tile/>
   <tile/>
   <tile/>
   <tile/>
   <tile/>
   <tile/>
   <tile/>
   <tile/>
   <tile/>
   <tile/>
   <tile/>
   <tile/>
   <tile/>
   <tile/>
   <tile/>
   <tile/>
   <tile/>
   <tile/>
   <tile/>
   <tile/>
   <tile/>
   <tile/>
   <tile/>
   <tile/>
   <tile/>
   <tile/>
   <tile/>
   <tile/>
   <tile/>
   <tile/>
   <tile/>
   <tile/>
   <tile/>
   <tile/>
   <tile/>
   <tile/>
  </data>
 </layer>
 <layer id="1" name="Solid" width="30" height="34">
  <properties>
   <property name="Draw" type="bool" value="true"/>
  </properties>
  <data>
   <tile gid="366"/>
   <tile gid="366"/>
   <tile gid="366"/>
   <tile gid="366"/>
   <tile gid="366"/>
   <tile gid="366"/>
   <tile gid="366"/>
   <tile gid="366"/>
   <tile gid="366"/>
   <tile gid="366"/>
   <tile gid="366"/>
   <tile gid="366"/>
   <tile gid="366"/>
   <tile gid="366"/>
   <tile gid="366"/>
   <tile gid="366"/>
   <tile gid="366"/>
   <tile gid="366"/>
   <tile gid="366"/>
   <tile gid="366"/>
   <tile gid="366"/>
   <tile gid="366"/>
   <tile gid="366"/>
   <tile gid="366"/>
   <tile gid="366"/>
   <tile gid="366"/>
   <tile gid="366"/>
   <tile gid="366"/>
   <tile gid="366"/>
   <tile gid="366"/>
   <tile gid="366"/>
   <tile gid="366"/>
   <tile gid="366"/>
   <tile gid="366"/>
   <tile gid="366"/>
   <tile gid="366"/>
   <tile gid="366"/>
   <tile gid="366"/>
   <tile gid="366"/>
   <tile gid="366"/>
   <tile gid="366"/>
   <tile gid="366"/>
   <tile gid="366"/>
   <tile gid="366"/>
   <tile gid="366"/>
   <tile gid="366"/>
   <tile gid="366"/>
   <tile gid="366"/>
   <tile gid="366"/>
   <tile gid="366"/>
   <tile gid="366"/>
   <tile gid="366"/>
   <tile gid="366"/>
   <tile gid="366"/>
   <tile gid="366"/>
   <tile gid="366"/>
   <tile gid="366"/>
   <tile gid="366"/>
   <tile gid="366"/>
   <tile gid="366"/>
   <tile gid="366"/>
   <tile gid="366"/>
   <tile gid="366"/>
   <tile gid="366"/>
   <tile gid="366"/>
   <tile gid="366"/>
   <tile gid="366"/>
   <tile gid="366"/>
   <tile gid="366"/>
   <tile gid="366"/>
   <tile gid="366"/>
   <tile gid="366"/>
   <tile gid="366"/>
   <tile gid="366"/>
   <tile gid="366"/>
   <tile gid="366"/>
   <tile gid="366"/>
   <tile gid="366"/>
   <tile gid="366"/>
   <tile gid="366"/>
   <tile gid="366"/>
   <tile gid="366"/>
   <tile gid="366"/>
   <tile gid="366"/>
   <tile gid="366"/>
   <tile gid="366"/>
   <tile gid="366"/>
   <tile gid="366"/>
   <tile gid="366"/>
   <tile gid="366"/>
   <tile gid="382"/>
   <tile gid="382"/>
   <tile gid="382"/>
   <tile gid="366"/>
   <tile gid="366"/>
   <tile gid="366"/>
   <tile gid="366"/>
   <tile gid="366"/>
   <tile gid="366"/>
   <tile gid="366"/>
   <tile gid="366"/>
   <tile gid="366"/>
   <tile gid="366"/>
   <tile gid="366"/>
   <tile gid="366"/>
   <tile gid="366"/>
   <tile gid="366"/>
   <tile gid="366"/>
   <tile gid="366"/>
   <tile gid="366"/>
   <tile gid="366"/>
   <tile gid="366"/>
   <tile gid="366"/>
   <tile gid="366"/>
   <tile gid="366"/>
   <tile gid="366"/>
   <tile gid="366"/>
   <tile gid="366"/>
   <tile gid="366"/>
   <tile gid="366"/>
   <tile/>
   <tile/>
   <tile gid="33"/>
   <tile gid="381"/>
   <tile gid="382"/>
   <tile gid="382"/>
   <tile gid="382"/>
   <tile gid="366"/>
   <tile gid="366"/>
   <tile gid="366"/>
   <tile gid="366"/>
   <tile gid="366"/>
   <tile gid="366"/>
   <tile gid="366"/>
   <tile gid="366"/>
   <tile gid="366"/>
   <tile gid="366"/>
   <tile gid="366"/>
   <tile gid="366"/>
   <tile gid="366"/>
   <tile gid="366"/>
   <tile gid="366"/>
   <tile gid="366"/>
   <tile gid="366"/>
   <tile gid="366"/>
   <tile gid="366"/>
   <tile gid="366"/>
   <tile gid="366"/>
   <tile gid="366"/>
   <tile gid="366"/>
   <tile/>
   <tile/>
   <tile/>
   <tile/>
   <tile/>
   <tile/>
   <tile/>
   <tile gid="381"/>
   <tile gid="382"/>
   <tile gid="382"/>
   <tile gid="382"/>
   <tile gid="366"/>
   <tile gid="366"/>
   <tile gid="366"/>
   <tile gid="366"/>
   <tile gid="366"/>
   <tile gid="366"/>
   <tile gid="366"/>
   <tile gid="366"/>
   <tile gid="366"/>
   <tile gid="366"/>
   <tile gid="366"/>
   <tile gid="366"/>
   <tile gid="366"/>
   <tile gid="366"/>
   <tile gid="366"/>
   <tile gid="366"/>
   <tile gid="366"/>
   <tile gid="366"/>
   <tile gid="366"/>
   <tile/>
   <tile/>
   <tile/>
   <tile/>
   <tile/>
   <tile/>
   <tile/>
   <tile/>
   <tile/>
   <tile/>
   <tile gid="33"/>
   <tile gid="381"/>
   <tile gid="382"/>
   <tile gid="382"/>
   <tile gid="382"/>
   <tile gid="366"/>
   <tile gid="366"/>
   <tile gid="366"/>
   <tile gid="366"/>
   <tile gid="366"/>
   <tile gid="382"/>
   <tile gid="382"/>
   <tile gid="366"/>
   <tile gid="366"/>
   <tile gid="366"/>
   <tile gid="366"/>
   <tile gid="366"/>
   <tile gid="366"/>
   <tile gid="366"/>
   <tile gid="366"/>
   <tile/>
   <tile/>
   <tile/>
   <tile/>
   <tile/>
   <tile/>
   <tile/>
   <tile/>
   <tile/>
   <tile/>
   <tile/>
   <tile/>
   <tile/>
   <tile gid="33"/>
   <tile gid="33"/>
   <tile gid="381"/>
   <tile gid="382"/>
   <tile gid="382"/>
   <tile gid="366"/>
   <tile gid="367"/>
   <tile gid="323"/>
   <tile gid="323"/>
   <tile gid="365"/>
   <tile gid="366"/>
   <tile gid="366"/>
   <tile gid="366"/>
   <tile gid="366"/>
   <tile gid="366"/>
   <tile gid="366"/>
   <tile gid="382"/>
   <tile/>
   <tile/>
   <tile/>
   <tile/>
   <tile/>
   <tile/>
   <tile/>
   <tile/>
   <tile/>
   <tile/>
   <tile/>
   <tile/>
   <tile/>
   <tile/>
   <tile/>
   <tile/>
   <tile/>
   <tile/>
   <tile gid="381"/>
   <tile gid="383"/>
   <tile gid="323"/>
   <tile gid="323"/>
   <tile gid="381"/>
   <tile gid="366"/>
   <tile gid="366"/>
   <tile gid="366"/>
   <tile gid="366"/>
   <tile gid="382"/>
   <tile gid="383"/>
   <tile/>
   <tile/>
   <tile/>
   <tile/>
   <tile/>
   <tile/>
   <tile/>
   <tile/>
   <tile/>
   <tile/>
   <tile/>
   <tile/>
   <tile/>
   <tile/>
   <tile/>
   <tile/>
   <tile/>
   <tile/>
   <tile/>
   <tile/>
   <tile/>
   <tile gid="323"/>
   <tile gid="323"/>
   <tile gid="323"/>
   <tile gid="365"/>
   <tile gid="366"/>
   <tile gid="366"/>
   <tile gid="383"/>
   <tile/>
   <tile/>
   <tile/>
   <tile/>
   <tile/>
   <tile/>
   <tile/>
   <tile/>
   <tile/>
   <tile/>
   <tile/>
   <tile/>
   <tile/>
   <tile/>
   <tile/>
   <tile/>
   <tile/>
   <tile/>
   <tile/>
   <tile/>
   <tile/>
   <tile/>
   <tile/>
   <tile/>
   <tile gid="323"/>
   <tile gid="323"/>
   <tile gid="365"/>
   <tile gid="366"/>
   <tile gid="383"/>
   <tile/>
   <tile/>
   <tile/>
   <tile/>
   <tile gid="350"/>
   <tile gid="350"/>
   <tile gid="350"/>
   <tile gid="350"/>
   <tile gid="350"/>
   <tile gid="351"/>
   <tile/>
   <tile/>
   <tile/>
   <tile/>
   <tile/>
   <tile/>
   <tile/>
   <tile/>
   <tile/>
   <tile/>
   <tile/>
   <tile/>
   <tile/>
   <tile/>
   <tile/>
   <tile gid="323"/>
   <tile gid="323"/>
   <tile gid="365"/>
   <tile gid="367"/>
   <tile gid="290"/>
   <tile gid="290"/>
   <tile/>
   <tile/>
   <tile/>
   <tile gid="366"/>
   <tile gid="366"/>
   <tile gid="366"/>
   <tile gid="366"/>
   <tile gid="366"/>
   <tile gid="366"/>
   <tile gid="350"/>
   <tile gid="351"/>
   <tile/>
   <tile/>
   <tile/>
   <tile/>
   <tile/>
   <tile/>
   <tile/>
   <tile/>
   <tile/>
   <tile/>
   <tile/>
   <tile/>
   <tile/>
   <tile gid="323"/>
   <tile/>
   <tile gid="381"/>
   <tile gid="383"/>
   <tile/>
   <tile/>
   <tile/>
   <tile/>
   <tile/>
   <tile gid="366"/>
   <tile gid="366"/>
   <tile gid="366"/>
   <tile gid="366"/>
   <tile gid="366"/>
   <tile gid="366"/>
   <tile gid="366"/>
   <tile gid="366"/>
   <tile gid="351"/>
   <tile/>
   <tile/>
   <tile/>
   <tile/>
   <tile/>
   <tile/>
   <tile/>
   <tile/>
   <tile/>
   <tile/>
   <tile/>
   <tile/>
   <tile gid="323"/>
   <tile/>
   <tile/>
   <tile/>
   <tile/>
   <tile/>
   <tile/>
   <tile/>
   <tile/>
   <tile gid="366"/>
   <tile gid="366"/>
   <tile gid="366"/>
   <tile gid="366"/>
   <tile gid="366"/>
   <tile gid="366"/>
   <tile gid="366"/>
   <tile gid="366"/>
   <tile gid="366"/>
   <tile gid="351"/>
   <tile/>
   <tile/>
   <tile/>
   <tile/>
   <tile/>
   <tile/>
   <tile/>
   <tile/>
   <tile/>
   <tile/>
   <tile/>
   <tile gid="323"/>
   <tile gid="349"/>
   <tile gid="350"/>
   <tile gid="350"/>
   <tile gid="350"/>
   <tile gid="350"/>
   <tile gid="350"/>
   <tile gid="350"/>
   <tile gid="350"/>
   <tile gid="366"/>
   <tile gid="366"/>
   <tile gid="366"/>
   <tile gid="366"/>
   <tile gid="366"/>
   <tile gid="366"/>
   <tile gid="366"/>
   <tile gid="366"/>
   <tile gid="366"/>
   <tile gid="367"/>
   <tile/>
   <tile/>
   <tile/>
   <tile/>
   <tile/>
   <tile/>
   <tile/>
   <tile/>
   <tile gid="307"/>
   <tile gid="307"/>
   <tile gid="307"/>
   <tile gid="307"/>
   <tile gid="365"/>
   <tile gid="366"/>
   <tile gid="366"/>
   <tile gid="366"/>
   <tile gid="366"/>
   <tile gid="366"/>
   <tile gid="366"/>
   <tile gid="366"/>
   <tile gid="366"/>
   <tile gid="366"/>
   <tile gid="366"/>
   <tile gid="366"/>
   <tile gid="366"/>
   <tile gid="366"/>
   <tile gid="366"/>
   <tile gid="366"/>
   <tile gid="366"/>
   <tile gid="367"/>
   <tile/>
   <tile/>
   <tile/>
   <tile/>
   <tile/>
   <tile/>
   <tile/>
   <tile/>
   <tile gid="307"/>
   <tile/>
   <tile gid="349"/>
   <tile gid="350"/>
   <tile gid="366"/>
   <tile gid="366"/>
   <tile gid="366"/>
   <tile gid="366"/>
   <tile gid="366"/>
   <tile gid="366"/>
   <tile gid="366"/>
   <tile gid="366"/>
   <tile gid="366"/>
   <tile gid="366"/>
   <tile gid="366"/>
   <tile gid="366"/>
   <tile gid="366"/>
   <tile gid="366"/>
   <tile gid="366"/>
   <tile gid="366"/>
   <tile gid="366"/>
   <tile gid="367"/>
   <tile/>
   <tile/>
   <tile/>
   <tile/>
   <tile/>
   <tile/>
   <tile/>
   <tile/>
   <tile/>
   <tile gid="349"/>
   <tile gid="366"/>
   <tile gid="366"/>
   <tile gid="366"/>
   <tile gid="366"/>
   <tile gid="366"/>
   <tile gid="366"/>
   <tile gid="366"/>
   <tile gid="366"/>
   <tile gid="366"/>
   <tile gid="366"/>
   <tile gid="366"/>
   <tile gid="366"/>
   <tile gid="366"/>
   <tile gid="366"/>
   <tile gid="366"/>
   <tile gid="366"/>
   <tile gid="366"/>
   <tile gid="366"/>
   <tile gid="366"/>
   <tile gid="383"/>
   <tile/>
   <tile/>
   <tile/>
   <tile/>
   <tile/>
   <tile/>
   <tile/>
   <tile/>
   <tile gid="307"/>
   <tile gid="365"/>
   <tile gid="366"/>
   <tile gid="366"/>
   <tile gid="366"/>
   <tile gid="366"/>
   <tile gid="366"/>
   <tile gid="366"/>
   <tile gid="366"/>
   <tile gid="366"/>
   <tile gid="366"/>
   <tile gid="366"/>
   <tile gid="366"/>
   <tile gid="366"/>
   <tile gid="366"/>
   <tile gid="366"/>
   <tile gid="366"/>
   <tile gid="366"/>
   <tile gid="366"/>
   <tile gid="366"/>
   <tile gid="383"/>
   <tile/>
   <tile/>
   <tile/>
   <tile/>
   <tile/>
   <tile/>
   <tile/>
   <tile/>
   <tile gid="307"/>
   <tile gid="349"/>
   <tile gid="366"/>
   <tile gid="366"/>
   <tile gid="366"/>
   <tile gid="366"/>
   <tile gid="366"/>
   <tile gid="366"/>
   <tile gid="366"/>
   <tile gid="366"/>
   <tile gid="366"/>
   <tile gid="366"/>
   <tile gid="366"/>
   <tile gid="366"/>
   <tile gid="366"/>
   <tile gid="366"/>
   <tile gid="366"/>
   <tile gid="366"/>
   <tile gid="366"/>
   <tile gid="382"/>
   <tile gid="383"/>
   <tile gid="33"/>
   <tile/>
   <tile/>
   <tile/>
   <tile/>
   <tile/>
   <tile/>
   <tile/>
   <tile/>
   <tile gid="349"/>
   <tile gid="366"/>
   <tile gid="366"/>
   <tile gid="366"/>
   <tile gid="366"/>
   <tile gid="366"/>
   <tile gid="366"/>
   <tile gid="366"/>
   <tile gid="366"/>
   <tile gid="366"/>
   <tile gid="366"/>
   <tile gid="366"/>
   <tile gid="366"/>
   <tile gid="366"/>
   <tile gid="366"/>
   <tile gid="366"/>
   <tile gid="366"/>
   <tile gid="366"/>
   <tile gid="383"/>
   <tile gid="33"/>
   <tile gid="33"/>
   <tile/>
   <tile/>
   <tile/>
   <tile/>
   <tile/>
   <tile/>
   <tile/>
   <tile/>
   <tile/>
   <tile gid="365"/>
   <tile gid="366"/>
   <tile gid="366"/>
   <tile gid="366"/>
   <tile gid="366"/>
   <tile gid="366"/>
   <tile gid="366"/>
   <tile gid="366"/>
   <tile gid="366"/>
   <tile gid="366"/>
   <tile gid="366"/>
   <tile gid="366"/>
   <tile gid="366"/>
   <tile gid="366"/>
   <tile gid="366"/>
   <tile gid="366"/>
   <tile gid="366"/>
   <tile gid="383"/>
   <tile gid="33"/>
   <tile gid="33"/>
   <tile/>
   <tile/>
   <tile/>
   <tile/>
   <tile/>
   <tile/>
   <tile/>
   <tile/>
   <tile/>
   <tile gid="349"/>
   <tile gid="366"/>
   <tile gid="366"/>
   <tile gid="366"/>
   <tile gid="366"/>
   <tile gid="366"/>
   <tile gid="366"/>
   <tile gid="366"/>
   <tile gid="366"/>
   <tile gid="366"/>
   <tile gid="366"/>
   <tile gid="366"/>
   <tile gid="366"/>
   <tile gid="366"/>
   <tile gid="366"/>
   <tile gid="366"/>
   <tile gid="366"/>
   <tile gid="383"/>
   <tile gid="33"/>
   <tile gid="33"/>
   <tile gid="33"/>
   <tile/>
   <tile/>
   <tile/>
   <tile/>
   <tile/>
   <tile/>
   <tile/>
   <tile/>
   <tile/>
   <tile gid="365"/>
   <tile gid="366"/>
   <tile gid="366"/>
   <tile gid="366"/>
   <tile gid="366"/>
   <tile gid="366"/>
   <tile gid="366"/>
   <tile gid="366"/>
   <tile gid="366"/>
   <tile gid="366"/>
   <tile gid="366"/>
   <tile gid="366"/>
   <tile gid="366"/>
   <tile gid="366"/>
   <tile gid="366"/>
   <tile gid="366"/>
   <tile gid="383"/>
   <tile gid="33"/>
   <tile gid="33"/>
   <tile gid="33"/>
   <tile/>
   <tile/>
   <tile/>
   <tile/>
   <tile/>
   <tile/>
   <tile gid="349"/>
   <tile gid="350"/>
   <tile gid="350"/>
   <tile gid="350"/>
   <tile gid="366"/>
   <tile gid="366"/>
   <tile gid="366"/>
   <tile gid="366"/>
   <tile gid="366"/>
   <tile gid="366"/>
   <tile gid="366"/>
   <tile gid="366"/>
   <tile gid="366"/>
   <tile gid="366"/>
   <tile gid="366"/>
   <tile gid="366"/>
   <tile gid="366"/>
   <tile gid="366"/>
   <tile gid="366"/>
   <tile gid="383"/>
   <tile gid="33"/>
   <tile gid="33"/>
   <tile/>
   <tile/>
   <tile/>
   <tile/>
   <tile/>
   <tile/>
   <tile/>
   <tile gid="307"/>
   <tile gid="365"/>
   <tile gid="366"/>
   <tile gid="366"/>
   <tile gid="366"/>
   <tile gid="366"/>
   <tile gid="366"/>
   <tile gid="366"/>
   <tile gid="366"/>
   <tile gid="366"/>
   <tile gid="366"/>
   <tile gid="366"/>
   <tile gid="366"/>
   <tile gid="366"/>
   <tile gid="366"/>
   <tile gid="366"/>
   <tile gid="366"/>
   <tile gid="366"/>
   <tile gid="366"/>
   <tile gid="367"/>
   <tile gid="33"/>
   <tile gid="33"/>
   <tile/>
   <tile/>
   <tile/>
   <tile/>
   <tile/>
   <tile/>
   <tile/>
   <tile gid="349"/>
   <tile gid="350"/>
   <tile gid="366"/>
   <tile gid="366"/>
   <tile gid="366"/>
   <tile gid="366"/>
   <tile gid="366"/>
   <tile gid="366"/>
   <tile gid="366"/>
   <tile gid="366"/>
   <tile gid="366"/>
   <tile gid="366"/>
   <tile gid="366"/>
   <tile gid="366"/>
   <tile gid="366"/>
   <tile gid="366"/>
   <tile gid="366"/>
   <tile gid="366"/>
   <tile gid="366"/>
   <tile gid="366"/>
   <tile gid="367"/>
   <tile gid="33"/>
   <tile/>
   <tile/>
   <tile/>
   <tile/>
   <tile/>
   <tile/>
   <tile/>
   <tile/>
   <tile gid="365"/>
   <tile gid="366"/>
   <tile gid="366"/>
   <tile gid="366"/>
   <tile gid="366"/>
   <tile gid="366"/>
   <tile gid="366"/>
   <tile gid="366"/>
   <tile gid="366"/>
   <tile gid="366"/>
   <tile gid="366"/>
   <tile gid="366"/>
   <tile gid="366"/>
   <tile gid="366"/>
   <tile gid="366"/>
   <tile gid="366"/>
   <tile gid="366"/>
   <tile gid="366"/>
   <tile gid="366"/>
   <tile gid="366"/>
   <tile gid="367"/>
   <tile gid="33"/>
   <tile/>
   <tile/>
   <tile/>
   <tile/>
   <tile/>
   <tile gid="307"/>
   <tile gid="307"/>
   <tile gid="349"/>
   <tile gid="366"/>
   <tile gid="366"/>
   <tile gid="366"/>
   <tile gid="366"/>
   <tile gid="366"/>
   <tile gid="366"/>
   <tile gid="366"/>
   <tile gid="366"/>
   <tile gid="366"/>
   <tile gid="366"/>
   <tile gid="366"/>
   <tile gid="366"/>
   <tile gid="366"/>
   <tile gid="366"/>
   <tile gid="366"/>
   <tile gid="366"/>
   <tile gid="366"/>
   <tile gid="366"/>
   <tile gid="366"/>
   <tile gid="366"/>
   <tile gid="367"/>
   <tile/>
   <tile/>
   <tile/>
   <tile/>
   <tile/>
   <tile/>
   <tile gid="724"/>
   <tile gid="724"/>
   <tile gid="366"/>
   <tile gid="366"/>
   <tile gid="366"/>
   <tile gid="366"/>
   <tile gid="366"/>
   <tile gid="366"/>
   <tile gid="366"/>
   <tile gid="366"/>
   <tile gid="366"/>
   <tile gid="366"/>
   <tile gid="366"/>
   <tile gid="366"/>
   <tile gid="366"/>
   <tile gid="366"/>
   <tile gid="366"/>
   <tile gid="366"/>
   <tile gid="366"/>
   <tile gid="366"/>
   <tile gid="366"/>
   <tile gid="366"/>
   <tile gid="366"/>
   <tile gid="367"/>
   <tile/>
   <tile/>
   <tile/>
   <tile/>
   <tile/>
   <tile/>
   <tile gid="724"/>
   <tile gid="349"/>
   <tile gid="366"/>
   <tile gid="366"/>
   <tile gid="366"/>
   <tile gid="366"/>
   <tile gid="366"/>
   <tile gid="366"/>
   <tile gid="366"/>
   <tile gid="366"/>
   <tile gid="366"/>
   <tile gid="366"/>
   <tile gid="366"/>
   <tile gid="366"/>
   <tile gid="366"/>
   <tile gid="366"/>
   <tile gid="366"/>
   <tile gid="366"/>
   <tile gid="366"/>
   <tile gid="366"/>
   <tile gid="366"/>
   <tile gid="366"/>
   <tile gid="366"/>
   <tile gid="367"/>
   <tile/>
   <tile/>
   <tile/>
   <tile/>
   <tile/>
   <tile/>
   <tile gid="724"/>
   <tile gid="365"/>
   <tile gid="366"/>
   <tile gid="366"/>
   <tile gid="366"/>
   <tile gid="366"/>
   <tile gid="366"/>
   <tile gid="366"/>
   <tile gid="366"/>
   <tile gid="366"/>
   <tile gid="366"/>
   <tile gid="366"/>
   <tile gid="366"/>
   <tile gid="366"/>
   <tile gid="366"/>
   <tile gid="366"/>
   <tile gid="366"/>
   <tile gid="366"/>
   <tile gid="366"/>
   <tile gid="366"/>
   <tile gid="366"/>
   <tile gid="366"/>
   <tile gid="366"/>
   <tile gid="367"/>
   <tile/>
   <tile/>
   <tile/>
   <tile/>
   <tile/>
   <tile gid="724"/>
   <tile gid="349"/>
   <tile gid="366"/>
   <tile gid="366"/>
   <tile gid="366"/>
   <tile gid="366"/>
   <tile gid="366"/>
   <tile gid="366"/>
   <tile gid="366"/>
   <tile gid="366"/>
   <tile gid="366"/>
   <tile gid="366"/>
   <tile gid="366"/>
   <tile gid="366"/>
   <tile gid="366"/>
   <tile gid="366"/>
   <tile gid="366"/>
   <tile gid="366"/>
   <tile gid="366"/>
   <tile gid="366"/>
   <tile gid="366"/>
   <tile gid="366"/>
   <tile gid="366"/>
   <tile gid="366"/>
   <tile gid="367"/>
   <tile/>
   <tile/>
   <tile/>
   <tile/>
   <tile/>
   <tile gid="724"/>
   <tile gid="365"/>
   <tile gid="366"/>
   <tile gid="366"/>
   <tile gid="366"/>
   <tile gid="366"/>
   <tile gid="366"/>
   <tile gid="366"/>
   <tile gid="366"/>
   <tile gid="366"/>
   <tile gid="366"/>
   <tile gid="366"/>
   <tile gid="366"/>
   <tile gid="366"/>
   <tile gid="366"/>
   <tile gid="366"/>
   <tile gid="366"/>
   <tile gid="366"/>
   <tile gid="366"/>
   <tile gid="366"/>
   <tile gid="366"/>
   <tile gid="366"/>
   <tile gid="366"/>
   <tile gid="366"/>
  </data>
 </layer>
 <layer id="3" name="Map" width="30" height="34">
  <properties>
   <property name="Draw" type="bool" value="true"/>
  </properties>
  <data>
   <tile/>
   <tile/>
   <tile/>
   <tile/>
   <tile/>
   <tile/>
   <tile/>
   <tile/>
   <tile/>
   <tile/>
   <tile/>
   <tile/>
   <tile/>
   <tile/>
   <tile/>
   <tile/>
   <tile/>
   <tile/>
   <tile/>
   <tile/>
   <tile/>
   <tile/>
   <tile/>
   <tile/>
   <tile/>
   <tile/>
   <tile/>
   <tile/>
   <tile/>
   <tile/>
   <tile/>
   <tile/>
   <tile/>
   <tile/>
   <tile/>
   <tile/>
   <tile/>
   <tile/>
   <tile/>
   <tile/>
   <tile/>
   <tile/>
   <tile/>
   <tile/>
   <tile/>
   <tile/>
   <tile/>
   <tile/>
   <tile/>
   <tile/>
   <tile/>
   <tile/>
   <tile/>
   <tile/>
   <tile/>
   <tile/>
   <tile/>
   <tile/>
   <tile/>
   <tile/>
   <tile/>
   <tile/>
   <tile/>
   <tile/>
   <tile/>
   <tile/>
   <tile/>
   <tile/>
   <tile/>
   <tile/>
   <tile/>
   <tile/>
   <tile/>
   <tile/>
   <tile/>
   <tile/>
   <tile/>
   <tile/>
   <tile/>
   <tile/>
   <tile/>
   <tile/>
   <tile/>
   <tile/>
   <tile/>
   <tile/>
   <tile/>
   <tile/>
   <tile/>
   <tile/>
   <tile gid="17"/>
   <tile gid="17"/>
   <tile gid="17"/>
   <tile/>
   <tile/>
   <tile/>
   <tile/>
   <tile/>
   <tile/>
   <tile/>
   <tile/>
   <tile/>
   <tile/>
   <tile/>
   <tile/>
   <tile/>
   <tile/>
   <tile/>
   <tile/>
   <tile/>
   <tile/>
   <tile/>
   <tile/>
   <tile/>
   <tile/>
   <tile/>
   <tile/>
   <tile/>
   <tile/>
   <tile/>
   <tile/>
   <tile/>
   <tile gid="17"/>
   <tile gid="17"/>
   <tile gid="17"/>
   <tile gid="17"/>
   <tile gid="17"/>
   <tile gid="17"/>
   <tile/>
   <tile/>
   <tile/>
   <tile/>
   <tile/>
   <tile/>
   <tile/>
   <tile/>
   <tile/>
   <tile/>
   <tile/>
   <tile/>
   <tile/>
   <tile/>
   <tile/>
   <tile/>
   <tile/>
   <tile/>
   <tile/>
   <tile/>
   <tile/>
   <tile/>
   <tile/>
   <tile/>
   <tile/>
   <tile/>
   <tile/>
   <tile/>
   <tile gid="17"/>
   <tile gid="17"/>
   <tile gid="17"/>
   <tile gid="17"/>
   <tile gid="17"/>
   <tile gid="17"/>
   <tile/>
   <tile/>
   <tile/>
   <tile/>
   <tile/>
   <tile/>
   <tile/>
   <tile/>
   <tile/>
   <tile/>
   <tile/>
   <tile/>
   <tile/>
   <tile/>
   <tile/>
   <tile/>
   <tile/>
   <tile/>
   <tile/>
   <tile/>
   <tile/>
   <tile/>
   <tile/>
   <tile/>
   <tile/>
   <tile/>
   <tile gid="17"/>
   <tile gid="17"/>
   <tile gid="17"/>
   <tile gid="17"/>
   <tile gid="17"/>
   <tile gid="17"/>
   <tile gid="17"/>
   <tile/>
   <tile/>
   <tile gid="17"/>
   <tile gid="17"/>
   <tile gid="17"/>
   <tile gid="17"/>
   <tile/>
   <tile/>
   <tile/>
   <tile/>
   <tile/>
   <tile/>
   <tile/>
   <tile/>
   <tile/>
   <tile/>
   <tile/>
   <tile/>
   <tile/>
   <tile/>
   <tile/>
   <tile/>
   <tile/>
   <tile/>
   <tile/>
   <tile/>
   <tile/>
   <tile/>
   <tile/>
   <tile gid="17"/>
   <tile gid="17"/>
   <tile gid="17"/>
   <tile gid="17"/>
   <tile/>
   <tile/>
   <tile gid="17"/>
   <tile/>
   <tile/>
   <tile/>
   <tile gid="17"/>
   <tile/>
   <tile/>
   <tile/>
   <tile/>
   <tile/>
   <tile/>
   <tile/>
   <tile/>
   <tile/>
   <tile/>
   <tile/>
   <tile/>
   <tile/>
   <tile/>
   <tile/>
   <tile/>
   <tile/>
   <tile/>
   <tile/>
   <tile/>
   <tile/>
   <tile/>
   <tile/>
   <tile/>
   <tile/>
   <tile gid="17"/>
   <tile/>
   <tile gid="17"/>
   <tile gid="17"/>
   <tile gid="17"/>
   <tile/>
   <tile/>
   <tile/>
   <tile/>
   <tile/>
   <tile/>
   <tile/>
   <tile/>
   <tile/>
   <tile/>
   <tile/>
   <tile/>
   <tile/>
   <tile/>
   <tile/>
   <tile/>
   <tile/>
   <tile/>
   <tile/>
   <tile/>
   <tile/>
   <tile/>
   <tile/>
   <tile/>
   <tile/>
   <tile gid="17"/>
   <tile/>
   <tile gid="17"/>
   <tile/>
   <tile/>
   <tile/>
   <tile/>
   <tile/>
   <tile/>
   <tile/>
   <tile gid="334"/>
   <tile gid="334"/>
   <tile gid="334"/>
   <tile gid="334"/>
   <tile gid="334"/>
   <tile gid="335"/>
   <tile/>
   <tile/>
   <tile/>
   <tile/>
   <tile/>
   <tile/>
   <tile/>
   <tile/>
   <tile/>
   <tile/>
   <tile/>
   <tile/>
   <tile/>
   <tile/>
   <tile gid="17"/>
   <tile gid="17"/>
   <tile/>
   <tile/>
   <tile/>
   <tile/>
   <tile/>
   <tile/>
   <tile/>
   <tile/>
   <tile/>
   <tile/>
   <tile/>
   <tile/>
   <tile/>
   <tile/>
   <tile gid="334"/>
   <tile gid="335"/>
   <tile/>
   <tile/>
   <tile/>
   <tile/>
   <tile/>
   <tile/>
   <tile/>
   <tile/>
   <tile/>
   <tile/>
   <tile/>
   <tile/>
   <tile gid="17"/>
   <tile gid="17"/>
   <tile/>
   <tile/>
   <tile/>
   <tile/>
   <tile/>
   <tile/>
   <tile/>
   <tile/>
   <tile/>
   <tile/>
   <tile/>
   <tile/>
   <tile/>
   <tile/>
   <tile/>
   <tile/>
   <tile gid="335"/>
   <tile/>
   <tile/>
   <tile/>
   <tile/>
   <tile/>
   <tile/>
   <tile/>
   <tile/>
   <tile/>
   <tile/>
   <tile/>
   <tile gid="17"/>
   <tile gid="17"/>
   <tile/>
   <tile/>
   <tile/>
   <tile/>
   <tile/>
   <tile/>
   <tile/>
   <tile/>
   <tile/>
   <tile/>
   <tile/>
   <tile/>
   <tile/>
   <tile/>
   <tile/>
   <tile/>
   <tile/>
   <tile gid="335"/>
   <tile/>
   <tile/>
   <tile/>
   <tile/>
   <tile/>
   <tile/>
   <tile/>
   <tile/>
   <tile/>
   <tile/>
   <tile/>
   <tile gid="17"/>
   <tile gid="333"/>
   <tile gid="334"/>
   <tile gid="334"/>
   <tile gid="334"/>
   <tile gid="334"/>
   <tile gid="334"/>
   <tile gid="334"/>
   <tile gid="334"/>
   <tile/>
   <tile/>
   <tile/>
   <tile/>
   <tile/>
   <tile/>
   <tile/>
   <tile/>
   <tile/>
   <tile gid="17"/>
   <tile/>
   <tile/>
   <tile/>
   <tile/>
   <tile/>
   <tile/>
   <tile/>
   <tile/>
   <tile/>
   <tile/>
   <tile gid="259"/>
   <tile gid="259"/>
   <tile gid="259"/>
   <tile gid="259"/>
   <tile gid="259"/>
   <tile gid="259"/>
   <tile gid="259"/>
   <tile/>
   <tile/>
   <tile/>
   <tile/>
   <tile/>
   <tile/>
   <tile/>
   <tile/>
   <tile/>
   <tile/>
   <tile/>
   <tile/>
   <tile gid="17"/>
   <tile/>
   <tile/>
   <tile/>
   <tile/>
   <tile/>
   <tile/>
   <tile/>
   <tile/>
   <tile/>
   <tile/>
   <tile gid="333"/>
   <tile gid="334"/>
   <tile/>
   <tile/>
   <tile/>
   <tile/>
   <tile/>
   <tile/>
   <tile/>
   <tile/>
   <tile/>
   <tile/>
   <tile/>
   <tile/>
   <tile/>
   <tile/>
   <tile/>
   <tile/>
   <tile/>
   <tile gid="17"/>
   <tile/>
   <tile/>
   <tile/>
   <tile/>
   <tile/>
   <tile/>
   <tile/>
   <tile/>
   <tile/>
   <tile gid="333"/>
   <tile gid="17"/>
   <tile/>
   <tile/>
   <tile/>
   <tile/>
   <tile/>
   <tile/>
   <tile/>
   <tile/>
   <tile/>
   <tile/>
   <tile/>
   <tile/>
   <tile/>
   <tile/>
   <tile/>
   <tile/>
   <tile/>
   <tile/>
   <tile gid="17"/>
   <tile/>
   <tile/>
   <tile/>
   <tile/>
   <tile/>
   <tile/>
   <tile/>
   <tile/>
   <tile/>
   <tile gid="259"/>
   <tile/>
   <tile gid="17"/>
   <tile/>
   <tile/>
   <tile/>
   <tile/>
   <tile/>
   <tile/>
   <tile/>
   <tile/>
   <tile/>
   <tile/>
   <tile/>
   <tile/>
   <tile/>
   <tile/>
   <tile/>
   <tile/>
   <tile gid="17"/>
   <tile gid="17"/>
   <tile/>
   <tile/>
   <tile/>
   <tile/>
   <tile/>
   <tile/>
   <tile/>
   <tile/>
   <tile gid="333"/>
   <tile gid="259"/>
   <tile/>
   <tile/>
   <tile/>
   <tile/>
   <tile/>
   <tile/>
   <tile/>
   <tile/>
   <tile/>
   <tile/>
   <tile/>
   <tile/>
   <tile/>
   <tile/>
   <tile/>
   <tile/>
   <tile/>
   <tile gid="17"/>
   <tile gid="17"/>
   <tile/>
   <tile/>
   <tile/>
   <tile/>
   <tile/>
   <tile/>
   <tile/>
   <tile/>
   <tile gid="333"/>
   <tile gid="259"/>
   <tile/>
   <tile/>
   <tile/>
   <tile/>
   <tile/>
   <tile/>
   <tile/>
   <tile/>
   <tile/>
   <tile/>
   <tile/>
   <tile/>
   <tile/>
   <tile/>
   <tile/>
   <tile/>
   <tile/>
   <tile gid="17"/>
   <tile gid="17"/>
   <tile/>
   <tile/>
   <tile/>
   <tile/>
   <tile/>
   <tile/>
   <tile/>
   <tile/>
   <tile/>
   <tile gid="259"/>
   <tile gid="17"/>
   <tile gid="17"/>
   <tile/>
   <tile/>
   <tile/>
   <tile/>
   <tile/>
   <tile/>
   <tile/>
   <tile/>
   <tile/>
   <tile/>
   <tile/>
   <tile/>
   <tile/>
   <tile/>
   <tile gid="17"/>
   <tile gid="17"/>
   <tile gid="17"/>
   <tile/>
   <tile/>
   <tile/>
   <tile/>
   <tile/>
   <tile/>
   <tile/>
   <tile/>
   <tile/>
   <tile gid="333"/>
   <tile gid="259"/>
   <tile gid="17"/>
   <tile gid="17"/>
   <tile/>
   <tile/>
   <tile/>
   <tile/>
   <tile/>
   <tile/>
   <tile/>
   <tile/>
   <tile/>
   <tile/>
   <tile/>
   <tile/>
   <tile/>
   <tile gid="17"/>
   <tile gid="17"/>
   <tile/>
   <tile/>
   <tile/>
   <tile/>
   <tile/>
   <tile/>
   <tile/>
   <tile/>
   <tile/>
   <tile/>
   <tile gid="259"/>
   <tile gid="259"/>
   <tile gid="17"/>
   <tile/>
   <tile/>
   <tile/>
   <tile/>
   <tile/>
   <tile/>
   <tile/>
   <tile/>
   <tile/>
   <tile/>
   <tile/>
   <tile/>
   <tile/>
   <tile/>
   <tile gid="17"/>
   <tile gid="17"/>
   <tile/>
   <tile/>
   <tile/>
   <tile/>
   <tile/>
   <tile/>
   <tile/>
   <tile/>
   <tile gid="333"/>
   <tile gid="334"/>
   <tile gid="334"/>
   <tile gid="334"/>
   <tile gid="17"/>
   <tile/>
   <tile/>
   <tile/>
   <tile/>
   <tile/>
   <tile/>
   <tile/>
   <tile/>
   <tile/>
   <tile/>
   <tile/>
   <tile/>
   <tile/>
   <tile/>
   <tile gid="17"/>
   <tile gid="17"/>
   <tile/>
   <tile/>
   <tile/>
   <tile/>
   <tile/>
   <tile/>
   <tile/>
   <tile/>
   <tile/>
   <tile gid="259"/>
   <tile gid="259"/>
   <tile gid="259"/>
   <tile gid="17"/>
   <tile/>
   <tile/>
   <tile/>
   <tile/>
   <tile/>
   <tile/>
   <tile/>
   <tile/>
   <tile/>
   <tile/>
   <tile/>
   <tile/>
   <tile/>
   <tile/>
   <tile/>
   <tile gid="17"/>
   <tile/>
   <tile/>
   <tile/>
   <tile/>
   <tile/>
   <tile/>
   <tile/>
   <tile/>
   <tile gid="333"/>
   <tile gid="334"/>
   <tile gid="259"/>
   <tile gid="259"/>
   <tile gid="17"/>
   <tile/>
   <tile/>
   <tile/>
   <tile/>
   <tile/>
   <tile/>
   <tile/>
   <tile/>
   <tile/>
   <tile/>
   <tile/>
   <tile/>
   <tile/>
   <tile/>
   <tile/>
   <tile gid="17"/>
   <tile gid="17"/>
   <tile/>
   <tile/>
   <tile/>
   <tile/>
   <tile/>
   <tile/>
   <tile/>
   <tile gid="259"/>
   <tile gid="259"/>
   <tile gid="17"/>
   <tile/>
   <tile/>
   <tile/>
   <tile/>
   <tile/>
   <tile/>
   <tile/>
   <tile/>
   <tile/>
   <tile/>
   <tile/>
   <tile/>
   <tile/>
   <tile/>
   <tile/>
   <tile/>
   <tile/>
   <tile/>
   <tile gid="17"/>
   <tile/>
   <tile/>
   <tile/>
   <tile/>
   <tile/>
   <tile/>
   <tile/>
   <tile gid="259"/>
   <tile gid="333"/>
   <tile gid="17"/>
   <tile/>
   <tile/>
   <tile/>
   <tile/>
   <tile/>
   <tile/>
   <tile/>
   <tile/>
   <tile/>
   <tile/>
   <tile/>
   <tile/>
   <tile/>
   <tile/>
   <tile/>
   <tile/>
   <tile/>
   <tile/>
   <tile/>
   <tile gid="17"/>
   <tile/>
   <tile/>
   <tile/>
   <tile/>
   <tile/>
   <tile/>
   <tile gid="259"/>
   <tile gid="724"/>
   <tile gid="17"/>
   <tile/>
   <tile/>
   <tile/>
   <tile/>
   <tile/>
   <tile/>
   <tile/>
   <tile/>
   <tile/>
   <tile/>
   <tile/>
   <tile/>
   <tile/>
   <tile/>
   <tile/>
   <tile/>
   <tile/>
   <tile/>
   <tile/>
   <tile/>
   <tile gid="17"/>
   <tile/>
   <tile/>
   <tile/>
   <tile/>
   <tile/>
   <tile/>
   <tile gid="724"/>
   <tile gid="333"/>
   <tile gid="17"/>
   <tile/>
   <tile/>
   <tile/>
   <tile/>
   <tile/>
   <tile/>
   <tile/>
   <tile/>
   <tile/>
   <tile/>
   <tile/>
   <tile/>
   <tile/>
   <tile/>
   <tile/>
   <tile/>
   <tile/>
   <tile/>
   <tile/>
   <tile/>
   <tile/>
   <tile/>
   <tile/>
   <tile/>
   <tile/>
   <tile/>
   <tile/>
   <tile/>
   <tile/>
   <tile/>
   <tile/>
   <tile/>
   <tile/>
   <tile/>
   <tile/>
   <tile/>
   <tile/>
   <tile/>
   <tile/>
   <tile/>
   <tile/>
   <tile/>
   <tile/>
   <tile/>
   <tile/>
   <tile/>
   <tile/>
   <tile/>
   <tile/>
   <tile/>
   <tile/>
   <tile/>
   <tile/>
   <tile/>
   <tile/>
   <tile/>
   <tile gid="724"/>
   <tile gid="333"/>
   <tile/>
   <tile/>
   <tile/>
   <tile/>
   <tile/>
   <tile/>
   <tile/>
   <tile/>
   <tile/>
   <tile/>
   <tile/>
   <tile/>
   <tile/>
   <tile/>
   <tile/>
   <tile/>
   <tile/>
   <tile/>
   <tile/>
   <tile/>
   <tile/>
   <tile/>
   <tile/>
   <tile/>
   <tile/>
   <tile/>
   <tile/>
   <tile/>
   <tile/>
   <tile/>
   <tile/>
   <tile/>
   <tile/>
   <tile/>
   <tile/>
   <tile/>
   <tile/>
   <tile/>
   <tile/>
   <tile/>
   <tile/>
   <tile/>
   <tile/>
   <tile/>
   <tile/>
   <tile/>
   <tile/>
   <tile/>
   <tile/>
   <tile/>
   <tile/>
   <tile/>
   <tile/>
   <tile/>
   <tile/>
   <tile/>
   <tile/>
   <tile/>
   <tile/>
   <tile/>
   <tile/>
   <tile/>
   <tile/>
   <tile/>
   <tile/>
   <tile/>
   <tile/>
   <tile/>
   <tile/>
   <tile/>
   <tile/>
   <tile/>
   <tile/>
   <tile/>
   <tile/>
   <tile/>
   <tile/>
   <tile/>
   <tile/>
   <tile/>
   <tile/>
   <tile/>
  </data>
 </layer>
 <layer id="4" name="Collisions" width="30" height="34">
  <data>
   <tile/>
   <tile/>
   <tile/>
   <tile/>
   <tile/>
   <tile/>
   <tile/>
   <tile/>
   <tile/>
   <tile/>
   <tile/>
   <tile/>
   <tile/>
   <tile/>
   <tile/>
   <tile/>
   <tile/>
   <tile/>
   <tile/>
   <tile/>
   <tile/>
   <tile/>
   <tile/>
   <tile/>
   <tile/>
   <tile/>
   <tile/>
   <tile/>
   <tile/>
   <tile/>
   <tile/>
   <tile/>
   <tile/>
   <tile/>
   <tile/>
   <tile/>
   <tile/>
   <tile/>
   <tile/>
   <tile/>
   <tile/>
   <tile/>
   <tile/>
   <tile/>
   <tile/>
   <tile/>
   <tile/>
   <tile/>
   <tile/>
   <tile/>
   <tile/>
   <tile/>
   <tile/>
   <tile/>
   <tile/>
   <tile/>
   <tile/>
   <tile/>
   <tile/>
   <tile/>
   <tile/>
   <tile/>
   <tile/>
   <tile/>
   <tile/>
   <tile/>
   <tile/>
   <tile/>
   <tile/>
   <tile/>
   <tile/>
   <tile/>
   <tile/>
   <tile/>
   <tile/>
   <tile/>
   <tile/>
   <tile/>
   <tile/>
   <tile/>
   <tile/>
   <tile/>
   <tile/>
   <tile/>
   <tile/>
   <tile/>
   <tile/>
   <tile/>
   <tile/>
   <tile/>
   <tile gid="258"/>
   <tile gid="258"/>
   <tile gid="258"/>
   <tile/>
   <tile/>
   <tile/>
   <tile/>
   <tile/>
   <tile/>
   <tile/>
   <tile/>
   <tile/>
   <tile/>
   <tile/>
   <tile/>
   <tile/>
   <tile/>
   <tile/>
   <tile/>
   <tile/>
   <tile/>
   <tile/>
   <tile/>
   <tile/>
   <tile/>
   <tile/>
   <tile/>
   <tile/>
   <tile/>
   <tile/>
   <tile/>
   <tile/>
   <tile/>
   <tile gid="258"/>
   <tile gid="258"/>
   <tile gid="258"/>
   <tile gid="258"/>
   <tile/>
   <tile/>
   <tile/>
   <tile/>
   <tile/>
   <tile/>
   <tile/>
   <tile/>
   <tile/>
   <tile/>
   <tile/>
   <tile/>
   <tile/>
   <tile/>
   <tile/>
   <tile/>
   <tile/>
   <tile/>
   <tile/>
   <tile/>
   <tile/>
   <tile/>
   <tile/>
   <tile/>
   <tile/>
   <tile/>
   <tile/>
   <tile/>
   <tile/>
   <tile/>
   <tile gid="258"/>
   <tile gid="258"/>
   <tile gid="258"/>
   <tile gid="258"/>
   <tile/>
   <tile/>
   <tile/>
   <tile/>
   <tile/>
   <tile/>
   <tile/>
   <tile/>
   <tile/>
   <tile/>
   <tile/>
   <tile/>
   <tile/>
   <tile/>
   <tile/>
   <tile/>
   <tile/>
   <tile/>
   <tile/>
   <tile/>
   <tile/>
   <tile/>
   <tile/>
   <tile/>
   <tile/>
   <tile/>
   <tile/>
   <tile/>
   <tile/>
   <tile/>
   <tile gid="258"/>
   <tile gid="258"/>
   <tile gid="258"/>
   <tile gid="258"/>
   <tile/>
   <tile/>
   <tile/>
   <tile/>
   <tile/>
   <tile gid="258"/>
   <tile gid="258"/>
   <tile/>
   <tile/>
   <tile/>
   <tile/>
   <tile/>
   <tile/>
   <tile/>
   <tile/>
   <tile/>
   <tile/>
   <tile/>
   <tile/>
   <tile/>
   <tile/>
   <tile/>
   <tile/>
   <tile/>
   <tile/>
   <tile/>
   <tile/>
   <tile/>
   <tile/>
   <tile/>
   <tile gid="258"/>
   <tile gid="258"/>
   <tile gid="258"/>
   <tile/>
   <tile gid="258"/>
   <tile/>
   <tile/>
   <tile gid="258"/>
   <tile/>
   <tile/>
   <tile/>
   <tile/>
   <tile/>
   <tile/>
   <tile gid="258"/>
   <tile/>
   <tile/>
   <tile/>
   <tile/>
   <tile/>
   <tile/>
   <tile/>
   <tile/>
   <tile/>
   <tile/>
   <tile/>
   <tile/>
   <tile/>
   <tile/>
   <tile/>
   <tile/>
   <tile/>
   <tile/>
   <tile gid="258"/>
   <tile gid="258"/>
   <tile/>
   <tile/>
   <tile gid="258"/>
   <tile/>
   <tile/>
   <tile/>
   <tile/>
   <tile gid="258"/>
   <tile gid="258"/>
   <tile/>
   <tile/>
   <tile/>
   <tile/>
   <tile/>
   <tile/>
   <tile/>
   <tile/>
   <tile/>
   <tile/>
   <tile/>
   <tile/>
   <tile/>
   <tile/>
   <tile/>
   <tile/>
   <tile/>
   <tile/>
   <tile/>
   <tile/>
   <tile/>
   <tile/>
   <tile/>
   <tile/>
   <tile gid="258"/>
   <tile/>
   <tile/>
   <tile gid="258"/>
   <tile/>
   <tile/>
   <tile/>
   <tile/>
   <tile/>
   <tile/>
   <tile/>
   <tile/>
   <tile/>
   <tile/>
   <tile/>
   <tile/>
   <tile/>
   <tile/>
   <tile/>
   <tile/>
   <tile/>
   <tile/>
   <tile/>
   <tile/>
   <tile/>
   <tile/>
   <tile/>
   <tile/>
   <tile/>
   <tile/>
   <tile gid="258"/>
   <tile/>
   <tile gid="258"/>
   <tile/>
   <tile/>
   <tile/>
   <tile/>
   <tile gid="258"/>
   <tile gid="258"/>
   <tile gid="258"/>
   <tile gid="258"/>
   <tile gid="258"/>
   <tile gid="258"/>
   <tile/>
   <tile/>
   <tile/>
   <tile/>
   <tile/>
   <tile/>
   <tile/>
   <tile/>
   <tile/>
   <tile/>
   <tile/>
   <tile/>
   <tile/>
   <tile/>
   <tile/>
   <tile/>
   <tile/>
   <tile gid="258"/>
   <tile gid="258"/>
   <tile/>
   <tile/>
   <tile/>
   <tile/>
   <tile/>
   <tile/>
   <tile/>
   <tile/>
   <tile/>
   <tile/>
   <tile/>
   <tile gid="258"/>
   <tile gid="258"/>
   <tile/>
   <tile/>
   <tile/>
   <tile/>
   <tile/>
   <tile/>
   <tile/>
   <tile/>
   <tile/>
   <tile/>
   <tile/>
   <tile/>
   <tile/>
   <tile/>
   <tile/>
   <tile gid="258"/>
   <tile gid="258"/>
   <tile/>
   <tile/>
   <tile/>
   <tile/>
   <tile/>
   <tile/>
   <tile/>
   <tile/>
   <tile/>
   <tile/>
   <tile/>
   <tile/>
   <tile/>
   <tile gid="258"/>
   <tile/>
   <tile/>
   <tile/>
   <tile/>
   <tile/>
   <tile/>
   <tile/>
   <tile/>
   <tile/>
   <tile/>
   <tile/>
   <tile/>
   <tile/>
   <tile/>
   <tile/>
   <tile/>
   <tile/>
   <tile/>
   <tile/>
   <tile/>
   <tile/>
   <tile/>
   <tile/>
   <tile/>
   <tile/>
   <tile/>
   <tile/>
   <tile/>
   <tile/>
   <tile/>
   <tile gid="258"/>
   <tile/>
   <tile/>
   <tile/>
   <tile/>
   <tile/>
   <tile/>
   <tile/>
   <tile/>
   <tile/>
   <tile/>
   <tile/>
   <tile/>
   <tile gid="258"/>
   <tile gid="258"/>
   <tile gid="258"/>
   <tile gid="258"/>
   <tile gid="258"/>
   <tile gid="258"/>
   <tile gid="258"/>
   <tile gid="258"/>
   <tile/>
   <tile/>
   <tile/>
   <tile/>
   <tile/>
   <tile/>
   <tile/>
   <tile/>
   <tile/>
   <tile gid="258"/>
   <tile/>
   <tile/>
   <tile/>
   <tile/>
   <tile/>
   <tile/>
   <tile/>
   <tile/>
   <tile/>
   <tile/>
   <tile/>
   <tile/>
   <tile gid="258"/>
   <tile/>
   <tile/>
   <tile/>
   <tile/>
   <tile/>
   <tile/>
   <tile/>
   <tile/>
   <tile/>
   <tile/>
   <tile/>
   <tile/>
   <tile/>
   <tile/>
   <tile/>
   <tile/>
   <tile gid="258"/>
   <tile/>
   <tile/>
   <tile/>
   <tile/>
   <tile/>
   <tile/>
   <tile/>
   <tile/>
   <tile/>
   <tile/>
   <tile gid="258"/>
   <tile gid="258"/>
   <tile/>
   <tile/>
   <tile/>
   <tile/>
   <tile/>
   <tile/>
   <tile/>
   <tile/>
   <tile/>
   <tile/>
   <tile/>
   <tile/>
   <tile/>
   <tile/>
   <tile/>
   <tile/>
   <tile/>
   <tile gid="258"/>
   <tile/>
   <tile/>
   <tile/>
   <tile/>
   <tile/>
   <tile/>
   <tile/>
   <tile/>
   <tile/>
   <tile gid="258"/>
   <tile/>
   <tile/>
   <tile/>
   <tile/>
   <tile/>
   <tile/>
   <tile/>
   <tile/>
   <tile/>
   <tile/>
   <tile/>
   <tile/>
   <tile/>
   <tile/>
   <tile/>
   <tile/>
   <tile/>
   <tile/>
   <tile/>
   <tile gid="258"/>
   <tile/>
   <tile/>
   <tile/>
   <tile/>
   <tile/>
   <tile/>
   <tile/>
   <tile/>
   <tile/>
   <tile gid="258"/>
   <tile/>
   <tile/>
   <tile/>
   <tile/>
   <tile/>
   <tile/>
   <tile/>
   <tile/>
   <tile/>
   <tile/>
   <tile/>
   <tile/>
   <tile/>
   <tile/>
   <tile/>
   <tile/>
   <tile/>
   <tile/>
   <tile gid="258"/>
   <tile/>
   <tile/>
   <tile/>
   <tile/>
   <tile/>
   <tile/>
   <tile/>
   <tile/>
   <tile/>
   <tile gid="258"/>
   <tile/>
   <tile/>
   <tile/>
   <tile/>
   <tile/>
   <tile/>
   <tile/>
   <tile/>
   <tile/>
   <tile/>
   <tile/>
   <tile/>
   <tile/>
   <tile/>
   <tile/>
   <tile/>
   <tile/>
   <tile gid="258"/>
   <tile gid="258"/>
   <tile/>
   <tile/>
   <tile/>
   <tile/>
   <tile/>
   <tile/>
   <tile/>
   <tile/>
   <tile/>
   <tile gid="258"/>
   <tile/>
   <tile/>
   <tile/>
   <tile/>
   <tile/>
   <tile/>
   <tile/>
   <tile/>
   <tile/>
   <tile/>
   <tile/>
   <tile/>
   <tile/>
   <tile/>
   <tile/>
   <tile/>
   <tile/>
   <tile gid="258"/>
   <tile/>
   <tile/>
   <tile/>
   <tile/>
   <tile/>
   <tile/>
   <tile/>
   <tile/>
   <tile/>
   <tile/>
   <tile/>
   <tile gid="258"/>
   <tile/>
   <tile/>
   <tile/>
   <tile/>
   <tile/>
   <tile/>
   <tile/>
   <tile/>
   <tile/>
   <tile/>
   <tile/>
   <tile/>
   <tile/>
   <tile/>
   <tile/>
   <tile/>
   <tile gid="258"/>
   <tile/>
   <tile/>
   <tile/>
   <tile/>
   <tile/>
   <tile/>
   <tile/>
   <tile/>
   <tile/>
   <tile/>
   <tile/>
   <tile gid="258"/>
   <tile/>
   <tile/>
   <tile/>
   <tile/>
   <tile/>
   <tile/>
   <tile/>
   <tile/>
   <tile/>
   <tile/>
   <tile/>
   <tile/>
   <tile/>
   <tile/>
   <tile/>
   <tile/>
   <tile gid="258"/>
   <tile/>
   <tile/>
   <tile/>
   <tile/>
   <tile/>
   <tile/>
   <tile/>
   <tile/>
   <tile/>
   <tile/>
   <tile/>
   <tile/>
   <tile gid="258"/>
   <tile/>
   <tile/>
   <tile/>
   <tile/>
   <tile/>
   <tile/>
   <tile/>
   <tile/>
   <tile/>
   <tile/>
   <tile/>
   <tile/>
   <tile/>
   <tile/>
   <tile/>
   <tile gid="258"/>
   <tile/>
   <tile/>
   <tile/>
   <tile/>
   <tile/>
   <tile/>
   <tile/>
   <tile/>
   <tile/>
   <tile gid="258"/>
   <tile gid="258"/>
   <tile gid="258"/>
   <tile gid="258"/>
   <tile/>
   <tile/>
   <tile/>
   <tile/>
   <tile/>
   <tile/>
   <tile/>
   <tile/>
   <tile/>
   <tile/>
   <tile/>
   <tile/>
   <tile/>
   <tile/>
   <tile/>
   <tile gid="258"/>
   <tile/>
   <tile/>
   <tile/>
   <tile/>
   <tile/>
   <tile/>
   <tile/>
   <tile/>
   <tile/>
   <tile/>
   <tile gid="258"/>
   <tile/>
   <tile/>
   <tile/>
   <tile/>
   <tile/>
   <tile/>
   <tile/>
   <tile/>
   <tile/>
   <tile/>
   <tile/>
   <tile/>
   <tile/>
   <tile/>
   <tile/>
   <tile/>
   <tile/>
   <tile gid="258"/>
   <tile/>
   <tile/>
   <tile/>
   <tile/>
   <tile/>
   <tile/>
   <tile/>
   <tile/>
   <tile/>
   <tile gid="258"/>
   <tile gid="258"/>
   <tile/>
   <tile/>
   <tile/>
   <tile/>
   <tile/>
   <tile/>
   <tile/>
   <tile/>
   <tile/>
   <tile/>
   <tile/>
   <tile/>
   <tile/>
   <tile/>
   <tile/>
   <tile/>
   <tile/>
   <tile/>
   <tile gid="258"/>
   <tile/>
   <tile/>
   <tile/>
   <tile/>
   <tile/>
   <tile/>
   <tile/>
   <tile/>
   <tile/>
   <tile gid="258"/>
   <tile/>
   <tile/>
   <tile/>
   <tile/>
   <tile/>
   <tile/>
   <tile/>
   <tile/>
   <tile/>
   <tile/>
   <tile/>
   <tile/>
   <tile/>
   <tile/>
   <tile/>
   <tile/>
   <tile/>
   <tile/>
   <tile/>
   <tile gid="258"/>
   <tile/>
   <tile/>
   <tile/>
   <tile/>
   <tile/>
   <tile/>
   <tile/>
   <tile/>
   <tile gid="258"/>
   <tile/>
   <tile/>
   <tile/>
   <tile/>
   <tile/>
   <tile/>
   <tile/>
   <tile/>
   <tile/>
   <tile/>
   <tile/>
   <tile/>
   <tile/>
   <tile/>
   <tile/>
   <tile/>
   <tile/>
   <tile/>
   <tile/>
   <tile/>
   <tile gid="258"/>
   <tile/>
   <tile/>
   <tile/>
   <tile/>
   <tile/>
   <tile/>
   <tile/>
   <tile/>
   <tile gid="258"/>
   <tile/>
   <tile/>
   <tile/>
   <tile/>
   <tile/>
   <tile/>
   <tile/>
   <tile/>
   <tile/>
   <tile/>
   <tile/>
   <tile/>
   <tile/>
   <tile/>
   <tile/>
   <tile/>
   <tile/>
   <tile/>
   <tile/>
   <tile/>
   <tile gid="258"/>
   <tile/>
   <tile/>
   <tile/>
   <tile/>
   <tile/>
   <tile/>
   <tile/>
   <tile gid="258"/>
   <tile/>
   <tile/>
   <tile/>
   <tile/>
   <tile/>
   <tile/>
   <tile/>
   <tile/>
   <tile/>
   <tile/>
   <tile/>
   <tile/>
   <tile/>
   <tile/>
   <tile/>
   <tile/>
   <tile/>
   <tile/>
   <tile/>
   <tile/>
   <tile/>
   <tile gid="258"/>
   <tile/>
   <tile/>
   <tile/>
   <tile/>
   <tile/>
   <tile/>
   <tile/>
   <tile gid="258"/>
   <tile/>
   <tile/>
   <tile/>
   <tile/>
   <tile/>
   <tile/>
   <tile/>
   <tile/>
   <tile/>
   <tile/>
   <tile/>
   <tile/>
   <tile/>
   <tile/>
   <tile/>
   <tile/>
   <tile/>
   <tile/>
   <tile/>
   <tile/>
   <tile/>
   <tile gid="258"/>
   <tile/>
   <tile/>
   <tile/>
   <tile/>
   <tile/>
   <tile/>
   <tile gid="258"/>
   <tile/>
   <tile/>
   <tile/>
   <tile/>
   <tile/>
   <tile/>
   <tile/>
   <tile/>
   <tile/>
   <tile/>
   <tile/>
   <tile/>
   <tile/>
   <tile/>
   <tile/>
   <tile/>
   <tile/>
   <tile/>
   <tile/>
   <tile/>
   <tile/>
   <tile/>
   <tile gid="258"/>
   <tile/>
   <tile/>
   <tile/>
   <tile/>
   <tile/>
   <tile/>
   <tile gid="258"/>
   <tile/>
   <tile/>
   <tile/>
   <tile/>
   <tile/>
   <tile/>
   <tile/>
   <tile/>
   <tile/>
   <tile/>
   <tile/>
   <tile/>
   <tile/>
   <tile/>
   <tile/>
   <tile/>
   <tile/>
   <tile/>
   <tile/>
   <tile/>
   <tile/>
   <tile/>
  </data>
 </layer>
 <objectgroup id="2" name="Entities">
  <object id="1" name="Door" type="Door" x="-11.859" y="287.828" width="19.8858" height="404">
   <properties>
    <property name="Destination" value="MapCor_Sala1.tmx"/>
    <property name="Type" value="Door"/>
    <property name="playerX" type="float" value="1800"/>
    <property name="playerY" type="float" value="992"/>
   </properties>
  </object>
  <object id="2" name="Door" type="Door" x="46.0794" y="2160.56" width="404" height="28.4496">
   <properties>
    <property name="Destination" value="MapCor_Sala3.tmx"/>
    <property name="Type" value="Door"/>
    <property name="playerX" type="float" value="824"/>
    <property name="playerY" type="float" value="119"/>
   </properties>
  </object>
  <object id="4" name="Eosinofilo" type="Enemy" x="794" y="650">
   <point/>
  </object>
  <object id="5" name="Eosinofilo" type="Enemy" x="924" y="1096">
   <point/>
  </object>
  <object id="10" name="Player" type="Player" x="170.909" y="569.108">
   <point/>
  </object>
 </objectgroup>
</map>
