<?xml version="1.0" encoding="UTF-8"?>
<map version="1.10" tiledversion="1.11.2" orientation="orthogonal" renderorder="right-down" width="135" height="34" tilewidth="64" tileheight="64" infinite="0" nextlayerid="10" nextobjectid="339">
 <properties>
  <property name="Draw" type="bool" value="true"/>
 </properties>
 <tileset firstgid="1" name="atñas_2.6" tilewidth="64" tileheight="64" tilecount="256" columns="16">
  <image source="atñas_2.6.png" width="1024" height="1024"/>
 </tileset>
 <tileset firstgid="257" name="TileMetadata" tilewidth="64" tileheight="64" tilecount="2" columns="2">
  <image source="TileMetadata.png" width="128" height="64"/>
 </tileset>
 <tileset firstgid="259" name="Atlas_Estomago" tilewidth="64" tileheight="64" tilecount="361" columns="19">
  <image source="Atlas_Estomago.png" width="1216" height="1216"/>
 </tileset>
 <tileset firstgid="620" name="tiled backgound_stomach" tilewidth="64" tileheight="64" tilecount="480" columns="30">
  <image source="../Textures/Backgrounds/Estomac/tiled backgound_stomach.png" width="1920" height="1080"/>
 </tileset>
 <tileset firstgid="1100" name="middleground" tilewidth="2020" tileheight="1180" tilecount="5" columns="0">
  <grid orientation="orthogonal" width="1" height="1"/>
  <tile id="0" x="300" y="0" width="2020" height="1180">
   <image source="../Textures/Middleground/Estomac/glandula acido alien 1.png" width="2020" height="1180"/>
  </tile>
  <tile id="1" x="100" y="0" width="2020" height="1180">
   <image source="../Textures/Middleground/Estomac/glandula acido alien 2.png" width="2020" height="1180"/>
  </tile>
  <tile id="2" x="500" y="0" width="2020" height="1180">
   <image source="../Textures/Middleground/Estomac/movida 3.png" width="2020" height="1180"/>
  </tile>
  <tile id="3" x="240" y="0" width="2020" height="1180">
   <image source="../Textures/Middleground/Estomac/movida 4.png" width="2020" height="1180"/>
  </tile>
  <tile id="4" x="500" y="0" width="2020" height="1180">
   <image source="../Textures/Middleground/Estomac/movida 5.png" width="2020" height="1180"/>
  </tile>
 </tileset>
 <layer id="8" name="Background" width="135" height="34" parallaxx="1.2">
  <properties>
   <property name="Draw" type="bool" value="true"/>
  </properties>
  <data>
   <tile gid="1040"/>
   <tile gid="1041"/>
   <tile gid="1042"/>
   <tile gid="1043"/>
   <tile gid="1044"/>
   <tile gid="1045"/>
   <tile gid="1046"/>
   <tile gid="1047"/>
   <tile gid="1048"/>
   <tile gid="1049"/>
   <tile gid="1050"/>
   <tile gid="1051"/>
   <tile gid="1052"/>
   <tile gid="1053"/>
   <tile gid="1054"/>
   <tile gid="1055"/>
   <tile gid="1056"/>
   <tile gid="1057"/>
   <tile gid="1058"/>
   <tile gid="1059"/>
   <tile gid="1060"/>
   <tile gid="1061"/>
   <tile gid="1062"/>
   <tile gid="1063"/>
   <tile gid="1064"/>
   <tile gid="1065"/>
   <tile gid="1066"/>
   <tile gid="1067"/>
   <tile gid="1068"/>
   <tile gid="1069"/>
   <tile gid="1040"/>
   <tile gid="1041"/>
   <tile gid="1042"/>
   <tile gid="1043"/>
   <tile gid="1044"/>
   <tile gid="1045"/>
   <tile gid="1046"/>
   <tile gid="1047"/>
   <tile gid="1048"/>
   <tile gid="1049"/>
   <tile gid="1050"/>
   <tile gid="1051"/>
   <tile gid="1052"/>
   <tile gid="1053"/>
   <tile gid="1054"/>
   <tile gid="1055"/>
   <tile gid="1056"/>
   <tile gid="1057"/>
   <tile gid="1058"/>
   <tile gid="1059"/>
   <tile gid="1060"/>
   <tile gid="1061"/>
   <tile gid="1062"/>
   <tile gid="1063"/>
   <tile gid="1064"/>
   <tile gid="1065"/>
   <tile gid="1066"/>
   <tile gid="1067"/>
   <tile gid="1068"/>
   <tile gid="1069"/>
   <tile gid="1040"/>
   <tile gid="1041"/>
   <tile gid="1042"/>
   <tile gid="1043"/>
   <tile gid="1044"/>
   <tile gid="1045"/>
   <tile gid="1046"/>
   <tile gid="1047"/>
   <tile gid="1048"/>
   <tile gid="1049"/>
   <tile gid="1050"/>
   <tile gid="1051"/>
   <tile gid="1052"/>
   <tile gid="1053"/>
   <tile gid="1054"/>
   <tile gid="1055"/>
   <tile gid="1056"/>
   <tile gid="1057"/>
   <tile gid="1058"/>
   <tile gid="1059"/>
   <tile gid="1060"/>
   <tile gid="1061"/>
   <tile gid="1062"/>
   <tile gid="1063"/>
   <tile gid="1064"/>
   <tile gid="1065"/>
   <tile gid="1066"/>
   <tile gid="1067"/>
   <tile gid="1068"/>
   <tile gid="1069"/>
   <tile gid="1040"/>
   <tile gid="1041"/>
   <tile gid="1042"/>
   <tile gid="1043"/>
   <tile gid="1044"/>
   <tile gid="1045"/>
   <tile gid="1046"/>
   <tile gid="1047"/>
   <tile gid="1048"/>
   <tile gid="1049"/>
   <tile gid="1050"/>
   <tile gid="1051"/>
   <tile gid="1052"/>
   <tile gid="1053"/>
   <tile gid="1054"/>
   <tile gid="1055"/>
   <tile gid="1056"/>
   <tile gid="1057"/>
   <tile gid="1058"/>
   <tile gid="1059"/>
   <tile gid="1060"/>
   <tile gid="1061"/>
   <tile gid="1062"/>
   <tile gid="1063"/>
   <tile gid="1064"/>
   <tile gid="1065"/>
   <tile gid="1066"/>
   <tile gid="1067"/>
   <tile gid="1068"/>
   <tile gid="1069"/>
   <tile gid="1040"/>
   <tile gid="1041"/>
   <tile gid="1042"/>
   <tile gid="1043"/>
   <tile gid="1044"/>
   <tile gid="1045"/>
   <tile gid="1046"/>
   <tile gid="1047"/>
   <tile gid="1048"/>
   <tile gid="1049"/>
   <tile gid="1050"/>
   <tile gid="1051"/>
   <tile gid="1052"/>
   <tile gid="1053"/>
   <tile gid="1054"/>
   <tile gid="1070"/>
   <tile gid="1071"/>
   <tile gid="1072"/>
   <tile gid="1073"/>
   <tile gid="1074"/>
   <tile gid="1075"/>
   <tile gid="1076"/>
   <tile gid="1077"/>
   <tile gid="1078"/>
   <tile gid="1079"/>
   <tile gid="1080"/>
   <tile gid="1081"/>
   <tile gid="1082"/>
   <tile gid="1083"/>
   <tile gid="1084"/>
   <tile gid="1085"/>
   <tile gid="1086"/>
   <tile gid="1087"/>
   <tile gid="1088"/>
   <tile gid="1089"/>
   <tile gid="1090"/>
   <tile gid="1091"/>
   <tile gid="1092"/>
   <tile gid="1093"/>
   <tile gid="1094"/>
   <tile gid="1095"/>
   <tile gid="1096"/>
   <tile gid="1097"/>
   <tile gid="1098"/>
   <tile gid="1099"/>
   <tile gid="1070"/>
   <tile gid="1071"/>
   <tile gid="1072"/>
   <tile gid="1073"/>
   <tile gid="1074"/>
   <tile gid="1075"/>
   <tile gid="1076"/>
   <tile gid="1077"/>
   <tile gid="1078"/>
   <tile gid="1079"/>
   <tile gid="1080"/>
   <tile gid="1081"/>
   <tile gid="1082"/>
   <tile gid="1083"/>
   <tile gid="1084"/>
   <tile gid="1085"/>
   <tile gid="1086"/>
   <tile gid="1087"/>
   <tile gid="1088"/>
   <tile gid="1089"/>
   <tile gid="1090"/>
   <tile gid="1091"/>
   <tile gid="1092"/>
   <tile gid="1093"/>
   <tile gid="1094"/>
   <tile gid="1095"/>
   <tile gid="1096"/>
   <tile gid="1097"/>
   <tile gid="1098"/>
   <tile gid="1099"/>
   <tile gid="1070"/>
   <tile gid="1071"/>
   <tile gid="1072"/>
   <tile gid="1073"/>
   <tile gid="1074"/>
   <tile gid="1075"/>
   <tile gid="1076"/>
   <tile gid="1077"/>
   <tile gid="1078"/>
   <tile gid="1079"/>
   <tile gid="1080"/>
   <tile gid="1081"/>
   <tile gid="1082"/>
   <tile gid="1083"/>
   <tile gid="1084"/>
   <tile gid="1085"/>
   <tile gid="1086"/>
   <tile gid="1087"/>
   <tile gid="1088"/>
   <tile gid="1089"/>
   <tile gid="1090"/>
   <tile gid="1091"/>
   <tile gid="1092"/>
   <tile gid="1093"/>
   <tile gid="1094"/>
   <tile gid="1095"/>
   <tile gid="1096"/>
   <tile gid="1097"/>
   <tile gid="1098"/>
   <tile gid="1099"/>
   <tile gid="1070"/>
   <tile gid="1071"/>
   <tile gid="1072"/>
   <tile gid="1073"/>
   <tile gid="1074"/>
   <tile gid="1075"/>
   <tile gid="1076"/>
   <tile gid="1077"/>
   <tile gid="1078"/>
   <tile gid="1079"/>
   <tile gid="1080"/>
   <tile gid="1081"/>
   <tile gid="1082"/>
   <tile gid="1083"/>
   <tile gid="1084"/>
   <tile gid="1085"/>
   <tile gid="1086"/>
   <tile gid="1087"/>
   <tile gid="1088"/>
   <tile gid="1089"/>
   <tile gid="1090"/>
   <tile gid="1091"/>
   <tile gid="1092"/>
   <tile gid="1093"/>
   <tile gid="1094"/>
   <tile gid="1095"/>
   <tile gid="1096"/>
   <tile gid="1097"/>
   <tile gid="1098"/>
   <tile gid="1099"/>
   <tile gid="1070"/>
   <tile gid="1071"/>
   <tile gid="1072"/>
   <tile gid="1073"/>
   <tile gid="1074"/>
   <tile gid="1075"/>
   <tile gid="1076"/>
   <tile gid="1077"/>
   <tile gid="1078"/>
   <tile gid="1079"/>
   <tile gid="1080"/>
   <tile gid="1081"/>
   <tile gid="1082"/>
   <tile gid="1083"/>
   <tile gid="1084"/>
   <tile gid="620"/>
   <tile gid="621"/>
   <tile gid="622"/>
   <tile gid="623"/>
   <tile gid="624"/>
   <tile gid="625"/>
   <tile gid="626"/>
   <tile gid="627"/>
   <tile gid="628"/>
   <tile gid="629"/>
   <tile gid="630"/>
   <tile gid="631"/>
   <tile gid="632"/>
   <tile gid="633"/>
   <tile gid="634"/>
   <tile gid="635"/>
   <tile gid="636"/>
   <tile gid="637"/>
   <tile gid="638"/>
   <tile gid="639"/>
   <tile gid="640"/>
   <tile gid="641"/>
   <tile gid="642"/>
   <tile gid="643"/>
   <tile gid="644"/>
   <tile gid="645"/>
   <tile gid="646"/>
   <tile gid="647"/>
   <tile gid="648"/>
   <tile gid="649"/>
   <tile gid="620"/>
   <tile gid="621"/>
   <tile gid="622"/>
   <tile gid="623"/>
   <tile gid="624"/>
   <tile gid="625"/>
   <tile gid="626"/>
   <tile gid="627"/>
   <tile gid="628"/>
   <tile gid="629"/>
   <tile gid="630"/>
   <tile gid="631"/>
   <tile gid="632"/>
   <tile gid="633"/>
   <tile gid="634"/>
   <tile gid="635"/>
   <tile gid="636"/>
   <tile gid="637"/>
   <tile gid="638"/>
   <tile gid="639"/>
   <tile gid="640"/>
   <tile gid="641"/>
   <tile gid="642"/>
   <tile gid="643"/>
   <tile gid="644"/>
   <tile gid="645"/>
   <tile gid="646"/>
   <tile gid="647"/>
   <tile gid="648"/>
   <tile gid="649"/>
   <tile gid="620"/>
   <tile gid="621"/>
   <tile gid="622"/>
   <tile gid="623"/>
   <tile gid="624"/>
   <tile gid="625"/>
   <tile gid="626"/>
   <tile gid="627"/>
   <tile gid="628"/>
   <tile gid="629"/>
   <tile gid="630"/>
   <tile gid="631"/>
   <tile gid="632"/>
   <tile gid="633"/>
   <tile gid="634"/>
   <tile gid="635"/>
   <tile gid="636"/>
   <tile gid="637"/>
   <tile gid="638"/>
   <tile gid="639"/>
   <tile gid="640"/>
   <tile gid="641"/>
   <tile gid="642"/>
   <tile gid="643"/>
   <tile gid="644"/>
   <tile gid="645"/>
   <tile gid="646"/>
   <tile gid="647"/>
   <tile gid="648"/>
   <tile gid="649"/>
   <tile gid="620"/>
   <tile gid="621"/>
   <tile gid="622"/>
   <tile gid="623"/>
   <tile gid="624"/>
   <tile gid="625"/>
   <tile gid="626"/>
   <tile gid="627"/>
   <tile gid="628"/>
   <tile gid="629"/>
   <tile gid="630"/>
   <tile gid="631"/>
   <tile gid="632"/>
   <tile gid="633"/>
   <tile gid="634"/>
   <tile gid="635"/>
   <tile gid="636"/>
   <tile gid="637"/>
   <tile gid="638"/>
   <tile gid="639"/>
   <tile gid="640"/>
   <tile gid="641"/>
   <tile gid="642"/>
   <tile gid="643"/>
   <tile gid="644"/>
   <tile gid="645"/>
   <tile gid="646"/>
   <tile gid="647"/>
   <tile gid="648"/>
   <tile gid="649"/>
   <tile gid="620"/>
   <tile gid="621"/>
   <tile gid="622"/>
   <tile gid="623"/>
   <tile gid="624"/>
   <tile gid="625"/>
   <tile gid="626"/>
   <tile gid="627"/>
   <tile gid="628"/>
   <tile gid="629"/>
   <tile gid="630"/>
   <tile gid="631"/>
   <tile gid="632"/>
   <tile gid="633"/>
   <tile gid="634"/>
   <tile gid="650"/>
   <tile gid="651"/>
   <tile gid="652"/>
   <tile gid="653"/>
   <tile gid="654"/>
   <tile gid="655"/>
   <tile gid="656"/>
   <tile gid="657"/>
   <tile gid="658"/>
   <tile gid="659"/>
   <tile gid="660"/>
   <tile gid="661"/>
   <tile gid="662"/>
   <tile gid="663"/>
   <tile gid="664"/>
   <tile gid="665"/>
   <tile gid="666"/>
   <tile gid="667"/>
   <tile gid="668"/>
   <tile gid="669"/>
   <tile gid="670"/>
   <tile gid="671"/>
   <tile gid="672"/>
   <tile gid="673"/>
   <tile gid="674"/>
   <tile gid="675"/>
   <tile gid="676"/>
   <tile gid="677"/>
   <tile gid="678"/>
   <tile gid="679"/>
   <tile gid="650"/>
   <tile gid="651"/>
   <tile gid="652"/>
   <tile gid="653"/>
   <tile gid="654"/>
   <tile gid="655"/>
   <tile gid="656"/>
   <tile gid="657"/>
   <tile gid="658"/>
   <tile gid="659"/>
   <tile gid="660"/>
   <tile gid="661"/>
   <tile gid="662"/>
   <tile gid="663"/>
   <tile gid="664"/>
   <tile gid="665"/>
   <tile gid="666"/>
   <tile gid="667"/>
   <tile gid="668"/>
   <tile gid="669"/>
   <tile gid="670"/>
   <tile gid="671"/>
   <tile gid="672"/>
   <tile gid="673"/>
   <tile gid="674"/>
   <tile gid="675"/>
   <tile gid="676"/>
   <tile gid="677"/>
   <tile gid="678"/>
   <tile gid="679"/>
   <tile gid="650"/>
   <tile gid="651"/>
   <tile gid="652"/>
   <tile gid="653"/>
   <tile gid="654"/>
   <tile gid="655"/>
   <tile gid="656"/>
   <tile gid="657"/>
   <tile gid="658"/>
   <tile gid="659"/>
   <tile gid="660"/>
   <tile gid="661"/>
   <tile gid="662"/>
   <tile gid="663"/>
   <tile gid="664"/>
   <tile gid="665"/>
   <tile gid="666"/>
   <tile gid="667"/>
   <tile gid="668"/>
   <tile gid="669"/>
   <tile gid="670"/>
   <tile gid="671"/>
   <tile gid="672"/>
   <tile gid="673"/>
   <tile gid="674"/>
   <tile gid="675"/>
   <tile gid="676"/>
   <tile gid="677"/>
   <tile gid="678"/>
   <tile gid="679"/>
   <tile gid="650"/>
   <tile gid="651"/>
   <tile gid="652"/>
   <tile gid="653"/>
   <tile gid="654"/>
   <tile gid="655"/>
   <tile gid="656"/>
   <tile gid="657"/>
   <tile gid="658"/>
   <tile gid="659"/>
   <tile gid="660"/>
   <tile gid="661"/>
   <tile gid="662"/>
   <tile gid="663"/>
   <tile gid="664"/>
   <tile gid="665"/>
   <tile gid="666"/>
   <tile gid="667"/>
   <tile gid="668"/>
   <tile gid="669"/>
   <tile gid="670"/>
   <tile gid="671"/>
   <tile gid="672"/>
   <tile gid="673"/>
   <tile gid="674"/>
   <tile gid="675"/>
   <tile gid="676"/>
   <tile gid="677"/>
   <tile gid="678"/>
   <tile gid="679"/>
   <tile gid="650"/>
   <tile gid="651"/>
   <tile gid="652"/>
   <tile gid="653"/>
   <tile gid="654"/>
   <tile gid="655"/>
   <tile gid="656"/>
   <tile gid="657"/>
   <tile gid="658"/>
   <tile gid="659"/>
   <tile gid="660"/>
   <tile gid="661"/>
   <tile gid="662"/>
   <tile gid="663"/>
   <tile gid="664"/>
   <tile gid="680"/>
   <tile gid="681"/>
   <tile gid="682"/>
   <tile gid="683"/>
   <tile gid="684"/>
   <tile gid="685"/>
   <tile gid="686"/>
   <tile gid="687"/>
   <tile gid="688"/>
   <tile gid="689"/>
   <tile gid="690"/>
   <tile gid="691"/>
   <tile gid="692"/>
   <tile gid="693"/>
   <tile gid="694"/>
   <tile gid="695"/>
   <tile gid="696"/>
   <tile gid="697"/>
   <tile gid="698"/>
   <tile gid="699"/>
   <tile gid="700"/>
   <tile gid="701"/>
   <tile gid="702"/>
   <tile gid="703"/>
   <tile gid="704"/>
   <tile gid="705"/>
   <tile gid="706"/>
   <tile gid="707"/>
   <tile gid="708"/>
   <tile gid="709"/>
   <tile gid="680"/>
   <tile gid="681"/>
   <tile gid="682"/>
   <tile gid="683"/>
   <tile gid="684"/>
   <tile gid="685"/>
   <tile gid="686"/>
   <tile gid="687"/>
   <tile gid="688"/>
   <tile gid="689"/>
   <tile gid="690"/>
   <tile gid="691"/>
   <tile gid="692"/>
   <tile gid="693"/>
   <tile gid="694"/>
   <tile gid="695"/>
   <tile gid="696"/>
   <tile gid="697"/>
   <tile gid="698"/>
   <tile gid="699"/>
   <tile gid="700"/>
   <tile gid="701"/>
   <tile gid="702"/>
   <tile gid="703"/>
   <tile gid="704"/>
   <tile gid="705"/>
   <tile gid="706"/>
   <tile gid="707"/>
   <tile gid="708"/>
   <tile gid="709"/>
   <tile gid="680"/>
   <tile gid="681"/>
   <tile gid="682"/>
   <tile gid="683"/>
   <tile gid="684"/>
   <tile gid="685"/>
   <tile gid="686"/>
   <tile gid="687"/>
   <tile gid="688"/>
   <tile gid="689"/>
   <tile gid="690"/>
   <tile gid="691"/>
   <tile gid="692"/>
   <tile gid="693"/>
   <tile gid="694"/>
   <tile gid="695"/>
   <tile gid="696"/>
   <tile gid="697"/>
   <tile gid="698"/>
   <tile gid="699"/>
   <tile gid="700"/>
   <tile gid="701"/>
   <tile gid="702"/>
   <tile gid="703"/>
   <tile gid="704"/>
   <tile gid="705"/>
   <tile gid="706"/>
   <tile gid="707"/>
   <tile gid="708"/>
   <tile gid="709"/>
   <tile gid="680"/>
   <tile gid="681"/>
   <tile gid="682"/>
   <tile gid="683"/>
   <tile gid="684"/>
   <tile gid="685"/>
   <tile gid="686"/>
   <tile gid="687"/>
   <tile gid="688"/>
   <tile gid="689"/>
   <tile gid="690"/>
   <tile gid="691"/>
   <tile gid="692"/>
   <tile gid="693"/>
   <tile gid="694"/>
   <tile gid="695"/>
   <tile gid="696"/>
   <tile gid="697"/>
   <tile gid="698"/>
   <tile gid="699"/>
   <tile gid="700"/>
   <tile gid="701"/>
   <tile gid="702"/>
   <tile gid="703"/>
   <tile gid="704"/>
   <tile gid="705"/>
   <tile gid="706"/>
   <tile gid="707"/>
   <tile gid="708"/>
   <tile gid="709"/>
   <tile gid="680"/>
   <tile gid="681"/>
   <tile gid="682"/>
   <tile gid="683"/>
   <tile gid="684"/>
   <tile gid="685"/>
   <tile gid="686"/>
   <tile gid="687"/>
   <tile gid="688"/>
   <tile gid="689"/>
   <tile gid="690"/>
   <tile gid="691"/>
   <tile gid="692"/>
   <tile gid="693"/>
   <tile gid="694"/>
   <tile gid="710"/>
   <tile gid="711"/>
   <tile gid="712"/>
   <tile gid="713"/>
   <tile gid="714"/>
   <tile gid="715"/>
   <tile gid="716"/>
   <tile gid="717"/>
   <tile gid="718"/>
   <tile gid="719"/>
   <tile gid="720"/>
   <tile gid="721"/>
   <tile gid="722"/>
   <tile gid="723"/>
   <tile gid="724"/>
   <tile gid="725"/>
   <tile gid="726"/>
   <tile gid="727"/>
   <tile gid="728"/>
   <tile gid="729"/>
   <tile gid="730"/>
   <tile gid="731"/>
   <tile gid="732"/>
   <tile gid="733"/>
   <tile gid="734"/>
   <tile gid="735"/>
   <tile gid="736"/>
   <tile gid="737"/>
   <tile gid="738"/>
   <tile gid="739"/>
   <tile gid="710"/>
   <tile gid="711"/>
   <tile gid="712"/>
   <tile gid="713"/>
   <tile gid="714"/>
   <tile gid="715"/>
   <tile gid="716"/>
   <tile gid="717"/>
   <tile gid="718"/>
   <tile gid="719"/>
   <tile gid="720"/>
   <tile gid="721"/>
   <tile gid="722"/>
   <tile gid="723"/>
   <tile gid="724"/>
   <tile gid="725"/>
   <tile gid="726"/>
   <tile gid="727"/>
   <tile gid="728"/>
   <tile gid="729"/>
   <tile gid="730"/>
   <tile gid="731"/>
   <tile gid="732"/>
   <tile gid="733"/>
   <tile gid="734"/>
   <tile gid="735"/>
   <tile gid="736"/>
   <tile gid="737"/>
   <tile gid="738"/>
   <tile gid="739"/>
   <tile gid="710"/>
   <tile gid="711"/>
   <tile gid="712"/>
   <tile gid="713"/>
   <tile gid="714"/>
   <tile gid="715"/>
   <tile gid="716"/>
   <tile gid="717"/>
   <tile gid="718"/>
   <tile gid="719"/>
   <tile gid="720"/>
   <tile gid="721"/>
   <tile gid="722"/>
   <tile gid="723"/>
   <tile gid="724"/>
   <tile gid="725"/>
   <tile gid="726"/>
   <tile gid="727"/>
   <tile gid="728"/>
   <tile gid="729"/>
   <tile gid="730"/>
   <tile gid="731"/>
   <tile gid="732"/>
   <tile gid="733"/>
   <tile gid="734"/>
   <tile gid="735"/>
   <tile gid="736"/>
   <tile gid="737"/>
   <tile gid="738"/>
   <tile gid="739"/>
   <tile gid="710"/>
   <tile gid="711"/>
   <tile gid="712"/>
   <tile gid="713"/>
   <tile gid="714"/>
   <tile gid="715"/>
   <tile gid="716"/>
   <tile gid="717"/>
   <tile gid="718"/>
   <tile gid="719"/>
   <tile gid="720"/>
   <tile gid="721"/>
   <tile gid="722"/>
   <tile gid="723"/>
   <tile gid="724"/>
   <tile gid="725"/>
   <tile gid="726"/>
   <tile gid="727"/>
   <tile gid="728"/>
   <tile gid="729"/>
   <tile gid="730"/>
   <tile gid="731"/>
   <tile gid="732"/>
   <tile gid="733"/>
   <tile gid="734"/>
   <tile gid="735"/>
   <tile gid="736"/>
   <tile gid="737"/>
   <tile gid="738"/>
   <tile gid="739"/>
   <tile gid="710"/>
   <tile gid="711"/>
   <tile gid="712"/>
   <tile gid="713"/>
   <tile gid="714"/>
   <tile gid="715"/>
   <tile gid="716"/>
   <tile gid="717"/>
   <tile gid="718"/>
   <tile gid="719"/>
   <tile gid="720"/>
   <tile gid="721"/>
   <tile gid="722"/>
   <tile gid="723"/>
   <tile gid="724"/>
   <tile gid="740"/>
   <tile gid="741"/>
   <tile gid="742"/>
   <tile gid="743"/>
   <tile gid="744"/>
   <tile gid="745"/>
   <tile gid="746"/>
   <tile gid="747"/>
   <tile gid="748"/>
   <tile gid="749"/>
   <tile gid="750"/>
   <tile gid="751"/>
   <tile gid="752"/>
   <tile gid="753"/>
   <tile gid="754"/>
   <tile gid="755"/>
   <tile gid="756"/>
   <tile gid="757"/>
   <tile gid="758"/>
   <tile gid="759"/>
   <tile gid="760"/>
   <tile gid="761"/>
   <tile gid="762"/>
   <tile gid="763"/>
   <tile gid="764"/>
   <tile gid="765"/>
   <tile gid="766"/>
   <tile gid="767"/>
   <tile gid="768"/>
   <tile gid="769"/>
   <tile gid="740"/>
   <tile gid="741"/>
   <tile gid="742"/>
   <tile gid="743"/>
   <tile gid="744"/>
   <tile gid="745"/>
   <tile gid="746"/>
   <tile gid="747"/>
   <tile gid="748"/>
   <tile gid="749"/>
   <tile gid="750"/>
   <tile gid="751"/>
   <tile gid="752"/>
   <tile gid="753"/>
   <tile gid="754"/>
   <tile gid="755"/>
   <tile gid="756"/>
   <tile gid="757"/>
   <tile gid="758"/>
   <tile gid="759"/>
   <tile gid="760"/>
   <tile gid="761"/>
   <tile gid="762"/>
   <tile gid="763"/>
   <tile gid="764"/>
   <tile gid="765"/>
   <tile gid="766"/>
   <tile gid="767"/>
   <tile gid="768"/>
   <tile gid="769"/>
   <tile gid="740"/>
   <tile gid="741"/>
   <tile gid="742"/>
   <tile gid="743"/>
   <tile gid="744"/>
   <tile gid="745"/>
   <tile gid="746"/>
   <tile gid="747"/>
   <tile gid="748"/>
   <tile gid="749"/>
   <tile gid="750"/>
   <tile gid="751"/>
   <tile gid="752"/>
   <tile gid="753"/>
   <tile gid="754"/>
   <tile gid="755"/>
   <tile gid="756"/>
   <tile gid="757"/>
   <tile gid="758"/>
   <tile gid="759"/>
   <tile gid="760"/>
   <tile gid="761"/>
   <tile gid="762"/>
   <tile gid="763"/>
   <tile gid="764"/>
   <tile gid="765"/>
   <tile gid="766"/>
   <tile gid="767"/>
   <tile gid="768"/>
   <tile gid="769"/>
   <tile gid="740"/>
   <tile gid="741"/>
   <tile gid="742"/>
   <tile gid="743"/>
   <tile gid="744"/>
   <tile gid="745"/>
   <tile gid="746"/>
   <tile gid="747"/>
   <tile gid="748"/>
   <tile gid="749"/>
   <tile gid="750"/>
   <tile gid="751"/>
   <tile gid="752"/>
   <tile gid="753"/>
   <tile gid="754"/>
   <tile gid="755"/>
   <tile gid="756"/>
   <tile gid="757"/>
   <tile gid="758"/>
   <tile gid="759"/>
   <tile gid="760"/>
   <tile gid="761"/>
   <tile gid="762"/>
   <tile gid="763"/>
   <tile gid="764"/>
   <tile gid="765"/>
   <tile gid="766"/>
   <tile gid="767"/>
   <tile gid="768"/>
   <tile gid="769"/>
   <tile gid="740"/>
   <tile gid="741"/>
   <tile gid="742"/>
   <tile gid="743"/>
   <tile gid="744"/>
   <tile gid="745"/>
   <tile gid="746"/>
   <tile gid="747"/>
   <tile gid="748"/>
   <tile gid="749"/>
   <tile gid="750"/>
   <tile gid="751"/>
   <tile gid="752"/>
   <tile gid="753"/>
   <tile gid="754"/>
   <tile gid="770"/>
   <tile gid="771"/>
   <tile gid="772"/>
   <tile gid="773"/>
   <tile gid="774"/>
   <tile gid="775"/>
   <tile gid="776"/>
   <tile gid="777"/>
   <tile gid="778"/>
   <tile gid="779"/>
   <tile gid="780"/>
   <tile gid="781"/>
   <tile gid="782"/>
   <tile gid="783"/>
   <tile gid="784"/>
   <tile gid="785"/>
   <tile gid="786"/>
   <tile gid="787"/>
   <tile gid="788"/>
   <tile gid="789"/>
   <tile gid="790"/>
   <tile gid="791"/>
   <tile gid="792"/>
   <tile gid="793"/>
   <tile gid="794"/>
   <tile gid="795"/>
   <tile gid="796"/>
   <tile gid="797"/>
   <tile gid="798"/>
   <tile gid="799"/>
   <tile gid="770"/>
   <tile gid="771"/>
   <tile gid="772"/>
   <tile gid="773"/>
   <tile gid="774"/>
   <tile gid="775"/>
   <tile gid="776"/>
   <tile gid="777"/>
   <tile gid="778"/>
   <tile gid="779"/>
   <tile gid="780"/>
   <tile gid="781"/>
   <tile gid="782"/>
   <tile gid="783"/>
   <tile gid="784"/>
   <tile gid="785"/>
   <tile gid="786"/>
   <tile gid="787"/>
   <tile gid="788"/>
   <tile gid="789"/>
   <tile gid="790"/>
   <tile gid="791"/>
   <tile gid="792"/>
   <tile gid="793"/>
   <tile gid="794"/>
   <tile gid="795"/>
   <tile gid="796"/>
   <tile gid="797"/>
   <tile gid="798"/>
   <tile gid="799"/>
   <tile gid="770"/>
   <tile gid="771"/>
   <tile gid="772"/>
   <tile gid="773"/>
   <tile gid="774"/>
   <tile gid="775"/>
   <tile gid="776"/>
   <tile gid="777"/>
   <tile gid="778"/>
   <tile gid="779"/>
   <tile gid="780"/>
   <tile gid="781"/>
   <tile gid="782"/>
   <tile gid="783"/>
   <tile gid="784"/>
   <tile gid="785"/>
   <tile gid="786"/>
   <tile gid="787"/>
   <tile gid="788"/>
   <tile gid="789"/>
   <tile gid="790"/>
   <tile gid="791"/>
   <tile gid="792"/>
   <tile gid="793"/>
   <tile gid="794"/>
   <tile gid="795"/>
   <tile gid="796"/>
   <tile gid="797"/>
   <tile gid="798"/>
   <tile gid="799"/>
   <tile gid="770"/>
   <tile gid="771"/>
   <tile gid="772"/>
   <tile gid="773"/>
   <tile gid="774"/>
   <tile gid="775"/>
   <tile gid="776"/>
   <tile gid="777"/>
   <tile gid="778"/>
   <tile gid="779"/>
   <tile gid="780"/>
   <tile gid="781"/>
   <tile gid="782"/>
   <tile gid="783"/>
   <tile gid="784"/>
   <tile gid="785"/>
   <tile gid="786"/>
   <tile gid="787"/>
   <tile gid="788"/>
   <tile gid="789"/>
   <tile gid="790"/>
   <tile gid="791"/>
   <tile gid="792"/>
   <tile gid="793"/>
   <tile gid="794"/>
   <tile gid="795"/>
   <tile gid="796"/>
   <tile gid="797"/>
   <tile gid="798"/>
   <tile gid="799"/>
   <tile gid="770"/>
   <tile gid="771"/>
   <tile gid="772"/>
   <tile gid="773"/>
   <tile gid="774"/>
   <tile gid="775"/>
   <tile gid="776"/>
   <tile gid="777"/>
   <tile gid="778"/>
   <tile gid="779"/>
   <tile gid="780"/>
   <tile gid="781"/>
   <tile gid="782"/>
   <tile gid="783"/>
   <tile gid="784"/>
   <tile gid="800"/>
   <tile gid="801"/>
   <tile gid="802"/>
   <tile gid="803"/>
   <tile gid="804"/>
   <tile gid="805"/>
   <tile gid="806"/>
   <tile gid="807"/>
   <tile gid="808"/>
   <tile gid="809"/>
   <tile gid="810"/>
   <tile gid="811"/>
   <tile gid="812"/>
   <tile gid="813"/>
   <tile gid="814"/>
   <tile gid="815"/>
   <tile gid="816"/>
   <tile gid="817"/>
   <tile gid="818"/>
   <tile gid="819"/>
   <tile gid="820"/>
   <tile gid="821"/>
   <tile gid="822"/>
   <tile gid="823"/>
   <tile gid="824"/>
   <tile gid="825"/>
   <tile gid="826"/>
   <tile gid="827"/>
   <tile gid="828"/>
   <tile gid="829"/>
   <tile gid="800"/>
   <tile gid="801"/>
   <tile gid="802"/>
   <tile gid="803"/>
   <tile gid="804"/>
   <tile gid="805"/>
   <tile gid="806"/>
   <tile gid="807"/>
   <tile gid="808"/>
   <tile gid="809"/>
   <tile gid="810"/>
   <tile gid="811"/>
   <tile gid="812"/>
   <tile gid="813"/>
   <tile gid="814"/>
   <tile gid="815"/>
   <tile gid="816"/>
   <tile gid="817"/>
   <tile gid="818"/>
   <tile gid="819"/>
   <tile gid="820"/>
   <tile gid="821"/>
   <tile gid="822"/>
   <tile gid="823"/>
   <tile gid="824"/>
   <tile gid="825"/>
   <tile gid="826"/>
   <tile gid="827"/>
   <tile gid="828"/>
   <tile gid="829"/>
   <tile gid="800"/>
   <tile gid="801"/>
   <tile gid="802"/>
   <tile gid="803"/>
   <tile gid="804"/>
   <tile gid="805"/>
   <tile gid="806"/>
   <tile gid="807"/>
   <tile gid="808"/>
   <tile gid="809"/>
   <tile gid="810"/>
   <tile gid="811"/>
   <tile gid="812"/>
   <tile gid="813"/>
   <tile gid="814"/>
   <tile gid="815"/>
   <tile gid="816"/>
   <tile gid="817"/>
   <tile gid="818"/>
   <tile gid="819"/>
   <tile gid="820"/>
   <tile gid="821"/>
   <tile gid="822"/>
   <tile gid="823"/>
   <tile gid="824"/>
   <tile gid="825"/>
   <tile gid="826"/>
   <tile gid="827"/>
   <tile gid="828"/>
   <tile gid="829"/>
   <tile gid="800"/>
   <tile gid="801"/>
   <tile gid="802"/>
   <tile gid="803"/>
   <tile gid="804"/>
   <tile gid="805"/>
   <tile gid="806"/>
   <tile gid="807"/>
   <tile gid="808"/>
   <tile gid="809"/>
   <tile gid="810"/>
   <tile gid="811"/>
   <tile gid="812"/>
   <tile gid="813"/>
   <tile gid="814"/>
   <tile gid="815"/>
   <tile gid="816"/>
   <tile gid="817"/>
   <tile gid="818"/>
   <tile gid="819"/>
   <tile gid="820"/>
   <tile gid="821"/>
   <tile gid="822"/>
   <tile gid="823"/>
   <tile gid="824"/>
   <tile gid="825"/>
   <tile gid="826"/>
   <tile gid="827"/>
   <tile gid="828"/>
   <tile gid="829"/>
   <tile gid="800"/>
   <tile gid="801"/>
   <tile gid="802"/>
   <tile gid="803"/>
   <tile gid="804"/>
   <tile gid="805"/>
   <tile gid="806"/>
   <tile gid="807"/>
   <tile gid="808"/>
   <tile gid="809"/>
   <tile gid="810"/>
   <tile gid="811"/>
   <tile gid="812"/>
   <tile gid="813"/>
   <tile gid="814"/>
   <tile gid="830"/>
   <tile gid="831"/>
   <tile gid="832"/>
   <tile gid="833"/>
   <tile gid="834"/>
   <tile gid="835"/>
   <tile gid="836"/>
   <tile gid="837"/>
   <tile gid="838"/>
   <tile gid="839"/>
   <tile gid="840"/>
   <tile gid="841"/>
   <tile gid="842"/>
   <tile gid="843"/>
   <tile gid="844"/>
   <tile gid="845"/>
   <tile gid="846"/>
   <tile gid="847"/>
   <tile gid="848"/>
   <tile gid="849"/>
   <tile gid="850"/>
   <tile gid="851"/>
   <tile gid="852"/>
   <tile gid="853"/>
   <tile gid="854"/>
   <tile gid="855"/>
   <tile gid="856"/>
   <tile gid="857"/>
   <tile gid="858"/>
   <tile gid="859"/>
   <tile gid="830"/>
   <tile gid="831"/>
   <tile gid="832"/>
   <tile gid="833"/>
   <tile gid="834"/>
   <tile gid="835"/>
   <tile gid="836"/>
   <tile gid="837"/>
   <tile gid="838"/>
   <tile gid="839"/>
   <tile gid="840"/>
   <tile gid="841"/>
   <tile gid="842"/>
   <tile gid="843"/>
   <tile gid="844"/>
   <tile gid="845"/>
   <tile gid="846"/>
   <tile gid="847"/>
   <tile gid="848"/>
   <tile gid="849"/>
   <tile gid="850"/>
   <tile gid="851"/>
   <tile gid="852"/>
   <tile gid="853"/>
   <tile gid="854"/>
   <tile gid="855"/>
   <tile gid="856"/>
   <tile gid="857"/>
   <tile gid="858"/>
   <tile gid="859"/>
   <tile gid="830"/>
   <tile gid="831"/>
   <tile gid="832"/>
   <tile gid="833"/>
   <tile gid="834"/>
   <tile gid="835"/>
   <tile gid="836"/>
   <tile gid="837"/>
   <tile gid="838"/>
   <tile gid="839"/>
   <tile gid="840"/>
   <tile gid="841"/>
   <tile gid="842"/>
   <tile gid="843"/>
   <tile gid="844"/>
   <tile gid="845"/>
   <tile gid="846"/>
   <tile gid="847"/>
   <tile gid="848"/>
   <tile gid="849"/>
   <tile gid="850"/>
   <tile gid="851"/>
   <tile gid="852"/>
   <tile gid="853"/>
   <tile gid="854"/>
   <tile gid="855"/>
   <tile gid="856"/>
   <tile gid="857"/>
   <tile gid="858"/>
   <tile gid="859"/>
   <tile gid="830"/>
   <tile gid="831"/>
   <tile gid="832"/>
   <tile gid="833"/>
   <tile gid="834"/>
   <tile gid="835"/>
   <tile gid="836"/>
   <tile gid="837"/>
   <tile gid="838"/>
   <tile gid="839"/>
   <tile gid="840"/>
   <tile gid="841"/>
   <tile gid="842"/>
   <tile gid="843"/>
   <tile gid="844"/>
   <tile gid="845"/>
   <tile gid="846"/>
   <tile gid="847"/>
   <tile gid="848"/>
   <tile gid="849"/>
   <tile gid="850"/>
   <tile gid="851"/>
   <tile gid="852"/>
   <tile gid="853"/>
   <tile gid="854"/>
   <tile gid="855"/>
   <tile gid="856"/>
   <tile gid="857"/>
   <tile gid="858"/>
   <tile gid="859"/>
   <tile gid="830"/>
   <tile gid="831"/>
   <tile gid="832"/>
   <tile gid="833"/>
   <tile gid="834"/>
   <tile gid="835"/>
   <tile gid="836"/>
   <tile gid="837"/>
   <tile gid="838"/>
   <tile gid="839"/>
   <tile gid="840"/>
   <tile gid="841"/>
   <tile gid="842"/>
   <tile gid="843"/>
   <tile gid="844"/>
   <tile gid="860"/>
   <tile gid="861"/>
   <tile gid="862"/>
   <tile gid="863"/>
   <tile gid="864"/>
   <tile gid="865"/>
   <tile gid="866"/>
   <tile gid="867"/>
   <tile gid="868"/>
   <tile gid="869"/>
   <tile gid="870"/>
   <tile gid="871"/>
   <tile gid="872"/>
   <tile gid="873"/>
   <tile gid="874"/>
   <tile gid="875"/>
   <tile gid="876"/>
   <tile gid="877"/>
   <tile gid="878"/>
   <tile gid="879"/>
   <tile gid="880"/>
   <tile gid="881"/>
   <tile gid="882"/>
   <tile gid="883"/>
   <tile gid="884"/>
   <tile gid="885"/>
   <tile gid="886"/>
   <tile gid="887"/>
   <tile gid="888"/>
   <tile gid="889"/>
   <tile gid="860"/>
   <tile gid="861"/>
   <tile gid="862"/>
   <tile gid="863"/>
   <tile gid="864"/>
   <tile gid="865"/>
   <tile gid="866"/>
   <tile gid="867"/>
   <tile gid="868"/>
   <tile gid="869"/>
   <tile gid="870"/>
   <tile gid="871"/>
   <tile gid="872"/>
   <tile gid="873"/>
   <tile gid="874"/>
   <tile gid="875"/>
   <tile gid="876"/>
   <tile gid="877"/>
   <tile gid="878"/>
   <tile gid="879"/>
   <tile gid="880"/>
   <tile gid="881"/>
   <tile gid="882"/>
   <tile gid="883"/>
   <tile gid="884"/>
   <tile gid="885"/>
   <tile gid="886"/>
   <tile gid="887"/>
   <tile gid="888"/>
   <tile gid="889"/>
   <tile gid="860"/>
   <tile gid="861"/>
   <tile gid="862"/>
   <tile gid="863"/>
   <tile gid="864"/>
   <tile gid="865"/>
   <tile gid="866"/>
   <tile gid="867"/>
   <tile gid="868"/>
   <tile gid="869"/>
   <tile gid="870"/>
   <tile gid="871"/>
   <tile gid="872"/>
   <tile gid="873"/>
   <tile gid="874"/>
   <tile gid="875"/>
   <tile gid="876"/>
   <tile gid="877"/>
   <tile gid="878"/>
   <tile gid="879"/>
   <tile gid="880"/>
   <tile gid="881"/>
   <tile gid="882"/>
   <tile gid="883"/>
   <tile gid="884"/>
   <tile gid="885"/>
   <tile gid="886"/>
   <tile gid="887"/>
   <tile gid="888"/>
   <tile gid="889"/>
   <tile gid="860"/>
   <tile gid="861"/>
   <tile gid="862"/>
   <tile gid="863"/>
   <tile gid="864"/>
   <tile gid="865"/>
   <tile gid="866"/>
   <tile gid="867"/>
   <tile gid="868"/>
   <tile gid="869"/>
   <tile gid="870"/>
   <tile gid="871"/>
   <tile gid="872"/>
   <tile gid="873"/>
   <tile gid="874"/>
   <tile gid="875"/>
   <tile gid="876"/>
   <tile gid="877"/>
   <tile gid="878"/>
   <tile gid="879"/>
   <tile gid="880"/>
   <tile gid="881"/>
   <tile gid="882"/>
   <tile gid="883"/>
   <tile gid="884"/>
   <tile gid="885"/>
   <tile gid="886"/>
   <tile gid="887"/>
   <tile gid="888"/>
   <tile gid="889"/>
   <tile gid="860"/>
   <tile gid="861"/>
   <tile gid="862"/>
   <tile gid="863"/>
   <tile gid="864"/>
   <tile gid="865"/>
   <tile gid="866"/>
   <tile gid="867"/>
   <tile gid="868"/>
   <tile gid="869"/>
   <tile gid="870"/>
   <tile gid="871"/>
   <tile gid="872"/>
   <tile gid="873"/>
   <tile gid="874"/>
   <tile gid="890"/>
   <tile gid="891"/>
   <tile gid="892"/>
   <tile gid="893"/>
   <tile gid="894"/>
   <tile gid="895"/>
   <tile gid="896"/>
   <tile gid="897"/>
   <tile gid="898"/>
   <tile gid="899"/>
   <tile gid="900"/>
   <tile gid="901"/>
   <tile gid="902"/>
   <tile gid="903"/>
   <tile gid="904"/>
   <tile gid="905"/>
   <tile gid="906"/>
   <tile gid="907"/>
   <tile gid="908"/>
   <tile gid="909"/>
   <tile gid="910"/>
   <tile gid="911"/>
   <tile gid="912"/>
   <tile gid="913"/>
   <tile gid="914"/>
   <tile gid="915"/>
   <tile gid="916"/>
   <tile gid="917"/>
   <tile gid="918"/>
   <tile gid="919"/>
   <tile gid="890"/>
   <tile gid="891"/>
   <tile gid="892"/>
   <tile gid="893"/>
   <tile gid="894"/>
   <tile gid="895"/>
   <tile gid="896"/>
   <tile gid="897"/>
   <tile gid="898"/>
   <tile gid="899"/>
   <tile gid="900"/>
   <tile gid="901"/>
   <tile gid="902"/>
   <tile gid="903"/>
   <tile gid="904"/>
   <tile gid="905"/>
   <tile gid="906"/>
   <tile gid="907"/>
   <tile gid="908"/>
   <tile gid="909"/>
   <tile gid="910"/>
   <tile gid="911"/>
   <tile gid="912"/>
   <tile gid="913"/>
   <tile gid="914"/>
   <tile gid="915"/>
   <tile gid="916"/>
   <tile gid="917"/>
   <tile gid="918"/>
   <tile gid="919"/>
   <tile gid="890"/>
   <tile gid="891"/>
   <tile gid="892"/>
   <tile gid="893"/>
   <tile gid="894"/>
   <tile gid="895"/>
   <tile gid="896"/>
   <tile gid="897"/>
   <tile gid="898"/>
   <tile gid="899"/>
   <tile gid="900"/>
   <tile gid="901"/>
   <tile gid="902"/>
   <tile gid="903"/>
   <tile gid="904"/>
   <tile gid="905"/>
   <tile gid="906"/>
   <tile gid="907"/>
   <tile gid="908"/>
   <tile gid="909"/>
   <tile gid="910"/>
   <tile gid="911"/>
   <tile gid="912"/>
   <tile gid="913"/>
   <tile gid="914"/>
   <tile gid="915"/>
   <tile gid="916"/>
   <tile gid="917"/>
   <tile gid="918"/>
   <tile gid="919"/>
   <tile gid="890"/>
   <tile gid="891"/>
   <tile gid="892"/>
   <tile gid="893"/>
   <tile gid="894"/>
   <tile gid="895"/>
   <tile gid="896"/>
   <tile gid="897"/>
   <tile gid="898"/>
   <tile gid="899"/>
   <tile gid="900"/>
   <tile gid="901"/>
   <tile gid="902"/>
   <tile gid="903"/>
   <tile gid="904"/>
   <tile gid="905"/>
   <tile gid="906"/>
   <tile gid="907"/>
   <tile gid="908"/>
   <tile gid="909"/>
   <tile gid="910"/>
   <tile gid="911"/>
   <tile gid="912"/>
   <tile gid="913"/>
   <tile gid="914"/>
   <tile gid="915"/>
   <tile gid="916"/>
   <tile gid="917"/>
   <tile gid="918"/>
   <tile gid="919"/>
   <tile gid="890"/>
   <tile gid="891"/>
   <tile gid="892"/>
   <tile gid="893"/>
   <tile gid="894"/>
   <tile gid="895"/>
   <tile gid="896"/>
   <tile gid="897"/>
   <tile gid="898"/>
   <tile gid="899"/>
   <tile gid="900"/>
   <tile gid="901"/>
   <tile gid="902"/>
   <tile gid="903"/>
   <tile gid="904"/>
   <tile gid="920"/>
   <tile gid="921"/>
   <tile gid="922"/>
   <tile gid="923"/>
   <tile gid="924"/>
   <tile gid="925"/>
   <tile gid="926"/>
   <tile gid="927"/>
   <tile gid="928"/>
   <tile gid="929"/>
   <tile gid="930"/>
   <tile gid="931"/>
   <tile gid="932"/>
   <tile gid="933"/>
   <tile gid="934"/>
   <tile gid="935"/>
   <tile gid="936"/>
   <tile gid="937"/>
   <tile gid="938"/>
   <tile gid="939"/>
   <tile gid="940"/>
   <tile gid="941"/>
   <tile gid="942"/>
   <tile gid="943"/>
   <tile gid="944"/>
   <tile gid="945"/>
   <tile gid="946"/>
   <tile gid="947"/>
   <tile gid="948"/>
   <tile gid="949"/>
   <tile gid="920"/>
   <tile gid="921"/>
   <tile gid="922"/>
   <tile gid="923"/>
   <tile gid="924"/>
   <tile gid="925"/>
   <tile gid="926"/>
   <tile gid="927"/>
   <tile gid="928"/>
   <tile gid="929"/>
   <tile gid="930"/>
   <tile gid="931"/>
   <tile gid="932"/>
   <tile gid="933"/>
   <tile gid="934"/>
   <tile gid="935"/>
   <tile gid="936"/>
   <tile gid="937"/>
   <tile gid="938"/>
   <tile gid="939"/>
   <tile gid="940"/>
   <tile gid="941"/>
   <tile gid="942"/>
   <tile gid="943"/>
   <tile gid="944"/>
   <tile gid="945"/>
   <tile gid="946"/>
   <tile gid="947"/>
   <tile gid="948"/>
   <tile gid="949"/>
   <tile gid="920"/>
   <tile gid="921"/>
   <tile gid="922"/>
   <tile gid="923"/>
   <tile gid="924"/>
   <tile gid="925"/>
   <tile gid="926"/>
   <tile gid="927"/>
   <tile gid="928"/>
   <tile gid="929"/>
   <tile gid="930"/>
   <tile gid="931"/>
   <tile gid="932"/>
   <tile gid="933"/>
   <tile gid="934"/>
   <tile gid="935"/>
   <tile gid="936"/>
   <tile gid="937"/>
   <tile gid="938"/>
   <tile gid="939"/>
   <tile gid="940"/>
   <tile gid="941"/>
   <tile gid="942"/>
   <tile gid="943"/>
   <tile gid="944"/>
   <tile gid="945"/>
   <tile gid="946"/>
   <tile gid="947"/>
   <tile gid="948"/>
   <tile gid="949"/>
   <tile gid="920"/>
   <tile gid="921"/>
   <tile gid="922"/>
   <tile gid="923"/>
   <tile gid="924"/>
   <tile gid="925"/>
   <tile gid="926"/>
   <tile gid="927"/>
   <tile gid="928"/>
   <tile gid="929"/>
   <tile gid="930"/>
   <tile gid="931"/>
   <tile gid="932"/>
   <tile gid="933"/>
   <tile gid="934"/>
   <tile gid="935"/>
   <tile gid="936"/>
   <tile gid="937"/>
   <tile gid="938"/>
   <tile gid="939"/>
   <tile gid="940"/>
   <tile gid="941"/>
   <tile gid="942"/>
   <tile gid="943"/>
   <tile gid="944"/>
   <tile gid="945"/>
   <tile gid="946"/>
   <tile gid="947"/>
   <tile gid="948"/>
   <tile gid="949"/>
   <tile gid="920"/>
   <tile gid="921"/>
   <tile gid="922"/>
   <tile gid="923"/>
   <tile gid="924"/>
   <tile gid="925"/>
   <tile gid="926"/>
   <tile gid="927"/>
   <tile gid="928"/>
   <tile gid="929"/>
   <tile gid="930"/>
   <tile gid="931"/>
   <tile gid="932"/>
   <tile gid="933"/>
   <tile gid="934"/>
   <tile gid="950"/>
   <tile gid="951"/>
   <tile gid="952"/>
   <tile gid="953"/>
   <tile gid="954"/>
   <tile gid="955"/>
   <tile gid="956"/>
   <tile gid="957"/>
   <tile gid="958"/>
   <tile gid="959"/>
   <tile gid="960"/>
   <tile gid="961"/>
   <tile gid="962"/>
   <tile gid="963"/>
   <tile gid="964"/>
   <tile gid="965"/>
   <tile gid="966"/>
   <tile gid="967"/>
   <tile gid="968"/>
   <tile gid="969"/>
   <tile gid="970"/>
   <tile gid="971"/>
   <tile gid="972"/>
   <tile gid="973"/>
   <tile gid="974"/>
   <tile gid="975"/>
   <tile gid="976"/>
   <tile gid="977"/>
   <tile gid="978"/>
   <tile gid="979"/>
   <tile gid="950"/>
   <tile gid="951"/>
   <tile gid="952"/>
   <tile gid="953"/>
   <tile gid="954"/>
   <tile gid="955"/>
   <tile gid="956"/>
   <tile gid="957"/>
   <tile gid="958"/>
   <tile gid="959"/>
   <tile gid="960"/>
   <tile gid="961"/>
   <tile gid="962"/>
   <tile gid="963"/>
   <tile gid="964"/>
   <tile gid="965"/>
   <tile gid="966"/>
   <tile gid="967"/>
   <tile gid="968"/>
   <tile gid="969"/>
   <tile gid="970"/>
   <tile gid="971"/>
   <tile gid="972"/>
   <tile gid="973"/>
   <tile gid="974"/>
   <tile gid="975"/>
   <tile gid="976"/>
   <tile gid="977"/>
   <tile gid="978"/>
   <tile gid="979"/>
   <tile gid="950"/>
   <tile gid="951"/>
   <tile gid="952"/>
   <tile gid="953"/>
   <tile gid="954"/>
   <tile gid="955"/>
   <tile gid="956"/>
   <tile gid="957"/>
   <tile gid="958"/>
   <tile gid="959"/>
   <tile gid="960"/>
   <tile gid="961"/>
   <tile gid="962"/>
   <tile gid="963"/>
   <tile gid="964"/>
   <tile gid="965"/>
   <tile gid="966"/>
   <tile gid="967"/>
   <tile gid="968"/>
   <tile gid="969"/>
   <tile gid="970"/>
   <tile gid="971"/>
   <tile gid="972"/>
   <tile gid="973"/>
   <tile gid="974"/>
   <tile gid="975"/>
   <tile gid="976"/>
   <tile gid="977"/>
   <tile gid="978"/>
   <tile gid="979"/>
   <tile gid="950"/>
   <tile gid="951"/>
   <tile gid="952"/>
   <tile gid="953"/>
   <tile gid="954"/>
   <tile gid="955"/>
   <tile gid="956"/>
   <tile gid="957"/>
   <tile gid="958"/>
   <tile gid="959"/>
   <tile gid="960"/>
   <tile gid="961"/>
   <tile gid="962"/>
   <tile gid="963"/>
   <tile gid="964"/>
   <tile gid="965"/>
   <tile gid="966"/>
   <tile gid="967"/>
   <tile gid="968"/>
   <tile gid="969"/>
   <tile gid="970"/>
   <tile gid="971"/>
   <tile gid="972"/>
   <tile gid="973"/>
   <tile gid="974"/>
   <tile gid="975"/>
   <tile gid="976"/>
   <tile gid="977"/>
   <tile gid="978"/>
   <tile gid="979"/>
   <tile gid="950"/>
   <tile gid="951"/>
   <tile gid="952"/>
   <tile gid="953"/>
   <tile gid="954"/>
   <tile gid="955"/>
   <tile gid="956"/>
   <tile gid="957"/>
   <tile gid="958"/>
   <tile gid="959"/>
   <tile gid="960"/>
   <tile gid="961"/>
   <tile gid="962"/>
   <tile gid="963"/>
   <tile gid="964"/>
   <tile gid="980"/>
   <tile gid="981"/>
   <tile gid="982"/>
   <tile gid="983"/>
   <tile gid="984"/>
   <tile gid="985"/>
   <tile gid="986"/>
   <tile gid="987"/>
   <tile gid="988"/>
   <tile gid="989"/>
   <tile gid="990"/>
   <tile gid="991"/>
   <tile gid="992"/>
   <tile gid="993"/>
   <tile gid="994"/>
   <tile gid="995"/>
   <tile gid="996"/>
   <tile gid="997"/>
   <tile gid="998"/>
   <tile gid="999"/>
   <tile gid="1000"/>
   <tile gid="1001"/>
   <tile gid="1002"/>
   <tile gid="1003"/>
   <tile gid="1004"/>
   <tile gid="1005"/>
   <tile gid="1006"/>
   <tile gid="1007"/>
   <tile gid="1008"/>
   <tile gid="1009"/>
   <tile gid="980"/>
   <tile gid="981"/>
   <tile gid="982"/>
   <tile gid="983"/>
   <tile gid="984"/>
   <tile gid="985"/>
   <tile gid="986"/>
   <tile gid="987"/>
   <tile gid="988"/>
   <tile gid="989"/>
   <tile gid="990"/>
   <tile gid="991"/>
   <tile gid="992"/>
   <tile gid="993"/>
   <tile gid="994"/>
   <tile gid="995"/>
   <tile gid="996"/>
   <tile gid="997"/>
   <tile gid="998"/>
   <tile gid="999"/>
   <tile gid="1000"/>
   <tile gid="1001"/>
   <tile gid="1002"/>
   <tile gid="1003"/>
   <tile gid="1004"/>
   <tile gid="1005"/>
   <tile gid="1006"/>
   <tile gid="1007"/>
   <tile gid="1008"/>
   <tile gid="1009"/>
   <tile gid="980"/>
   <tile gid="981"/>
   <tile gid="982"/>
   <tile gid="983"/>
   <tile gid="984"/>
   <tile gid="985"/>
   <tile gid="986"/>
   <tile gid="987"/>
   <tile gid="988"/>
   <tile gid="989"/>
   <tile gid="990"/>
   <tile gid="991"/>
   <tile gid="992"/>
   <tile gid="993"/>
   <tile gid="994"/>
   <tile gid="995"/>
   <tile gid="996"/>
   <tile gid="997"/>
   <tile gid="998"/>
   <tile gid="999"/>
   <tile gid="1000"/>
   <tile gid="1001"/>
   <tile gid="1002"/>
   <tile gid="1003"/>
   <tile gid="1004"/>
   <tile gid="1005"/>
   <tile gid="1006"/>
   <tile gid="1007"/>
   <tile gid="1008"/>
   <tile gid="1009"/>
   <tile gid="980"/>
   <tile gid="981"/>
   <tile gid="982"/>
   <tile gid="983"/>
   <tile gid="984"/>
   <tile gid="985"/>
   <tile gid="986"/>
   <tile gid="987"/>
   <tile gid="988"/>
   <tile gid="989"/>
   <tile gid="990"/>
   <tile gid="991"/>
   <tile gid="992"/>
   <tile gid="993"/>
   <tile gid="994"/>
   <tile gid="995"/>
   <tile gid="996"/>
   <tile gid="997"/>
   <tile gid="998"/>
   <tile gid="999"/>
   <tile gid="1000"/>
   <tile gid="1001"/>
   <tile gid="1002"/>
   <tile gid="1003"/>
   <tile gid="1004"/>
   <tile gid="1005"/>
   <tile gid="1006"/>
   <tile gid="1007"/>
   <tile gid="1008"/>
   <tile gid="1009"/>
   <tile gid="980"/>
   <tile gid="981"/>
   <tile gid="982"/>
   <tile gid="983"/>
   <tile gid="984"/>
   <tile gid="985"/>
   <tile gid="986"/>
   <tile gid="987"/>
   <tile gid="988"/>
   <tile gid="989"/>
   <tile gid="990"/>
   <tile gid="991"/>
   <tile gid="992"/>
   <tile gid="993"/>
   <tile gid="994"/>
   <tile gid="1010"/>
   <tile gid="1011"/>
   <tile gid="1012"/>
   <tile gid="1013"/>
   <tile gid="1014"/>
   <tile gid="1015"/>
   <tile gid="1016"/>
   <tile gid="1017"/>
   <tile gid="1018"/>
   <tile gid="1019"/>
   <tile gid="1020"/>
   <tile gid="1021"/>
   <tile gid="1022"/>
   <tile gid="1023"/>
   <tile gid="1024"/>
   <tile gid="1025"/>
   <tile gid="1026"/>
   <tile gid="1027"/>
   <tile gid="1028"/>
   <tile gid="1029"/>
   <tile gid="1030"/>
   <tile gid="1031"/>
   <tile gid="1032"/>
   <tile gid="1033"/>
   <tile gid="1034"/>
   <tile gid="1035"/>
   <tile gid="1036"/>
   <tile gid="1037"/>
   <tile gid="1038"/>
   <tile gid="1039"/>
   <tile gid="1010"/>
   <tile gid="1011"/>
   <tile gid="1012"/>
   <tile gid="1013"/>
   <tile gid="1014"/>
   <tile gid="1015"/>
   <tile gid="1016"/>
   <tile gid="1017"/>
   <tile gid="1018"/>
   <tile gid="1019"/>
   <tile gid="1020"/>
   <tile gid="1021"/>
   <tile gid="1022"/>
   <tile gid="1023"/>
   <tile gid="1024"/>
   <tile gid="1025"/>
   <tile gid="1026"/>
   <tile gid="1027"/>
   <tile gid="1028"/>
   <tile gid="1029"/>
   <tile gid="1030"/>
   <tile gid="1031"/>
   <tile gid="1032"/>
   <tile gid="1033"/>
   <tile gid="1034"/>
   <tile gid="1035"/>
   <tile gid="1036"/>
   <tile gid="1037"/>
   <tile gid="1038"/>
   <tile gid="1039"/>
   <tile gid="1010"/>
   <tile gid="1011"/>
   <tile gid="1012"/>
   <tile gid="1013"/>
   <tile gid="1014"/>
   <tile gid="1015"/>
   <tile gid="1016"/>
   <tile gid="1017"/>
   <tile gid="1018"/>
   <tile gid="1019"/>
   <tile gid="1020"/>
   <tile gid="1021"/>
   <tile gid="1022"/>
   <tile gid="1023"/>
   <tile gid="1024"/>
   <tile gid="1025"/>
   <tile gid="1026"/>
   <tile gid="1027"/>
   <tile gid="1028"/>
   <tile gid="1029"/>
   <tile gid="1030"/>
   <tile gid="1031"/>
   <tile gid="1032"/>
   <tile gid="1033"/>
   <tile gid="1034"/>
   <tile gid="1035"/>
   <tile gid="1036"/>
   <tile gid="1037"/>
   <tile gid="1038"/>
   <tile gid="1039"/>
   <tile gid="1010"/>
   <tile gid="1011"/>
   <tile gid="1012"/>
   <tile gid="1013"/>
   <tile gid="1014"/>
   <tile gid="1015"/>
   <tile gid="1016"/>
   <tile gid="1017"/>
   <tile gid="1018"/>
   <tile gid="1019"/>
   <tile gid="1020"/>
   <tile gid="1021"/>
   <tile gid="1022"/>
   <tile gid="1023"/>
   <tile gid="1024"/>
   <tile gid="1025"/>
   <tile gid="1026"/>
   <tile gid="1027"/>
   <tile gid="1028"/>
   <tile gid="1029"/>
   <tile gid="1030"/>
   <tile gid="1031"/>
   <tile gid="1032"/>
   <tile gid="1033"/>
   <tile gid="1034"/>
   <tile gid="1035"/>
   <tile gid="1036"/>
   <tile gid="1037"/>
   <tile gid="1038"/>
   <tile gid="1039"/>
   <tile gid="1010"/>
   <tile gid="1011"/>
   <tile gid="1012"/>
   <tile gid="1013"/>
   <tile gid="1014"/>
   <tile gid="1015"/>
   <tile gid="1016"/>
   <tile gid="1017"/>
   <tile gid="1018"/>
   <tile gid="1019"/>
   <tile gid="1020"/>
   <tile gid="1021"/>
   <tile gid="1022"/>
   <tile gid="1023"/>
   <tile gid="1024"/>
   <tile gid="1040"/>
   <tile gid="1041"/>
   <tile gid="1042"/>
   <tile gid="1043"/>
   <tile gid="1044"/>
   <tile gid="1045"/>
   <tile gid="1046"/>
   <tile gid="1047"/>
   <tile gid="1048"/>
   <tile gid="1049"/>
   <tile gid="1050"/>
   <tile gid="1051"/>
   <tile gid="1052"/>
   <tile gid="1053"/>
   <tile gid="1054"/>
   <tile gid="1055"/>
   <tile gid="1056"/>
   <tile gid="1057"/>
   <tile gid="1058"/>
   <tile gid="1059"/>
   <tile gid="1060"/>
   <tile gid="1061"/>
   <tile gid="1062"/>
   <tile gid="1063"/>
   <tile gid="1064"/>
   <tile gid="1065"/>
   <tile gid="1066"/>
   <tile gid="1067"/>
   <tile gid="1068"/>
   <tile gid="1069"/>
   <tile gid="1040"/>
   <tile gid="1041"/>
   <tile gid="1042"/>
   <tile gid="1043"/>
   <tile gid="1044"/>
   <tile gid="1045"/>
   <tile gid="1046"/>
   <tile gid="1047"/>
   <tile gid="1048"/>
   <tile gid="1049"/>
   <tile gid="1050"/>
   <tile gid="1051"/>
   <tile gid="1052"/>
   <tile gid="1053"/>
   <tile gid="1054"/>
   <tile gid="1055"/>
   <tile gid="1056"/>
   <tile gid="1057"/>
   <tile gid="1058"/>
   <tile gid="1059"/>
   <tile gid="1060"/>
   <tile gid="1061"/>
   <tile gid="1062"/>
   <tile gid="1063"/>
   <tile gid="1064"/>
   <tile gid="1065"/>
   <tile gid="1066"/>
   <tile gid="1067"/>
   <tile gid="1068"/>
   <tile gid="1069"/>
   <tile gid="1040"/>
   <tile gid="1041"/>
   <tile gid="1042"/>
   <tile gid="1043"/>
   <tile gid="1044"/>
   <tile gid="1045"/>
   <tile gid="1046"/>
   <tile gid="1047"/>
   <tile gid="1048"/>
   <tile gid="1049"/>
   <tile gid="1050"/>
   <tile gid="1051"/>
   <tile gid="1052"/>
   <tile gid="1053"/>
   <tile gid="1054"/>
   <tile gid="1055"/>
   <tile gid="1056"/>
   <tile gid="1057"/>
   <tile gid="1058"/>
   <tile gid="1059"/>
   <tile gid="1060"/>
   <tile gid="1061"/>
   <tile gid="1062"/>
   <tile gid="1063"/>
   <tile gid="1064"/>
   <tile gid="1065"/>
   <tile gid="1066"/>
   <tile gid="1067"/>
   <tile gid="1068"/>
   <tile gid="1069"/>
   <tile gid="1040"/>
   <tile gid="1041"/>
   <tile gid="1042"/>
   <tile gid="1043"/>
   <tile gid="1044"/>
   <tile gid="1045"/>
   <tile gid="1046"/>
   <tile gid="1047"/>
   <tile gid="1048"/>
   <tile gid="1049"/>
   <tile gid="1050"/>
   <tile gid="1051"/>
   <tile gid="1052"/>
   <tile gid="1053"/>
   <tile gid="1054"/>
   <tile gid="1055"/>
   <tile gid="1056"/>
   <tile gid="1057"/>
   <tile gid="1058"/>
   <tile gid="1059"/>
   <tile gid="1060"/>
   <tile gid="1061"/>
   <tile gid="1062"/>
   <tile gid="1063"/>
   <tile gid="1064"/>
   <tile gid="1065"/>
   <tile gid="1066"/>
   <tile gid="1067"/>
   <tile gid="1068"/>
   <tile gid="1069"/>
   <tile gid="1040"/>
   <tile gid="1041"/>
   <tile gid="1042"/>
   <tile gid="1043"/>
   <tile gid="1044"/>
   <tile gid="1045"/>
   <tile gid="1046"/>
   <tile gid="1047"/>
   <tile gid="1048"/>
   <tile gid="1049"/>
   <tile gid="1050"/>
   <tile gid="1051"/>
   <tile gid="1052"/>
   <tile gid="1053"/>
   <tile gid="1054"/>
   <tile gid="1070"/>
   <tile gid="1071"/>
   <tile gid="1072"/>
   <tile gid="1073"/>
   <tile gid="1074"/>
   <tile gid="1075"/>
   <tile gid="1076"/>
   <tile gid="1077"/>
   <tile gid="1078"/>
   <tile gid="1079"/>
   <tile gid="1080"/>
   <tile gid="1081"/>
   <tile gid="1082"/>
   <tile gid="1083"/>
   <tile gid="1084"/>
   <tile gid="1085"/>
   <tile gid="1086"/>
   <tile gid="1087"/>
   <tile gid="1088"/>
   <tile gid="1089"/>
   <tile gid="1090"/>
   <tile gid="1091"/>
   <tile gid="1092"/>
   <tile gid="1093"/>
   <tile gid="1094"/>
   <tile gid="1095"/>
   <tile gid="1096"/>
   <tile gid="1097"/>
   <tile gid="1098"/>
   <tile gid="1099"/>
   <tile gid="1070"/>
   <tile gid="1071"/>
   <tile gid="1072"/>
   <tile gid="1073"/>
   <tile gid="1074"/>
   <tile gid="1075"/>
   <tile gid="1076"/>
   <tile gid="1077"/>
   <tile gid="1078"/>
   <tile gid="1079"/>
   <tile gid="1080"/>
   <tile gid="1081"/>
   <tile gid="1082"/>
   <tile gid="1083"/>
   <tile gid="1084"/>
   <tile gid="1085"/>
   <tile gid="1086"/>
   <tile gid="1087"/>
   <tile gid="1088"/>
   <tile gid="1089"/>
   <tile gid="1090"/>
   <tile gid="1091"/>
   <tile gid="1092"/>
   <tile gid="1093"/>
   <tile gid="1094"/>
   <tile gid="1095"/>
   <tile gid="1096"/>
   <tile gid="1097"/>
   <tile gid="1098"/>
   <tile gid="1099"/>
   <tile gid="1070"/>
   <tile gid="1071"/>
   <tile gid="1072"/>
   <tile gid="1073"/>
   <tile gid="1074"/>
   <tile gid="1075"/>
   <tile gid="1076"/>
   <tile gid="1077"/>
   <tile gid="1078"/>
   <tile gid="1079"/>
   <tile gid="1080"/>
   <tile gid="1081"/>
   <tile gid="1082"/>
   <tile gid="1083"/>
   <tile gid="1084"/>
   <tile gid="1085"/>
   <tile gid="1086"/>
   <tile gid="1087"/>
   <tile gid="1088"/>
   <tile gid="1089"/>
   <tile gid="1090"/>
   <tile gid="1091"/>
   <tile gid="1092"/>
   <tile gid="1093"/>
   <tile gid="1094"/>
   <tile gid="1095"/>
   <tile gid="1096"/>
   <tile gid="1097"/>
   <tile gid="1098"/>
   <tile gid="1099"/>
   <tile gid="1070"/>
   <tile gid="1071"/>
   <tile gid="1072"/>
   <tile gid="1073"/>
   <tile gid="1074"/>
   <tile gid="1075"/>
   <tile gid="1076"/>
   <tile gid="1077"/>
   <tile gid="1078"/>
   <tile gid="1079"/>
   <tile gid="1080"/>
   <tile gid="1081"/>
   <tile gid="1082"/>
   <tile gid="1083"/>
   <tile gid="1084"/>
   <tile gid="1085"/>
   <tile gid="1086"/>
   <tile gid="1087"/>
   <tile gid="1088"/>
   <tile gid="1089"/>
   <tile gid="1090"/>
   <tile gid="1091"/>
   <tile gid="1092"/>
   <tile gid="1093"/>
   <tile gid="1094"/>
   <tile gid="1095"/>
   <tile gid="1096"/>
   <tile gid="1097"/>
   <tile gid="1098"/>
   <tile gid="1099"/>
   <tile gid="1070"/>
   <tile gid="1071"/>
   <tile gid="1072"/>
   <tile gid="1073"/>
   <tile gid="1074"/>
   <tile gid="1075"/>
   <tile gid="1076"/>
   <tile gid="1077"/>
   <tile gid="1078"/>
   <tile gid="1079"/>
   <tile gid="1080"/>
   <tile gid="1081"/>
   <tile gid="1082"/>
   <tile gid="1083"/>
   <tile gid="1084"/>
   <tile gid="620"/>
   <tile gid="621"/>
   <tile gid="622"/>
   <tile gid="623"/>
   <tile gid="624"/>
   <tile gid="625"/>
   <tile gid="626"/>
   <tile gid="627"/>
   <tile gid="628"/>
   <tile gid="629"/>
   <tile gid="630"/>
   <tile gid="631"/>
   <tile gid="632"/>
   <tile gid="633"/>
   <tile gid="634"/>
   <tile gid="635"/>
   <tile gid="636"/>
   <tile gid="637"/>
   <tile gid="638"/>
   <tile gid="639"/>
   <tile gid="640"/>
   <tile gid="641"/>
   <tile gid="642"/>
   <tile gid="643"/>
   <tile gid="644"/>
   <tile gid="645"/>
   <tile gid="646"/>
   <tile gid="647"/>
   <tile gid="648"/>
   <tile gid="649"/>
   <tile gid="620"/>
   <tile gid="621"/>
   <tile gid="622"/>
   <tile gid="623"/>
   <tile gid="624"/>
   <tile gid="625"/>
   <tile gid="626"/>
   <tile gid="627"/>
   <tile gid="628"/>
   <tile gid="629"/>
   <tile gid="630"/>
   <tile gid="631"/>
   <tile gid="632"/>
   <tile gid="633"/>
   <tile gid="634"/>
   <tile gid="635"/>
   <tile gid="636"/>
   <tile gid="637"/>
   <tile gid="638"/>
   <tile gid="639"/>
   <tile gid="640"/>
   <tile gid="641"/>
   <tile gid="642"/>
   <tile gid="643"/>
   <tile gid="644"/>
   <tile gid="645"/>
   <tile gid="646"/>
   <tile gid="647"/>
   <tile gid="648"/>
   <tile gid="649"/>
   <tile gid="620"/>
   <tile gid="621"/>
   <tile gid="622"/>
   <tile gid="623"/>
   <tile gid="624"/>
   <tile gid="625"/>
   <tile gid="626"/>
   <tile gid="627"/>
   <tile gid="628"/>
   <tile gid="629"/>
   <tile gid="630"/>
   <tile gid="631"/>
   <tile gid="632"/>
   <tile gid="633"/>
   <tile gid="634"/>
   <tile gid="635"/>
   <tile gid="636"/>
   <tile gid="637"/>
   <tile gid="638"/>
   <tile gid="639"/>
   <tile gid="640"/>
   <tile gid="641"/>
   <tile gid="642"/>
   <tile gid="643"/>
   <tile gid="644"/>
   <tile gid="645"/>
   <tile gid="646"/>
   <tile gid="647"/>
   <tile gid="648"/>
   <tile gid="649"/>
   <tile gid="620"/>
   <tile gid="621"/>
   <tile gid="622"/>
   <tile gid="623"/>
   <tile gid="624"/>
   <tile gid="625"/>
   <tile gid="626"/>
   <tile gid="627"/>
   <tile gid="628"/>
   <tile gid="629"/>
   <tile gid="630"/>
   <tile gid="631"/>
   <tile gid="632"/>
   <tile gid="633"/>
   <tile gid="634"/>
   <tile gid="635"/>
   <tile gid="636"/>
   <tile gid="637"/>
   <tile gid="638"/>
   <tile gid="639"/>
   <tile gid="640"/>
   <tile gid="641"/>
   <tile gid="642"/>
   <tile gid="643"/>
   <tile gid="644"/>
   <tile gid="645"/>
   <tile gid="646"/>
   <tile gid="647"/>
   <tile gid="648"/>
   <tile gid="649"/>
   <tile gid="620"/>
   <tile gid="621"/>
   <tile gid="622"/>
   <tile gid="623"/>
   <tile gid="624"/>
   <tile gid="625"/>
   <tile gid="626"/>
   <tile gid="627"/>
   <tile gid="628"/>
   <tile gid="629"/>
   <tile gid="630"/>
   <tile gid="631"/>
   <tile gid="632"/>
   <tile gid="633"/>
   <tile gid="634"/>
   <tile gid="650"/>
   <tile gid="651"/>
   <tile gid="652"/>
   <tile gid="653"/>
   <tile gid="654"/>
   <tile gid="655"/>
   <tile gid="656"/>
   <tile gid="657"/>
   <tile gid="658"/>
   <tile gid="659"/>
   <tile gid="660"/>
   <tile gid="661"/>
   <tile gid="662"/>
   <tile gid="663"/>
   <tile gid="664"/>
   <tile gid="665"/>
   <tile gid="666"/>
   <tile gid="667"/>
   <tile gid="668"/>
   <tile gid="669"/>
   <tile gid="670"/>
   <tile gid="671"/>
   <tile gid="672"/>
   <tile gid="673"/>
   <tile gid="674"/>
   <tile gid="675"/>
   <tile gid="676"/>
   <tile gid="677"/>
   <tile gid="678"/>
   <tile gid="679"/>
   <tile gid="650"/>
   <tile gid="651"/>
   <tile gid="652"/>
   <tile gid="653"/>
   <tile gid="654"/>
   <tile gid="655"/>
   <tile gid="656"/>
   <tile gid="657"/>
   <tile gid="658"/>
   <tile gid="659"/>
   <tile gid="660"/>
   <tile gid="661"/>
   <tile gid="662"/>
   <tile gid="663"/>
   <tile gid="664"/>
   <tile gid="665"/>
   <tile gid="666"/>
   <tile gid="667"/>
   <tile gid="668"/>
   <tile gid="669"/>
   <tile gid="670"/>
   <tile gid="671"/>
   <tile gid="672"/>
   <tile gid="673"/>
   <tile gid="674"/>
   <tile gid="675"/>
   <tile gid="676"/>
   <tile gid="677"/>
   <tile gid="678"/>
   <tile gid="679"/>
   <tile gid="650"/>
   <tile gid="651"/>
   <tile gid="652"/>
   <tile gid="653"/>
   <tile gid="654"/>
   <tile gid="655"/>
   <tile gid="656"/>
   <tile gid="657"/>
   <tile gid="658"/>
   <tile gid="659"/>
   <tile gid="660"/>
   <tile gid="661"/>
   <tile gid="662"/>
   <tile gid="663"/>
   <tile gid="664"/>
   <tile gid="665"/>
   <tile gid="666"/>
   <tile gid="667"/>
   <tile gid="668"/>
   <tile gid="669"/>
   <tile gid="670"/>
   <tile gid="671"/>
   <tile gid="672"/>
   <tile gid="673"/>
   <tile gid="674"/>
   <tile gid="675"/>
   <tile gid="676"/>
   <tile gid="677"/>
   <tile gid="678"/>
   <tile gid="679"/>
   <tile gid="650"/>
   <tile gid="651"/>
   <tile gid="652"/>
   <tile gid="653"/>
   <tile gid="654"/>
   <tile gid="655"/>
   <tile gid="656"/>
   <tile gid="657"/>
   <tile gid="658"/>
   <tile gid="659"/>
   <tile gid="660"/>
   <tile gid="661"/>
   <tile gid="662"/>
   <tile gid="663"/>
   <tile gid="664"/>
   <tile gid="665"/>
   <tile gid="666"/>
   <tile gid="667"/>
   <tile gid="668"/>
   <tile gid="669"/>
   <tile gid="670"/>
   <tile gid="671"/>
   <tile gid="672"/>
   <tile gid="673"/>
   <tile gid="674"/>
   <tile gid="675"/>
   <tile gid="676"/>
   <tile gid="677"/>
   <tile gid="678"/>
   <tile gid="679"/>
   <tile gid="650"/>
   <tile gid="651"/>
   <tile gid="652"/>
   <tile gid="653"/>
   <tile gid="654"/>
   <tile gid="655"/>
   <tile gid="656"/>
   <tile gid="657"/>
   <tile gid="658"/>
   <tile gid="659"/>
   <tile gid="660"/>
   <tile gid="661"/>
   <tile gid="662"/>
   <tile gid="663"/>
   <tile gid="664"/>
   <tile gid="680"/>
   <tile gid="681"/>
   <tile gid="682"/>
   <tile gid="683"/>
   <tile gid="684"/>
   <tile gid="685"/>
   <tile gid="686"/>
   <tile gid="687"/>
   <tile gid="688"/>
   <tile gid="689"/>
   <tile gid="690"/>
   <tile gid="691"/>
   <tile gid="692"/>
   <tile gid="693"/>
   <tile gid="694"/>
   <tile gid="695"/>
   <tile gid="696"/>
   <tile gid="697"/>
   <tile gid="698"/>
   <tile gid="699"/>
   <tile gid="700"/>
   <tile gid="701"/>
   <tile gid="702"/>
   <tile gid="703"/>
   <tile gid="704"/>
   <tile gid="705"/>
   <tile gid="706"/>
   <tile gid="707"/>
   <tile gid="708"/>
   <tile gid="709"/>
   <tile gid="680"/>
   <tile gid="681"/>
   <tile gid="682"/>
   <tile gid="683"/>
   <tile gid="684"/>
   <tile gid="685"/>
   <tile gid="686"/>
   <tile gid="687"/>
   <tile gid="688"/>
   <tile gid="689"/>
   <tile gid="690"/>
   <tile gid="691"/>
   <tile gid="692"/>
   <tile gid="693"/>
   <tile gid="694"/>
   <tile gid="695"/>
   <tile gid="696"/>
   <tile gid="697"/>
   <tile gid="698"/>
   <tile gid="699"/>
   <tile gid="700"/>
   <tile gid="701"/>
   <tile gid="702"/>
   <tile gid="703"/>
   <tile gid="704"/>
   <tile gid="705"/>
   <tile gid="706"/>
   <tile gid="707"/>
   <tile gid="708"/>
   <tile gid="709"/>
   <tile gid="680"/>
   <tile gid="681"/>
   <tile gid="682"/>
   <tile gid="683"/>
   <tile gid="684"/>
   <tile gid="685"/>
   <tile gid="686"/>
   <tile gid="687"/>
   <tile gid="688"/>
   <tile gid="689"/>
   <tile gid="690"/>
   <tile gid="691"/>
   <tile gid="692"/>
   <tile gid="693"/>
   <tile gid="694"/>
   <tile gid="695"/>
   <tile gid="696"/>
   <tile gid="697"/>
   <tile gid="698"/>
   <tile gid="699"/>
   <tile gid="700"/>
   <tile gid="701"/>
   <tile gid="702"/>
   <tile gid="703"/>
   <tile gid="704"/>
   <tile gid="705"/>
   <tile gid="706"/>
   <tile gid="707"/>
   <tile gid="708"/>
   <tile gid="709"/>
   <tile gid="680"/>
   <tile gid="681"/>
   <tile gid="682"/>
   <tile gid="683"/>
   <tile gid="684"/>
   <tile gid="685"/>
   <tile gid="686"/>
   <tile gid="687"/>
   <tile gid="688"/>
   <tile gid="689"/>
   <tile gid="690"/>
   <tile gid="691"/>
   <tile gid="692"/>
   <tile gid="693"/>
   <tile gid="694"/>
   <tile gid="695"/>
   <tile gid="696"/>
   <tile gid="697"/>
   <tile gid="698"/>
   <tile gid="699"/>
   <tile gid="700"/>
   <tile gid="701"/>
   <tile gid="702"/>
   <tile gid="703"/>
   <tile gid="704"/>
   <tile gid="705"/>
   <tile gid="706"/>
   <tile gid="707"/>
   <tile gid="708"/>
   <tile gid="709"/>
   <tile gid="680"/>
   <tile gid="681"/>
   <tile gid="682"/>
   <tile gid="683"/>
   <tile gid="684"/>
   <tile gid="685"/>
   <tile gid="686"/>
   <tile gid="687"/>
   <tile gid="688"/>
   <tile gid="689"/>
   <tile gid="690"/>
   <tile gid="691"/>
   <tile gid="692"/>
   <tile gid="693"/>
   <tile gid="694"/>
   <tile gid="710"/>
   <tile gid="711"/>
   <tile gid="712"/>
   <tile gid="713"/>
   <tile gid="714"/>
   <tile gid="715"/>
   <tile gid="716"/>
   <tile gid="717"/>
   <tile gid="718"/>
   <tile gid="719"/>
   <tile gid="720"/>
   <tile gid="721"/>
   <tile gid="722"/>
   <tile gid="723"/>
   <tile gid="724"/>
   <tile gid="725"/>
   <tile gid="726"/>
   <tile gid="727"/>
   <tile gid="728"/>
   <tile gid="729"/>
   <tile gid="730"/>
   <tile gid="731"/>
   <tile gid="732"/>
   <tile gid="733"/>
   <tile gid="734"/>
   <tile gid="735"/>
   <tile gid="736"/>
   <tile gid="737"/>
   <tile gid="738"/>
   <tile gid="739"/>
   <tile gid="710"/>
   <tile gid="711"/>
   <tile gid="712"/>
   <tile gid="713"/>
   <tile gid="714"/>
   <tile gid="715"/>
   <tile gid="716"/>
   <tile gid="717"/>
   <tile gid="718"/>
   <tile gid="719"/>
   <tile gid="720"/>
   <tile gid="721"/>
   <tile gid="722"/>
   <tile gid="723"/>
   <tile gid="724"/>
   <tile gid="725"/>
   <tile gid="726"/>
   <tile gid="727"/>
   <tile gid="728"/>
   <tile gid="729"/>
   <tile gid="730"/>
   <tile gid="731"/>
   <tile gid="732"/>
   <tile gid="733"/>
   <tile gid="734"/>
   <tile gid="735"/>
   <tile gid="736"/>
   <tile gid="737"/>
   <tile gid="738"/>
   <tile gid="739"/>
   <tile gid="710"/>
   <tile gid="711"/>
   <tile gid="712"/>
   <tile gid="713"/>
   <tile gid="714"/>
   <tile gid="715"/>
   <tile gid="716"/>
   <tile gid="717"/>
   <tile gid="718"/>
   <tile gid="719"/>
   <tile gid="720"/>
   <tile gid="721"/>
   <tile gid="722"/>
   <tile gid="723"/>
   <tile gid="724"/>
   <tile gid="725"/>
   <tile gid="726"/>
   <tile gid="727"/>
   <tile gid="728"/>
   <tile gid="729"/>
   <tile gid="730"/>
   <tile gid="731"/>
   <tile gid="732"/>
   <tile gid="733"/>
   <tile gid="734"/>
   <tile gid="735"/>
   <tile gid="736"/>
   <tile gid="737"/>
   <tile gid="738"/>
   <tile gid="739"/>
   <tile gid="710"/>
   <tile gid="711"/>
   <tile gid="712"/>
   <tile gid="713"/>
   <tile gid="714"/>
   <tile gid="715"/>
   <tile gid="716"/>
   <tile gid="717"/>
   <tile gid="718"/>
   <tile gid="719"/>
   <tile gid="720"/>
   <tile gid="721"/>
   <tile gid="722"/>
   <tile gid="723"/>
   <tile gid="724"/>
   <tile gid="725"/>
   <tile gid="726"/>
   <tile gid="727"/>
   <tile gid="728"/>
   <tile gid="729"/>
   <tile gid="730"/>
   <tile gid="731"/>
   <tile gid="732"/>
   <tile gid="733"/>
   <tile gid="734"/>
   <tile gid="735"/>
   <tile gid="736"/>
   <tile gid="737"/>
   <tile gid="738"/>
   <tile gid="739"/>
   <tile gid="710"/>
   <tile gid="711"/>
   <tile gid="712"/>
   <tile gid="713"/>
   <tile gid="714"/>
   <tile gid="715"/>
   <tile gid="716"/>
   <tile gid="717"/>
   <tile gid="718"/>
   <tile gid="719"/>
   <tile gid="720"/>
   <tile gid="721"/>
   <tile gid="722"/>
   <tile gid="723"/>
   <tile gid="724"/>
   <tile gid="740"/>
   <tile gid="741"/>
   <tile gid="742"/>
   <tile gid="743"/>
   <tile gid="744"/>
   <tile gid="745"/>
   <tile gid="746"/>
   <tile gid="747"/>
   <tile gid="748"/>
   <tile gid="749"/>
   <tile gid="750"/>
   <tile gid="751"/>
   <tile gid="752"/>
   <tile gid="753"/>
   <tile gid="754"/>
   <tile gid="755"/>
   <tile gid="756"/>
   <tile gid="757"/>
   <tile gid="758"/>
   <tile gid="759"/>
   <tile gid="760"/>
   <tile gid="761"/>
   <tile gid="762"/>
   <tile gid="763"/>
   <tile gid="764"/>
   <tile gid="765"/>
   <tile gid="766"/>
   <tile gid="767"/>
   <tile gid="768"/>
   <tile gid="769"/>
   <tile gid="740"/>
   <tile gid="741"/>
   <tile gid="742"/>
   <tile gid="743"/>
   <tile gid="744"/>
   <tile gid="745"/>
   <tile gid="746"/>
   <tile gid="747"/>
   <tile gid="748"/>
   <tile gid="749"/>
   <tile gid="750"/>
   <tile gid="751"/>
   <tile gid="752"/>
   <tile gid="753"/>
   <tile gid="754"/>
   <tile gid="755"/>
   <tile gid="756"/>
   <tile gid="757"/>
   <tile gid="758"/>
   <tile gid="759"/>
   <tile gid="760"/>
   <tile gid="761"/>
   <tile gid="762"/>
   <tile gid="763"/>
   <tile gid="764"/>
   <tile gid="765"/>
   <tile gid="766"/>
   <tile gid="767"/>
   <tile gid="768"/>
   <tile gid="769"/>
   <tile gid="740"/>
   <tile gid="741"/>
   <tile gid="742"/>
   <tile gid="743"/>
   <tile gid="744"/>
   <tile gid="745"/>
   <tile gid="746"/>
   <tile gid="747"/>
   <tile gid="748"/>
   <tile gid="749"/>
   <tile gid="750"/>
   <tile gid="751"/>
   <tile gid="752"/>
   <tile gid="753"/>
   <tile gid="754"/>
   <tile gid="755"/>
   <tile gid="756"/>
   <tile gid="757"/>
   <tile gid="758"/>
   <tile gid="759"/>
   <tile gid="760"/>
   <tile gid="761"/>
   <tile gid="762"/>
   <tile gid="763"/>
   <tile gid="764"/>
   <tile gid="765"/>
   <tile gid="766"/>
   <tile gid="767"/>
   <tile gid="768"/>
   <tile gid="769"/>
   <tile gid="740"/>
   <tile gid="741"/>
   <tile gid="742"/>
   <tile gid="743"/>
   <tile gid="744"/>
   <tile gid="745"/>
   <tile gid="746"/>
   <tile gid="747"/>
   <tile gid="748"/>
   <tile gid="749"/>
   <tile gid="750"/>
   <tile gid="751"/>
   <tile gid="752"/>
   <tile gid="753"/>
   <tile gid="754"/>
   <tile gid="755"/>
   <tile gid="756"/>
   <tile gid="757"/>
   <tile gid="758"/>
   <tile gid="759"/>
   <tile gid="760"/>
   <tile gid="761"/>
   <tile gid="762"/>
   <tile gid="763"/>
   <tile gid="764"/>
   <tile gid="765"/>
   <tile gid="766"/>
   <tile gid="767"/>
   <tile gid="768"/>
   <tile gid="769"/>
   <tile gid="740"/>
   <tile gid="741"/>
   <tile gid="742"/>
   <tile gid="743"/>
   <tile gid="744"/>
   <tile gid="745"/>
   <tile gid="746"/>
   <tile gid="747"/>
   <tile gid="748"/>
   <tile gid="749"/>
   <tile gid="750"/>
   <tile gid="751"/>
   <tile gid="752"/>
   <tile gid="753"/>
   <tile gid="754"/>
   <tile gid="770"/>
   <tile gid="771"/>
   <tile gid="772"/>
   <tile gid="773"/>
   <tile gid="774"/>
   <tile gid="775"/>
   <tile gid="776"/>
   <tile gid="777"/>
   <tile gid="778"/>
   <tile gid="779"/>
   <tile gid="780"/>
   <tile gid="781"/>
   <tile gid="782"/>
   <tile gid="783"/>
   <tile gid="784"/>
   <tile gid="785"/>
   <tile gid="786"/>
   <tile gid="787"/>
   <tile gid="788"/>
   <tile gid="789"/>
   <tile gid="790"/>
   <tile gid="791"/>
   <tile gid="792"/>
   <tile gid="793"/>
   <tile gid="794"/>
   <tile gid="795"/>
   <tile gid="796"/>
   <tile gid="797"/>
   <tile gid="798"/>
   <tile gid="799"/>
   <tile gid="770"/>
   <tile gid="771"/>
   <tile gid="772"/>
   <tile gid="773"/>
   <tile gid="774"/>
   <tile gid="775"/>
   <tile gid="776"/>
   <tile gid="777"/>
   <tile gid="778"/>
   <tile gid="779"/>
   <tile gid="780"/>
   <tile gid="781"/>
   <tile gid="782"/>
   <tile gid="783"/>
   <tile gid="784"/>
   <tile gid="785"/>
   <tile gid="786"/>
   <tile gid="787"/>
   <tile gid="788"/>
   <tile gid="789"/>
   <tile gid="790"/>
   <tile gid="791"/>
   <tile gid="792"/>
   <tile gid="793"/>
   <tile gid="794"/>
   <tile gid="795"/>
   <tile gid="796"/>
   <tile gid="797"/>
   <tile gid="798"/>
   <tile gid="799"/>
   <tile gid="770"/>
   <tile gid="771"/>
   <tile gid="772"/>
   <tile gid="773"/>
   <tile gid="774"/>
   <tile gid="775"/>
   <tile gid="776"/>
   <tile gid="777"/>
   <tile gid="778"/>
   <tile gid="779"/>
   <tile gid="780"/>
   <tile gid="781"/>
   <tile gid="782"/>
   <tile gid="783"/>
   <tile gid="784"/>
   <tile gid="785"/>
   <tile gid="786"/>
   <tile gid="787"/>
   <tile gid="788"/>
   <tile gid="789"/>
   <tile gid="790"/>
   <tile gid="791"/>
   <tile gid="792"/>
   <tile gid="793"/>
   <tile gid="794"/>
   <tile gid="795"/>
   <tile gid="796"/>
   <tile gid="797"/>
   <tile gid="798"/>
   <tile gid="799"/>
   <tile gid="770"/>
   <tile gid="771"/>
   <tile gid="772"/>
   <tile gid="773"/>
   <tile gid="774"/>
   <tile gid="775"/>
   <tile gid="776"/>
   <tile gid="777"/>
   <tile gid="778"/>
   <tile gid="779"/>
   <tile gid="780"/>
   <tile gid="781"/>
   <tile gid="782"/>
   <tile gid="783"/>
   <tile gid="784"/>
   <tile gid="785"/>
   <tile gid="786"/>
   <tile gid="787"/>
   <tile gid="788"/>
   <tile gid="789"/>
   <tile gid="790"/>
   <tile gid="791"/>
   <tile gid="792"/>
   <tile gid="793"/>
   <tile gid="794"/>
   <tile gid="795"/>
   <tile gid="796"/>
   <tile gid="797"/>
   <tile gid="798"/>
   <tile gid="799"/>
   <tile gid="770"/>
   <tile gid="771"/>
   <tile gid="772"/>
   <tile gid="773"/>
   <tile gid="774"/>
   <tile gid="775"/>
   <tile gid="776"/>
   <tile gid="777"/>
   <tile gid="778"/>
   <tile gid="779"/>
   <tile gid="780"/>
   <tile gid="781"/>
   <tile gid="782"/>
   <tile gid="783"/>
   <tile gid="784"/>
   <tile gid="800"/>
   <tile gid="801"/>
   <tile gid="802"/>
   <tile gid="803"/>
   <tile gid="804"/>
   <tile gid="805"/>
   <tile gid="806"/>
   <tile gid="807"/>
   <tile gid="808"/>
   <tile gid="809"/>
   <tile gid="810"/>
   <tile gid="811"/>
   <tile gid="812"/>
   <tile gid="813"/>
   <tile gid="814"/>
   <tile gid="815"/>
   <tile gid="816"/>
   <tile gid="817"/>
   <tile gid="818"/>
   <tile gid="819"/>
   <tile gid="820"/>
   <tile gid="821"/>
   <tile gid="822"/>
   <tile gid="823"/>
   <tile gid="824"/>
   <tile gid="825"/>
   <tile gid="826"/>
   <tile gid="827"/>
   <tile gid="828"/>
   <tile gid="829"/>
   <tile gid="800"/>
   <tile gid="801"/>
   <tile gid="802"/>
   <tile gid="803"/>
   <tile gid="804"/>
   <tile gid="805"/>
   <tile gid="806"/>
   <tile gid="807"/>
   <tile gid="808"/>
   <tile gid="809"/>
   <tile gid="810"/>
   <tile gid="811"/>
   <tile gid="812"/>
   <tile gid="813"/>
   <tile gid="814"/>
   <tile gid="815"/>
   <tile gid="816"/>
   <tile gid="817"/>
   <tile gid="818"/>
   <tile gid="819"/>
   <tile gid="820"/>
   <tile gid="821"/>
   <tile gid="822"/>
   <tile gid="823"/>
   <tile gid="824"/>
   <tile gid="825"/>
   <tile gid="826"/>
   <tile gid="827"/>
   <tile gid="828"/>
   <tile gid="829"/>
   <tile gid="800"/>
   <tile gid="801"/>
   <tile gid="802"/>
   <tile gid="803"/>
   <tile gid="804"/>
   <tile gid="805"/>
   <tile gid="806"/>
   <tile gid="807"/>
   <tile gid="808"/>
   <tile gid="809"/>
   <tile gid="810"/>
   <tile gid="811"/>
   <tile gid="812"/>
   <tile gid="813"/>
   <tile gid="814"/>
   <tile gid="815"/>
   <tile gid="816"/>
   <tile gid="817"/>
   <tile gid="818"/>
   <tile gid="819"/>
   <tile gid="820"/>
   <tile gid="821"/>
   <tile gid="822"/>
   <tile gid="823"/>
   <tile gid="824"/>
   <tile gid="825"/>
   <tile gid="826"/>
   <tile gid="827"/>
   <tile gid="828"/>
   <tile gid="829"/>
   <tile gid="800"/>
   <tile gid="801"/>
   <tile gid="802"/>
   <tile gid="803"/>
   <tile gid="804"/>
   <tile gid="805"/>
   <tile gid="806"/>
   <tile gid="807"/>
   <tile gid="808"/>
   <tile gid="809"/>
   <tile gid="810"/>
   <tile gid="811"/>
   <tile gid="812"/>
   <tile gid="813"/>
   <tile gid="814"/>
   <tile gid="815"/>
   <tile gid="816"/>
   <tile gid="817"/>
   <tile gid="818"/>
   <tile gid="819"/>
   <tile gid="820"/>
   <tile gid="821"/>
   <tile gid="822"/>
   <tile gid="823"/>
   <tile gid="824"/>
   <tile gid="825"/>
   <tile gid="826"/>
   <tile gid="827"/>
   <tile gid="828"/>
   <tile gid="829"/>
   <tile gid="800"/>
   <tile gid="801"/>
   <tile gid="802"/>
   <tile gid="803"/>
   <tile gid="804"/>
   <tile gid="805"/>
   <tile gid="806"/>
   <tile gid="807"/>
   <tile gid="808"/>
   <tile gid="809"/>
   <tile gid="810"/>
   <tile gid="811"/>
   <tile gid="812"/>
   <tile gid="813"/>
   <tile gid="814"/>
   <tile gid="830"/>
   <tile gid="831"/>
   <tile gid="832"/>
   <tile gid="833"/>
   <tile gid="834"/>
   <tile gid="835"/>
   <tile gid="836"/>
   <tile gid="837"/>
   <tile gid="838"/>
   <tile gid="839"/>
   <tile gid="840"/>
   <tile gid="841"/>
   <tile gid="842"/>
   <tile gid="843"/>
   <tile gid="844"/>
   <tile gid="845"/>
   <tile gid="846"/>
   <tile gid="847"/>
   <tile gid="848"/>
   <tile gid="849"/>
   <tile gid="850"/>
   <tile gid="851"/>
   <tile gid="852"/>
   <tile gid="853"/>
   <tile gid="854"/>
   <tile gid="855"/>
   <tile gid="856"/>
   <tile gid="857"/>
   <tile gid="858"/>
   <tile gid="859"/>
   <tile gid="830"/>
   <tile gid="831"/>
   <tile gid="832"/>
   <tile gid="833"/>
   <tile gid="834"/>
   <tile gid="835"/>
   <tile gid="836"/>
   <tile gid="837"/>
   <tile gid="838"/>
   <tile gid="839"/>
   <tile gid="840"/>
   <tile gid="841"/>
   <tile gid="842"/>
   <tile gid="843"/>
   <tile gid="844"/>
   <tile gid="845"/>
   <tile gid="846"/>
   <tile gid="847"/>
   <tile gid="848"/>
   <tile gid="849"/>
   <tile gid="850"/>
   <tile gid="851"/>
   <tile gid="852"/>
   <tile gid="853"/>
   <tile gid="854"/>
   <tile gid="855"/>
   <tile gid="856"/>
   <tile gid="857"/>
   <tile gid="858"/>
   <tile gid="859"/>
   <tile gid="830"/>
   <tile gid="831"/>
   <tile gid="832"/>
   <tile gid="833"/>
   <tile gid="834"/>
   <tile gid="835"/>
   <tile gid="836"/>
   <tile gid="837"/>
   <tile gid="838"/>
   <tile gid="839"/>
   <tile gid="840"/>
   <tile gid="841"/>
   <tile gid="842"/>
   <tile gid="843"/>
   <tile gid="844"/>
   <tile gid="845"/>
   <tile gid="846"/>
   <tile gid="847"/>
   <tile gid="848"/>
   <tile gid="849"/>
   <tile gid="850"/>
   <tile gid="851"/>
   <tile gid="852"/>
   <tile gid="853"/>
   <tile gid="854"/>
   <tile gid="855"/>
   <tile gid="856"/>
   <tile gid="857"/>
   <tile gid="858"/>
   <tile gid="859"/>
   <tile gid="830"/>
   <tile gid="831"/>
   <tile gid="832"/>
   <tile gid="833"/>
   <tile gid="834"/>
   <tile gid="835"/>
   <tile gid="836"/>
   <tile gid="837"/>
   <tile gid="838"/>
   <tile gid="839"/>
   <tile gid="840"/>
   <tile gid="841"/>
   <tile gid="842"/>
   <tile gid="843"/>
   <tile gid="844"/>
   <tile gid="845"/>
   <tile gid="846"/>
   <tile gid="847"/>
   <tile gid="848"/>
   <tile gid="849"/>
   <tile gid="850"/>
   <tile gid="851"/>
   <tile gid="852"/>
   <tile gid="853"/>
   <tile gid="854"/>
   <tile gid="855"/>
   <tile gid="856"/>
   <tile gid="857"/>
   <tile gid="858"/>
   <tile gid="859"/>
   <tile gid="830"/>
   <tile gid="831"/>
   <tile gid="832"/>
   <tile gid="833"/>
   <tile gid="834"/>
   <tile gid="835"/>
   <tile gid="836"/>
   <tile gid="837"/>
   <tile gid="838"/>
   <tile gid="839"/>
   <tile gid="840"/>
   <tile gid="841"/>
   <tile gid="842"/>
   <tile gid="843"/>
   <tile gid="844"/>
   <tile gid="860"/>
   <tile gid="861"/>
   <tile gid="862"/>
   <tile gid="863"/>
   <tile gid="864"/>
   <tile gid="865"/>
   <tile gid="866"/>
   <tile gid="867"/>
   <tile gid="868"/>
   <tile gid="869"/>
   <tile gid="870"/>
   <tile gid="871"/>
   <tile gid="872"/>
   <tile gid="873"/>
   <tile gid="874"/>
   <tile gid="875"/>
   <tile gid="876"/>
   <tile gid="877"/>
   <tile gid="878"/>
   <tile gid="879"/>
   <tile gid="880"/>
   <tile gid="881"/>
   <tile gid="882"/>
   <tile gid="883"/>
   <tile gid="884"/>
   <tile gid="885"/>
   <tile gid="886"/>
   <tile gid="887"/>
   <tile gid="888"/>
   <tile gid="889"/>
   <tile gid="860"/>
   <tile gid="861"/>
   <tile gid="862"/>
   <tile gid="863"/>
   <tile gid="864"/>
   <tile gid="865"/>
   <tile gid="866"/>
   <tile gid="867"/>
   <tile gid="868"/>
   <tile gid="869"/>
   <tile gid="870"/>
   <tile gid="871"/>
   <tile gid="872"/>
   <tile gid="873"/>
   <tile gid="874"/>
   <tile gid="875"/>
   <tile gid="876"/>
   <tile gid="877"/>
   <tile gid="878"/>
   <tile gid="879"/>
   <tile gid="880"/>
   <tile gid="881"/>
   <tile gid="882"/>
   <tile gid="883"/>
   <tile gid="884"/>
   <tile gid="885"/>
   <tile gid="886"/>
   <tile gid="887"/>
   <tile gid="888"/>
   <tile gid="889"/>
   <tile gid="860"/>
   <tile gid="861"/>
   <tile gid="862"/>
   <tile gid="863"/>
   <tile gid="864"/>
   <tile gid="865"/>
   <tile gid="866"/>
   <tile gid="867"/>
   <tile gid="868"/>
   <tile gid="869"/>
   <tile gid="870"/>
   <tile gid="871"/>
   <tile gid="872"/>
   <tile gid="873"/>
   <tile gid="874"/>
   <tile gid="875"/>
   <tile gid="876"/>
   <tile gid="877"/>
   <tile gid="878"/>
   <tile gid="879"/>
   <tile gid="880"/>
   <tile gid="881"/>
   <tile gid="882"/>
   <tile gid="883"/>
   <tile gid="884"/>
   <tile gid="885"/>
   <tile gid="886"/>
   <tile gid="887"/>
   <tile gid="888"/>
   <tile gid="889"/>
   <tile gid="860"/>
   <tile gid="861"/>
   <tile gid="862"/>
   <tile gid="863"/>
   <tile gid="864"/>
   <tile gid="865"/>
   <tile gid="866"/>
   <tile gid="867"/>
   <tile gid="868"/>
   <tile gid="869"/>
   <tile gid="870"/>
   <tile gid="871"/>
   <tile gid="872"/>
   <tile gid="873"/>
   <tile gid="874"/>
   <tile gid="875"/>
   <tile gid="876"/>
   <tile gid="877"/>
   <tile gid="878"/>
   <tile gid="879"/>
   <tile gid="880"/>
   <tile gid="881"/>
   <tile gid="882"/>
   <tile gid="883"/>
   <tile gid="884"/>
   <tile gid="885"/>
   <tile gid="886"/>
   <tile gid="887"/>
   <tile gid="888"/>
   <tile gid="889"/>
   <tile gid="860"/>
   <tile gid="861"/>
   <tile gid="862"/>
   <tile gid="863"/>
   <tile gid="864"/>
   <tile gid="865"/>
   <tile gid="866"/>
   <tile gid="867"/>
   <tile gid="868"/>
   <tile gid="869"/>
   <tile gid="870"/>
   <tile gid="871"/>
   <tile gid="872"/>
   <tile gid="873"/>
   <tile gid="874"/>
   <tile gid="890"/>
   <tile gid="891"/>
   <tile gid="892"/>
   <tile gid="893"/>
   <tile gid="894"/>
   <tile gid="895"/>
   <tile gid="896"/>
   <tile gid="897"/>
   <tile gid="898"/>
   <tile gid="899"/>
   <tile gid="900"/>
   <tile gid="901"/>
   <tile gid="902"/>
   <tile gid="903"/>
   <tile gid="904"/>
   <tile gid="905"/>
   <tile gid="906"/>
   <tile gid="907"/>
   <tile gid="908"/>
   <tile gid="909"/>
   <tile gid="910"/>
   <tile gid="911"/>
   <tile gid="912"/>
   <tile gid="913"/>
   <tile gid="914"/>
   <tile gid="915"/>
   <tile gid="916"/>
   <tile gid="917"/>
   <tile gid="918"/>
   <tile gid="919"/>
   <tile gid="890"/>
   <tile gid="891"/>
   <tile gid="892"/>
   <tile gid="893"/>
   <tile gid="894"/>
   <tile gid="895"/>
   <tile gid="896"/>
   <tile gid="897"/>
   <tile gid="898"/>
   <tile gid="899"/>
   <tile gid="900"/>
   <tile gid="901"/>
   <tile gid="902"/>
   <tile gid="903"/>
   <tile gid="904"/>
   <tile gid="905"/>
   <tile gid="906"/>
   <tile gid="907"/>
   <tile gid="908"/>
   <tile gid="909"/>
   <tile gid="910"/>
   <tile gid="911"/>
   <tile gid="912"/>
   <tile gid="913"/>
   <tile gid="914"/>
   <tile gid="915"/>
   <tile gid="916"/>
   <tile gid="917"/>
   <tile gid="918"/>
   <tile gid="919"/>
   <tile gid="890"/>
   <tile gid="891"/>
   <tile gid="892"/>
   <tile gid="893"/>
   <tile gid="894"/>
   <tile gid="895"/>
   <tile gid="896"/>
   <tile gid="897"/>
   <tile gid="898"/>
   <tile gid="899"/>
   <tile gid="900"/>
   <tile gid="901"/>
   <tile gid="902"/>
   <tile gid="903"/>
   <tile gid="904"/>
   <tile gid="905"/>
   <tile gid="906"/>
   <tile gid="907"/>
   <tile gid="908"/>
   <tile gid="909"/>
   <tile gid="910"/>
   <tile gid="911"/>
   <tile gid="912"/>
   <tile gid="913"/>
   <tile gid="914"/>
   <tile gid="915"/>
   <tile gid="916"/>
   <tile gid="917"/>
   <tile gid="918"/>
   <tile gid="919"/>
   <tile gid="890"/>
   <tile gid="891"/>
   <tile gid="892"/>
   <tile gid="893"/>
   <tile gid="894"/>
   <tile gid="895"/>
   <tile gid="896"/>
   <tile gid="897"/>
   <tile gid="898"/>
   <tile gid="899"/>
   <tile gid="900"/>
   <tile gid="901"/>
   <tile gid="902"/>
   <tile gid="903"/>
   <tile gid="904"/>
   <tile gid="905"/>
   <tile gid="906"/>
   <tile gid="907"/>
   <tile gid="908"/>
   <tile gid="909"/>
   <tile gid="910"/>
   <tile gid="911"/>
   <tile gid="912"/>
   <tile gid="913"/>
   <tile gid="914"/>
   <tile gid="915"/>
   <tile gid="916"/>
   <tile gid="917"/>
   <tile gid="918"/>
   <tile gid="919"/>
   <tile gid="890"/>
   <tile gid="891"/>
   <tile gid="892"/>
   <tile gid="893"/>
   <tile gid="894"/>
   <tile gid="895"/>
   <tile gid="896"/>
   <tile gid="897"/>
   <tile gid="898"/>
   <tile gid="899"/>
   <tile gid="900"/>
   <tile gid="901"/>
   <tile gid="902"/>
   <tile gid="903"/>
   <tile gid="904"/>
   <tile gid="920"/>
   <tile gid="921"/>
   <tile gid="922"/>
   <tile gid="923"/>
   <tile gid="924"/>
   <tile gid="925"/>
   <tile gid="926"/>
   <tile gid="927"/>
   <tile gid="928"/>
   <tile gid="929"/>
   <tile gid="930"/>
   <tile gid="931"/>
   <tile gid="932"/>
   <tile gid="933"/>
   <tile gid="934"/>
   <tile gid="935"/>
   <tile gid="936"/>
   <tile gid="937"/>
   <tile gid="938"/>
   <tile gid="939"/>
   <tile gid="940"/>
   <tile gid="941"/>
   <tile gid="942"/>
   <tile gid="943"/>
   <tile gid="944"/>
   <tile gid="945"/>
   <tile gid="946"/>
   <tile gid="947"/>
   <tile gid="948"/>
   <tile gid="949"/>
   <tile gid="920"/>
   <tile gid="921"/>
   <tile gid="922"/>
   <tile gid="923"/>
   <tile gid="924"/>
   <tile gid="925"/>
   <tile gid="926"/>
   <tile gid="927"/>
   <tile gid="928"/>
   <tile gid="929"/>
   <tile gid="930"/>
   <tile gid="931"/>
   <tile gid="932"/>
   <tile gid="933"/>
   <tile gid="934"/>
   <tile gid="935"/>
   <tile gid="936"/>
   <tile gid="937"/>
   <tile gid="938"/>
   <tile gid="939"/>
   <tile gid="940"/>
   <tile gid="941"/>
   <tile gid="942"/>
   <tile gid="943"/>
   <tile gid="944"/>
   <tile gid="945"/>
   <tile gid="946"/>
   <tile gid="947"/>
   <tile gid="948"/>
   <tile gid="949"/>
   <tile gid="920"/>
   <tile gid="921"/>
   <tile gid="922"/>
   <tile gid="923"/>
   <tile gid="924"/>
   <tile gid="925"/>
   <tile gid="926"/>
   <tile gid="927"/>
   <tile gid="928"/>
   <tile gid="929"/>
   <tile gid="930"/>
   <tile gid="931"/>
   <tile gid="932"/>
   <tile gid="933"/>
   <tile gid="934"/>
   <tile gid="935"/>
   <tile gid="936"/>
   <tile gid="937"/>
   <tile gid="938"/>
   <tile gid="939"/>
   <tile gid="940"/>
   <tile gid="941"/>
   <tile gid="942"/>
   <tile gid="943"/>
   <tile gid="944"/>
   <tile gid="945"/>
   <tile gid="946"/>
   <tile gid="947"/>
   <tile gid="948"/>
   <tile gid="949"/>
   <tile gid="920"/>
   <tile gid="921"/>
   <tile gid="922"/>
   <tile gid="923"/>
   <tile gid="924"/>
   <tile gid="925"/>
   <tile gid="926"/>
   <tile gid="927"/>
   <tile gid="928"/>
   <tile gid="929"/>
   <tile gid="930"/>
   <tile gid="931"/>
   <tile gid="932"/>
   <tile gid="933"/>
   <tile gid="934"/>
   <tile gid="935"/>
   <tile gid="936"/>
   <tile gid="937"/>
   <tile gid="938"/>
   <tile gid="939"/>
   <tile gid="940"/>
   <tile gid="941"/>
   <tile gid="942"/>
   <tile gid="943"/>
   <tile gid="944"/>
   <tile gid="945"/>
   <tile gid="946"/>
   <tile gid="947"/>
   <tile gid="948"/>
   <tile gid="949"/>
   <tile gid="920"/>
   <tile gid="921"/>
   <tile gid="922"/>
   <tile gid="923"/>
   <tile gid="924"/>
   <tile gid="925"/>
   <tile gid="926"/>
   <tile gid="927"/>
   <tile gid="928"/>
   <tile gid="929"/>
   <tile gid="930"/>
   <tile gid="931"/>
   <tile gid="932"/>
   <tile gid="933"/>
   <tile gid="934"/>
   <tile gid="950"/>
   <tile gid="951"/>
   <tile gid="952"/>
   <tile gid="953"/>
   <tile gid="954"/>
   <tile gid="955"/>
   <tile gid="956"/>
   <tile gid="957"/>
   <tile gid="958"/>
   <tile gid="959"/>
   <tile gid="960"/>
   <tile gid="961"/>
   <tile gid="962"/>
   <tile gid="963"/>
   <tile gid="964"/>
   <tile gid="965"/>
   <tile gid="966"/>
   <tile gid="967"/>
   <tile gid="968"/>
   <tile gid="969"/>
   <tile gid="970"/>
   <tile gid="971"/>
   <tile gid="972"/>
   <tile gid="973"/>
   <tile gid="974"/>
   <tile gid="975"/>
   <tile gid="976"/>
   <tile gid="977"/>
   <tile gid="978"/>
   <tile gid="979"/>
   <tile gid="950"/>
   <tile gid="951"/>
   <tile gid="952"/>
   <tile gid="953"/>
   <tile gid="954"/>
   <tile gid="955"/>
   <tile gid="956"/>
   <tile gid="957"/>
   <tile gid="958"/>
   <tile gid="959"/>
   <tile gid="960"/>
   <tile gid="961"/>
   <tile gid="962"/>
   <tile gid="963"/>
   <tile gid="964"/>
   <tile gid="965"/>
   <tile gid="966"/>
   <tile gid="967"/>
   <tile gid="968"/>
   <tile gid="969"/>
   <tile gid="970"/>
   <tile gid="971"/>
   <tile gid="972"/>
   <tile gid="973"/>
   <tile gid="974"/>
   <tile gid="975"/>
   <tile gid="976"/>
   <tile gid="977"/>
   <tile gid="978"/>
   <tile gid="979"/>
   <tile gid="950"/>
   <tile gid="951"/>
   <tile gid="952"/>
   <tile gid="953"/>
   <tile gid="954"/>
   <tile gid="955"/>
   <tile gid="956"/>
   <tile gid="957"/>
   <tile gid="958"/>
   <tile gid="959"/>
   <tile gid="960"/>
   <tile gid="961"/>
   <tile gid="962"/>
   <tile gid="963"/>
   <tile gid="964"/>
   <tile gid="965"/>
   <tile gid="966"/>
   <tile gid="967"/>
   <tile gid="968"/>
   <tile gid="969"/>
   <tile gid="970"/>
   <tile gid="971"/>
   <tile gid="972"/>
   <tile gid="973"/>
   <tile gid="974"/>
   <tile gid="975"/>
   <tile gid="976"/>
   <tile gid="977"/>
   <tile gid="978"/>
   <tile gid="979"/>
   <tile gid="950"/>
   <tile gid="951"/>
   <tile gid="952"/>
   <tile gid="953"/>
   <tile gid="954"/>
   <tile gid="955"/>
   <tile gid="956"/>
   <tile gid="957"/>
   <tile gid="958"/>
   <tile gid="959"/>
   <tile gid="960"/>
   <tile gid="961"/>
   <tile gid="962"/>
   <tile gid="963"/>
   <tile gid="964"/>
   <tile gid="965"/>
   <tile gid="966"/>
   <tile gid="967"/>
   <tile gid="968"/>
   <tile gid="969"/>
   <tile gid="970"/>
   <tile gid="971"/>
   <tile gid="972"/>
   <tile gid="973"/>
   <tile gid="974"/>
   <tile gid="975"/>
   <tile gid="976"/>
   <tile gid="977"/>
   <tile gid="978"/>
   <tile gid="979"/>
   <tile gid="950"/>
   <tile gid="951"/>
   <tile gid="952"/>
   <tile gid="953"/>
   <tile gid="954"/>
   <tile gid="955"/>
   <tile gid="956"/>
   <tile gid="957"/>
   <tile gid="958"/>
   <tile gid="959"/>
   <tile gid="960"/>
   <tile gid="961"/>
   <tile gid="962"/>
   <tile gid="963"/>
   <tile gid="964"/>
   <tile gid="980"/>
   <tile gid="981"/>
   <tile gid="982"/>
   <tile gid="983"/>
   <tile gid="984"/>
   <tile gid="985"/>
   <tile gid="986"/>
   <tile gid="987"/>
   <tile gid="988"/>
   <tile gid="989"/>
   <tile gid="990"/>
   <tile gid="991"/>
   <tile gid="992"/>
   <tile gid="993"/>
   <tile gid="994"/>
   <tile gid="995"/>
   <tile gid="996"/>
   <tile gid="997"/>
   <tile gid="998"/>
   <tile gid="999"/>
   <tile gid="1000"/>
   <tile gid="1001"/>
   <tile gid="1002"/>
   <tile gid="1003"/>
   <tile gid="1004"/>
   <tile gid="1005"/>
   <tile gid="1006"/>
   <tile gid="1007"/>
   <tile gid="1008"/>
   <tile gid="1009"/>
   <tile gid="980"/>
   <tile gid="981"/>
   <tile gid="982"/>
   <tile gid="983"/>
   <tile gid="984"/>
   <tile gid="985"/>
   <tile gid="986"/>
   <tile gid="987"/>
   <tile gid="988"/>
   <tile gid="989"/>
   <tile gid="990"/>
   <tile gid="991"/>
   <tile gid="992"/>
   <tile gid="993"/>
   <tile gid="994"/>
   <tile gid="995"/>
   <tile gid="996"/>
   <tile gid="997"/>
   <tile gid="998"/>
   <tile gid="999"/>
   <tile gid="1000"/>
   <tile gid="1001"/>
   <tile gid="1002"/>
   <tile gid="1003"/>
   <tile gid="1004"/>
   <tile gid="1005"/>
   <tile gid="1006"/>
   <tile gid="1007"/>
   <tile gid="1008"/>
   <tile gid="1009"/>
   <tile gid="980"/>
   <tile gid="981"/>
   <tile gid="982"/>
   <tile gid="983"/>
   <tile gid="984"/>
   <tile gid="985"/>
   <tile gid="986"/>
   <tile gid="987"/>
   <tile gid="988"/>
   <tile gid="989"/>
   <tile gid="990"/>
   <tile gid="991"/>
   <tile gid="992"/>
   <tile gid="993"/>
   <tile gid="994"/>
   <tile gid="995"/>
   <tile gid="996"/>
   <tile gid="997"/>
   <tile gid="998"/>
   <tile gid="999"/>
   <tile gid="1000"/>
   <tile gid="1001"/>
   <tile gid="1002"/>
   <tile gid="1003"/>
   <tile gid="1004"/>
   <tile gid="1005"/>
   <tile gid="1006"/>
   <tile gid="1007"/>
   <tile gid="1008"/>
   <tile gid="1009"/>
   <tile gid="980"/>
   <tile gid="981"/>
   <tile gid="982"/>
   <tile gid="983"/>
   <tile gid="984"/>
   <tile gid="985"/>
   <tile gid="986"/>
   <tile gid="987"/>
   <tile gid="988"/>
   <tile gid="989"/>
   <tile gid="990"/>
   <tile gid="991"/>
   <tile gid="992"/>
   <tile gid="993"/>
   <tile gid="994"/>
   <tile gid="995"/>
   <tile gid="996"/>
   <tile gid="997"/>
   <tile gid="998"/>
   <tile gid="999"/>
   <tile gid="1000"/>
   <tile gid="1001"/>
   <tile gid="1002"/>
   <tile gid="1003"/>
   <tile gid="1004"/>
   <tile gid="1005"/>
   <tile gid="1006"/>
   <tile gid="1007"/>
   <tile gid="1008"/>
   <tile gid="1009"/>
   <tile gid="980"/>
   <tile gid="981"/>
   <tile gid="982"/>
   <tile gid="983"/>
   <tile gid="984"/>
   <tile gid="985"/>
   <tile gid="986"/>
   <tile gid="987"/>
   <tile gid="988"/>
   <tile gid="989"/>
   <tile gid="990"/>
   <tile gid="991"/>
   <tile gid="992"/>
   <tile gid="993"/>
   <tile gid="994"/>
   <tile gid="1010"/>
   <tile gid="1011"/>
   <tile gid="1012"/>
   <tile gid="1013"/>
   <tile gid="1014"/>
   <tile gid="1015"/>
   <tile gid="1016"/>
   <tile gid="1017"/>
   <tile gid="1018"/>
   <tile gid="1019"/>
   <tile gid="1020"/>
   <tile gid="1021"/>
   <tile gid="1022"/>
   <tile gid="1023"/>
   <tile gid="1024"/>
   <tile gid="1025"/>
   <tile gid="1026"/>
   <tile gid="1027"/>
   <tile gid="1028"/>
   <tile gid="1029"/>
   <tile gid="1030"/>
   <tile gid="1031"/>
   <tile gid="1032"/>
   <tile gid="1033"/>
   <tile gid="1034"/>
   <tile gid="1035"/>
   <tile gid="1036"/>
   <tile gid="1037"/>
   <tile gid="1038"/>
   <tile gid="1039"/>
   <tile gid="1010"/>
   <tile gid="1011"/>
   <tile gid="1012"/>
   <tile gid="1013"/>
   <tile gid="1014"/>
   <tile gid="1015"/>
   <tile gid="1016"/>
   <tile gid="1017"/>
   <tile gid="1018"/>
   <tile gid="1019"/>
   <tile gid="1020"/>
   <tile gid="1021"/>
   <tile gid="1022"/>
   <tile gid="1023"/>
   <tile gid="1024"/>
   <tile gid="1025"/>
   <tile gid="1026"/>
   <tile gid="1027"/>
   <tile gid="1028"/>
   <tile gid="1029"/>
   <tile gid="1030"/>
   <tile gid="1031"/>
   <tile gid="1032"/>
   <tile gid="1033"/>
   <tile gid="1034"/>
   <tile gid="1035"/>
   <tile gid="1036"/>
   <tile gid="1037"/>
   <tile gid="1038"/>
   <tile gid="1039"/>
   <tile gid="1010"/>
   <tile gid="1011"/>
   <tile gid="1012"/>
   <tile gid="1013"/>
   <tile gid="1014"/>
   <tile gid="1015"/>
   <tile gid="1016"/>
   <tile gid="1017"/>
   <tile gid="1018"/>
   <tile gid="1019"/>
   <tile gid="1020"/>
   <tile gid="1021"/>
   <tile gid="1022"/>
   <tile gid="1023"/>
   <tile gid="1024"/>
   <tile gid="1025"/>
   <tile gid="1026"/>
   <tile gid="1027"/>
   <tile gid="1028"/>
   <tile gid="1029"/>
   <tile gid="1030"/>
   <tile gid="1031"/>
   <tile gid="1032"/>
   <tile gid="1033"/>
   <tile gid="1034"/>
   <tile gid="1035"/>
   <tile gid="1036"/>
   <tile gid="1037"/>
   <tile gid="1038"/>
   <tile gid="1039"/>
   <tile gid="1010"/>
   <tile gid="1011"/>
   <tile gid="1012"/>
   <tile gid="1013"/>
   <tile gid="1014"/>
   <tile gid="1015"/>
   <tile gid="1016"/>
   <tile gid="1017"/>
   <tile gid="1018"/>
   <tile gid="1019"/>
   <tile gid="1020"/>
   <tile gid="1021"/>
   <tile gid="1022"/>
   <tile gid="1023"/>
   <tile gid="1024"/>
   <tile gid="1025"/>
   <tile gid="1026"/>
   <tile gid="1027"/>
   <tile gid="1028"/>
   <tile gid="1029"/>
   <tile gid="1030"/>
   <tile gid="1031"/>
   <tile gid="1032"/>
   <tile gid="1033"/>
   <tile gid="1034"/>
   <tile gid="1035"/>
   <tile gid="1036"/>
   <tile gid="1037"/>
   <tile gid="1038"/>
   <tile gid="1039"/>
   <tile gid="1010"/>
   <tile gid="1011"/>
   <tile gid="1012"/>
   <tile gid="1013"/>
   <tile gid="1014"/>
   <tile gid="1015"/>
   <tile gid="1016"/>
   <tile gid="1017"/>
   <tile gid="1018"/>
   <tile gid="1019"/>
   <tile gid="1020"/>
   <tile gid="1021"/>
   <tile gid="1022"/>
   <tile gid="1023"/>
   <tile gid="1024"/>
   <tile gid="1040"/>
   <tile gid="1041"/>
   <tile gid="1042"/>
   <tile gid="1043"/>
   <tile gid="1044"/>
   <tile gid="1045"/>
   <tile gid="1046"/>
   <tile gid="1047"/>
   <tile gid="1048"/>
   <tile gid="1049"/>
   <tile gid="1050"/>
   <tile gid="1051"/>
   <tile gid="1052"/>
   <tile gid="1053"/>
   <tile gid="1054"/>
   <tile gid="1055"/>
   <tile gid="1056"/>
   <tile gid="1057"/>
   <tile gid="1058"/>
   <tile gid="1059"/>
   <tile gid="1060"/>
   <tile gid="1061"/>
   <tile gid="1062"/>
   <tile gid="1063"/>
   <tile gid="1064"/>
   <tile gid="1065"/>
   <tile gid="1066"/>
   <tile gid="1067"/>
   <tile gid="1068"/>
   <tile gid="1069"/>
   <tile gid="1040"/>
   <tile gid="1041"/>
   <tile gid="1042"/>
   <tile gid="1043"/>
   <tile gid="1044"/>
   <tile gid="1045"/>
   <tile gid="1046"/>
   <tile gid="1047"/>
   <tile gid="1048"/>
   <tile gid="1049"/>
   <tile gid="1050"/>
   <tile gid="1051"/>
   <tile gid="1052"/>
   <tile gid="1053"/>
   <tile gid="1054"/>
   <tile gid="1055"/>
   <tile gid="1056"/>
   <tile gid="1057"/>
   <tile gid="1058"/>
   <tile gid="1059"/>
   <tile gid="1060"/>
   <tile gid="1061"/>
   <tile gid="1062"/>
   <tile gid="1063"/>
   <tile gid="1064"/>
   <tile gid="1065"/>
   <tile gid="1066"/>
   <tile gid="1067"/>
   <tile gid="1068"/>
   <tile gid="1069"/>
   <tile gid="1040"/>
   <tile gid="1041"/>
   <tile gid="1042"/>
   <tile gid="1043"/>
   <tile gid="1044"/>
   <tile gid="1045"/>
   <tile gid="1046"/>
   <tile gid="1047"/>
   <tile gid="1048"/>
   <tile gid="1049"/>
   <tile gid="1050"/>
   <tile gid="1051"/>
   <tile gid="1052"/>
   <tile gid="1053"/>
   <tile gid="1054"/>
   <tile gid="1055"/>
   <tile gid="1056"/>
   <tile gid="1057"/>
   <tile gid="1058"/>
   <tile gid="1059"/>
   <tile gid="1060"/>
   <tile gid="1061"/>
   <tile gid="1062"/>
   <tile gid="1063"/>
   <tile gid="1064"/>
   <tile gid="1065"/>
   <tile gid="1066"/>
   <tile gid="1067"/>
   <tile gid="1068"/>
   <tile gid="1069"/>
   <tile gid="1040"/>
   <tile gid="1041"/>
   <tile gid="1042"/>
   <tile gid="1043"/>
   <tile gid="1044"/>
   <tile gid="1045"/>
   <tile gid="1046"/>
   <tile gid="1047"/>
   <tile gid="1048"/>
   <tile gid="1049"/>
   <tile gid="1050"/>
   <tile gid="1051"/>
   <tile gid="1052"/>
   <tile gid="1053"/>
   <tile gid="1054"/>
   <tile gid="1055"/>
   <tile gid="1056"/>
   <tile gid="1057"/>
   <tile gid="1058"/>
   <tile gid="1059"/>
   <tile gid="1060"/>
   <tile gid="1061"/>
   <tile gid="1062"/>
   <tile gid="1063"/>
   <tile gid="1064"/>
   <tile gid="1065"/>
   <tile gid="1066"/>
   <tile gid="1067"/>
   <tile gid="1068"/>
   <tile gid="1069"/>
   <tile gid="1040"/>
   <tile gid="1041"/>
   <tile gid="1042"/>
   <tile gid="1043"/>
   <tile gid="1044"/>
   <tile gid="1045"/>
   <tile gid="1046"/>
   <tile gid="1047"/>
   <tile gid="1048"/>
   <tile gid="1049"/>
   <tile gid="1050"/>
   <tile gid="1051"/>
   <tile gid="1052"/>
   <tile gid="1053"/>
   <tile gid="1054"/>
   <tile gid="1070"/>
   <tile gid="1071"/>
   <tile gid="1072"/>
   <tile gid="1073"/>
   <tile gid="1074"/>
   <tile gid="1075"/>
   <tile gid="1076"/>
   <tile gid="1077"/>
   <tile gid="1078"/>
   <tile gid="1079"/>
   <tile gid="1080"/>
   <tile gid="1081"/>
   <tile gid="1082"/>
   <tile gid="1083"/>
   <tile gid="1084"/>
   <tile gid="1085"/>
   <tile gid="1086"/>
   <tile gid="1087"/>
   <tile gid="1088"/>
   <tile gid="1089"/>
   <tile gid="1090"/>
   <tile gid="1091"/>
   <tile gid="1092"/>
   <tile gid="1093"/>
   <tile gid="1094"/>
   <tile gid="1095"/>
   <tile gid="1096"/>
   <tile gid="1097"/>
   <tile gid="1098"/>
   <tile gid="1099"/>
   <tile gid="1070"/>
   <tile gid="1071"/>
   <tile gid="1072"/>
   <tile gid="1073"/>
   <tile gid="1074"/>
   <tile gid="1075"/>
   <tile gid="1076"/>
   <tile gid="1077"/>
   <tile gid="1078"/>
   <tile gid="1079"/>
   <tile gid="1080"/>
   <tile gid="1081"/>
   <tile gid="1082"/>
   <tile gid="1083"/>
   <tile gid="1084"/>
   <tile gid="1085"/>
   <tile gid="1086"/>
   <tile gid="1087"/>
   <tile gid="1088"/>
   <tile gid="1089"/>
   <tile gid="1090"/>
   <tile gid="1091"/>
   <tile gid="1092"/>
   <tile gid="1093"/>
   <tile gid="1094"/>
   <tile gid="1095"/>
   <tile gid="1096"/>
   <tile gid="1097"/>
   <tile gid="1098"/>
   <tile gid="1099"/>
   <tile gid="1070"/>
   <tile gid="1071"/>
   <tile gid="1072"/>
   <tile gid="1073"/>
   <tile gid="1074"/>
   <tile gid="1075"/>
   <tile gid="1076"/>
   <tile gid="1077"/>
   <tile gid="1078"/>
   <tile gid="1079"/>
   <tile gid="1080"/>
   <tile gid="1081"/>
   <tile gid="1082"/>
   <tile gid="1083"/>
   <tile gid="1084"/>
   <tile gid="1085"/>
   <tile gid="1086"/>
   <tile gid="1087"/>
   <tile gid="1088"/>
   <tile gid="1089"/>
   <tile gid="1090"/>
   <tile gid="1091"/>
   <tile gid="1092"/>
   <tile gid="1093"/>
   <tile gid="1094"/>
   <tile gid="1095"/>
   <tile gid="1096"/>
   <tile gid="1097"/>
   <tile gid="1098"/>
   <tile gid="1099"/>
   <tile gid="1070"/>
   <tile gid="1071"/>
   <tile gid="1072"/>
   <tile gid="1073"/>
   <tile gid="1074"/>
   <tile gid="1075"/>
   <tile gid="1076"/>
   <tile gid="1077"/>
   <tile gid="1078"/>
   <tile gid="1079"/>
   <tile gid="1080"/>
   <tile gid="1081"/>
   <tile gid="1082"/>
   <tile gid="1083"/>
   <tile gid="1084"/>
   <tile gid="1085"/>
   <tile gid="1086"/>
   <tile gid="1087"/>
   <tile gid="1088"/>
   <tile gid="1089"/>
   <tile gid="1090"/>
   <tile gid="1091"/>
   <tile gid="1092"/>
   <tile gid="1093"/>
   <tile gid="1094"/>
   <tile gid="1095"/>
   <tile gid="1096"/>
   <tile gid="1097"/>
   <tile gid="1098"/>
   <tile gid="1099"/>
   <tile gid="1070"/>
   <tile gid="1071"/>
   <tile gid="1072"/>
   <tile gid="1073"/>
   <tile gid="1074"/>
   <tile gid="1075"/>
   <tile gid="1076"/>
   <tile gid="1077"/>
   <tile gid="1078"/>
   <tile gid="1079"/>
   <tile gid="1080"/>
   <tile gid="1081"/>
   <tile gid="1082"/>
   <tile gid="1083"/>
   <tile gid="1084"/>
  </data>
 </layer>
 <layer id="9" name="Middleground" width="135" height="34">
  <properties>
   <property name="Draw" type="bool" value="true"/>
  </properties>
  <data>
   <tile/>
   <tile/>
   <tile/>
   <tile/>
   <tile/>
   <tile/>
   <tile/>
   <tile/>
   <tile/>
   <tile/>
   <tile/>
   <tile/>
   <tile/>
   <tile/>
   <tile/>
   <tile/>
   <tile/>
   <tile/>
   <tile/>
   <tile/>
   <tile/>
   <tile/>
   <tile/>
   <tile/>
   <tile/>
   <tile/>
   <tile/>
   <tile/>
   <tile/>
   <tile/>
   <tile/>
   <tile/>
   <tile/>
   <tile/>
   <tile/>
   <tile/>
   <tile/>
   <tile/>
   <tile/>
   <tile/>
   <tile/>
   <tile/>
   <tile/>
   <tile/>
   <tile/>
   <tile/>
   <tile/>
   <tile/>
   <tile/>
   <tile/>
   <tile/>
   <tile/>
   <tile/>
   <tile/>
   <tile/>
   <tile/>
   <tile/>
   <tile/>
   <tile/>
   <tile/>
   <tile/>
   <tile/>
   <tile/>
   <tile/>
   <tile/>
   <tile/>
   <tile/>
   <tile/>
   <tile/>
   <tile/>
   <tile/>
   <tile/>
   <tile/>
   <tile/>
   <tile/>
   <tile/>
   <tile/>
   <tile/>
   <tile/>
   <tile/>
   <tile/>
   <tile/>
   <tile/>
   <tile/>
   <tile/>
   <tile/>
   <tile/>
   <tile/>
   <tile/>
   <tile/>
   <tile/>
   <tile/>
   <tile/>
   <tile/>
   <tile/>
   <tile/>
   <tile/>
   <tile/>
   <tile/>
   <tile/>
   <tile/>
   <tile/>
   <tile/>
   <tile/>
   <tile/>
   <tile/>
   <tile/>
   <tile/>
   <tile/>
   <tile/>
   <tile/>
   <tile/>
   <tile/>
   <tile/>
   <tile/>
   <tile/>
   <tile/>
   <tile/>
   <tile/>
   <tile/>
   <tile/>
   <tile/>
   <tile/>
   <tile/>
   <tile/>
   <tile/>
   <tile/>
   <tile/>
   <tile/>
   <tile/>
   <tile/>
   <tile/>
   <tile/>
   <tile/>
   <tile/>
   <tile/>
   <tile/>
   <tile/>
   <tile/>
   <tile/>
   <tile/>
   <tile/>
   <tile/>
   <tile/>
   <tile/>
   <tile/>
   <tile/>
   <tile/>
   <tile/>
   <tile/>
   <tile/>
   <tile/>
   <tile/>
   <tile/>
   <tile/>
   <tile/>
   <tile/>
   <tile/>
   <tile/>
   <tile/>
   <tile/>
   <tile/>
   <tile/>
   <tile/>
   <tile/>
   <tile/>
   <tile/>
   <tile/>
   <tile/>
   <tile/>
   <tile/>
   <tile/>
   <tile/>
   <tile/>
   <tile/>
   <tile/>
   <tile/>
   <tile/>
   <tile/>
   <tile/>
   <tile/>
   <tile/>
   <tile/>
   <tile/>
   <tile/>
   <tile/>
   <tile/>
   <tile/>
   <tile/>
   <tile/>
   <tile/>
   <tile/>
   <tile/>
   <tile/>
   <tile/>
   <tile/>
   <tile/>
   <tile/>
   <tile/>
   <tile/>
   <tile/>
   <tile/>
   <tile/>
   <tile/>
   <tile/>
   <tile/>
   <tile/>
   <tile/>
   <tile/>
   <tile/>
   <tile/>
   <tile/>
   <tile/>
   <tile/>
   <tile/>
   <tile/>
   <tile/>
   <tile/>
   <tile/>
   <tile/>
   <tile/>
   <tile/>
   <tile/>
   <tile/>
   <tile/>
   <tile/>
   <tile/>
   <tile/>
   <tile/>
   <tile/>
   <tile/>
   <tile/>
   <tile/>
   <tile/>
   <tile/>
   <tile/>
   <tile/>
   <tile/>
   <tile/>
   <tile/>
   <tile/>
   <tile/>
   <tile/>
   <tile/>
   <tile/>
   <tile/>
   <tile/>
   <tile/>
   <tile/>
   <tile/>
   <tile/>
   <tile/>
   <tile/>
   <tile/>
   <tile/>
   <tile/>
   <tile/>
   <tile/>
   <tile/>
   <tile/>
   <tile/>
   <tile/>
   <tile/>
   <tile/>
   <tile/>
   <tile/>
   <tile/>
   <tile/>
   <tile/>
   <tile/>
   <tile/>
   <tile/>
   <tile/>
   <tile/>
   <tile/>
   <tile/>
   <tile/>
   <tile/>
   <tile/>
   <tile/>
   <tile/>
   <tile/>
   <tile/>
   <tile/>
   <tile/>
   <tile/>
   <tile/>
   <tile/>
   <tile/>
   <tile/>
   <tile/>
   <tile/>
   <tile/>
   <tile/>
   <tile/>
   <tile/>
   <tile/>
   <tile/>
   <tile/>
   <tile/>
   <tile/>
   <tile/>
   <tile/>
   <tile/>
   <tile/>
   <tile/>
   <tile/>
   <tile/>
   <tile/>
   <tile/>
   <tile/>
   <tile/>
   <tile/>
   <tile/>
   <tile/>
   <tile/>
   <tile/>
   <tile/>
   <tile/>
   <tile/>
   <tile/>
   <tile/>
   <tile/>
   <tile/>
   <tile/>
   <tile/>
   <tile/>
   <tile/>
   <tile/>
   <tile/>
   <tile/>
   <tile/>
   <tile/>
   <tile/>
   <tile/>
   <tile/>
   <tile/>
   <tile/>
   <tile/>
   <tile/>
   <tile/>
   <tile/>
   <tile/>
   <tile/>
   <tile/>
   <tile/>
   <tile/>
   <tile/>
   <tile/>
   <tile/>
   <tile/>
   <tile/>
   <tile/>
   <tile/>
   <tile/>
   <tile/>
   <tile/>
   <tile/>
   <tile/>
   <tile/>
   <tile/>
   <tile/>
   <tile/>
   <tile/>
   <tile/>
   <tile/>
   <tile/>
   <tile/>
   <tile/>
   <tile/>
   <tile/>
   <tile/>
   <tile/>
   <tile/>
   <tile/>
   <tile/>
   <tile/>
   <tile/>
   <tile/>
   <tile/>
   <tile/>
   <tile/>
   <tile/>
   <tile/>
   <tile/>
   <tile/>
   <tile/>
   <tile/>
   <tile/>
   <tile/>
   <tile/>
   <tile/>
   <tile/>
   <tile/>
   <tile/>
   <tile/>
   <tile/>
   <tile/>
   <tile/>
   <tile/>
   <tile/>
   <tile/>
   <tile/>
   <tile/>
   <tile/>
   <tile/>
   <tile/>
   <tile/>
   <tile/>
   <tile/>
   <tile/>
   <tile/>
   <tile/>
   <tile/>
   <tile/>
   <tile/>
   <tile/>
   <tile/>
   <tile/>
   <tile/>
   <tile/>
   <tile/>
   <tile/>
   <tile/>
   <tile/>
   <tile/>
   <tile/>
   <tile/>
   <tile/>
   <tile/>
   <tile/>
   <tile/>
   <tile/>
   <tile/>
   <tile/>
   <tile/>
   <tile/>
   <tile/>
   <tile/>
   <tile/>
   <tile/>
   <tile/>
   <tile/>
   <tile/>
   <tile/>
   <tile/>
   <tile/>
   <tile/>
   <tile/>
   <tile/>
   <tile/>
   <tile/>
   <tile/>
   <tile/>
   <tile/>
   <tile/>
   <tile/>
   <tile/>
   <tile/>
   <tile/>
   <tile/>
   <tile/>
   <tile/>
   <tile/>
   <tile/>
   <tile/>
   <tile/>
   <tile/>
   <tile/>
   <tile/>
   <tile/>
   <tile/>
   <tile/>
   <tile/>
   <tile/>
   <tile/>
   <tile/>
   <tile/>
   <tile/>
   <tile/>
   <tile/>
   <tile/>
   <tile/>
   <tile/>
   <tile/>
   <tile/>
   <tile/>
   <tile/>
   <tile/>
   <tile/>
   <tile/>
   <tile/>
   <tile/>
   <tile/>
   <tile/>
   <tile/>
   <tile/>
   <tile/>
   <tile/>
   <tile/>
   <tile/>
   <tile/>
   <tile/>
   <tile/>
   <tile/>
   <tile/>
   <tile/>
   <tile/>
   <tile/>
   <tile/>
   <tile/>
   <tile/>
   <tile/>
   <tile/>
   <tile/>
   <tile/>
   <tile/>
   <tile/>
   <tile/>
   <tile/>
   <tile/>
   <tile/>
   <tile/>
   <tile/>
   <tile/>
   <tile/>
   <tile/>
   <tile/>
   <tile/>
   <tile/>
   <tile/>
   <tile/>
   <tile/>
   <tile/>
   <tile/>
   <tile/>
   <tile/>
   <tile/>
   <tile/>
   <tile/>
   <tile/>
   <tile/>
   <tile/>
   <tile/>
   <tile/>
   <tile/>
   <tile/>
   <tile/>
   <tile/>
   <tile/>
   <tile/>
   <tile/>
   <tile/>
   <tile/>
   <tile/>
   <tile/>
   <tile/>
   <tile/>
   <tile/>
   <tile/>
   <tile/>
   <tile/>
   <tile/>
   <tile/>
   <tile/>
   <tile/>
   <tile/>
   <tile/>
   <tile/>
   <tile/>
   <tile/>
   <tile/>
   <tile/>
   <tile/>
   <tile/>
   <tile/>
   <tile/>
   <tile/>
   <tile/>
   <tile/>
   <tile/>
   <tile/>
   <tile/>
   <tile/>
   <tile/>
   <tile/>
   <tile/>
   <tile/>
   <tile/>
   <tile/>
   <tile/>
   <tile/>
   <tile/>
   <tile/>
   <tile/>
   <tile/>
   <tile/>
   <tile/>
   <tile/>
   <tile/>
   <tile/>
   <tile/>
   <tile/>
   <tile/>
   <tile/>
   <tile/>
   <tile/>
   <tile/>
   <tile/>
   <tile/>
   <tile/>
   <tile/>
   <tile/>
   <tile/>
   <tile/>
   <tile/>
   <tile/>
   <tile/>
   <tile/>
   <tile/>
   <tile/>
   <tile/>
   <tile/>
   <tile/>
   <tile/>
   <tile/>
   <tile/>
   <tile/>
   <tile/>
   <tile/>
   <tile/>
   <tile/>
   <tile/>
   <tile/>
   <tile/>
   <tile/>
   <tile/>
   <tile/>
   <tile/>
   <tile/>
   <tile/>
   <tile/>
   <tile/>
   <tile/>
   <tile/>
   <tile/>
   <tile/>
   <tile/>
   <tile/>
   <tile/>
   <tile/>
   <tile/>
   <tile/>
   <tile/>
   <tile/>
   <tile/>
   <tile/>
   <tile/>
   <tile/>
   <tile/>
   <tile/>
   <tile/>
   <tile/>
   <tile/>
   <tile/>
   <tile/>
   <tile/>
   <tile/>
   <tile/>
   <tile/>
   <tile/>
   <tile/>
   <tile/>
   <tile/>
   <tile/>
   <tile/>
   <tile/>
   <tile/>
   <tile/>
   <tile/>
   <tile/>
   <tile/>
   <tile/>
   <tile/>
   <tile/>
   <tile/>
   <tile/>
   <tile/>
   <tile/>
   <tile/>
   <tile/>
   <tile/>
   <tile/>
   <tile/>
   <tile/>
   <tile/>
   <tile/>
   <tile/>
   <tile/>
   <tile/>
   <tile/>
   <tile/>
   <tile/>
   <tile/>
   <tile/>
   <tile/>
   <tile/>
   <tile/>
   <tile/>
   <tile/>
   <tile/>
   <tile/>
   <tile/>
   <tile/>
   <tile/>
   <tile/>
   <tile/>
   <tile/>
   <tile/>
   <tile/>
   <tile/>
   <tile/>
   <tile/>
   <tile/>
   <tile/>
   <tile/>
   <tile/>
   <tile/>
   <tile/>
   <tile/>
   <tile/>
   <tile/>
   <tile/>
   <tile/>
   <tile/>
   <tile/>
   <tile/>
   <tile/>
   <tile/>
   <tile/>
   <tile/>
   <tile/>
   <tile/>
   <tile/>
   <tile/>
   <tile/>
   <tile/>
   <tile/>
   <tile/>
   <tile/>
   <tile/>
   <tile/>
   <tile/>
   <tile/>
   <tile/>
   <tile/>
   <tile/>
   <tile/>
   <tile/>
   <tile/>
   <tile/>
   <tile/>
   <tile/>
   <tile/>
   <tile/>
   <tile/>
   <tile/>
   <tile/>
   <tile/>
   <tile/>
   <tile/>
   <tile/>
   <tile/>
   <tile/>
   <tile/>
   <tile/>
   <tile/>
   <tile/>
   <tile/>
   <tile/>
   <tile/>
   <tile/>
   <tile/>
   <tile/>
   <tile/>
   <tile/>
   <tile/>
   <tile/>
   <tile/>
   <tile/>
   <tile/>
   <tile/>
   <tile/>
   <tile/>
   <tile/>
   <tile/>
   <tile/>
   <tile/>
   <tile/>
   <tile/>
   <tile/>
   <tile/>
   <tile/>
   <tile/>
   <tile/>
   <tile/>
   <tile/>
   <tile/>
   <tile/>
   <tile/>
   <tile/>
   <tile/>
   <tile/>
   <tile/>
   <tile/>
   <tile/>
   <tile/>
   <tile/>
   <tile/>
   <tile/>
   <tile/>
   <tile/>
   <tile/>
   <tile/>
   <tile/>
   <tile/>
   <tile/>
   <tile/>
   <tile/>
   <tile/>
   <tile/>
   <tile/>
   <tile/>
   <tile/>
   <tile/>
   <tile/>
   <tile/>
   <tile/>
   <tile/>
   <tile/>
   <tile/>
   <tile/>
   <tile/>
   <tile/>
   <tile/>
   <tile/>
   <tile/>
   <tile/>
   <tile/>
   <tile/>
   <tile/>
   <tile/>
   <tile/>
   <tile/>
   <tile/>
   <tile/>
   <tile/>
   <tile/>
   <tile/>
   <tile/>
   <tile/>
   <tile/>
   <tile/>
   <tile/>
   <tile/>
   <tile/>
   <tile/>
   <tile/>
   <tile/>
   <tile/>
   <tile/>
   <tile/>
   <tile/>
   <tile/>
   <tile/>
   <tile/>
   <tile/>
   <tile/>
   <tile/>
   <tile/>
   <tile/>
   <tile/>
   <tile/>
   <tile/>
   <tile/>
   <tile/>
   <tile/>
   <tile/>
   <tile/>
   <tile/>
   <tile/>
   <tile/>
   <tile/>
   <tile/>
   <tile/>
   <tile/>
   <tile/>
   <tile/>
   <tile/>
   <tile/>
   <tile/>
   <tile/>
   <tile/>
   <tile/>
   <tile/>
   <tile/>
   <tile/>
   <tile/>
   <tile/>
   <tile/>
   <tile/>
   <tile/>
   <tile/>
   <tile/>
   <tile/>
   <tile/>
   <tile/>
   <tile/>
   <tile/>
   <tile/>
   <tile/>
   <tile/>
   <tile/>
   <tile/>
   <tile/>
   <tile/>
   <tile/>
   <tile/>
   <tile/>
   <tile/>
   <tile/>
   <tile/>
   <tile/>
   <tile/>
   <tile/>
   <tile/>
   <tile/>
   <tile/>
   <tile/>
   <tile/>
   <tile/>
   <tile/>
   <tile/>
   <tile/>
   <tile/>
   <tile/>
   <tile/>
   <tile/>
   <tile/>
   <tile/>
   <tile/>
   <tile/>
   <tile/>
   <tile/>
   <tile/>
   <tile/>
   <tile/>
   <tile/>
   <tile/>
   <tile/>
   <tile/>
   <tile/>
   <tile/>
   <tile/>
   <tile/>
   <tile/>
   <tile/>
   <tile/>
   <tile/>
   <tile/>
   <tile/>
   <tile/>
   <tile/>
   <tile/>
   <tile/>
   <tile/>
   <tile/>
   <tile/>
   <tile/>
   <tile/>
   <tile/>
   <tile/>
   <tile/>
   <tile/>
   <tile/>
   <tile/>
   <tile/>
   <tile/>
   <tile/>
   <tile/>
   <tile/>
   <tile/>
   <tile/>
   <tile/>
   <tile/>
   <tile/>
   <tile/>
   <tile/>
   <tile/>
   <tile/>
   <tile/>
   <tile/>
   <tile/>
   <tile/>
   <tile/>
   <tile/>
   <tile/>
   <tile/>
   <tile/>
   <tile/>
   <tile/>
   <tile/>
   <tile/>
   <tile/>
   <tile/>
   <tile/>
   <tile/>
   <tile/>
   <tile/>
   <tile/>
   <tile/>
   <tile/>
   <tile/>
   <tile/>
   <tile/>
   <tile/>
   <tile/>
   <tile/>
   <tile/>
   <tile/>
   <tile/>
   <tile/>
   <tile/>
   <tile/>
   <tile/>
   <tile/>
   <tile/>
   <tile/>
   <tile/>
   <tile/>
   <tile/>
   <tile/>
   <tile/>
   <tile/>
   <tile/>
   <tile/>
   <tile/>
   <tile/>
   <tile/>
   <tile/>
   <tile/>
   <tile/>
   <tile/>
   <tile/>
   <tile/>
   <tile/>
   <tile/>
   <tile/>
   <tile/>
   <tile/>
   <tile/>
   <tile/>
   <tile/>
   <tile/>
   <tile/>
   <tile/>
   <tile/>
   <tile/>
   <tile/>
   <tile/>
   <tile/>
   <tile/>
   <tile/>
   <tile/>
   <tile/>
   <tile/>
   <tile/>
   <tile/>
   <tile/>
   <tile/>
   <tile/>
   <tile/>
   <tile/>
   <tile/>
   <tile/>
   <tile/>
   <tile/>
   <tile/>
   <tile/>
   <tile/>
   <tile/>
   <tile/>
   <tile/>
   <tile/>
   <tile gid="1104"/>
   <tile/>
   <tile/>
   <tile/>
   <tile/>
   <tile/>
   <tile/>
   <tile/>
   <tile/>
   <tile/>
   <tile/>
   <tile/>
   <tile/>
   <tile/>
   <tile/>
   <tile/>
   <tile/>
   <tile/>
   <tile/>
   <tile/>
   <tile/>
   <tile/>
   <tile/>
   <tile/>
   <tile/>
   <tile/>
   <tile/>
   <tile/>
   <tile/>
   <tile/>
   <tile/>
   <tile/>
   <tile/>
   <tile/>
   <tile/>
   <tile/>
   <tile/>
   <tile/>
   <tile/>
   <tile/>
   <tile/>
   <tile/>
   <tile/>
   <tile/>
   <tile/>
   <tile/>
   <tile/>
   <tile/>
   <tile/>
   <tile/>
   <tile/>
   <tile/>
   <tile/>
   <tile/>
   <tile/>
   <tile/>
   <tile/>
   <tile/>
   <tile/>
   <tile/>
   <tile/>
   <tile/>
   <tile/>
   <tile/>
   <tile/>
   <tile/>
   <tile/>
   <tile/>
   <tile/>
   <tile/>
   <tile/>
   <tile/>
   <tile/>
   <tile/>
   <tile/>
   <tile/>
   <tile/>
   <tile/>
   <tile/>
   <tile/>
   <tile/>
   <tile/>
   <tile/>
   <tile/>
   <tile/>
   <tile/>
   <tile/>
   <tile/>
   <tile/>
   <tile/>
   <tile/>
   <tile/>
   <tile/>
   <tile/>
   <tile/>
   <tile/>
   <tile/>
   <tile/>
   <tile/>
   <tile/>
   <tile/>
   <tile/>
   <tile/>
   <tile/>
   <tile/>
   <tile/>
   <tile/>
   <tile/>
   <tile/>
   <tile/>
   <tile/>
   <tile/>
   <tile/>
   <tile/>
   <tile/>
   <tile/>
   <tile/>
   <tile/>
   <tile/>
   <tile/>
   <tile/>
   <tile/>
   <tile/>
   <tile/>
   <tile/>
   <tile/>
   <tile/>
   <tile/>
   <tile/>
   <tile/>
   <tile/>
   <tile/>
   <tile/>
   <tile/>
   <tile/>
   <tile/>
   <tile/>
   <tile/>
   <tile/>
   <tile/>
   <tile/>
   <tile/>
   <tile/>
   <tile/>
   <tile/>
   <tile/>
   <tile/>
   <tile/>
   <tile/>
   <tile/>
   <tile/>
   <tile/>
   <tile/>
   <tile/>
   <tile/>
   <tile/>
   <tile/>
   <tile/>
   <tile/>
   <tile/>
   <tile/>
   <tile/>
   <tile/>
   <tile/>
   <tile/>
   <tile/>
   <tile/>
   <tile/>
   <tile/>
   <tile/>
   <tile/>
   <tile/>
   <tile/>
   <tile/>
   <tile/>
   <tile/>
   <tile/>
   <tile/>
   <tile/>
   <tile/>
   <tile/>
   <tile/>
   <tile/>
   <tile/>
   <tile/>
   <tile/>
   <tile/>
   <tile/>
   <tile/>
   <tile/>
   <tile/>
   <tile/>
   <tile/>
   <tile/>
   <tile/>
   <tile/>
   <tile/>
   <tile/>
   <tile/>
   <tile/>
   <tile/>
   <tile/>
   <tile/>
   <tile/>
   <tile/>
   <tile/>
   <tile/>
   <tile/>
   <tile/>
   <tile/>
   <tile/>
   <tile/>
   <tile/>
   <tile/>
   <tile/>
   <tile/>
   <tile/>
   <tile/>
   <tile/>
   <tile/>
   <tile/>
   <tile/>
   <tile/>
   <tile/>
   <tile/>
   <tile/>
   <tile/>
   <tile/>
   <tile/>
   <tile/>
   <tile/>
   <tile/>
   <tile/>
   <tile/>
   <tile/>
   <tile/>
   <tile/>
   <tile/>
   <tile/>
   <tile/>
   <tile/>
   <tile/>
   <tile/>
   <tile/>
   <tile/>
   <tile/>
   <tile/>
   <tile/>
   <tile/>
   <tile/>
   <tile/>
   <tile/>
   <tile/>
   <tile/>
   <tile/>
   <tile/>
   <tile/>
   <tile/>
   <tile/>
   <tile/>
   <tile/>
   <tile/>
   <tile/>
   <tile/>
   <tile/>
   <tile/>
   <tile/>
   <tile/>
   <tile/>
   <tile/>
   <tile/>
   <tile/>
   <tile/>
   <tile/>
   <tile/>
   <tile/>
   <tile/>
   <tile/>
   <tile/>
   <tile/>
   <tile/>
   <tile/>
   <tile/>
   <tile/>
   <tile/>
   <tile/>
   <tile/>
   <tile/>
   <tile/>
   <tile/>
   <tile/>
   <tile/>
   <tile/>
   <tile/>
   <tile/>
   <tile/>
   <tile/>
   <tile/>
   <tile/>
   <tile/>
   <tile/>
   <tile/>
   <tile/>
   <tile/>
   <tile/>
   <tile/>
   <tile/>
   <tile/>
   <tile/>
   <tile/>
   <tile/>
   <tile/>
   <tile/>
   <tile/>
   <tile/>
   <tile/>
   <tile/>
   <tile/>
   <tile/>
   <tile/>
   <tile/>
   <tile/>
   <tile/>
   <tile/>
   <tile/>
   <tile/>
   <tile/>
   <tile/>
   <tile/>
   <tile/>
   <tile/>
   <tile/>
   <tile/>
   <tile/>
   <tile/>
   <tile/>
   <tile/>
   <tile/>
   <tile/>
   <tile/>
   <tile/>
   <tile/>
   <tile/>
   <tile/>
   <tile/>
   <tile/>
   <tile/>
   <tile/>
   <tile/>
   <tile/>
   <tile/>
   <tile/>
   <tile/>
   <tile/>
   <tile/>
   <tile/>
   <tile/>
   <tile/>
   <tile/>
   <tile/>
   <tile/>
   <tile/>
   <tile/>
   <tile/>
   <tile/>
   <tile/>
   <tile/>
   <tile/>
   <tile/>
   <tile/>
   <tile/>
   <tile/>
   <tile/>
   <tile/>
   <tile/>
   <tile/>
   <tile/>
   <tile/>
   <tile/>
   <tile/>
   <tile/>
   <tile/>
   <tile/>
   <tile/>
   <tile/>
   <tile/>
   <tile/>
   <tile/>
   <tile/>
   <tile/>
   <tile/>
   <tile/>
   <tile/>
   <tile/>
   <tile/>
   <tile/>
   <tile/>
   <tile/>
   <tile/>
   <tile/>
   <tile/>
   <tile/>
   <tile/>
   <tile/>
   <tile/>
   <tile/>
   <tile/>
   <tile/>
   <tile/>
   <tile/>
   <tile/>
   <tile/>
   <tile/>
   <tile/>
   <tile/>
   <tile/>
   <tile/>
   <tile/>
   <tile/>
   <tile/>
   <tile/>
   <tile/>
   <tile/>
   <tile/>
   <tile/>
   <tile/>
   <tile/>
   <tile/>
   <tile/>
   <tile/>
   <tile/>
   <tile/>
   <tile/>
   <tile/>
   <tile/>
   <tile/>
   <tile/>
   <tile/>
   <tile/>
   <tile/>
   <tile/>
   <tile/>
   <tile/>
   <tile/>
   <tile/>
   <tile/>
   <tile/>
   <tile/>
   <tile/>
   <tile/>
   <tile/>
   <tile/>
   <tile/>
   <tile/>
   <tile/>
   <tile/>
   <tile/>
   <tile/>
   <tile/>
   <tile/>
   <tile/>
   <tile/>
   <tile/>
   <tile/>
   <tile/>
   <tile/>
   <tile/>
   <tile/>
   <tile/>
   <tile/>
   <tile/>
   <tile/>
   <tile/>
   <tile/>
   <tile/>
   <tile/>
   <tile/>
   <tile/>
   <tile/>
   <tile/>
   <tile/>
   <tile/>
   <tile/>
   <tile/>
   <tile/>
   <tile/>
   <tile/>
   <tile/>
   <tile/>
   <tile/>
   <tile/>
   <tile/>
   <tile/>
   <tile/>
   <tile/>
   <tile/>
   <tile/>
   <tile/>
   <tile/>
   <tile/>
   <tile/>
   <tile/>
   <tile/>
   <tile/>
   <tile/>
   <tile/>
   <tile/>
   <tile/>
   <tile/>
   <tile/>
   <tile/>
   <tile/>
   <tile/>
   <tile/>
   <tile/>
   <tile/>
   <tile/>
   <tile/>
   <tile/>
   <tile/>
   <tile/>
   <tile/>
   <tile/>
   <tile/>
   <tile/>
   <tile/>
   <tile/>
   <tile/>
   <tile/>
   <tile/>
   <tile/>
   <tile/>
   <tile/>
   <tile/>
   <tile/>
   <tile/>
   <tile/>
   <tile/>
   <tile/>
   <tile/>
   <tile/>
   <tile/>
   <tile/>
   <tile/>
   <tile/>
   <tile/>
   <tile/>
   <tile/>
   <tile/>
   <tile/>
   <tile/>
   <tile/>
   <tile/>
   <tile/>
   <tile/>
   <tile/>
   <tile/>
   <tile/>
   <tile/>
   <tile/>
   <tile/>
   <tile/>
   <tile/>
   <tile/>
   <tile/>
   <tile/>
   <tile/>
   <tile/>
   <tile/>
   <tile/>
   <tile/>
   <tile/>
   <tile/>
   <tile/>
   <tile/>
   <tile/>
   <tile/>
   <tile/>
   <tile/>
   <tile/>
   <tile/>
   <tile/>
   <tile/>
   <tile/>
   <tile/>
   <tile/>
   <tile/>
   <tile/>
   <tile/>
   <tile/>
   <tile/>
   <tile/>
   <tile/>
   <tile/>
   <tile/>
   <tile/>
   <tile/>
   <tile/>
   <tile/>
   <tile/>
   <tile/>
   <tile/>
   <tile/>
   <tile/>
   <tile/>
   <tile/>
   <tile/>
   <tile/>
   <tile/>
   <tile/>
   <tile/>
   <tile/>
   <tile/>
   <tile/>
   <tile/>
   <tile/>
   <tile/>
   <tile/>
   <tile/>
   <tile/>
   <tile/>
   <tile/>
   <tile/>
   <tile/>
   <tile/>
   <tile/>
   <tile/>
   <tile/>
   <tile/>
   <tile/>
   <tile/>
   <tile/>
   <tile/>
   <tile/>
   <tile/>
   <tile/>
   <tile/>
   <tile/>
   <tile/>
   <tile/>
   <tile/>
   <tile/>
   <tile/>
   <tile/>
   <tile/>
   <tile/>
   <tile/>
   <tile/>
   <tile/>
   <tile/>
   <tile/>
   <tile/>
   <tile/>
   <tile/>
   <tile/>
   <tile/>
   <tile/>
   <tile/>
   <tile/>
   <tile/>
   <tile/>
   <tile/>
   <tile/>
   <tile/>
   <tile/>
   <tile/>
   <tile/>
   <tile/>
   <tile/>
   <tile/>
   <tile/>
   <tile/>
   <tile/>
   <tile/>
   <tile/>
   <tile/>
   <tile/>
   <tile/>
   <tile/>
   <tile/>
   <tile/>
   <tile/>
   <tile/>
   <tile/>
   <tile/>
   <tile/>
   <tile/>
   <tile/>
   <tile/>
   <tile/>
   <tile/>
   <tile/>
   <tile/>
   <tile/>
   <tile/>
   <tile/>
   <tile/>
   <tile/>
   <tile/>
   <tile/>
   <tile/>
   <tile/>
   <tile/>
   <tile/>
   <tile/>
   <tile/>
   <tile/>
   <tile/>
   <tile/>
   <tile/>
   <tile/>
   <tile/>
   <tile/>
   <tile/>
   <tile/>
   <tile/>
   <tile/>
   <tile/>
   <tile/>
   <tile/>
   <tile/>
   <tile/>
   <tile/>
   <tile/>
   <tile/>
   <tile/>
   <tile/>
   <tile/>
   <tile/>
   <tile/>
   <tile/>
   <tile/>
   <tile/>
   <tile/>
   <tile/>
   <tile/>
   <tile/>
   <tile/>
   <tile/>
   <tile/>
   <tile/>
   <tile/>
   <tile/>
   <tile/>
   <tile/>
   <tile/>
   <tile/>
   <tile/>
   <tile/>
   <tile/>
   <tile/>
   <tile/>
   <tile/>
   <tile/>
   <tile/>
   <tile/>
   <tile/>
   <tile/>
   <tile/>
   <tile/>
   <tile/>
   <tile/>
   <tile/>
   <tile/>
   <tile/>
   <tile/>
   <tile/>
   <tile/>
   <tile/>
   <tile/>
   <tile/>
   <tile/>
   <tile/>
   <tile/>
   <tile/>
   <tile/>
   <tile/>
   <tile/>
   <tile/>
   <tile/>
   <tile/>
   <tile/>
   <tile/>
   <tile/>
   <tile/>
   <tile/>
   <tile/>
   <tile/>
   <tile/>
   <tile/>
   <tile/>
   <tile/>
   <tile/>
   <tile/>
   <tile/>
   <tile/>
   <tile/>
   <tile/>
   <tile/>
   <tile/>
   <tile/>
   <tile/>
   <tile/>
   <tile/>
   <tile/>
   <tile/>
   <tile/>
   <tile/>
   <tile/>
   <tile/>
   <tile/>
   <tile/>
   <tile/>
   <tile/>
   <tile/>
   <tile/>
   <tile/>
   <tile/>
   <tile/>
   <tile/>
   <tile/>
   <tile/>
   <tile/>
   <tile/>
   <tile/>
   <tile/>
   <tile/>
   <tile/>
   <tile/>
   <tile/>
   <tile/>
   <tile/>
   <tile/>
   <tile/>
   <tile/>
   <tile/>
   <tile/>
   <tile/>
   <tile/>
   <tile/>
   <tile/>
   <tile/>
   <tile/>
   <tile/>
   <tile/>
   <tile/>
   <tile/>
   <tile/>
   <tile/>
   <tile/>
   <tile/>
   <tile/>
   <tile/>
   <tile/>
   <tile/>
   <tile/>
   <tile/>
   <tile/>
   <tile/>
   <tile/>
   <tile/>
   <tile/>
   <tile/>
   <tile/>
   <tile/>
   <tile/>
   <tile/>
   <tile/>
   <tile/>
   <tile/>
   <tile/>
   <tile/>
   <tile/>
   <tile/>
   <tile/>
   <tile/>
   <tile/>
   <tile/>
   <tile/>
   <tile/>
   <tile/>
   <tile/>
   <tile/>
   <tile/>
   <tile/>
   <tile/>
   <tile/>
   <tile/>
   <tile/>
   <tile/>
   <tile/>
   <tile/>
   <tile/>
   <tile/>
   <tile/>
   <tile/>
   <tile/>
   <tile/>
   <tile/>
   <tile/>
   <tile/>
   <tile/>
   <tile/>
   <tile/>
   <tile/>
   <tile/>
   <tile/>
   <tile/>
   <tile/>
   <tile/>
   <tile/>
   <tile/>
   <tile/>
   <tile/>
   <tile/>
   <tile/>
   <tile/>
   <tile/>
   <tile/>
   <tile/>
   <tile/>
   <tile/>
   <tile/>
   <tile/>
   <tile/>
   <tile/>
   <tile/>
   <tile/>
   <tile/>
   <tile/>
   <tile/>
   <tile/>
   <tile/>
   <tile/>
   <tile/>
   <tile/>
   <tile/>
   <tile/>
   <tile/>
   <tile/>
   <tile/>
   <tile/>
   <tile/>
   <tile/>
   <tile/>
   <tile/>
   <tile/>
   <tile/>
   <tile/>
   <tile/>
   <tile/>
   <tile/>
   <tile/>
   <tile/>
   <tile/>
   <tile/>
   <tile/>
   <tile/>
   <tile/>
   <tile/>
   <tile/>
   <tile/>
   <tile/>
   <tile/>
   <tile/>
   <tile/>
   <tile/>
   <tile/>
   <tile/>
   <tile/>
   <tile/>
   <tile/>
   <tile/>
   <tile/>
   <tile/>
   <tile/>
   <tile/>
   <tile/>
   <tile/>
   <tile/>
   <tile/>
   <tile/>
   <tile/>
   <tile/>
   <tile/>
   <tile/>
   <tile/>
   <tile/>
   <tile/>
   <tile/>
   <tile/>
   <tile/>
   <tile/>
   <tile/>
   <tile/>
   <tile/>
   <tile/>
   <tile/>
   <tile/>
   <tile/>
   <tile/>
   <tile/>
   <tile/>
   <tile/>
   <tile/>
   <tile/>
   <tile/>
   <tile/>
   <tile/>
   <tile/>
   <tile/>
   <tile/>
   <tile/>
   <tile/>
   <tile/>
   <tile/>
   <tile/>
   <tile/>
   <tile/>
   <tile/>
   <tile/>
   <tile/>
   <tile/>
   <tile/>
   <tile/>
   <tile/>
   <tile/>
   <tile/>
   <tile/>
   <tile/>
   <tile/>
   <tile/>
   <tile/>
   <tile/>
   <tile/>
   <tile/>
   <tile/>
   <tile/>
   <tile/>
   <tile/>
   <tile/>
   <tile/>
   <tile/>
   <tile/>
   <tile/>
   <tile/>
   <tile/>
   <tile/>
   <tile/>
   <tile/>
   <tile/>
   <tile/>
   <tile/>
   <tile/>
   <tile/>
   <tile/>
   <tile/>
   <tile/>
   <tile/>
   <tile/>
   <tile/>
   <tile/>
   <tile/>
   <tile/>
   <tile/>
   <tile/>
   <tile/>
   <tile/>
   <tile/>
   <tile/>
   <tile/>
   <tile/>
   <tile/>
   <tile/>
   <tile/>
   <tile/>
   <tile/>
   <tile/>
   <tile/>
   <tile/>
   <tile/>
   <tile/>
   <tile/>
   <tile/>
   <tile/>
   <tile/>
   <tile/>
   <tile/>
   <tile/>
   <tile/>
   <tile/>
   <tile/>
   <tile/>
   <tile/>
   <tile/>
   <tile/>
   <tile/>
   <tile/>
   <tile/>
   <tile/>
   <tile/>
   <tile/>
   <tile/>
   <tile/>
   <tile/>
   <tile/>
   <tile/>
   <tile/>
   <tile/>
   <tile/>
   <tile/>
   <tile/>
   <tile/>
   <tile/>
   <tile/>
   <tile/>
   <tile/>
   <tile/>
   <tile/>
   <tile/>
   <tile/>
   <tile/>
   <tile/>
   <tile/>
   <tile/>
   <tile/>
   <tile/>
   <tile/>
   <tile/>
   <tile/>
   <tile/>
   <tile/>
   <tile/>
   <tile/>
   <tile/>
   <tile/>
   <tile/>
   <tile/>
   <tile/>
   <tile/>
   <tile/>
   <tile/>
   <tile/>
   <tile/>
   <tile/>
   <tile/>
   <tile/>
   <tile/>
   <tile/>
   <tile/>
   <tile/>
   <tile/>
   <tile/>
   <tile/>
   <tile/>
   <tile/>
   <tile/>
   <tile/>
   <tile/>
   <tile/>
   <tile/>
   <tile/>
   <tile/>
   <tile/>
   <tile/>
   <tile/>
   <tile/>
   <tile/>
   <tile/>
   <tile/>
   <tile/>
   <tile/>
   <tile/>
   <tile/>
   <tile/>
   <tile/>
   <tile/>
   <tile/>
   <tile/>
   <tile/>
   <tile/>
   <tile/>
   <tile/>
   <tile/>
   <tile/>
   <tile/>
   <tile/>
   <tile/>
   <tile/>
   <tile/>
   <tile/>
   <tile/>
   <tile/>
   <tile/>
   <tile/>
   <tile/>
   <tile/>
   <tile/>
   <tile/>
   <tile/>
   <tile/>
   <tile/>
   <tile/>
   <tile/>
   <tile/>
   <tile/>
   <tile/>
   <tile/>
   <tile/>
   <tile/>
   <tile/>
   <tile/>
   <tile/>
   <tile/>
   <tile/>
   <tile/>
   <tile/>
   <tile/>
   <tile/>
   <tile/>
   <tile/>
   <tile/>
   <tile/>
   <tile/>
   <tile/>
   <tile/>
   <tile/>
   <tile/>
   <tile/>
   <tile/>
   <tile/>
   <tile/>
   <tile/>
   <tile/>
   <tile/>
   <tile/>
   <tile/>
   <tile/>
   <tile/>
   <tile/>
   <tile/>
   <tile/>
   <tile/>
   <tile/>
   <tile/>
   <tile/>
   <tile/>
   <tile/>
   <tile/>
   <tile/>
   <tile/>
   <tile/>
   <tile/>
   <tile/>
   <tile/>
   <tile/>
   <tile/>
   <tile/>
   <tile/>
   <tile/>
   <tile/>
   <tile/>
   <tile/>
   <tile/>
   <tile/>
   <tile/>
   <tile/>
   <tile/>
   <tile/>
   <tile/>
   <tile/>
   <tile/>
   <tile/>
   <tile/>
   <tile/>
   <tile/>
   <tile/>
   <tile/>
   <tile/>
   <tile/>
   <tile/>
   <tile/>
   <tile/>
   <tile/>
   <tile/>
   <tile/>
   <tile/>
   <tile/>
   <tile/>
   <tile/>
   <tile/>
   <tile/>
   <tile/>
   <tile/>
   <tile/>
   <tile/>
   <tile/>
   <tile/>
   <tile/>
   <tile/>
   <tile/>
   <tile/>
   <tile/>
   <tile/>
   <tile/>
   <tile/>
   <tile/>
   <tile/>
   <tile/>
   <tile/>
   <tile/>
   <tile/>
   <tile/>
   <tile/>
   <tile/>
   <tile/>
   <tile/>
   <tile/>
   <tile/>
   <tile/>
   <tile/>
   <tile/>
   <tile/>
   <tile/>
   <tile/>
   <tile/>
   <tile/>
   <tile/>
   <tile/>
   <tile/>
   <tile/>
   <tile/>
   <tile/>
   <tile/>
   <tile/>
   <tile/>
   <tile/>
   <tile/>
   <tile/>
   <tile/>
   <tile/>
   <tile/>
   <tile/>
   <tile/>
   <tile/>
   <tile/>
   <tile/>
   <tile/>
   <tile/>
   <tile/>
   <tile/>
   <tile/>
   <tile/>
   <tile/>
   <tile/>
   <tile/>
   <tile/>
   <tile/>
   <tile/>
   <tile/>
   <tile/>
   <tile/>
   <tile/>
   <tile/>
   <tile/>
   <tile/>
   <tile/>
   <tile/>
   <tile/>
   <tile/>
   <tile/>
   <tile/>
   <tile/>
   <tile/>
   <tile/>
   <tile/>
   <tile/>
   <tile/>
   <tile/>
   <tile/>
   <tile/>
   <tile/>
   <tile/>
   <tile/>
   <tile/>
   <tile/>
   <tile/>
   <tile/>
   <tile/>
   <tile gid="1101"/>
   <tile/>
   <tile/>
   <tile/>
   <tile/>
   <tile/>
   <tile/>
   <tile/>
   <tile/>
   <tile/>
   <tile/>
   <tile/>
   <tile/>
   <tile/>
   <tile/>
   <tile/>
   <tile/>
   <tile/>
   <tile/>
   <tile/>
   <tile/>
   <tile/>
   <tile/>
   <tile/>
   <tile/>
   <tile/>
   <tile/>
   <tile/>
   <tile/>
   <tile/>
   <tile/>
   <tile/>
   <tile/>
   <tile/>
   <tile/>
   <tile/>
   <tile/>
   <tile/>
   <tile/>
   <tile/>
   <tile/>
   <tile/>
   <tile/>
   <tile/>
   <tile/>
   <tile/>
   <tile/>
   <tile/>
   <tile gid="1073742928"/>
   <tile/>
   <tile/>
   <tile/>
   <tile/>
   <tile/>
   <tile/>
   <tile/>
   <tile/>
   <tile/>
   <tile/>
   <tile/>
   <tile/>
   <tile/>
   <tile gid="1073742927"/>
   <tile/>
   <tile/>
   <tile/>
   <tile/>
   <tile/>
   <tile/>
   <tile/>
   <tile/>
   <tile/>
   <tile/>
   <tile/>
   <tile/>
   <tile/>
   <tile/>
   <tile/>
   <tile/>
   <tile/>
   <tile/>
   <tile/>
   <tile/>
   <tile/>
   <tile/>
   <tile/>
   <tile/>
   <tile/>
   <tile/>
   <tile/>
   <tile/>
   <tile/>
   <tile/>
   <tile/>
   <tile/>
   <tile/>
   <tile/>
   <tile/>
   <tile/>
   <tile/>
   <tile/>
   <tile/>
   <tile/>
   <tile/>
   <tile/>
   <tile/>
   <tile/>
   <tile/>
   <tile/>
   <tile/>
   <tile/>
   <tile/>
   <tile/>
   <tile/>
   <tile/>
   <tile/>
   <tile/>
   <tile/>
   <tile/>
   <tile/>
   <tile/>
   <tile/>
   <tile/>
   <tile/>
   <tile/>
   <tile/>
   <tile/>
   <tile/>
   <tile/>
   <tile/>
   <tile/>
   <tile/>
   <tile/>
   <tile/>
   <tile/>
   <tile/>
   <tile/>
   <tile/>
   <tile/>
   <tile/>
   <tile/>
   <tile/>
   <tile/>
   <tile/>
   <tile/>
   <tile/>
   <tile/>
   <tile/>
   <tile/>
   <tile/>
   <tile/>
   <tile/>
   <tile/>
   <tile/>
   <tile/>
   <tile/>
   <tile/>
   <tile/>
   <tile/>
   <tile/>
   <tile/>
   <tile/>
   <tile/>
   <tile/>
   <tile/>
   <tile/>
   <tile/>
   <tile/>
   <tile/>
   <tile/>
   <tile/>
   <tile/>
   <tile/>
   <tile/>
   <tile/>
   <tile/>
   <tile/>
   <tile/>
   <tile/>
   <tile/>
   <tile/>
   <tile/>
   <tile/>
   <tile/>
   <tile/>
   <tile/>
   <tile/>
   <tile/>
   <tile/>
   <tile/>
   <tile/>
   <tile/>
   <tile/>
   <tile/>
   <tile/>
   <tile/>
   <tile/>
   <tile/>
   <tile/>
   <tile/>
   <tile/>
   <tile/>
   <tile/>
   <tile/>
   <tile/>
   <tile/>
   <tile/>
   <tile/>
   <tile/>
   <tile/>
   <tile/>
   <tile/>
   <tile/>
   <tile/>
   <tile/>
   <tile/>
   <tile/>
   <tile/>
   <tile/>
   <tile/>
   <tile/>
   <tile/>
   <tile/>
   <tile/>
   <tile/>
   <tile/>
   <tile/>
   <tile/>
   <tile/>
   <tile/>
   <tile/>
   <tile/>
   <tile/>
   <tile/>
   <tile/>
   <tile/>
   <tile/>
   <tile/>
   <tile/>
   <tile/>
   <tile/>
   <tile/>
   <tile/>
   <tile/>
   <tile/>
   <tile/>
   <tile/>
   <tile/>
   <tile/>
   <tile/>
   <tile/>
   <tile/>
   <tile/>
   <tile/>
   <tile/>
   <tile/>
   <tile/>
   <tile/>
   <tile/>
   <tile/>
   <tile/>
   <tile/>
   <tile/>
   <tile/>
   <tile/>
   <tile/>
   <tile/>
   <tile/>
   <tile/>
   <tile/>
   <tile/>
   <tile/>
   <tile/>
   <tile/>
   <tile/>
   <tile/>
   <tile/>
   <tile/>
   <tile/>
   <tile/>
   <tile/>
   <tile/>
   <tile/>
   <tile/>
   <tile/>
   <tile/>
   <tile/>
   <tile/>
   <tile/>
   <tile/>
   <tile/>
   <tile/>
   <tile/>
   <tile/>
   <tile/>
   <tile/>
   <tile/>
   <tile/>
   <tile/>
   <tile/>
   <tile/>
   <tile/>
   <tile/>
   <tile/>
   <tile/>
   <tile/>
   <tile/>
   <tile/>
   <tile/>
   <tile/>
   <tile/>
   <tile/>
   <tile/>
   <tile/>
   <tile/>
   <tile/>
   <tile/>
   <tile/>
   <tile/>
   <tile/>
   <tile/>
   <tile/>
   <tile/>
   <tile/>
   <tile/>
   <tile/>
   <tile/>
   <tile/>
   <tile/>
   <tile/>
   <tile/>
   <tile/>
   <tile/>
   <tile/>
   <tile/>
   <tile/>
   <tile/>
   <tile/>
   <tile/>
   <tile/>
   <tile/>
   <tile/>
   <tile/>
   <tile/>
   <tile/>
   <tile/>
   <tile/>
   <tile/>
   <tile/>
   <tile/>
   <tile/>
   <tile/>
   <tile/>
   <tile/>
   <tile/>
   <tile/>
   <tile/>
   <tile/>
   <tile/>
   <tile/>
   <tile/>
   <tile/>
   <tile/>
   <tile/>
   <tile/>
   <tile/>
   <tile/>
   <tile/>
   <tile/>
   <tile/>
   <tile/>
   <tile/>
   <tile/>
   <tile/>
   <tile/>
   <tile/>
   <tile/>
   <tile/>
   <tile/>
   <tile/>
   <tile/>
   <tile/>
   <tile/>
   <tile/>
   <tile/>
   <tile/>
   <tile/>
   <tile/>
   <tile/>
   <tile/>
   <tile/>
   <tile/>
   <tile/>
   <tile/>
   <tile/>
   <tile/>
   <tile/>
   <tile/>
   <tile/>
   <tile/>
   <tile/>
   <tile/>
   <tile/>
   <tile/>
   <tile/>
   <tile/>
   <tile/>
   <tile/>
   <tile/>
   <tile/>
   <tile/>
   <tile/>
   <tile/>
   <tile/>
   <tile/>
   <tile/>
   <tile/>
   <tile/>
   <tile/>
   <tile/>
   <tile/>
   <tile/>
   <tile/>
   <tile/>
   <tile/>
   <tile/>
   <tile/>
   <tile/>
   <tile/>
   <tile/>
   <tile/>
   <tile/>
   <tile/>
   <tile/>
   <tile/>
   <tile/>
   <tile/>
   <tile/>
   <tile/>
   <tile/>
   <tile/>
   <tile/>
   <tile/>
   <tile/>
   <tile/>
   <tile/>
   <tile/>
   <tile/>
   <tile/>
   <tile/>
   <tile/>
   <tile/>
   <tile/>
   <tile/>
   <tile/>
   <tile/>
   <tile/>
   <tile/>
   <tile/>
   <tile/>
   <tile/>
   <tile/>
   <tile/>
   <tile/>
   <tile/>
   <tile/>
   <tile/>
   <tile/>
   <tile/>
   <tile/>
   <tile/>
   <tile/>
   <tile/>
   <tile/>
   <tile/>
   <tile/>
   <tile/>
   <tile/>
   <tile/>
   <tile/>
   <tile/>
   <tile/>
   <tile/>
   <tile/>
   <tile/>
   <tile/>
   <tile/>
   <tile/>
   <tile/>
   <tile/>
   <tile/>
   <tile/>
   <tile/>
   <tile/>
   <tile/>
   <tile/>
   <tile/>
   <tile/>
   <tile/>
   <tile/>
   <tile/>
   <tile/>
   <tile/>
   <tile/>
   <tile/>
   <tile/>
   <tile/>
   <tile/>
   <tile/>
   <tile/>
   <tile/>
   <tile/>
   <tile/>
   <tile/>
   <tile/>
   <tile/>
   <tile/>
   <tile/>
   <tile/>
   <tile/>
   <tile/>
   <tile/>
   <tile/>
   <tile/>
   <tile/>
   <tile/>
   <tile/>
   <tile/>
   <tile/>
   <tile/>
   <tile/>
   <tile/>
   <tile/>
   <tile/>
   <tile/>
   <tile/>
   <tile/>
   <tile/>
   <tile/>
   <tile/>
   <tile/>
   <tile/>
   <tile/>
   <tile/>
   <tile/>
   <tile/>
   <tile/>
   <tile/>
   <tile/>
   <tile/>
   <tile/>
   <tile/>
   <tile/>
   <tile/>
   <tile/>
   <tile/>
   <tile/>
   <tile/>
   <tile/>
   <tile/>
   <tile/>
   <tile/>
   <tile/>
   <tile/>
   <tile/>
   <tile/>
   <tile/>
   <tile/>
   <tile/>
   <tile/>
   <tile/>
   <tile/>
   <tile/>
   <tile/>
   <tile/>
   <tile/>
   <tile/>
   <tile/>
   <tile/>
   <tile/>
   <tile/>
   <tile/>
   <tile/>
   <tile/>
   <tile/>
   <tile/>
   <tile/>
   <tile/>
   <tile/>
   <tile/>
   <tile/>
   <tile/>
   <tile/>
   <tile/>
   <tile/>
   <tile/>
   <tile/>
   <tile/>
   <tile/>
   <tile/>
   <tile/>
   <tile/>
   <tile/>
   <tile/>
   <tile/>
   <tile/>
   <tile/>
   <tile/>
   <tile/>
   <tile/>
   <tile/>
   <tile/>
   <tile/>
   <tile/>
   <tile/>
   <tile/>
   <tile/>
   <tile/>
   <tile/>
   <tile/>
   <tile/>
   <tile/>
   <tile/>
   <tile/>
   <tile/>
   <tile/>
   <tile/>
   <tile/>
   <tile/>
   <tile/>
   <tile/>
   <tile/>
   <tile/>
   <tile/>
   <tile/>
   <tile/>
   <tile/>
   <tile/>
   <tile/>
   <tile/>
   <tile/>
   <tile/>
   <tile/>
   <tile/>
   <tile/>
   <tile/>
   <tile/>
   <tile/>
   <tile/>
   <tile/>
   <tile/>
   <tile/>
   <tile/>
   <tile/>
   <tile/>
   <tile/>
   <tile/>
   <tile/>
   <tile/>
   <tile/>
   <tile/>
   <tile/>
   <tile/>
   <tile/>
   <tile/>
   <tile/>
   <tile/>
   <tile/>
   <tile/>
   <tile/>
   <tile/>
   <tile/>
   <tile/>
   <tile/>
   <tile/>
   <tile/>
   <tile/>
   <tile/>
   <tile/>
   <tile/>
   <tile/>
   <tile/>
   <tile/>
   <tile/>
   <tile/>
   <tile/>
   <tile/>
   <tile/>
   <tile/>
   <tile/>
   <tile/>
   <tile/>
   <tile/>
   <tile/>
   <tile/>
   <tile/>
   <tile/>
   <tile/>
   <tile/>
   <tile/>
   <tile/>
   <tile/>
   <tile/>
   <tile/>
   <tile/>
   <tile/>
   <tile/>
   <tile/>
   <tile/>
   <tile/>
   <tile/>
   <tile/>
   <tile/>
   <tile/>
   <tile/>
   <tile/>
   <tile/>
   <tile/>
   <tile/>
   <tile/>
   <tile/>
   <tile/>
   <tile/>
   <tile/>
   <tile/>
   <tile/>
   <tile/>
   <tile/>
   <tile/>
   <tile/>
   <tile/>
   <tile/>
   <tile/>
   <tile/>
   <tile/>
   <tile/>
   <tile/>
   <tile/>
   <tile/>
   <tile/>
   <tile/>
   <tile/>
   <tile/>
   <tile/>
   <tile/>
   <tile/>
   <tile/>
   <tile/>
   <tile/>
   <tile/>
   <tile/>
   <tile/>
   <tile/>
   <tile/>
   <tile/>
   <tile/>
   <tile/>
   <tile/>
   <tile/>
   <tile/>
   <tile/>
   <tile/>
   <tile/>
   <tile/>
   <tile/>
   <tile/>
   <tile/>
   <tile/>
   <tile/>
   <tile/>
   <tile/>
   <tile/>
   <tile/>
   <tile/>
   <tile/>
   <tile/>
   <tile/>
   <tile/>
   <tile/>
   <tile/>
   <tile/>
   <tile/>
   <tile/>
   <tile/>
   <tile/>
   <tile/>
   <tile/>
   <tile/>
   <tile/>
   <tile/>
   <tile/>
   <tile/>
   <tile/>
   <tile/>
   <tile/>
   <tile/>
   <tile/>
   <tile/>
   <tile/>
   <tile/>
   <tile/>
   <tile/>
   <tile/>
   <tile/>
   <tile/>
   <tile/>
   <tile/>
   <tile/>
   <tile/>
   <tile/>
   <tile/>
   <tile/>
   <tile/>
   <tile/>
   <tile/>
   <tile/>
   <tile/>
   <tile/>
   <tile/>
   <tile/>
   <tile/>
   <tile/>
   <tile/>
   <tile/>
   <tile/>
   <tile/>
   <tile/>
   <tile/>
   <tile/>
   <tile/>
   <tile/>
   <tile/>
   <tile/>
   <tile/>
   <tile/>
   <tile/>
   <tile/>
   <tile/>
   <tile/>
   <tile/>
   <tile/>
   <tile/>
   <tile/>
   <tile/>
   <tile/>
   <tile/>
   <tile/>
   <tile/>
   <tile/>
   <tile/>
   <tile/>
   <tile/>
   <tile/>
   <tile/>
   <tile/>
   <tile/>
   <tile/>
   <tile/>
   <tile/>
   <tile/>
   <tile/>
   <tile/>
   <tile/>
   <tile/>
   <tile/>
   <tile/>
   <tile/>
   <tile/>
   <tile/>
   <tile/>
   <tile/>
   <tile/>
   <tile/>
   <tile/>
   <tile/>
   <tile/>
   <tile/>
   <tile/>
   <tile/>
   <tile/>
   <tile/>
   <tile/>
   <tile/>
   <tile/>
   <tile/>
   <tile/>
   <tile/>
   <tile/>
   <tile/>
   <tile/>
   <tile/>
   <tile/>
   <tile/>
   <tile/>
   <tile/>
   <tile/>
   <tile/>
   <tile/>
   <tile/>
   <tile/>
   <tile/>
   <tile/>
   <tile/>
   <tile/>
   <tile/>
   <tile/>
   <tile/>
   <tile/>
   <tile/>
   <tile/>
   <tile/>
   <tile/>
   <tile/>
   <tile/>
   <tile/>
   <tile/>
   <tile/>
   <tile/>
   <tile/>
   <tile/>
   <tile/>
   <tile/>
   <tile/>
   <tile/>
   <tile/>
   <tile/>
   <tile/>
   <tile/>
   <tile/>
   <tile/>
   <tile/>
   <tile/>
   <tile/>
   <tile/>
   <tile/>
   <tile/>
   <tile/>
   <tile/>
   <tile/>
   <tile/>
   <tile/>
   <tile/>
   <tile/>
   <tile/>
   <tile/>
   <tile/>
   <tile/>
   <tile/>
   <tile/>
   <tile/>
   <tile/>
   <tile/>
   <tile/>
   <tile/>
   <tile/>
   <tile/>
   <tile/>
   <tile/>
   <tile/>
   <tile/>
   <tile/>
   <tile/>
   <tile/>
   <tile/>
   <tile/>
   <tile/>
   <tile/>
   <tile/>
   <tile/>
   <tile/>
   <tile/>
   <tile/>
   <tile/>
   <tile/>
   <tile/>
   <tile/>
   <tile/>
   <tile/>
   <tile/>
   <tile/>
   <tile/>
   <tile/>
   <tile/>
   <tile/>
   <tile/>
   <tile/>
   <tile/>
   <tile/>
   <tile/>
   <tile/>
   <tile/>
   <tile/>
   <tile/>
   <tile/>
   <tile/>
   <tile/>
   <tile/>
   <tile/>
   <tile/>
   <tile/>
   <tile/>
   <tile/>
   <tile/>
   <tile/>
   <tile/>
   <tile/>
   <tile/>
   <tile/>
   <tile/>
   <tile/>
   <tile/>
   <tile/>
   <tile/>
   <tile/>
   <tile/>
   <tile/>
   <tile/>
   <tile/>
   <tile/>
   <tile/>
   <tile/>
   <tile/>
   <tile/>
   <tile/>
   <tile/>
   <tile/>
   <tile/>
   <tile/>
   <tile/>
   <tile/>
   <tile/>
   <tile/>
   <tile/>
   <tile/>
   <tile/>
   <tile/>
   <tile/>
   <tile/>
   <tile/>
   <tile/>
   <tile/>
   <tile/>
   <tile/>
   <tile/>
   <tile/>
   <tile/>
   <tile/>
   <tile/>
   <tile/>
   <tile/>
   <tile/>
   <tile/>
   <tile/>
   <tile/>
   <tile/>
   <tile/>
   <tile/>
   <tile/>
   <tile/>
   <tile/>
   <tile/>
   <tile/>
   <tile/>
   <tile/>
   <tile/>
   <tile/>
   <tile/>
   <tile/>
   <tile/>
   <tile/>
   <tile/>
   <tile/>
   <tile/>
   <tile/>
   <tile/>
   <tile/>
   <tile/>
   <tile/>
   <tile/>
   <tile/>
   <tile/>
   <tile/>
   <tile/>
   <tile/>
   <tile/>
   <tile/>
   <tile/>
   <tile/>
   <tile/>
   <tile/>
   <tile/>
   <tile/>
   <tile/>
   <tile/>
   <tile/>
   <tile/>
   <tile/>
   <tile/>
   <tile/>
   <tile/>
   <tile/>
   <tile/>
   <tile/>
   <tile/>
   <tile/>
   <tile/>
   <tile/>
   <tile/>
   <tile/>
   <tile/>
   <tile/>
   <tile/>
   <tile/>
   <tile/>
   <tile/>
   <tile/>
   <tile/>
   <tile/>
   <tile/>
   <tile/>
   <tile/>
   <tile/>
   <tile/>
   <tile/>
   <tile/>
   <tile/>
   <tile gid="1104"/>
   <tile/>
   <tile/>
   <tile/>
   <tile/>
   <tile/>
   <tile/>
   <tile/>
   <tile/>
   <tile/>
   <tile/>
   <tile/>
   <tile/>
   <tile/>
   <tile/>
   <tile/>
   <tile/>
   <tile/>
   <tile/>
   <tile/>
   <tile/>
   <tile/>
   <tile/>
   <tile/>
   <tile/>
   <tile/>
   <tile/>
   <tile/>
   <tile/>
   <tile/>
   <tile/>
   <tile/>
   <tile/>
   <tile/>
   <tile/>
   <tile/>
   <tile/>
   <tile/>
   <tile/>
   <tile/>
   <tile/>
   <tile/>
   <tile/>
   <tile/>
   <tile/>
   <tile/>
   <tile/>
   <tile/>
   <tile/>
   <tile/>
   <tile/>
   <tile/>
   <tile/>
   <tile/>
   <tile/>
   <tile/>
   <tile/>
   <tile/>
   <tile/>
   <tile/>
   <tile/>
   <tile/>
   <tile/>
   <tile/>
   <tile/>
   <tile/>
   <tile/>
   <tile/>
   <tile/>
   <tile/>
   <tile/>
   <tile/>
   <tile/>
   <tile/>
   <tile/>
   <tile/>
   <tile/>
   <tile/>
   <tile/>
   <tile/>
   <tile/>
   <tile/>
   <tile/>
   <tile/>
   <tile/>
   <tile/>
   <tile/>
   <tile/>
   <tile/>
   <tile/>
   <tile/>
   <tile/>
   <tile/>
   <tile/>
   <tile/>
   <tile/>
   <tile/>
   <tile/>
   <tile/>
   <tile/>
   <tile/>
   <tile/>
   <tile/>
   <tile/>
   <tile/>
   <tile/>
   <tile/>
   <tile/>
   <tile/>
   <tile/>
   <tile/>
   <tile/>
   <tile/>
   <tile/>
   <tile/>
   <tile/>
   <tile/>
   <tile/>
   <tile/>
   <tile/>
   <tile/>
   <tile/>
   <tile/>
   <tile/>
   <tile/>
   <tile/>
   <tile/>
   <tile/>
   <tile/>
   <tile/>
   <tile/>
   <tile/>
   <tile/>
   <tile/>
   <tile/>
   <tile/>
   <tile/>
   <tile/>
   <tile/>
   <tile/>
   <tile/>
   <tile/>
   <tile/>
   <tile/>
   <tile/>
   <tile/>
   <tile/>
   <tile/>
   <tile/>
   <tile/>
   <tile/>
   <tile/>
   <tile/>
   <tile/>
   <tile/>
   <tile/>
   <tile/>
   <tile/>
   <tile/>
   <tile/>
   <tile/>
   <tile/>
   <tile/>
   <tile/>
   <tile/>
   <tile/>
   <tile/>
   <tile/>
   <tile/>
   <tile/>
   <tile/>
   <tile/>
   <tile/>
   <tile/>
   <tile/>
   <tile/>
   <tile/>
   <tile/>
   <tile/>
   <tile/>
   <tile/>
   <tile/>
   <tile/>
   <tile/>
   <tile/>
   <tile/>
   <tile/>
   <tile/>
   <tile/>
   <tile/>
   <tile/>
   <tile/>
   <tile/>
   <tile/>
   <tile/>
   <tile/>
   <tile/>
   <tile/>
   <tile/>
   <tile/>
   <tile/>
   <tile/>
   <tile/>
   <tile/>
   <tile/>
   <tile/>
   <tile/>
   <tile/>
   <tile/>
   <tile/>
   <tile/>
   <tile/>
   <tile/>
   <tile/>
   <tile/>
   <tile/>
   <tile/>
   <tile/>
   <tile/>
   <tile/>
   <tile/>
   <tile/>
   <tile/>
   <tile/>
   <tile/>
   <tile/>
   <tile/>
   <tile/>
   <tile/>
   <tile/>
   <tile/>
   <tile/>
   <tile/>
   <tile/>
   <tile/>
   <tile/>
   <tile/>
   <tile/>
   <tile/>
   <tile/>
   <tile/>
   <tile/>
   <tile/>
   <tile/>
   <tile/>
   <tile/>
   <tile/>
   <tile/>
   <tile/>
   <tile/>
   <tile/>
   <tile/>
   <tile/>
   <tile/>
   <tile/>
   <tile/>
   <tile/>
   <tile/>
   <tile/>
   <tile/>
   <tile/>
   <tile/>
   <tile/>
   <tile/>
   <tile/>
   <tile/>
   <tile/>
   <tile/>
   <tile/>
   <tile/>
   <tile/>
   <tile/>
   <tile/>
   <tile/>
   <tile/>
   <tile/>
   <tile/>
   <tile/>
   <tile/>
   <tile/>
   <tile/>
   <tile/>
   <tile/>
   <tile/>
   <tile/>
   <tile/>
   <tile/>
   <tile/>
   <tile/>
   <tile/>
   <tile/>
   <tile/>
   <tile/>
   <tile/>
   <tile/>
   <tile/>
   <tile/>
   <tile/>
   <tile/>
   <tile/>
   <tile/>
   <tile/>
   <tile/>
   <tile/>
   <tile/>
   <tile/>
   <tile/>
   <tile/>
   <tile/>
   <tile/>
   <tile/>
   <tile/>
   <tile/>
   <tile/>
   <tile/>
   <tile/>
   <tile/>
   <tile/>
   <tile/>
   <tile/>
   <tile/>
   <tile/>
   <tile/>
   <tile/>
   <tile/>
   <tile/>
   <tile/>
   <tile/>
   <tile/>
   <tile/>
   <tile/>
   <tile/>
   <tile/>
   <tile/>
   <tile/>
   <tile/>
   <tile/>
   <tile/>
   <tile/>
   <tile/>
   <tile/>
   <tile/>
   <tile/>
   <tile/>
   <tile/>
   <tile/>
   <tile/>
   <tile/>
   <tile/>
   <tile/>
   <tile/>
   <tile/>
   <tile/>
   <tile/>
   <tile/>
   <tile/>
   <tile/>
   <tile/>
   <tile/>
   <tile/>
   <tile/>
   <tile/>
   <tile/>
   <tile/>
   <tile/>
   <tile/>
   <tile/>
   <tile/>
   <tile/>
   <tile/>
   <tile/>
   <tile/>
   <tile/>
   <tile/>
   <tile/>
   <tile/>
   <tile/>
   <tile/>
   <tile/>
   <tile/>
   <tile/>
   <tile/>
   <tile/>
   <tile/>
   <tile/>
   <tile/>
   <tile/>
   <tile/>
   <tile/>
   <tile/>
   <tile/>
   <tile/>
   <tile/>
   <tile/>
   <tile/>
   <tile/>
   <tile/>
   <tile/>
   <tile/>
   <tile/>
   <tile/>
   <tile/>
   <tile/>
   <tile/>
   <tile/>
   <tile/>
   <tile/>
   <tile/>
   <tile/>
   <tile/>
   <tile/>
   <tile/>
   <tile/>
   <tile/>
   <tile/>
   <tile/>
   <tile/>
   <tile/>
   <tile/>
   <tile/>
   <tile/>
   <tile/>
   <tile/>
   <tile/>
   <tile/>
   <tile/>
   <tile/>
   <tile/>
   <tile/>
   <tile/>
   <tile/>
   <tile/>
   <tile/>
   <tile/>
   <tile/>
   <tile/>
   <tile/>
   <tile/>
   <tile/>
   <tile/>
   <tile/>
   <tile/>
   <tile/>
   <tile/>
   <tile/>
   <tile/>
   <tile/>
   <tile/>
   <tile/>
   <tile/>
   <tile/>
   <tile/>
   <tile/>
   <tile/>
   <tile/>
   <tile/>
   <tile/>
   <tile/>
   <tile/>
   <tile/>
   <tile/>
   <tile/>
   <tile/>
   <tile/>
   <tile/>
   <tile/>
   <tile/>
   <tile/>
   <tile/>
   <tile/>
   <tile/>
   <tile/>
   <tile/>
   <tile/>
   <tile/>
   <tile/>
   <tile/>
   <tile/>
   <tile/>
   <tile/>
   <tile/>
   <tile/>
   <tile/>
   <tile/>
   <tile/>
   <tile/>
   <tile/>
   <tile/>
   <tile/>
   <tile/>
   <tile/>
   <tile/>
   <tile/>
   <tile/>
   <tile/>
   <tile/>
   <tile/>
   <tile/>
   <tile/>
   <tile/>
   <tile/>
   <tile/>
   <tile/>
   <tile/>
   <tile/>
   <tile/>
   <tile/>
   <tile/>
   <tile/>
   <tile/>
   <tile/>
   <tile/>
   <tile/>
   <tile/>
   <tile/>
   <tile/>
   <tile/>
   <tile/>
   <tile/>
   <tile/>
   <tile/>
   <tile/>
   <tile/>
   <tile/>
   <tile/>
   <tile/>
   <tile/>
   <tile/>
   <tile/>
   <tile/>
   <tile/>
   <tile/>
   <tile/>
   <tile/>
   <tile/>
   <tile/>
   <tile/>
   <tile/>
   <tile/>
   <tile/>
   <tile/>
   <tile/>
   <tile/>
   <tile/>
   <tile/>
   <tile/>
   <tile/>
   <tile/>
   <tile/>
   <tile/>
   <tile/>
   <tile/>
   <tile/>
   <tile/>
   <tile/>
   <tile/>
   <tile/>
   <tile/>
   <tile/>
   <tile/>
   <tile/>
   <tile/>
   <tile/>
   <tile/>
   <tile/>
   <tile/>
   <tile/>
   <tile/>
   <tile/>
   <tile/>
   <tile/>
   <tile/>
   <tile/>
   <tile/>
   <tile/>
   <tile/>
   <tile/>
   <tile/>
   <tile/>
   <tile/>
   <tile/>
   <tile/>
   <tile/>
   <tile/>
   <tile/>
   <tile/>
   <tile/>
   <tile/>
   <tile/>
   <tile/>
   <tile/>
   <tile/>
   <tile/>
   <tile/>
   <tile/>
   <tile/>
   <tile/>
   <tile/>
   <tile/>
   <tile/>
   <tile/>
   <tile/>
   <tile/>
   <tile/>
   <tile/>
   <tile/>
   <tile/>
   <tile/>
   <tile/>
   <tile/>
   <tile/>
   <tile/>
   <tile/>
   <tile/>
   <tile/>
   <tile/>
   <tile/>
   <tile/>
   <tile/>
   <tile/>
   <tile/>
   <tile/>
   <tile/>
   <tile/>
   <tile/>
   <tile/>
   <tile/>
   <tile/>
   <tile/>
   <tile/>
   <tile/>
   <tile/>
   <tile/>
   <tile/>
   <tile gid="1100"/>
   <tile/>
   <tile/>
   <tile/>
   <tile/>
   <tile/>
   <tile/>
   <tile/>
   <tile/>
   <tile/>
   <tile/>
   <tile/>
   <tile/>
   <tile/>
   <tile/>
   <tile/>
   <tile/>
   <tile/>
   <tile/>
   <tile/>
   <tile/>
   <tile/>
   <tile/>
   <tile/>
   <tile/>
   <tile/>
   <tile/>
   <tile/>
   <tile/>
   <tile/>
   <tile/>
   <tile/>
   <tile/>
   <tile/>
   <tile/>
   <tile/>
   <tile/>
   <tile/>
   <tile/>
   <tile/>
   <tile/>
   <tile/>
   <tile/>
   <tile/>
   <tile/>
   <tile/>
   <tile/>
   <tile/>
   <tile/>
   <tile/>
   <tile/>
   <tile/>
   <tile/>
   <tile/>
   <tile/>
   <tile/>
   <tile/>
   <tile/>
   <tile/>
   <tile/>
   <tile/>
   <tile/>
   <tile/>
   <tile/>
   <tile/>
   <tile/>
   <tile/>
   <tile/>
   <tile/>
   <tile/>
   <tile/>
   <tile/>
   <tile/>
   <tile/>
   <tile/>
   <tile/>
   <tile/>
   <tile/>
   <tile/>
   <tile/>
   <tile/>
   <tile/>
   <tile/>
   <tile/>
   <tile/>
   <tile/>
   <tile/>
   <tile/>
   <tile/>
   <tile/>
   <tile/>
   <tile/>
   <tile/>
   <tile/>
   <tile/>
   <tile/>
   <tile/>
   <tile/>
   <tile/>
   <tile/>
   <tile/>
   <tile/>
   <tile/>
   <tile/>
   <tile/>
   <tile/>
   <tile gid="1103"/>
   <tile/>
   <tile/>
   <tile/>
   <tile/>
   <tile/>
   <tile/>
   <tile/>
   <tile/>
   <tile/>
   <tile/>
   <tile/>
   <tile/>
   <tile/>
   <tile/>
   <tile/>
   <tile/>
   <tile/>
   <tile/>
   <tile/>
   <tile/>
   <tile/>
   <tile/>
   <tile/>
   <tile/>
   <tile/>
   <tile/>
   <tile/>
   <tile/>
   <tile/>
   <tile/>
   <tile/>
   <tile/>
   <tile/>
   <tile/>
   <tile/>
   <tile/>
   <tile/>
   <tile/>
   <tile/>
   <tile/>
   <tile/>
   <tile/>
   <tile/>
   <tile/>
   <tile/>
   <tile/>
   <tile/>
   <tile/>
   <tile/>
   <tile/>
   <tile/>
   <tile/>
   <tile/>
   <tile/>
   <tile/>
   <tile/>
   <tile/>
   <tile/>
   <tile/>
   <tile/>
   <tile/>
   <tile/>
   <tile/>
   <tile/>
   <tile/>
   <tile/>
   <tile/>
   <tile/>
   <tile/>
   <tile/>
   <tile/>
   <tile/>
   <tile/>
   <tile/>
   <tile/>
   <tile/>
   <tile/>
   <tile/>
   <tile/>
   <tile/>
   <tile/>
   <tile/>
   <tile/>
   <tile/>
   <tile/>
   <tile/>
   <tile/>
   <tile/>
   <tile/>
   <tile/>
   <tile/>
   <tile/>
   <tile/>
   <tile/>
   <tile/>
   <tile/>
   <tile/>
   <tile/>
   <tile/>
   <tile/>
   <tile/>
   <tile/>
   <tile/>
   <tile/>
   <tile/>
   <tile gid="1102"/>
   <tile/>
   <tile/>
   <tile/>
   <tile/>
   <tile/>
   <tile/>
   <tile/>
   <tile/>
   <tile/>
   <tile/>
   <tile/>
   <tile/>
   <tile/>
   <tile/>
   <tile/>
   <tile/>
   <tile/>
   <tile/>
   <tile/>
   <tile/>
   <tile/>
   <tile/>
   <tile/>
   <tile/>
   <tile/>
   <tile/>
   <tile/>
   <tile/>
   <tile/>
   <tile/>
   <tile/>
   <tile/>
   <tile/>
   <tile/>
   <tile/>
   <tile/>
   <tile/>
   <tile/>
   <tile/>
   <tile/>
   <tile/>
   <tile/>
   <tile/>
   <tile/>
   <tile/>
   <tile/>
   <tile/>
   <tile/>
   <tile/>
   <tile/>
   <tile/>
   <tile/>
   <tile/>
   <tile/>
   <tile/>
   <tile/>
   <tile/>
   <tile/>
   <tile/>
   <tile/>
   <tile/>
   <tile/>
   <tile/>
   <tile/>
   <tile/>
   <tile/>
   <tile/>
   <tile/>
   <tile/>
   <tile/>
   <tile/>
   <tile/>
   <tile/>
   <tile/>
   <tile/>
   <tile/>
   <tile/>
   <tile/>
   <tile/>
   <tile/>
   <tile/>
   <tile/>
   <tile/>
   <tile/>
   <tile/>
   <tile/>
   <tile/>
   <tile/>
   <tile/>
   <tile/>
   <tile/>
   <tile/>
   <tile/>
   <tile/>
   <tile/>
   <tile/>
   <tile/>
   <tile/>
   <tile/>
   <tile/>
   <tile/>
   <tile/>
   <tile/>
   <tile/>
   <tile gid="2147484750"/>
   <tile/>
   <tile/>
   <tile/>
   <tile/>
   <tile/>
   <tile/>
   <tile/>
   <tile/>
   <tile/>
   <tile/>
   <tile/>
   <tile/>
   <tile/>
   <tile/>
   <tile/>
   <tile/>
   <tile/>
   <tile/>
   <tile/>
   <tile/>
   <tile/>
   <tile/>
   <tile/>
   <tile/>
   <tile/>
   <tile/>
   <tile/>
   <tile/>
   <tile/>
  </data>
 </layer>
 <layer id="2" name="Solid" width="135" height="34">
  <properties>
   <property name="Draw" type="bool" value="true"/>
  </properties>
  <data>
   <tile gid="252"/>
   <tile gid="252"/>
   <tile gid="252"/>
   <tile gid="252"/>
   <tile gid="252"/>
   <tile gid="252"/>
   <tile gid="252"/>
   <tile gid="252"/>
   <tile gid="252"/>
   <tile gid="252"/>
   <tile gid="252"/>
   <tile gid="252"/>
   <tile gid="252"/>
   <tile gid="236"/>
   <tile gid="236"/>
   <tile gid="236"/>
   <tile gid="236"/>
   <tile gid="236"/>
   <tile gid="236"/>
   <tile gid="252"/>
   <tile gid="252"/>
   <tile gid="252"/>
   <tile gid="252"/>
   <tile gid="252"/>
   <tile gid="252"/>
   <tile gid="252"/>
   <tile gid="252"/>
   <tile gid="252"/>
   <tile gid="252"/>
   <tile gid="252"/>
   <tile gid="252"/>
   <tile gid="252"/>
   <tile gid="252"/>
   <tile gid="252"/>
   <tile gid="236"/>
   <tile gid="236"/>
   <tile gid="252"/>
   <tile gid="252"/>
   <tile gid="252"/>
   <tile gid="252"/>
   <tile gid="252"/>
   <tile gid="252"/>
   <tile gid="252"/>
   <tile gid="252"/>
   <tile gid="252"/>
   <tile gid="252"/>
   <tile gid="252"/>
   <tile gid="252"/>
   <tile gid="252"/>
   <tile gid="252"/>
   <tile gid="252"/>
   <tile gid="252"/>
   <tile gid="252"/>
   <tile gid="252"/>
   <tile gid="252"/>
   <tile gid="236"/>
   <tile gid="236"/>
   <tile gid="236"/>
   <tile gid="236"/>
   <tile gid="236"/>
   <tile gid="236"/>
   <tile gid="252"/>
   <tile gid="252"/>
   <tile gid="252"/>
   <tile gid="252"/>
   <tile gid="252"/>
   <tile gid="236"/>
   <tile gid="236"/>
   <tile gid="236"/>
   <tile gid="236"/>
   <tile gid="236"/>
   <tile gid="236"/>
   <tile gid="252"/>
   <tile gid="252"/>
   <tile gid="252"/>
   <tile gid="252"/>
   <tile gid="252"/>
   <tile gid="236"/>
   <tile gid="236"/>
   <tile gid="236"/>
   <tile gid="236"/>
   <tile gid="236"/>
   <tile gid="236"/>
   <tile gid="252"/>
   <tile gid="252"/>
   <tile gid="252"/>
   <tile gid="252"/>
   <tile gid="252"/>
   <tile gid="252"/>
   <tile gid="252"/>
   <tile gid="252"/>
   <tile gid="252"/>
   <tile gid="252"/>
   <tile gid="252"/>
   <tile gid="252"/>
   <tile gid="252"/>
   <tile gid="236"/>
   <tile gid="236"/>
   <tile gid="236"/>
   <tile gid="236"/>
   <tile gid="236"/>
   <tile gid="236"/>
   <tile gid="252"/>
   <tile gid="252"/>
   <tile gid="252"/>
   <tile gid="252"/>
   <tile gid="252"/>
   <tile gid="252"/>
   <tile gid="252"/>
   <tile gid="252"/>
   <tile gid="252"/>
   <tile gid="252"/>
   <tile gid="252"/>
   <tile gid="252"/>
   <tile gid="236"/>
   <tile gid="236"/>
   <tile gid="236"/>
   <tile gid="236"/>
   <tile gid="236"/>
   <tile gid="236"/>
   <tile gid="252"/>
   <tile gid="252"/>
   <tile gid="252"/>
   <tile gid="252"/>
   <tile gid="252"/>
   <tile gid="252"/>
   <tile gid="252"/>
   <tile gid="252"/>
   <tile gid="252"/>
   <tile gid="252"/>
   <tile gid="252"/>
   <tile gid="252"/>
   <tile gid="252"/>
   <tile gid="252"/>
   <tile gid="252"/>
   <tile/>
   <tile/>
   <tile/>
   <tile/>
   <tile/>
   <tile/>
   <tile/>
   <tile/>
   <tile/>
   <tile/>
   <tile/>
   <tile/>
   <tile/>
   <tile gid="251"/>
   <tile gid="236"/>
   <tile gid="236"/>
   <tile gid="236"/>
   <tile gid="236"/>
   <tile gid="253"/>
   <tile/>
   <tile/>
   <tile/>
   <tile/>
   <tile/>
   <tile/>
   <tile/>
   <tile/>
   <tile/>
   <tile/>
   <tile/>
   <tile/>
   <tile/>
   <tile/>
   <tile/>
   <tile gid="235"/>
   <tile gid="237"/>
   <tile/>
   <tile/>
   <tile/>
   <tile/>
   <tile/>
   <tile/>
   <tile/>
   <tile/>
   <tile/>
   <tile/>
   <tile/>
   <tile/>
   <tile/>
   <tile/>
   <tile/>
   <tile/>
   <tile/>
   <tile/>
   <tile/>
   <tile gid="251"/>
   <tile gid="236"/>
   <tile gid="236"/>
   <tile gid="236"/>
   <tile gid="236"/>
   <tile gid="253"/>
   <tile/>
   <tile/>
   <tile/>
   <tile/>
   <tile/>
   <tile gid="251"/>
   <tile gid="236"/>
   <tile gid="236"/>
   <tile gid="236"/>
   <tile gid="236"/>
   <tile gid="253"/>
   <tile/>
   <tile/>
   <tile/>
   <tile/>
   <tile/>
   <tile gid="251"/>
   <tile gid="236"/>
   <tile gid="236"/>
   <tile gid="236"/>
   <tile gid="236"/>
   <tile gid="253"/>
   <tile/>
   <tile/>
   <tile/>
   <tile/>
   <tile/>
   <tile/>
   <tile/>
   <tile/>
   <tile/>
   <tile/>
   <tile/>
   <tile/>
   <tile/>
   <tile gid="251"/>
   <tile gid="236"/>
   <tile gid="236"/>
   <tile gid="236"/>
   <tile gid="236"/>
   <tile gid="253"/>
   <tile/>
   <tile/>
   <tile/>
   <tile/>
   <tile/>
   <tile/>
   <tile/>
   <tile/>
   <tile/>
   <tile/>
   <tile/>
   <tile/>
   <tile gid="251"/>
   <tile gid="236"/>
   <tile gid="236"/>
   <tile gid="236"/>
   <tile gid="236"/>
   <tile gid="253"/>
   <tile/>
   <tile/>
   <tile/>
   <tile/>
   <tile/>
   <tile/>
   <tile/>
   <tile/>
   <tile/>
   <tile/>
   <tile/>
   <tile/>
   <tile/>
   <tile/>
   <tile/>
   <tile/>
   <tile/>
   <tile/>
   <tile/>
   <tile/>
   <tile/>
   <tile/>
   <tile/>
   <tile/>
   <tile/>
   <tile/>
   <tile/>
   <tile/>
   <tile/>
   <tile gid="251"/>
   <tile gid="252"/>
   <tile gid="252"/>
   <tile gid="253"/>
   <tile/>
   <tile/>
   <tile/>
   <tile/>
   <tile/>
   <tile/>
   <tile/>
   <tile/>
   <tile/>
   <tile/>
   <tile/>
   <tile/>
   <tile/>
   <tile/>
   <tile/>
   <tile/>
   <tile gid="235"/>
   <tile gid="237"/>
   <tile/>
   <tile/>
   <tile/>
   <tile/>
   <tile/>
   <tile/>
   <tile/>
   <tile/>
   <tile/>
   <tile/>
   <tile/>
   <tile/>
   <tile/>
   <tile/>
   <tile/>
   <tile/>
   <tile/>
   <tile/>
   <tile/>
   <tile/>
   <tile gid="251"/>
   <tile gid="252"/>
   <tile gid="252"/>
   <tile gid="253"/>
   <tile/>
   <tile/>
   <tile/>
   <tile/>
   <tile/>
   <tile/>
   <tile/>
   <tile gid="251"/>
   <tile gid="252"/>
   <tile gid="252"/>
   <tile gid="253"/>
   <tile/>
   <tile/>
   <tile/>
   <tile/>
   <tile/>
   <tile/>
   <tile/>
   <tile gid="251"/>
   <tile gid="252"/>
   <tile gid="252"/>
   <tile gid="253"/>
   <tile/>
   <tile/>
   <tile/>
   <tile/>
   <tile/>
   <tile/>
   <tile/>
   <tile/>
   <tile/>
   <tile/>
   <tile/>
   <tile/>
   <tile/>
   <tile/>
   <tile/>
   <tile gid="251"/>
   <tile gid="252"/>
   <tile gid="252"/>
   <tile gid="253"/>
   <tile/>
   <tile/>
   <tile/>
   <tile/>
   <tile/>
   <tile/>
   <tile/>
   <tile/>
   <tile/>
   <tile/>
   <tile/>
   <tile/>
   <tile/>
   <tile/>
   <tile gid="251"/>
   <tile gid="252"/>
   <tile gid="252"/>
   <tile gid="253"/>
   <tile/>
   <tile/>
   <tile/>
   <tile/>
   <tile/>
   <tile/>
   <tile/>
   <tile/>
   <tile/>
   <tile/>
   <tile/>
   <tile/>
   <tile/>
   <tile/>
   <tile/>
   <tile/>
   <tile/>
   <tile/>
   <tile/>
   <tile/>
   <tile/>
   <tile/>
   <tile/>
   <tile/>
   <tile/>
   <tile/>
   <tile/>
   <tile/>
   <tile/>
   <tile/>
   <tile/>
   <tile/>
   <tile/>
   <tile/>
   <tile/>
   <tile/>
   <tile/>
   <tile/>
   <tile/>
   <tile/>
   <tile/>
   <tile/>
   <tile/>
   <tile/>
   <tile/>
   <tile/>
   <tile/>
   <tile/>
   <tile/>
   <tile/>
   <tile gid="235"/>
   <tile gid="237"/>
   <tile/>
   <tile/>
   <tile/>
   <tile/>
   <tile/>
   <tile/>
   <tile/>
   <tile/>
   <tile/>
   <tile/>
   <tile/>
   <tile/>
   <tile/>
   <tile/>
   <tile/>
   <tile/>
   <tile/>
   <tile/>
   <tile/>
   <tile/>
   <tile/>
   <tile/>
   <tile/>
   <tile/>
   <tile/>
   <tile/>
   <tile/>
   <tile/>
   <tile/>
   <tile/>
   <tile/>
   <tile/>
   <tile/>
   <tile/>
   <tile/>
   <tile/>
   <tile/>
   <tile/>
   <tile/>
   <tile/>
   <tile/>
   <tile/>
   <tile/>
   <tile/>
   <tile/>
   <tile/>
   <tile/>
   <tile/>
   <tile/>
   <tile/>
   <tile/>
   <tile/>
   <tile/>
   <tile/>
   <tile/>
   <tile/>
   <tile/>
   <tile/>
   <tile/>
   <tile/>
   <tile/>
   <tile/>
   <tile/>
   <tile/>
   <tile/>
   <tile/>
   <tile/>
   <tile/>
   <tile/>
   <tile/>
   <tile/>
   <tile/>
   <tile/>
   <tile/>
   <tile/>
   <tile/>
   <tile/>
   <tile/>
   <tile/>
   <tile/>
   <tile/>
   <tile/>
   <tile/>
   <tile/>
   <tile/>
   <tile/>
   <tile/>
   <tile/>
   <tile/>
   <tile/>
   <tile/>
   <tile/>
   <tile/>
   <tile/>
   <tile/>
   <tile/>
   <tile/>
   <tile/>
   <tile/>
   <tile/>
   <tile/>
   <tile/>
   <tile/>
   <tile/>
   <tile/>
   <tile/>
   <tile/>
   <tile/>
   <tile/>
   <tile/>
   <tile/>
   <tile/>
   <tile/>
   <tile/>
   <tile/>
   <tile/>
   <tile/>
   <tile/>
   <tile/>
   <tile/>
   <tile/>
   <tile/>
   <tile/>
   <tile/>
   <tile/>
   <tile/>
   <tile/>
   <tile/>
   <tile/>
   <tile/>
   <tile/>
   <tile/>
   <tile/>
   <tile gid="235"/>
   <tile gid="237"/>
   <tile/>
   <tile/>
   <tile/>
   <tile/>
   <tile/>
   <tile/>
   <tile/>
   <tile/>
   <tile/>
   <tile/>
   <tile/>
   <tile/>
   <tile/>
   <tile/>
   <tile/>
   <tile/>
   <tile/>
   <tile/>
   <tile/>
   <tile/>
   <tile/>
   <tile/>
   <tile/>
   <tile/>
   <tile/>
   <tile/>
   <tile/>
   <tile/>
   <tile/>
   <tile/>
   <tile/>
   <tile/>
   <tile/>
   <tile/>
   <tile/>
   <tile/>
   <tile/>
   <tile/>
   <tile/>
   <tile/>
   <tile/>
   <tile/>
   <tile/>
   <tile/>
   <tile/>
   <tile/>
   <tile/>
   <tile/>
   <tile/>
   <tile/>
   <tile/>
   <tile/>
   <tile/>
   <tile/>
   <tile/>
   <tile/>
   <tile/>
   <tile/>
   <tile/>
   <tile/>
   <tile/>
   <tile/>
   <tile/>
   <tile/>
   <tile/>
   <tile/>
   <tile/>
   <tile/>
   <tile/>
   <tile/>
   <tile/>
   <tile/>
   <tile/>
   <tile/>
   <tile/>
   <tile/>
   <tile/>
   <tile/>
   <tile/>
   <tile/>
   <tile/>
   <tile/>
   <tile/>
   <tile/>
   <tile/>
   <tile/>
   <tile/>
   <tile/>
   <tile/>
   <tile/>
   <tile/>
   <tile/>
   <tile/>
   <tile/>
   <tile/>
   <tile/>
   <tile/>
   <tile/>
   <tile/>
   <tile/>
   <tile/>
   <tile/>
   <tile/>
   <tile/>
   <tile/>
   <tile/>
   <tile/>
   <tile/>
   <tile/>
   <tile/>
   <tile/>
   <tile/>
   <tile/>
   <tile/>
   <tile/>
   <tile/>
   <tile/>
   <tile/>
   <tile/>
   <tile/>
   <tile/>
   <tile/>
   <tile/>
   <tile/>
   <tile/>
   <tile/>
   <tile/>
   <tile/>
   <tile/>
   <tile/>
   <tile/>
   <tile/>
   <tile/>
   <tile gid="235"/>
   <tile gid="237"/>
   <tile/>
   <tile/>
   <tile/>
   <tile/>
   <tile/>
   <tile/>
   <tile/>
   <tile/>
   <tile/>
   <tile/>
   <tile/>
   <tile/>
   <tile/>
   <tile/>
   <tile/>
   <tile/>
   <tile/>
   <tile/>
   <tile/>
   <tile/>
   <tile/>
   <tile/>
   <tile/>
   <tile/>
   <tile/>
   <tile/>
   <tile/>
   <tile/>
   <tile/>
   <tile/>
   <tile/>
   <tile/>
   <tile/>
   <tile/>
   <tile/>
   <tile/>
   <tile/>
   <tile/>
   <tile/>
   <tile/>
   <tile/>
   <tile/>
   <tile/>
   <tile/>
   <tile/>
   <tile/>
   <tile/>
   <tile/>
   <tile/>
   <tile/>
   <tile/>
   <tile/>
   <tile/>
   <tile/>
   <tile/>
   <tile/>
   <tile/>
   <tile/>
   <tile/>
   <tile/>
   <tile/>
   <tile/>
   <tile/>
   <tile/>
   <tile/>
   <tile/>
   <tile/>
   <tile/>
   <tile/>
   <tile/>
   <tile/>
   <tile/>
   <tile/>
   <tile/>
   <tile/>
   <tile/>
   <tile/>
   <tile/>
   <tile/>
   <tile/>
   <tile/>
   <tile/>
   <tile/>
   <tile/>
   <tile/>
   <tile/>
   <tile/>
   <tile/>
   <tile/>
   <tile/>
   <tile/>
   <tile/>
   <tile/>
   <tile/>
   <tile/>
   <tile/>
   <tile/>
   <tile/>
   <tile/>
   <tile/>
   <tile/>
   <tile/>
   <tile/>
   <tile/>
   <tile/>
   <tile/>
   <tile/>
   <tile/>
   <tile/>
   <tile/>
   <tile/>
   <tile/>
   <tile/>
   <tile/>
   <tile/>
   <tile/>
   <tile/>
   <tile/>
   <tile/>
   <tile/>
   <tile/>
   <tile/>
   <tile/>
   <tile/>
   <tile/>
   <tile/>
   <tile/>
   <tile/>
   <tile/>
   <tile/>
   <tile/>
   <tile/>
   <tile/>
   <tile gid="235"/>
   <tile gid="237"/>
   <tile/>
   <tile/>
   <tile/>
   <tile/>
   <tile/>
   <tile/>
   <tile/>
   <tile/>
   <tile/>
   <tile/>
   <tile/>
   <tile/>
   <tile/>
   <tile/>
   <tile/>
   <tile/>
   <tile/>
   <tile/>
   <tile/>
   <tile/>
   <tile/>
   <tile/>
   <tile/>
   <tile/>
   <tile/>
   <tile/>
   <tile/>
   <tile/>
   <tile/>
   <tile/>
   <tile/>
   <tile/>
   <tile/>
   <tile/>
   <tile/>
   <tile/>
   <tile/>
   <tile/>
   <tile/>
   <tile/>
   <tile/>
   <tile/>
   <tile/>
   <tile/>
   <tile/>
   <tile/>
   <tile/>
   <tile/>
   <tile/>
   <tile/>
   <tile/>
   <tile/>
   <tile/>
   <tile/>
   <tile/>
   <tile/>
   <tile/>
   <tile/>
   <tile/>
   <tile/>
   <tile/>
   <tile/>
   <tile/>
   <tile/>
   <tile/>
   <tile/>
   <tile/>
   <tile/>
   <tile/>
   <tile/>
   <tile/>
   <tile/>
   <tile/>
   <tile/>
   <tile/>
   <tile/>
   <tile/>
   <tile/>
   <tile/>
   <tile/>
   <tile/>
   <tile/>
   <tile/>
   <tile/>
   <tile/>
   <tile/>
   <tile/>
   <tile/>
   <tile/>
   <tile/>
   <tile/>
   <tile/>
   <tile/>
   <tile/>
   <tile/>
   <tile/>
   <tile/>
   <tile/>
   <tile/>
   <tile/>
   <tile/>
   <tile/>
   <tile/>
   <tile/>
   <tile/>
   <tile/>
   <tile/>
   <tile/>
   <tile/>
   <tile/>
   <tile/>
   <tile/>
   <tile/>
   <tile/>
   <tile/>
   <tile/>
   <tile/>
   <tile/>
   <tile/>
   <tile/>
   <tile/>
   <tile/>
   <tile/>
   <tile/>
   <tile/>
   <tile/>
   <tile/>
   <tile/>
   <tile/>
   <tile/>
   <tile/>
   <tile/>
   <tile/>
   <tile gid="235"/>
   <tile gid="237"/>
   <tile/>
   <tile/>
   <tile/>
   <tile/>
   <tile/>
   <tile/>
   <tile/>
   <tile/>
   <tile/>
   <tile/>
   <tile/>
   <tile/>
   <tile/>
   <tile/>
   <tile/>
   <tile/>
   <tile/>
   <tile/>
   <tile/>
   <tile/>
   <tile/>
   <tile/>
   <tile/>
   <tile/>
   <tile/>
   <tile/>
   <tile/>
   <tile/>
   <tile/>
   <tile/>
   <tile/>
   <tile/>
   <tile/>
   <tile/>
   <tile/>
   <tile/>
   <tile/>
   <tile/>
   <tile/>
   <tile/>
   <tile/>
   <tile/>
   <tile/>
   <tile/>
   <tile/>
   <tile/>
   <tile/>
   <tile/>
   <tile/>
   <tile/>
   <tile/>
   <tile/>
   <tile/>
   <tile/>
   <tile/>
   <tile/>
   <tile/>
   <tile/>
   <tile/>
   <tile/>
   <tile/>
   <tile/>
   <tile/>
   <tile/>
   <tile/>
   <tile/>
   <tile/>
   <tile/>
   <tile/>
   <tile/>
   <tile/>
   <tile/>
   <tile/>
   <tile/>
   <tile/>
   <tile/>
   <tile/>
   <tile/>
   <tile/>
   <tile/>
   <tile/>
   <tile/>
   <tile/>
   <tile/>
   <tile/>
   <tile/>
   <tile/>
   <tile/>
   <tile/>
   <tile/>
   <tile/>
   <tile/>
   <tile/>
   <tile/>
   <tile/>
   <tile gid="219"/>
   <tile gid="220"/>
   <tile gid="220"/>
   <tile gid="220"/>
   <tile/>
   <tile/>
   <tile/>
   <tile/>
   <tile/>
   <tile/>
   <tile/>
   <tile/>
   <tile/>
   <tile/>
   <tile/>
   <tile/>
   <tile/>
   <tile/>
   <tile/>
   <tile/>
   <tile/>
   <tile/>
   <tile/>
   <tile/>
   <tile/>
   <tile/>
   <tile/>
   <tile/>
   <tile/>
   <tile/>
   <tile/>
   <tile/>
   <tile/>
   <tile/>
   <tile/>
   <tile/>
   <tile/>
   <tile/>
   <tile gid="235"/>
   <tile gid="237"/>
   <tile/>
   <tile/>
   <tile/>
   <tile/>
   <tile gid="219"/>
   <tile gid="220"/>
   <tile gid="220"/>
   <tile gid="220"/>
   <tile gid="220"/>
   <tile gid="221"/>
   <tile/>
   <tile/>
   <tile/>
   <tile/>
   <tile/>
   <tile/>
   <tile/>
   <tile/>
   <tile/>
   <tile/>
   <tile/>
   <tile/>
   <tile/>
   <tile/>
   <tile/>
   <tile/>
   <tile/>
   <tile/>
   <tile/>
   <tile/>
   <tile/>
   <tile/>
   <tile/>
   <tile/>
   <tile/>
   <tile/>
   <tile/>
   <tile/>
   <tile/>
   <tile/>
   <tile/>
   <tile/>
   <tile/>
   <tile/>
   <tile/>
   <tile/>
   <tile/>
   <tile/>
   <tile/>
   <tile/>
   <tile/>
   <tile/>
   <tile/>
   <tile/>
   <tile/>
   <tile/>
   <tile/>
   <tile gid="219"/>
   <tile gid="220"/>
   <tile gid="220"/>
   <tile gid="221"/>
   <tile/>
   <tile/>
   <tile/>
   <tile/>
   <tile/>
   <tile/>
   <tile/>
   <tile/>
   <tile/>
   <tile/>
   <tile/>
   <tile/>
   <tile/>
   <tile/>
   <tile/>
   <tile/>
   <tile/>
   <tile/>
   <tile/>
   <tile/>
   <tile/>
   <tile/>
   <tile/>
   <tile/>
   <tile/>
   <tile/>
   <tile/>
   <tile/>
   <tile/>
   <tile/>
   <tile/>
   <tile/>
   <tile/>
   <tile/>
   <tile gid="235"/>
   <tile gid="236"/>
   <tile gid="236"/>
   <tile gid="236"/>
   <tile gid="220"/>
   <tile gid="220"/>
   <tile gid="220"/>
   <tile gid="221"/>
   <tile/>
   <tile/>
   <tile/>
   <tile/>
   <tile gid="219"/>
   <tile gid="220"/>
   <tile gid="220"/>
   <tile gid="220"/>
   <tile gid="220"/>
   <tile gid="220"/>
   <tile gid="220"/>
   <tile gid="220"/>
   <tile gid="220"/>
   <tile gid="220"/>
   <tile gid="220"/>
   <tile gid="220"/>
   <tile gid="220"/>
   <tile gid="220"/>
   <tile gid="220"/>
   <tile gid="220"/>
   <tile gid="220"/>
   <tile gid="220"/>
   <tile gid="220"/>
   <tile gid="220"/>
   <tile gid="220"/>
   <tile gid="221"/>
   <tile/>
   <tile/>
   <tile/>
   <tile/>
   <tile gid="235"/>
   <tile gid="237"/>
   <tile/>
   <tile/>
   <tile/>
   <tile/>
   <tile gid="235"/>
   <tile gid="236"/>
   <tile gid="236"/>
   <tile gid="253"/>
   <tile/>
   <tile/>
   <tile/>
   <tile/>
   <tile/>
   <tile/>
   <tile/>
   <tile/>
   <tile/>
   <tile/>
   <tile/>
   <tile/>
   <tile/>
   <tile/>
   <tile/>
   <tile/>
   <tile/>
   <tile/>
   <tile/>
   <tile/>
   <tile/>
   <tile/>
   <tile/>
   <tile/>
   <tile/>
   <tile/>
   <tile/>
   <tile/>
   <tile/>
   <tile/>
   <tile/>
   <tile/>
   <tile/>
   <tile/>
   <tile/>
   <tile/>
   <tile/>
   <tile/>
   <tile/>
   <tile/>
   <tile/>
   <tile/>
   <tile/>
   <tile/>
   <tile/>
   <tile/>
   <tile/>
   <tile/>
   <tile/>
   <tile/>
   <tile/>
   <tile gid="235"/>
   <tile gid="237"/>
   <tile/>
   <tile/>
   <tile/>
   <tile/>
   <tile gid="219"/>
   <tile gid="220"/>
   <tile gid="220"/>
   <tile gid="220"/>
   <tile gid="220"/>
   <tile gid="220"/>
   <tile gid="220"/>
   <tile gid="220"/>
   <tile gid="220"/>
   <tile gid="220"/>
   <tile gid="220"/>
   <tile gid="220"/>
   <tile gid="221"/>
   <tile/>
   <tile/>
   <tile/>
   <tile/>
   <tile/>
   <tile/>
   <tile/>
   <tile/>
   <tile/>
   <tile/>
   <tile gid="219"/>
   <tile gid="220"/>
   <tile gid="221"/>
   <tile/>
   <tile/>
   <tile/>
   <tile/>
   <tile gid="235"/>
   <tile gid="251"/>
   <tile gid="236"/>
   <tile gid="236"/>
   <tile gid="236"/>
   <tile gid="236"/>
   <tile gid="236"/>
   <tile gid="253"/>
   <tile/>
   <tile/>
   <tile/>
   <tile/>
   <tile gid="235"/>
   <tile gid="236"/>
   <tile gid="236"/>
   <tile gid="252"/>
   <tile gid="253"/>
   <tile/>
   <tile/>
   <tile/>
   <tile/>
   <tile/>
   <tile/>
   <tile/>
   <tile gid="251"/>
   <tile gid="252"/>
   <tile gid="252"/>
   <tile gid="253"/>
   <tile/>
   <tile/>
   <tile/>
   <tile gid="251"/>
   <tile gid="236"/>
   <tile gid="237"/>
   <tile/>
   <tile/>
   <tile/>
   <tile/>
   <tile gid="235"/>
   <tile gid="237"/>
   <tile/>
   <tile/>
   <tile/>
   <tile/>
   <tile gid="235"/>
   <tile gid="236"/>
   <tile gid="253"/>
   <tile/>
   <tile/>
   <tile/>
   <tile/>
   <tile/>
   <tile/>
   <tile/>
   <tile/>
   <tile/>
   <tile/>
   <tile/>
   <tile/>
   <tile/>
   <tile/>
   <tile/>
   <tile/>
   <tile/>
   <tile/>
   <tile/>
   <tile/>
   <tile/>
   <tile/>
   <tile/>
   <tile/>
   <tile/>
   <tile/>
   <tile/>
   <tile/>
   <tile/>
   <tile/>
   <tile/>
   <tile/>
   <tile/>
   <tile/>
   <tile/>
   <tile/>
   <tile/>
   <tile/>
   <tile/>
   <tile/>
   <tile/>
   <tile/>
   <tile/>
   <tile/>
   <tile/>
   <tile/>
   <tile/>
   <tile/>
   <tile/>
   <tile/>
   <tile/>
   <tile/>
   <tile gid="235"/>
   <tile gid="237"/>
   <tile/>
   <tile/>
   <tile/>
   <tile/>
   <tile gid="235"/>
   <tile gid="236"/>
   <tile gid="236"/>
   <tile gid="236"/>
   <tile gid="236"/>
   <tile gid="252"/>
   <tile gid="252"/>
   <tile gid="252"/>
   <tile gid="253"/>
   <tile/>
   <tile/>
   <tile/>
   <tile/>
   <tile/>
   <tile/>
   <tile/>
   <tile/>
   <tile/>
   <tile/>
   <tile/>
   <tile/>
   <tile/>
   <tile/>
   <tile gid="235"/>
   <tile gid="236"/>
   <tile gid="237"/>
   <tile/>
   <tile/>
   <tile/>
   <tile/>
   <tile gid="235"/>
   <tile/>
   <tile gid="235"/>
   <tile gid="236"/>
   <tile gid="236"/>
   <tile gid="236"/>
   <tile gid="237"/>
   <tile/>
   <tile/>
   <tile/>
   <tile/>
   <tile/>
   <tile gid="235"/>
   <tile gid="236"/>
   <tile gid="253"/>
   <tile/>
   <tile/>
   <tile/>
   <tile/>
   <tile/>
   <tile/>
   <tile/>
   <tile/>
   <tile/>
   <tile/>
   <tile/>
   <tile/>
   <tile/>
   <tile/>
   <tile/>
   <tile/>
   <tile/>
   <tile gid="235"/>
   <tile gid="237"/>
   <tile/>
   <tile/>
   <tile/>
   <tile/>
   <tile gid="251"/>
   <tile gid="253"/>
   <tile/>
   <tile/>
   <tile/>
   <tile/>
   <tile gid="235"/>
   <tile gid="237"/>
   <tile/>
   <tile/>
   <tile/>
   <tile/>
   <tile/>
   <tile/>
   <tile/>
   <tile/>
   <tile/>
   <tile/>
   <tile/>
   <tile/>
   <tile/>
   <tile/>
   <tile/>
   <tile/>
   <tile/>
   <tile/>
   <tile/>
   <tile/>
   <tile/>
   <tile/>
   <tile/>
   <tile/>
   <tile/>
   <tile/>
   <tile/>
   <tile/>
   <tile/>
   <tile/>
   <tile/>
   <tile/>
   <tile/>
   <tile/>
   <tile/>
   <tile/>
   <tile/>
   <tile/>
   <tile/>
   <tile/>
   <tile/>
   <tile/>
   <tile/>
   <tile/>
   <tile/>
   <tile/>
   <tile/>
   <tile/>
   <tile/>
   <tile/>
   <tile/>
   <tile/>
   <tile/>
   <tile gid="235"/>
   <tile gid="237"/>
   <tile/>
   <tile/>
   <tile/>
   <tile/>
   <tile gid="235"/>
   <tile gid="236"/>
   <tile gid="236"/>
   <tile gid="252"/>
   <tile gid="253"/>
   <tile/>
   <tile/>
   <tile/>
   <tile/>
   <tile/>
   <tile/>
   <tile/>
   <tile/>
   <tile/>
   <tile/>
   <tile/>
   <tile/>
   <tile/>
   <tile/>
   <tile/>
   <tile gid="219"/>
   <tile gid="220"/>
   <tile gid="220"/>
   <tile gid="236"/>
   <tile gid="236"/>
   <tile gid="237"/>
   <tile/>
   <tile/>
   <tile/>
   <tile/>
   <tile gid="235"/>
   <tile/>
   <tile gid="251"/>
   <tile gid="236"/>
   <tile gid="236"/>
   <tile gid="236"/>
   <tile gid="237"/>
   <tile/>
   <tile/>
   <tile/>
   <tile/>
   <tile/>
   <tile gid="235"/>
   <tile gid="253"/>
   <tile/>
   <tile/>
   <tile/>
   <tile/>
   <tile/>
   <tile/>
   <tile/>
   <tile/>
   <tile/>
   <tile/>
   <tile/>
   <tile/>
   <tile/>
   <tile/>
   <tile/>
   <tile/>
   <tile/>
   <tile/>
   <tile gid="235"/>
   <tile gid="237"/>
   <tile/>
   <tile/>
   <tile/>
   <tile/>
   <tile/>
   <tile/>
   <tile/>
   <tile/>
   <tile/>
   <tile/>
   <tile gid="235"/>
   <tile gid="237"/>
   <tile/>
   <tile/>
   <tile/>
   <tile/>
   <tile/>
   <tile/>
   <tile/>
   <tile/>
   <tile/>
   <tile/>
   <tile/>
   <tile/>
   <tile/>
   <tile/>
   <tile/>
   <tile/>
   <tile/>
   <tile/>
   <tile/>
   <tile/>
   <tile/>
   <tile/>
   <tile/>
   <tile/>
   <tile/>
   <tile/>
   <tile/>
   <tile/>
   <tile/>
   <tile/>
   <tile/>
   <tile/>
   <tile/>
   <tile/>
   <tile/>
   <tile/>
   <tile/>
   <tile/>
   <tile/>
   <tile/>
   <tile/>
   <tile/>
   <tile/>
   <tile/>
   <tile/>
   <tile/>
   <tile/>
   <tile/>
   <tile/>
   <tile/>
   <tile/>
   <tile/>
   <tile/>
   <tile gid="235"/>
   <tile gid="237"/>
   <tile/>
   <tile/>
   <tile/>
   <tile/>
   <tile gid="235"/>
   <tile gid="236"/>
   <tile gid="237"/>
   <tile/>
   <tile/>
   <tile/>
   <tile/>
   <tile/>
   <tile/>
   <tile/>
   <tile/>
   <tile/>
   <tile/>
   <tile/>
   <tile/>
   <tile/>
   <tile/>
   <tile/>
   <tile/>
   <tile/>
   <tile gid="235"/>
   <tile gid="236"/>
   <tile gid="236"/>
   <tile gid="236"/>
   <tile gid="236"/>
   <tile gid="237"/>
   <tile/>
   <tile/>
   <tile/>
   <tile/>
   <tile gid="235"/>
   <tile/>
   <tile/>
   <tile gid="235"/>
   <tile gid="236"/>
   <tile gid="236"/>
   <tile gid="237"/>
   <tile/>
   <tile/>
   <tile/>
   <tile/>
   <tile/>
   <tile gid="235"/>
   <tile/>
   <tile/>
   <tile/>
   <tile/>
   <tile/>
   <tile/>
   <tile/>
   <tile/>
   <tile/>
   <tile/>
   <tile/>
   <tile/>
   <tile/>
   <tile/>
   <tile/>
   <tile/>
   <tile/>
   <tile/>
   <tile/>
   <tile gid="235"/>
   <tile gid="237"/>
   <tile/>
   <tile/>
   <tile/>
   <tile/>
   <tile/>
   <tile/>
   <tile/>
   <tile/>
   <tile/>
   <tile/>
   <tile gid="235"/>
   <tile gid="237"/>
   <tile/>
   <tile/>
   <tile/>
   <tile/>
   <tile/>
   <tile/>
   <tile/>
   <tile/>
   <tile gid="219"/>
   <tile gid="220"/>
   <tile gid="220"/>
   <tile gid="220"/>
   <tile gid="221"/>
   <tile/>
   <tile/>
   <tile/>
   <tile/>
   <tile/>
   <tile/>
   <tile gid="219"/>
   <tile gid="220"/>
   <tile gid="220"/>
   <tile gid="220"/>
   <tile gid="221"/>
   <tile/>
   <tile/>
   <tile/>
   <tile/>
   <tile/>
   <tile/>
   <tile gid="219"/>
   <tile gid="220"/>
   <tile gid="220"/>
   <tile gid="220"/>
   <tile gid="221"/>
   <tile/>
   <tile/>
   <tile/>
   <tile/>
   <tile/>
   <tile/>
   <tile gid="219"/>
   <tile gid="220"/>
   <tile gid="220"/>
   <tile gid="220"/>
   <tile gid="221"/>
   <tile/>
   <tile/>
   <tile/>
   <tile/>
   <tile/>
   <tile/>
   <tile gid="251"/>
   <tile gid="252"/>
   <tile gid="253"/>
   <tile/>
   <tile/>
   <tile/>
   <tile/>
   <tile gid="235"/>
   <tile gid="236"/>
   <tile gid="253"/>
   <tile/>
   <tile/>
   <tile/>
   <tile/>
   <tile/>
   <tile/>
   <tile/>
   <tile/>
   <tile/>
   <tile/>
   <tile/>
   <tile/>
   <tile/>
   <tile/>
   <tile/>
   <tile/>
   <tile/>
   <tile gid="235"/>
   <tile gid="236"/>
   <tile gid="236"/>
   <tile gid="236"/>
   <tile gid="236"/>
   <tile gid="237"/>
   <tile/>
   <tile/>
   <tile/>
   <tile/>
   <tile gid="235"/>
   <tile/>
   <tile/>
   <tile gid="235"/>
   <tile gid="236"/>
   <tile gid="236"/>
   <tile gid="237"/>
   <tile/>
   <tile/>
   <tile/>
   <tile/>
   <tile/>
   <tile gid="251"/>
   <tile/>
   <tile/>
   <tile/>
   <tile/>
   <tile/>
   <tile/>
   <tile/>
   <tile/>
   <tile/>
   <tile/>
   <tile/>
   <tile/>
   <tile/>
   <tile/>
   <tile/>
   <tile/>
   <tile/>
   <tile/>
   <tile/>
   <tile gid="251"/>
   <tile gid="237"/>
   <tile/>
   <tile/>
   <tile/>
   <tile/>
   <tile/>
   <tile/>
   <tile/>
   <tile/>
   <tile/>
   <tile/>
   <tile gid="235"/>
   <tile gid="237"/>
   <tile/>
   <tile/>
   <tile/>
   <tile/>
   <tile/>
   <tile/>
   <tile/>
   <tile/>
   <tile/>
   <tile gid="251"/>
   <tile gid="252"/>
   <tile gid="253"/>
   <tile/>
   <tile/>
   <tile/>
   <tile/>
   <tile/>
   <tile/>
   <tile/>
   <tile/>
   <tile gid="251"/>
   <tile gid="252"/>
   <tile gid="253"/>
   <tile/>
   <tile/>
   <tile/>
   <tile/>
   <tile/>
   <tile/>
   <tile/>
   <tile/>
   <tile gid="251"/>
   <tile gid="252"/>
   <tile gid="253"/>
   <tile/>
   <tile/>
   <tile/>
   <tile/>
   <tile/>
   <tile/>
   <tile/>
   <tile/>
   <tile gid="251"/>
   <tile gid="252"/>
   <tile gid="253"/>
   <tile/>
   <tile/>
   <tile/>
   <tile/>
   <tile/>
   <tile/>
   <tile/>
   <tile/>
   <tile/>
   <tile/>
   <tile/>
   <tile/>
   <tile/>
   <tile/>
   <tile gid="235"/>
   <tile gid="237"/>
   <tile/>
   <tile/>
   <tile/>
   <tile/>
   <tile/>
   <tile/>
   <tile/>
   <tile/>
   <tile/>
   <tile/>
   <tile/>
   <tile/>
   <tile/>
   <tile/>
   <tile/>
   <tile/>
   <tile/>
   <tile/>
   <tile gid="235"/>
   <tile gid="236"/>
   <tile gid="236"/>
   <tile gid="236"/>
   <tile gid="236"/>
   <tile gid="237"/>
   <tile/>
   <tile/>
   <tile/>
   <tile/>
   <tile gid="235"/>
   <tile/>
   <tile/>
   <tile gid="235"/>
   <tile gid="236"/>
   <tile gid="236"/>
   <tile gid="237"/>
   <tile/>
   <tile/>
   <tile/>
   <tile/>
   <tile/>
   <tile/>
   <tile/>
   <tile/>
   <tile/>
   <tile/>
   <tile/>
   <tile/>
   <tile/>
   <tile/>
   <tile/>
   <tile/>
   <tile/>
   <tile/>
   <tile/>
   <tile/>
   <tile/>
   <tile/>
   <tile/>
   <tile/>
   <tile/>
   <tile/>
   <tile gid="237"/>
   <tile/>
   <tile/>
   <tile/>
   <tile/>
   <tile/>
   <tile/>
   <tile/>
   <tile/>
   <tile/>
   <tile/>
   <tile gid="235"/>
   <tile gid="237"/>
   <tile/>
   <tile/>
   <tile/>
   <tile/>
   <tile/>
   <tile/>
   <tile/>
   <tile/>
   <tile/>
   <tile/>
   <tile/>
   <tile/>
   <tile/>
   <tile/>
   <tile/>
   <tile/>
   <tile/>
   <tile/>
   <tile/>
   <tile/>
   <tile/>
   <tile/>
   <tile/>
   <tile/>
   <tile/>
   <tile/>
   <tile/>
   <tile/>
   <tile/>
   <tile/>
   <tile/>
   <tile/>
   <tile/>
   <tile/>
   <tile/>
   <tile/>
   <tile/>
   <tile/>
   <tile/>
   <tile/>
   <tile/>
   <tile/>
   <tile/>
   <tile/>
   <tile/>
   <tile/>
   <tile/>
   <tile/>
   <tile/>
   <tile/>
   <tile/>
   <tile/>
   <tile/>
   <tile/>
   <tile/>
   <tile/>
   <tile/>
   <tile/>
   <tile/>
   <tile gid="235"/>
   <tile gid="237"/>
   <tile/>
   <tile/>
   <tile/>
   <tile/>
   <tile/>
   <tile/>
   <tile/>
   <tile/>
   <tile/>
   <tile/>
   <tile/>
   <tile/>
   <tile/>
   <tile/>
   <tile/>
   <tile/>
   <tile/>
   <tile/>
   <tile gid="235"/>
   <tile gid="236"/>
   <tile gid="236"/>
   <tile gid="236"/>
   <tile gid="236"/>
   <tile gid="237"/>
   <tile/>
   <tile/>
   <tile/>
   <tile/>
   <tile gid="235"/>
   <tile/>
   <tile/>
   <tile gid="235"/>
   <tile gid="236"/>
   <tile gid="236"/>
   <tile gid="253"/>
   <tile/>
   <tile/>
   <tile/>
   <tile/>
   <tile/>
   <tile/>
   <tile/>
   <tile/>
   <tile/>
   <tile/>
   <tile/>
   <tile/>
   <tile/>
   <tile/>
   <tile/>
   <tile/>
   <tile/>
   <tile/>
   <tile/>
   <tile/>
   <tile/>
   <tile/>
   <tile/>
   <tile/>
   <tile/>
   <tile/>
   <tile gid="237"/>
   <tile/>
   <tile/>
   <tile/>
   <tile/>
   <tile/>
   <tile/>
   <tile/>
   <tile/>
   <tile/>
   <tile/>
   <tile gid="235"/>
   <tile gid="237"/>
   <tile/>
   <tile/>
   <tile/>
   <tile/>
   <tile/>
   <tile/>
   <tile/>
   <tile/>
   <tile/>
   <tile/>
   <tile/>
   <tile/>
   <tile/>
   <tile/>
   <tile/>
   <tile/>
   <tile/>
   <tile/>
   <tile/>
   <tile/>
   <tile/>
   <tile/>
   <tile/>
   <tile/>
   <tile/>
   <tile/>
   <tile/>
   <tile/>
   <tile/>
   <tile/>
   <tile/>
   <tile/>
   <tile/>
   <tile/>
   <tile/>
   <tile/>
   <tile/>
   <tile/>
   <tile/>
   <tile/>
   <tile/>
   <tile/>
   <tile/>
   <tile/>
   <tile/>
   <tile/>
   <tile/>
   <tile/>
   <tile/>
   <tile/>
   <tile/>
   <tile/>
   <tile/>
   <tile/>
   <tile/>
   <tile/>
   <tile/>
   <tile/>
   <tile/>
   <tile gid="235"/>
   <tile gid="237"/>
   <tile/>
   <tile/>
   <tile/>
   <tile/>
   <tile/>
   <tile/>
   <tile/>
   <tile/>
   <tile/>
   <tile/>
   <tile/>
   <tile/>
   <tile/>
   <tile/>
   <tile/>
   <tile/>
   <tile/>
   <tile/>
   <tile gid="235"/>
   <tile gid="236"/>
   <tile gid="236"/>
   <tile gid="236"/>
   <tile gid="236"/>
   <tile gid="237"/>
   <tile/>
   <tile/>
   <tile/>
   <tile/>
   <tile gid="235"/>
   <tile/>
   <tile/>
   <tile gid="235"/>
   <tile gid="236"/>
   <tile gid="237"/>
   <tile/>
   <tile/>
   <tile/>
   <tile/>
   <tile/>
   <tile/>
   <tile/>
   <tile/>
   <tile/>
   <tile/>
   <tile/>
   <tile/>
   <tile/>
   <tile/>
   <tile/>
   <tile/>
   <tile/>
   <tile/>
   <tile/>
   <tile/>
   <tile/>
   <tile/>
   <tile/>
   <tile/>
   <tile/>
   <tile/>
   <tile/>
   <tile gid="253"/>
   <tile/>
   <tile/>
   <tile/>
   <tile/>
   <tile gid="219"/>
   <tile gid="220"/>
   <tile gid="220"/>
   <tile gid="220"/>
   <tile gid="220"/>
   <tile gid="220"/>
   <tile gid="248"/>
   <tile gid="249"/>
   <tile gid="220"/>
   <tile gid="221"/>
   <tile/>
   <tile/>
   <tile/>
   <tile/>
   <tile/>
   <tile/>
   <tile/>
   <tile/>
   <tile/>
   <tile/>
   <tile/>
   <tile/>
   <tile/>
   <tile/>
   <tile/>
   <tile/>
   <tile/>
   <tile/>
   <tile/>
   <tile/>
   <tile/>
   <tile/>
   <tile/>
   <tile/>
   <tile/>
   <tile/>
   <tile/>
   <tile/>
   <tile/>
   <tile/>
   <tile/>
   <tile/>
   <tile/>
   <tile/>
   <tile/>
   <tile/>
   <tile/>
   <tile/>
   <tile/>
   <tile/>
   <tile/>
   <tile/>
   <tile/>
   <tile/>
   <tile/>
   <tile/>
   <tile/>
   <tile/>
   <tile/>
   <tile/>
   <tile/>
   <tile/>
   <tile/>
   <tile/>
   <tile/>
   <tile/>
   <tile/>
   <tile gid="235"/>
   <tile gid="237"/>
   <tile/>
   <tile/>
   <tile/>
   <tile/>
   <tile/>
   <tile/>
   <tile/>
   <tile/>
   <tile/>
   <tile/>
   <tile/>
   <tile/>
   <tile/>
   <tile/>
   <tile/>
   <tile/>
   <tile/>
   <tile/>
   <tile gid="251"/>
   <tile gid="252"/>
   <tile gid="252"/>
   <tile gid="236"/>
   <tile gid="236"/>
   <tile gid="237"/>
   <tile/>
   <tile/>
   <tile/>
   <tile/>
   <tile gid="235"/>
   <tile/>
   <tile/>
   <tile gid="235"/>
   <tile gid="236"/>
   <tile gid="237"/>
   <tile/>
   <tile gid="219"/>
   <tile gid="220"/>
   <tile gid="220"/>
   <tile gid="220"/>
   <tile gid="220"/>
   <tile gid="220"/>
   <tile gid="220"/>
   <tile gid="221"/>
   <tile/>
   <tile/>
   <tile/>
   <tile/>
   <tile/>
   <tile/>
   <tile/>
   <tile/>
   <tile/>
   <tile/>
   <tile/>
   <tile/>
   <tile/>
   <tile/>
   <tile/>
   <tile/>
   <tile/>
   <tile/>
   <tile/>
   <tile/>
   <tile/>
   <tile/>
   <tile/>
   <tile/>
   <tile gid="251"/>
   <tile gid="252"/>
   <tile gid="252"/>
   <tile gid="252"/>
   <tile gid="252"/>
   <tile gid="252"/>
   <tile gid="252"/>
   <tile gid="253"/>
   <tile/>
   <tile/>
   <tile/>
   <tile/>
   <tile/>
   <tile/>
   <tile/>
   <tile/>
   <tile/>
   <tile/>
   <tile/>
   <tile/>
   <tile/>
   <tile/>
   <tile/>
   <tile/>
   <tile/>
   <tile/>
   <tile/>
   <tile/>
   <tile/>
   <tile/>
   <tile/>
   <tile/>
   <tile/>
   <tile/>
   <tile/>
   <tile/>
   <tile/>
   <tile/>
   <tile/>
   <tile/>
   <tile/>
   <tile/>
   <tile/>
   <tile/>
   <tile/>
   <tile/>
   <tile/>
   <tile/>
   <tile/>
   <tile/>
   <tile/>
   <tile/>
   <tile/>
   <tile/>
   <tile/>
   <tile/>
   <tile/>
   <tile gid="219"/>
   <tile gid="220"/>
   <tile gid="220"/>
   <tile gid="220"/>
   <tile gid="221"/>
   <tile/>
   <tile/>
   <tile/>
   <tile/>
   <tile gid="235"/>
   <tile gid="237"/>
   <tile/>
   <tile/>
   <tile/>
   <tile/>
   <tile/>
   <tile/>
   <tile/>
   <tile/>
   <tile/>
   <tile/>
   <tile/>
   <tile/>
   <tile/>
   <tile/>
   <tile/>
   <tile/>
   <tile/>
   <tile/>
   <tile/>
   <tile/>
   <tile/>
   <tile gid="235"/>
   <tile gid="236"/>
   <tile gid="237"/>
   <tile/>
   <tile/>
   <tile/>
   <tile/>
   <tile gid="235"/>
   <tile/>
   <tile/>
   <tile gid="235"/>
   <tile gid="236"/>
   <tile gid="237"/>
   <tile/>
   <tile/>
   <tile gid="251"/>
   <tile gid="236"/>
   <tile gid="236"/>
   <tile gid="236"/>
   <tile gid="236"/>
   <tile gid="253"/>
   <tile/>
   <tile/>
   <tile/>
   <tile/>
   <tile/>
   <tile/>
   <tile/>
   <tile/>
   <tile/>
   <tile/>
   <tile/>
   <tile/>
   <tile/>
   <tile/>
   <tile/>
   <tile/>
   <tile/>
   <tile/>
   <tile/>
   <tile/>
   <tile/>
   <tile/>
   <tile/>
   <tile/>
   <tile/>
   <tile/>
   <tile/>
   <tile/>
   <tile/>
   <tile/>
   <tile/>
   <tile/>
   <tile/>
   <tile/>
   <tile/>
   <tile/>
   <tile/>
   <tile/>
   <tile/>
   <tile/>
   <tile/>
   <tile/>
   <tile/>
   <tile/>
   <tile/>
   <tile/>
   <tile/>
   <tile/>
   <tile/>
   <tile/>
   <tile/>
   <tile/>
   <tile/>
   <tile/>
   <tile/>
   <tile/>
   <tile/>
   <tile/>
   <tile/>
   <tile/>
   <tile/>
   <tile/>
   <tile/>
   <tile/>
   <tile/>
   <tile/>
   <tile/>
   <tile/>
   <tile/>
   <tile/>
   <tile/>
   <tile/>
   <tile/>
   <tile/>
   <tile/>
   <tile/>
   <tile/>
   <tile/>
   <tile/>
   <tile/>
   <tile/>
   <tile/>
   <tile/>
   <tile/>
   <tile gid="251"/>
   <tile gid="236"/>
   <tile gid="237"/>
   <tile/>
   <tile/>
   <tile/>
   <tile/>
   <tile gid="235"/>
   <tile gid="237"/>
   <tile/>
   <tile/>
   <tile/>
   <tile/>
   <tile/>
   <tile/>
   <tile/>
   <tile/>
   <tile/>
   <tile/>
   <tile/>
   <tile/>
   <tile/>
   <tile/>
   <tile/>
   <tile/>
   <tile/>
   <tile/>
   <tile/>
   <tile/>
   <tile/>
   <tile gid="251"/>
   <tile gid="236"/>
   <tile gid="237"/>
   <tile/>
   <tile/>
   <tile/>
   <tile/>
   <tile gid="235"/>
   <tile/>
   <tile/>
   <tile gid="235"/>
   <tile gid="236"/>
   <tile gid="237"/>
   <tile/>
   <tile/>
   <tile/>
   <tile gid="251"/>
   <tile gid="252"/>
   <tile gid="252"/>
   <tile gid="253"/>
   <tile/>
   <tile/>
   <tile/>
   <tile/>
   <tile/>
   <tile/>
   <tile/>
   <tile/>
   <tile/>
   <tile/>
   <tile/>
   <tile/>
   <tile/>
   <tile/>
   <tile/>
   <tile/>
   <tile/>
   <tile/>
   <tile/>
   <tile/>
   <tile/>
   <tile/>
   <tile/>
   <tile/>
   <tile/>
   <tile/>
   <tile/>
   <tile/>
   <tile/>
   <tile/>
   <tile/>
   <tile/>
   <tile/>
   <tile/>
   <tile/>
   <tile/>
   <tile/>
   <tile/>
   <tile/>
   <tile/>
   <tile/>
   <tile/>
   <tile/>
   <tile/>
   <tile/>
   <tile/>
   <tile/>
   <tile/>
   <tile/>
   <tile/>
   <tile/>
   <tile/>
   <tile/>
   <tile/>
   <tile/>
   <tile/>
   <tile/>
   <tile/>
   <tile/>
   <tile/>
   <tile/>
   <tile/>
   <tile/>
   <tile/>
   <tile/>
   <tile/>
   <tile/>
   <tile/>
   <tile/>
   <tile/>
   <tile/>
   <tile/>
   <tile/>
   <tile/>
   <tile/>
   <tile/>
   <tile/>
   <tile/>
   <tile/>
   <tile/>
   <tile/>
   <tile/>
   <tile/>
   <tile/>
   <tile/>
   <tile/>
   <tile gid="235"/>
   <tile gid="237"/>
   <tile/>
   <tile/>
   <tile/>
   <tile/>
   <tile gid="235"/>
   <tile gid="237"/>
   <tile/>
   <tile/>
   <tile/>
   <tile/>
   <tile/>
   <tile/>
   <tile/>
   <tile/>
   <tile/>
   <tile/>
   <tile/>
   <tile/>
   <tile/>
   <tile/>
   <tile/>
   <tile/>
   <tile/>
   <tile/>
   <tile/>
   <tile/>
   <tile/>
   <tile/>
   <tile gid="235"/>
   <tile gid="237"/>
   <tile/>
   <tile/>
   <tile/>
   <tile/>
   <tile gid="235"/>
   <tile/>
   <tile/>
   <tile gid="235"/>
   <tile gid="236"/>
   <tile gid="237"/>
   <tile/>
   <tile/>
   <tile/>
   <tile/>
   <tile/>
   <tile/>
   <tile/>
   <tile/>
   <tile/>
   <tile/>
   <tile/>
   <tile/>
   <tile/>
   <tile/>
   <tile/>
   <tile/>
   <tile/>
   <tile/>
   <tile/>
   <tile/>
   <tile/>
   <tile/>
   <tile/>
   <tile/>
   <tile/>
   <tile/>
   <tile/>
   <tile/>
   <tile/>
   <tile/>
   <tile/>
   <tile/>
   <tile/>
   <tile/>
   <tile/>
   <tile/>
   <tile/>
   <tile/>
   <tile/>
   <tile/>
   <tile/>
   <tile/>
   <tile/>
   <tile/>
   <tile/>
   <tile/>
   <tile/>
   <tile/>
   <tile/>
   <tile/>
   <tile/>
   <tile/>
   <tile/>
   <tile/>
   <tile/>
   <tile/>
   <tile/>
   <tile/>
   <tile/>
   <tile/>
   <tile/>
   <tile/>
   <tile/>
   <tile/>
   <tile/>
   <tile/>
   <tile/>
   <tile/>
   <tile/>
   <tile/>
   <tile/>
   <tile/>
   <tile/>
   <tile/>
   <tile/>
   <tile/>
   <tile/>
   <tile/>
   <tile/>
   <tile/>
   <tile/>
   <tile/>
   <tile/>
   <tile/>
   <tile/>
   <tile/>
   <tile/>
   <tile/>
   <tile/>
   <tile/>
   <tile/>
   <tile/>
   <tile/>
   <tile gid="235"/>
   <tile gid="237"/>
   <tile/>
   <tile/>
   <tile/>
   <tile/>
   <tile gid="235"/>
   <tile gid="237"/>
   <tile/>
   <tile/>
   <tile/>
   <tile/>
   <tile/>
   <tile/>
   <tile/>
   <tile/>
   <tile/>
   <tile/>
   <tile/>
   <tile/>
   <tile/>
   <tile/>
   <tile/>
   <tile/>
   <tile/>
   <tile/>
   <tile/>
   <tile/>
   <tile/>
   <tile/>
   <tile gid="235"/>
   <tile gid="237"/>
   <tile/>
   <tile/>
   <tile/>
   <tile/>
   <tile gid="235"/>
   <tile/>
   <tile/>
   <tile gid="235"/>
   <tile gid="236"/>
   <tile gid="237"/>
   <tile/>
   <tile/>
   <tile/>
   <tile/>
   <tile/>
   <tile/>
   <tile/>
   <tile/>
   <tile/>
   <tile/>
   <tile/>
   <tile/>
   <tile/>
   <tile/>
   <tile/>
   <tile/>
   <tile/>
   <tile/>
   <tile/>
   <tile/>
   <tile/>
   <tile/>
   <tile/>
   <tile/>
   <tile/>
   <tile/>
   <tile/>
   <tile/>
   <tile/>
   <tile/>
   <tile/>
   <tile/>
   <tile/>
   <tile/>
   <tile/>
   <tile/>
   <tile/>
   <tile gid="219"/>
   <tile gid="221"/>
   <tile/>
   <tile/>
   <tile/>
   <tile/>
   <tile/>
   <tile/>
   <tile/>
   <tile/>
   <tile/>
   <tile/>
   <tile/>
   <tile/>
   <tile/>
   <tile/>
   <tile/>
   <tile/>
   <tile/>
   <tile/>
   <tile/>
   <tile/>
   <tile/>
   <tile/>
   <tile/>
   <tile/>
   <tile/>
   <tile/>
   <tile/>
   <tile/>
   <tile/>
   <tile/>
   <tile/>
   <tile/>
   <tile/>
   <tile/>
   <tile/>
   <tile/>
   <tile/>
   <tile/>
   <tile/>
   <tile/>
   <tile/>
   <tile/>
   <tile/>
   <tile/>
   <tile/>
   <tile/>
   <tile/>
   <tile/>
   <tile/>
   <tile/>
   <tile/>
   <tile/>
   <tile/>
   <tile/>
   <tile gid="251"/>
   <tile gid="237"/>
   <tile/>
   <tile/>
   <tile/>
   <tile/>
   <tile gid="235"/>
   <tile gid="237"/>
   <tile/>
   <tile/>
   <tile/>
   <tile/>
   <tile/>
   <tile/>
   <tile/>
   <tile/>
   <tile/>
   <tile/>
   <tile/>
   <tile/>
   <tile/>
   <tile/>
   <tile/>
   <tile/>
   <tile/>
   <tile/>
   <tile/>
   <tile/>
   <tile/>
   <tile/>
   <tile gid="251"/>
   <tile gid="237"/>
   <tile/>
   <tile/>
   <tile/>
   <tile/>
   <tile gid="251"/>
   <tile/>
   <tile/>
   <tile gid="235"/>
   <tile gid="236"/>
   <tile gid="237"/>
   <tile/>
   <tile/>
   <tile/>
   <tile/>
   <tile/>
   <tile/>
   <tile/>
   <tile/>
   <tile/>
   <tile/>
   <tile/>
   <tile/>
   <tile/>
   <tile/>
   <tile/>
   <tile/>
   <tile/>
   <tile/>
   <tile/>
   <tile/>
   <tile/>
   <tile/>
   <tile/>
   <tile/>
   <tile/>
   <tile/>
   <tile/>
   <tile gid="219"/>
   <tile gid="220"/>
   <tile gid="220"/>
   <tile gid="220"/>
   <tile gid="220"/>
   <tile gid="220"/>
   <tile gid="220"/>
   <tile gid="221"/>
   <tile/>
   <tile/>
   <tile gid="235"/>
   <tile gid="236"/>
   <tile gid="220"/>
   <tile gid="221"/>
   <tile/>
   <tile/>
   <tile/>
   <tile/>
   <tile/>
   <tile/>
   <tile/>
   <tile/>
   <tile/>
   <tile/>
   <tile/>
   <tile/>
   <tile/>
   <tile/>
   <tile/>
   <tile/>
   <tile/>
   <tile/>
   <tile/>
   <tile/>
   <tile/>
   <tile/>
   <tile/>
   <tile/>
   <tile/>
   <tile/>
   <tile/>
   <tile/>
   <tile/>
   <tile/>
   <tile/>
   <tile/>
   <tile/>
   <tile/>
   <tile/>
   <tile/>
   <tile/>
   <tile/>
   <tile/>
   <tile/>
   <tile/>
   <tile/>
   <tile/>
   <tile/>
   <tile/>
   <tile/>
   <tile/>
   <tile/>
   <tile/>
   <tile/>
   <tile/>
   <tile/>
   <tile/>
   <tile gid="237"/>
   <tile/>
   <tile/>
   <tile/>
   <tile/>
   <tile gid="235"/>
   <tile gid="237"/>
   <tile/>
   <tile/>
   <tile/>
   <tile/>
   <tile/>
   <tile/>
   <tile/>
   <tile/>
   <tile/>
   <tile/>
   <tile/>
   <tile/>
   <tile/>
   <tile/>
   <tile/>
   <tile/>
   <tile/>
   <tile/>
   <tile/>
   <tile/>
   <tile/>
   <tile/>
   <tile/>
   <tile gid="237"/>
   <tile/>
   <tile/>
   <tile/>
   <tile/>
   <tile/>
   <tile/>
   <tile/>
   <tile gid="235"/>
   <tile gid="236"/>
   <tile gid="237"/>
   <tile/>
   <tile/>
   <tile/>
   <tile/>
   <tile/>
   <tile/>
   <tile/>
   <tile/>
   <tile/>
   <tile/>
   <tile/>
   <tile/>
   <tile/>
   <tile/>
   <tile/>
   <tile/>
   <tile/>
   <tile/>
   <tile/>
   <tile/>
   <tile/>
   <tile/>
   <tile/>
   <tile/>
   <tile/>
   <tile/>
   <tile/>
   <tile/>
   <tile gid="251"/>
   <tile gid="236"/>
   <tile gid="236"/>
   <tile gid="236"/>
   <tile gid="236"/>
   <tile gid="253"/>
   <tile/>
   <tile/>
   <tile/>
   <tile gid="235"/>
   <tile gid="236"/>
   <tile gid="236"/>
   <tile gid="237"/>
   <tile/>
   <tile/>
   <tile/>
   <tile/>
   <tile/>
   <tile/>
   <tile/>
   <tile/>
   <tile/>
   <tile/>
   <tile/>
   <tile/>
   <tile/>
   <tile/>
   <tile/>
   <tile/>
   <tile/>
   <tile/>
   <tile/>
   <tile/>
   <tile/>
   <tile/>
   <tile/>
   <tile/>
   <tile/>
   <tile/>
   <tile/>
   <tile/>
   <tile/>
   <tile/>
   <tile/>
   <tile/>
   <tile/>
   <tile/>
   <tile/>
   <tile/>
   <tile/>
   <tile/>
   <tile/>
   <tile/>
   <tile/>
   <tile/>
   <tile/>
   <tile/>
   <tile/>
   <tile/>
   <tile/>
   <tile/>
   <tile/>
   <tile/>
   <tile/>
   <tile/>
   <tile/>
   <tile gid="253"/>
   <tile/>
   <tile/>
   <tile/>
   <tile/>
   <tile gid="235"/>
   <tile gid="237"/>
   <tile/>
   <tile/>
   <tile/>
   <tile/>
   <tile/>
   <tile/>
   <tile/>
   <tile/>
   <tile/>
   <tile/>
   <tile/>
   <tile/>
   <tile/>
   <tile/>
   <tile/>
   <tile/>
   <tile/>
   <tile/>
   <tile/>
   <tile/>
   <tile/>
   <tile/>
   <tile/>
   <tile/>
   <tile/>
   <tile/>
   <tile/>
   <tile/>
   <tile/>
   <tile/>
   <tile/>
   <tile gid="235"/>
   <tile gid="236"/>
   <tile gid="237"/>
   <tile/>
   <tile/>
   <tile/>
   <tile/>
   <tile/>
   <tile/>
   <tile/>
   <tile/>
   <tile/>
   <tile/>
   <tile/>
   <tile/>
   <tile/>
   <tile/>
   <tile/>
   <tile/>
   <tile/>
   <tile/>
   <tile/>
   <tile/>
   <tile/>
   <tile/>
   <tile/>
   <tile/>
   <tile/>
   <tile/>
   <tile/>
   <tile/>
   <tile/>
   <tile gid="251"/>
   <tile gid="252"/>
   <tile gid="252"/>
   <tile gid="253"/>
   <tile/>
   <tile/>
   <tile/>
   <tile/>
   <tile gid="235"/>
   <tile gid="236"/>
   <tile gid="236"/>
   <tile gid="249"/>
   <tile gid="220"/>
   <tile gid="220"/>
   <tile gid="220"/>
   <tile gid="221"/>
   <tile/>
   <tile/>
   <tile/>
   <tile/>
   <tile/>
   <tile/>
   <tile/>
   <tile/>
   <tile/>
   <tile/>
   <tile/>
   <tile/>
   <tile/>
   <tile/>
   <tile/>
   <tile/>
   <tile/>
   <tile/>
   <tile/>
   <tile/>
   <tile/>
   <tile/>
   <tile/>
   <tile/>
   <tile/>
   <tile/>
   <tile/>
   <tile/>
   <tile/>
   <tile/>
   <tile/>
   <tile/>
   <tile/>
   <tile/>
   <tile/>
   <tile/>
   <tile/>
   <tile/>
   <tile/>
   <tile/>
   <tile/>
   <tile/>
   <tile/>
   <tile/>
   <tile/>
   <tile/>
   <tile/>
   <tile/>
   <tile/>
   <tile/>
   <tile/>
   <tile/>
   <tile/>
   <tile/>
   <tile gid="235"/>
   <tile gid="237"/>
   <tile/>
   <tile/>
   <tile/>
   <tile/>
   <tile/>
   <tile/>
   <tile/>
   <tile/>
   <tile/>
   <tile/>
   <tile/>
   <tile/>
   <tile/>
   <tile/>
   <tile/>
   <tile/>
   <tile/>
   <tile/>
   <tile/>
   <tile/>
   <tile/>
   <tile/>
   <tile/>
   <tile/>
   <tile/>
   <tile/>
   <tile/>
   <tile/>
   <tile/>
   <tile/>
   <tile/>
   <tile gid="235"/>
   <tile gid="236"/>
   <tile gid="237"/>
   <tile/>
   <tile/>
   <tile/>
   <tile/>
   <tile/>
   <tile/>
   <tile/>
   <tile/>
   <tile/>
   <tile/>
   <tile/>
   <tile/>
   <tile/>
   <tile/>
   <tile/>
   <tile/>
   <tile gid="219"/>
   <tile gid="220"/>
   <tile gid="220"/>
   <tile gid="220"/>
   <tile gid="220"/>
   <tile gid="220"/>
   <tile gid="221"/>
   <tile/>
   <tile/>
   <tile/>
   <tile/>
   <tile/>
   <tile/>
   <tile/>
   <tile/>
   <tile/>
   <tile/>
   <tile/>
   <tile/>
   <tile/>
   <tile/>
   <tile gid="235"/>
   <tile gid="236"/>
   <tile gid="236"/>
   <tile gid="236"/>
   <tile gid="236"/>
   <tile gid="252"/>
   <tile gid="252"/>
   <tile gid="253"/>
   <tile/>
   <tile/>
   <tile/>
   <tile/>
   <tile/>
   <tile/>
   <tile/>
   <tile/>
   <tile/>
   <tile/>
   <tile/>
   <tile/>
   <tile/>
   <tile/>
   <tile/>
   <tile/>
   <tile/>
   <tile/>
   <tile/>
   <tile/>
   <tile/>
   <tile/>
   <tile/>
   <tile/>
   <tile/>
   <tile/>
   <tile/>
   <tile/>
   <tile/>
   <tile/>
   <tile/>
   <tile/>
   <tile/>
   <tile/>
   <tile/>
   <tile/>
   <tile/>
   <tile/>
   <tile/>
   <tile/>
   <tile/>
   <tile/>
   <tile/>
   <tile/>
   <tile/>
   <tile/>
   <tile/>
   <tile/>
   <tile/>
   <tile/>
   <tile/>
   <tile/>
   <tile/>
   <tile/>
   <tile gid="235"/>
   <tile gid="237"/>
   <tile/>
   <tile/>
   <tile/>
   <tile/>
   <tile/>
   <tile/>
   <tile/>
   <tile/>
   <tile/>
   <tile/>
   <tile/>
   <tile/>
   <tile/>
   <tile/>
   <tile/>
   <tile/>
   <tile/>
   <tile/>
   <tile/>
   <tile/>
   <tile/>
   <tile/>
   <tile/>
   <tile/>
   <tile/>
   <tile/>
   <tile/>
   <tile/>
   <tile/>
   <tile/>
   <tile/>
   <tile gid="235"/>
   <tile gid="236"/>
   <tile gid="237"/>
   <tile/>
   <tile/>
   <tile/>
   <tile/>
   <tile/>
   <tile/>
   <tile/>
   <tile/>
   <tile/>
   <tile/>
   <tile/>
   <tile/>
   <tile/>
   <tile/>
   <tile/>
   <tile/>
   <tile/>
   <tile gid="251"/>
   <tile gid="236"/>
   <tile gid="236"/>
   <tile gid="236"/>
   <tile gid="253"/>
   <tile/>
   <tile/>
   <tile/>
   <tile/>
   <tile/>
   <tile/>
   <tile/>
   <tile/>
   <tile/>
   <tile/>
   <tile/>
   <tile/>
   <tile/>
   <tile/>
   <tile/>
   <tile gid="251"/>
   <tile gid="252"/>
   <tile gid="252"/>
   <tile gid="252"/>
   <tile gid="253"/>
   <tile/>
   <tile/>
   <tile/>
   <tile/>
   <tile/>
   <tile/>
   <tile/>
   <tile/>
   <tile/>
   <tile/>
   <tile/>
   <tile/>
   <tile/>
   <tile/>
   <tile/>
   <tile/>
   <tile/>
   <tile/>
   <tile/>
   <tile/>
   <tile/>
   <tile/>
   <tile/>
   <tile/>
   <tile/>
   <tile/>
   <tile/>
   <tile/>
   <tile/>
   <tile/>
   <tile/>
   <tile/>
   <tile/>
   <tile/>
   <tile/>
   <tile/>
   <tile/>
   <tile/>
   <tile/>
   <tile/>
   <tile/>
   <tile/>
   <tile/>
   <tile/>
   <tile/>
   <tile/>
   <tile/>
   <tile/>
   <tile/>
   <tile/>
   <tile/>
   <tile/>
   <tile/>
   <tile/>
   <tile/>
   <tile/>
   <tile/>
   <tile gid="251"/>
   <tile gid="252"/>
   <tile gid="220"/>
   <tile gid="220"/>
   <tile gid="220"/>
   <tile gid="220"/>
   <tile gid="220"/>
   <tile gid="220"/>
   <tile gid="220"/>
   <tile gid="220"/>
   <tile gid="220"/>
   <tile gid="220"/>
   <tile gid="221"/>
   <tile/>
   <tile/>
   <tile/>
   <tile/>
   <tile/>
   <tile/>
   <tile/>
   <tile gid="219"/>
   <tile gid="220"/>
   <tile gid="220"/>
   <tile gid="220"/>
   <tile gid="220"/>
   <tile gid="220"/>
   <tile gid="221"/>
   <tile/>
   <tile/>
   <tile/>
   <tile/>
   <tile/>
   <tile/>
   <tile gid="235"/>
   <tile gid="236"/>
   <tile gid="237"/>
   <tile/>
   <tile/>
   <tile/>
   <tile/>
   <tile/>
   <tile/>
   <tile/>
   <tile gid="219"/>
   <tile gid="220"/>
   <tile gid="220"/>
   <tile gid="220"/>
   <tile gid="220"/>
   <tile gid="221"/>
   <tile/>
   <tile/>
   <tile/>
   <tile/>
   <tile/>
   <tile gid="251"/>
   <tile gid="252"/>
   <tile gid="253"/>
   <tile/>
   <tile/>
   <tile/>
   <tile/>
   <tile/>
   <tile/>
   <tile/>
   <tile/>
   <tile/>
   <tile/>
   <tile/>
   <tile/>
   <tile/>
   <tile/>
   <tile/>
   <tile/>
   <tile/>
   <tile/>
   <tile/>
   <tile/>
   <tile/>
   <tile/>
   <tile/>
   <tile/>
   <tile/>
   <tile/>
   <tile/>
   <tile/>
   <tile gid="219"/>
   <tile gid="220"/>
   <tile gid="220"/>
   <tile gid="221"/>
   <tile gid="288"/>
   <tile gid="289"/>
   <tile gid="288"/>
   <tile gid="289"/>
   <tile gid="288"/>
   <tile gid="288"/>
   <tile gid="288"/>
   <tile gid="288"/>
   <tile gid="289"/>
   <tile gid="288"/>
   <tile gid="289"/>
   <tile gid="288"/>
   <tile gid="289"/>
   <tile gid="288"/>
   <tile gid="289"/>
   <tile gid="288"/>
   <tile gid="289"/>
   <tile gid="288"/>
   <tile gid="288"/>
   <tile gid="289"/>
   <tile gid="288"/>
   <tile gid="289"/>
   <tile gid="288"/>
   <tile gid="289"/>
   <tile gid="288"/>
   <tile gid="288"/>
   <tile gid="288"/>
   <tile gid="289"/>
   <tile gid="219"/>
   <tile gid="220"/>
   <tile gid="220"/>
   <tile gid="221"/>
   <tile/>
   <tile/>
   <tile/>
   <tile/>
   <tile gid="219"/>
   <tile gid="220"/>
   <tile gid="220"/>
   <tile gid="220"/>
   <tile gid="220"/>
   <tile gid="220"/>
   <tile gid="221"/>
   <tile/>
   <tile/>
   <tile/>
   <tile/>
   <tile/>
   <tile gid="251"/>
   <tile gid="236"/>
   <tile gid="236"/>
   <tile gid="236"/>
   <tile gid="236"/>
   <tile gid="252"/>
   <tile gid="252"/>
   <tile gid="252"/>
   <tile gid="253"/>
   <tile/>
   <tile/>
   <tile/>
   <tile/>
   <tile/>
   <tile/>
   <tile/>
   <tile/>
   <tile/>
   <tile/>
   <tile gid="251"/>
   <tile gid="252"/>
   <tile gid="252"/>
   <tile gid="252"/>
   <tile gid="253"/>
   <tile/>
   <tile/>
   <tile/>
   <tile/>
   <tile/>
   <tile/>
   <tile/>
   <tile gid="235"/>
   <tile gid="236"/>
   <tile gid="237"/>
   <tile/>
   <tile/>
   <tile/>
   <tile/>
   <tile/>
   <tile/>
   <tile/>
   <tile/>
   <tile gid="251"/>
   <tile gid="236"/>
   <tile gid="236"/>
   <tile gid="253"/>
   <tile/>
   <tile/>
   <tile/>
   <tile/>
   <tile/>
   <tile/>
   <tile/>
   <tile/>
   <tile/>
   <tile/>
   <tile/>
   <tile/>
   <tile/>
   <tile/>
   <tile/>
   <tile/>
   <tile/>
   <tile/>
   <tile/>
   <tile/>
   <tile/>
   <tile/>
   <tile/>
   <tile/>
   <tile/>
   <tile/>
   <tile/>
   <tile/>
   <tile/>
   <tile/>
   <tile/>
   <tile/>
   <tile/>
   <tile/>
   <tile/>
   <tile/>
   <tile/>
   <tile/>
   <tile/>
   <tile gid="251"/>
   <tile gid="249"/>
   <tile gid="236"/>
   <tile gid="307"/>
   <tile gid="308"/>
   <tile gid="307"/>
   <tile gid="308"/>
   <tile gid="308"/>
   <tile gid="307"/>
   <tile gid="307"/>
   <tile gid="307"/>
   <tile gid="308"/>
   <tile gid="307"/>
   <tile gid="308"/>
   <tile gid="307"/>
   <tile gid="307"/>
   <tile gid="308"/>
   <tile gid="307"/>
   <tile gid="308"/>
   <tile gid="307"/>
   <tile gid="307"/>
   <tile gid="308"/>
   <tile gid="307"/>
   <tile gid="308"/>
   <tile gid="307"/>
   <tile gid="308"/>
   <tile gid="307"/>
   <tile gid="307"/>
   <tile gid="308"/>
   <tile gid="236"/>
   <tile gid="248"/>
   <tile gid="253"/>
   <tile/>
   <tile/>
   <tile/>
   <tile/>
   <tile/>
   <tile/>
   <tile/>
   <tile gid="251"/>
   <tile gid="236"/>
   <tile gid="236"/>
   <tile gid="236"/>
   <tile gid="253"/>
   <tile/>
   <tile/>
   <tile/>
   <tile/>
   <tile/>
   <tile/>
   <tile/>
   <tile gid="251"/>
   <tile gid="252"/>
   <tile gid="252"/>
   <tile gid="253"/>
   <tile/>
   <tile/>
   <tile/>
   <tile/>
   <tile/>
   <tile/>
   <tile/>
   <tile/>
   <tile/>
   <tile/>
   <tile/>
   <tile/>
   <tile/>
   <tile/>
   <tile/>
   <tile/>
   <tile/>
   <tile/>
   <tile/>
   <tile/>
   <tile/>
   <tile/>
   <tile/>
   <tile/>
   <tile/>
   <tile/>
   <tile gid="235"/>
   <tile gid="236"/>
   <tile gid="237"/>
   <tile/>
   <tile/>
   <tile/>
   <tile/>
   <tile/>
   <tile/>
   <tile/>
   <tile/>
   <tile/>
   <tile gid="251"/>
   <tile gid="253"/>
   <tile/>
   <tile/>
   <tile/>
   <tile/>
   <tile/>
   <tile/>
   <tile/>
   <tile/>
   <tile/>
   <tile/>
   <tile/>
   <tile/>
   <tile/>
   <tile/>
   <tile/>
   <tile/>
   <tile/>
   <tile/>
   <tile/>
   <tile/>
   <tile/>
   <tile/>
   <tile/>
   <tile/>
   <tile/>
   <tile/>
   <tile/>
   <tile/>
   <tile/>
   <tile/>
   <tile/>
   <tile/>
   <tile/>
   <tile/>
   <tile/>
   <tile/>
   <tile/>
   <tile/>
   <tile/>
   <tile/>
   <tile/>
   <tile gid="235"/>
   <tile gid="236"/>
   <tile gid="326"/>
   <tile gid="327"/>
   <tile gid="326"/>
   <tile gid="326"/>
   <tile gid="327"/>
   <tile gid="326"/>
   <tile gid="327"/>
   <tile gid="326"/>
   <tile gid="327"/>
   <tile gid="326"/>
   <tile gid="326"/>
   <tile gid="327"/>
   <tile gid="326"/>
   <tile gid="327"/>
   <tile gid="326"/>
   <tile gid="327"/>
   <tile gid="327"/>
   <tile gid="326"/>
   <tile gid="327"/>
   <tile gid="326"/>
   <tile gid="327"/>
   <tile gid="326"/>
   <tile gid="327"/>
   <tile gid="326"/>
   <tile gid="326"/>
   <tile gid="327"/>
   <tile gid="236"/>
   <tile gid="237"/>
   <tile/>
   <tile/>
   <tile/>
   <tile/>
   <tile/>
   <tile/>
   <tile/>
   <tile/>
   <tile/>
   <tile gid="251"/>
   <tile gid="252"/>
   <tile gid="253"/>
   <tile/>
   <tile/>
   <tile/>
   <tile/>
   <tile/>
   <tile/>
   <tile/>
   <tile/>
   <tile/>
   <tile/>
   <tile/>
   <tile/>
   <tile/>
   <tile/>
   <tile/>
   <tile/>
   <tile/>
   <tile/>
   <tile/>
   <tile/>
   <tile/>
   <tile/>
   <tile/>
   <tile/>
   <tile/>
   <tile/>
   <tile/>
   <tile/>
   <tile/>
   <tile/>
   <tile/>
   <tile/>
   <tile/>
   <tile/>
   <tile/>
   <tile/>
   <tile/>
   <tile/>
   <tile gid="235"/>
   <tile gid="236"/>
   <tile gid="237"/>
   <tile/>
   <tile/>
   <tile/>
   <tile/>
   <tile/>
   <tile/>
   <tile/>
   <tile/>
   <tile/>
   <tile/>
   <tile/>
   <tile/>
   <tile/>
   <tile/>
   <tile/>
   <tile/>
   <tile/>
   <tile/>
   <tile/>
   <tile/>
   <tile/>
   <tile/>
   <tile/>
   <tile/>
   <tile/>
   <tile/>
   <tile/>
   <tile/>
   <tile/>
   <tile/>
   <tile/>
   <tile/>
   <tile/>
   <tile/>
   <tile/>
   <tile/>
   <tile/>
   <tile/>
   <tile/>
   <tile/>
   <tile/>
   <tile/>
   <tile/>
   <tile/>
   <tile/>
   <tile/>
   <tile/>
   <tile/>
   <tile/>
   <tile/>
   <tile/>
   <tile/>
   <tile gid="235"/>
   <tile gid="236"/>
   <tile gid="236"/>
   <tile gid="236"/>
   <tile gid="236"/>
   <tile gid="236"/>
   <tile gid="236"/>
   <tile gid="236"/>
   <tile gid="236"/>
   <tile gid="236"/>
   <tile gid="236"/>
   <tile gid="236"/>
   <tile gid="236"/>
   <tile gid="236"/>
   <tile gid="236"/>
   <tile gid="236"/>
   <tile gid="236"/>
   <tile gid="236"/>
   <tile gid="236"/>
   <tile gid="236"/>
   <tile gid="236"/>
   <tile gid="236"/>
   <tile gid="236"/>
   <tile gid="236"/>
   <tile gid="236"/>
   <tile gid="236"/>
   <tile gid="236"/>
   <tile gid="236"/>
   <tile gid="236"/>
   <tile gid="237"/>
   <tile/>
   <tile/>
   <tile/>
   <tile/>
   <tile/>
   <tile/>
   <tile/>
   <tile/>
   <tile/>
   <tile/>
   <tile/>
   <tile/>
   <tile/>
   <tile/>
   <tile/>
   <tile/>
   <tile/>
   <tile/>
   <tile/>
   <tile/>
   <tile/>
   <tile/>
   <tile/>
   <tile/>
   <tile/>
   <tile/>
   <tile/>
   <tile/>
   <tile/>
   <tile/>
   <tile/>
   <tile/>
   <tile/>
   <tile/>
   <tile/>
   <tile/>
   <tile/>
   <tile/>
   <tile/>
   <tile/>
   <tile/>
   <tile/>
   <tile/>
   <tile/>
   <tile/>
   <tile/>
   <tile/>
   <tile/>
   <tile/>
   <tile/>
   <tile gid="235"/>
   <tile gid="236"/>
   <tile gid="237"/>
   <tile/>
   <tile/>
   <tile/>
   <tile/>
   <tile/>
   <tile/>
   <tile/>
   <tile/>
   <tile/>
   <tile/>
   <tile/>
   <tile/>
   <tile/>
   <tile/>
   <tile/>
   <tile/>
   <tile/>
   <tile/>
   <tile/>
   <tile/>
   <tile/>
   <tile/>
   <tile/>
   <tile/>
   <tile/>
   <tile/>
   <tile/>
   <tile/>
   <tile/>
   <tile/>
   <tile/>
   <tile/>
   <tile/>
   <tile/>
   <tile/>
   <tile/>
   <tile/>
   <tile/>
   <tile/>
   <tile/>
   <tile/>
   <tile/>
   <tile/>
   <tile/>
   <tile/>
   <tile/>
   <tile/>
   <tile/>
   <tile/>
   <tile/>
   <tile/>
   <tile/>
   <tile gid="235"/>
   <tile gid="236"/>
   <tile gid="236"/>
   <tile gid="236"/>
   <tile gid="236"/>
   <tile gid="236"/>
   <tile gid="236"/>
   <tile gid="236"/>
   <tile gid="236"/>
   <tile gid="236"/>
   <tile gid="236"/>
   <tile gid="236"/>
   <tile gid="236"/>
   <tile gid="236"/>
   <tile gid="236"/>
   <tile gid="236"/>
   <tile gid="236"/>
   <tile gid="236"/>
   <tile gid="236"/>
   <tile gid="236"/>
   <tile gid="236"/>
   <tile gid="236"/>
   <tile gid="236"/>
   <tile gid="236"/>
   <tile gid="236"/>
   <tile gid="236"/>
   <tile gid="236"/>
   <tile gid="236"/>
   <tile gid="236"/>
   <tile gid="237"/>
   <tile/>
   <tile/>
   <tile/>
   <tile/>
   <tile/>
   <tile/>
   <tile/>
   <tile/>
   <tile/>
   <tile/>
   <tile/>
   <tile/>
   <tile/>
   <tile/>
   <tile/>
   <tile/>
   <tile/>
   <tile/>
   <tile/>
   <tile/>
   <tile/>
   <tile/>
   <tile/>
   <tile/>
   <tile/>
   <tile/>
   <tile/>
   <tile/>
   <tile/>
   <tile/>
   <tile/>
   <tile/>
   <tile/>
   <tile/>
   <tile/>
   <tile/>
   <tile/>
   <tile/>
   <tile/>
   <tile/>
   <tile/>
   <tile/>
   <tile/>
   <tile/>
   <tile/>
   <tile/>
   <tile/>
   <tile/>
   <tile/>
   <tile/>
   <tile gid="235"/>
   <tile gid="236"/>
   <tile gid="249"/>
   <tile gid="220"/>
   <tile gid="220"/>
   <tile gid="220"/>
   <tile gid="220"/>
   <tile gid="220"/>
   <tile gid="220"/>
   <tile gid="220"/>
   <tile gid="220"/>
   <tile gid="220"/>
   <tile gid="220"/>
   <tile gid="220"/>
   <tile gid="220"/>
   <tile gid="221"/>
   <tile/>
   <tile/>
   <tile gid="219"/>
   <tile gid="220"/>
   <tile gid="220"/>
   <tile gid="220"/>
   <tile gid="220"/>
   <tile gid="220"/>
   <tile gid="220"/>
   <tile gid="220"/>
   <tile gid="220"/>
   <tile gid="220"/>
   <tile gid="220"/>
   <tile gid="220"/>
   <tile gid="220"/>
   <tile gid="220"/>
   <tile gid="220"/>
   <tile gid="220"/>
   <tile gid="220"/>
   <tile gid="220"/>
   <tile gid="220"/>
   <tile gid="220"/>
   <tile gid="220"/>
   <tile gid="220"/>
   <tile gid="220"/>
   <tile gid="220"/>
   <tile gid="220"/>
   <tile gid="220"/>
   <tile gid="220"/>
   <tile gid="220"/>
   <tile gid="220"/>
   <tile gid="220"/>
   <tile gid="220"/>
   <tile gid="220"/>
   <tile gid="220"/>
   <tile gid="220"/>
   <tile gid="220"/>
   <tile gid="220"/>
   <tile gid="220"/>
   <tile gid="248"/>
   <tile gid="236"/>
   <tile gid="236"/>
   <tile gid="236"/>
   <tile gid="236"/>
   <tile gid="236"/>
   <tile gid="236"/>
   <tile gid="236"/>
   <tile gid="236"/>
   <tile gid="236"/>
   <tile gid="236"/>
   <tile gid="236"/>
   <tile gid="236"/>
   <tile gid="236"/>
   <tile gid="236"/>
   <tile gid="236"/>
   <tile gid="236"/>
   <tile gid="236"/>
   <tile gid="236"/>
   <tile gid="236"/>
   <tile gid="236"/>
   <tile gid="236"/>
   <tile gid="236"/>
   <tile gid="236"/>
   <tile gid="236"/>
   <tile gid="236"/>
   <tile gid="236"/>
   <tile gid="236"/>
   <tile gid="236"/>
   <tile gid="249"/>
   <tile gid="220"/>
   <tile gid="220"/>
   <tile gid="220"/>
   <tile gid="220"/>
   <tile gid="220"/>
   <tile gid="220"/>
   <tile gid="220"/>
   <tile gid="220"/>
   <tile gid="220"/>
   <tile gid="220"/>
   <tile gid="220"/>
   <tile gid="220"/>
   <tile gid="220"/>
   <tile gid="221"/>
   <tile/>
   <tile/>
   <tile gid="219"/>
   <tile gid="220"/>
   <tile gid="220"/>
   <tile gid="220"/>
   <tile gid="220"/>
   <tile gid="220"/>
   <tile gid="220"/>
   <tile gid="220"/>
   <tile gid="220"/>
   <tile gid="220"/>
   <tile gid="220"/>
   <tile gid="220"/>
   <tile gid="220"/>
   <tile gid="220"/>
   <tile gid="220"/>
   <tile gid="221"/>
   <tile/>
   <tile/>
   <tile gid="219"/>
   <tile gid="220"/>
   <tile gid="220"/>
   <tile gid="220"/>
   <tile gid="220"/>
   <tile gid="220"/>
   <tile gid="220"/>
   <tile gid="220"/>
   <tile gid="220"/>
   <tile gid="220"/>
   <tile gid="220"/>
   <tile gid="220"/>
   <tile gid="220"/>
   <tile gid="220"/>
   <tile gid="220"/>
   <tile gid="220"/>
   <tile gid="236"/>
  </data>
 </layer>
 <layer id="7" name="Navigation" width="135" height="34">
  <properties>
   <property name="Navigation" type="bool" value="true"/>
  </properties>
  <data>
   <tile/>
   <tile/>
   <tile/>
   <tile/>
   <tile/>
   <tile/>
   <tile/>
   <tile/>
   <tile/>
   <tile/>
   <tile/>
   <tile/>
   <tile/>
   <tile/>
   <tile/>
   <tile/>
   <tile/>
   <tile/>
   <tile/>
   <tile/>
   <tile/>
   <tile/>
   <tile/>
   <tile/>
   <tile/>
   <tile/>
   <tile/>
   <tile/>
   <tile/>
   <tile/>
   <tile/>
   <tile/>
   <tile/>
   <tile/>
   <tile/>
   <tile/>
   <tile/>
   <tile/>
   <tile/>
   <tile/>
   <tile/>
   <tile/>
   <tile/>
   <tile/>
   <tile/>
   <tile/>
   <tile/>
   <tile/>
   <tile/>
   <tile/>
   <tile/>
   <tile/>
   <tile/>
   <tile/>
   <tile/>
   <tile/>
   <tile/>
   <tile/>
   <tile/>
   <tile/>
   <tile/>
   <tile/>
   <tile/>
   <tile/>
   <tile/>
   <tile/>
   <tile/>
   <tile/>
   <tile/>
   <tile/>
   <tile/>
   <tile/>
   <tile/>
   <tile/>
   <tile/>
   <tile/>
   <tile/>
   <tile/>
   <tile/>
   <tile/>
   <tile/>
   <tile/>
   <tile/>
   <tile/>
   <tile/>
   <tile/>
   <tile/>
   <tile/>
   <tile/>
   <tile/>
   <tile/>
   <tile/>
   <tile/>
   <tile/>
   <tile/>
   <tile/>
   <tile/>
   <tile/>
   <tile/>
   <tile/>
   <tile/>
   <tile/>
   <tile/>
   <tile/>
   <tile/>
   <tile/>
   <tile/>
   <tile/>
   <tile/>
   <tile/>
   <tile/>
   <tile/>
   <tile/>
   <tile/>
   <tile/>
   <tile/>
   <tile/>
   <tile/>
   <tile/>
   <tile/>
   <tile/>
   <tile/>
   <tile/>
   <tile/>
   <tile/>
   <tile/>
   <tile/>
   <tile/>
   <tile/>
   <tile/>
   <tile/>
   <tile/>
   <tile/>
   <tile/>
   <tile/>
   <tile/>
   <tile/>
   <tile/>
   <tile/>
   <tile/>
   <tile/>
   <tile/>
   <tile/>
   <tile/>
   <tile/>
   <tile/>
   <tile/>
   <tile/>
   <tile/>
   <tile/>
   <tile/>
   <tile/>
   <tile/>
   <tile/>
   <tile/>
   <tile/>
   <tile/>
   <tile/>
   <tile/>
   <tile/>
   <tile/>
   <tile/>
   <tile/>
   <tile/>
   <tile/>
   <tile/>
   <tile/>
   <tile/>
   <tile/>
   <tile/>
   <tile/>
   <tile/>
   <tile/>
   <tile/>
   <tile/>
   <tile/>
   <tile/>
   <tile/>
   <tile/>
   <tile/>
   <tile/>
   <tile/>
   <tile/>
   <tile/>
   <tile/>
   <tile/>
   <tile/>
   <tile/>
   <tile/>
   <tile/>
   <tile/>
   <tile/>
   <tile/>
   <tile/>
   <tile/>
   <tile/>
   <tile/>
   <tile/>
   <tile/>
   <tile/>
   <tile/>
   <tile/>
   <tile/>
   <tile/>
   <tile/>
   <tile/>
   <tile/>
   <tile/>
   <tile/>
   <tile/>
   <tile/>
   <tile/>
   <tile/>
   <tile/>
   <tile/>
   <tile/>
   <tile/>
   <tile/>
   <tile/>
   <tile/>
   <tile/>
   <tile/>
   <tile/>
   <tile/>
   <tile/>
   <tile/>
   <tile/>
   <tile/>
   <tile/>
   <tile/>
   <tile/>
   <tile/>
   <tile/>
   <tile/>
   <tile/>
   <tile/>
   <tile/>
   <tile/>
   <tile/>
   <tile/>
   <tile/>
   <tile/>
   <tile/>
   <tile/>
   <tile/>
   <tile/>
   <tile/>
   <tile/>
   <tile/>
   <tile/>
   <tile/>
   <tile/>
   <tile/>
   <tile/>
   <tile/>
   <tile/>
   <tile/>
   <tile/>
   <tile/>
   <tile/>
   <tile/>
   <tile/>
   <tile/>
   <tile/>
   <tile/>
   <tile/>
   <tile/>
   <tile/>
   <tile/>
   <tile/>
   <tile/>
   <tile/>
   <tile/>
   <tile/>
   <tile/>
   <tile/>
   <tile/>
   <tile/>
   <tile/>
   <tile/>
   <tile/>
   <tile/>
   <tile/>
   <tile/>
   <tile/>
   <tile/>
   <tile/>
   <tile/>
   <tile/>
   <tile/>
   <tile/>
   <tile/>
   <tile/>
   <tile/>
   <tile/>
   <tile/>
   <tile/>
   <tile/>
   <tile/>
   <tile/>
   <tile/>
   <tile/>
   <tile/>
   <tile/>
   <tile/>
   <tile/>
   <tile/>
   <tile/>
   <tile/>
   <tile/>
   <tile/>
   <tile/>
   <tile/>
   <tile/>
   <tile/>
   <tile/>
   <tile/>
   <tile/>
   <tile/>
   <tile/>
   <tile/>
   <tile/>
   <tile/>
   <tile/>
   <tile/>
   <tile/>
   <tile/>
   <tile/>
   <tile/>
   <tile/>
   <tile/>
   <tile/>
   <tile/>
   <tile/>
   <tile/>
   <tile/>
   <tile/>
   <tile/>
   <tile/>
   <tile/>
   <tile/>
   <tile/>
   <tile/>
   <tile/>
   <tile/>
   <tile/>
   <tile/>
   <tile/>
   <tile/>
   <tile/>
   <tile/>
   <tile/>
   <tile/>
   <tile/>
   <tile/>
   <tile/>
   <tile/>
   <tile/>
   <tile/>
   <tile/>
   <tile/>
   <tile/>
   <tile/>
   <tile/>
   <tile/>
   <tile/>
   <tile/>
   <tile/>
   <tile/>
   <tile/>
   <tile/>
   <tile/>
   <tile/>
   <tile/>
   <tile/>
   <tile/>
   <tile/>
   <tile/>
   <tile/>
   <tile/>
   <tile/>
   <tile/>
   <tile/>
   <tile/>
   <tile/>
   <tile/>
   <tile/>
   <tile/>
   <tile/>
   <tile/>
   <tile/>
   <tile/>
   <tile/>
   <tile/>
   <tile/>
   <tile/>
   <tile/>
   <tile/>
   <tile/>
   <tile/>
   <tile/>
   <tile/>
   <tile/>
   <tile/>
   <tile/>
   <tile/>
   <tile/>
   <tile/>
   <tile/>
   <tile/>
   <tile/>
   <tile/>
   <tile/>
   <tile/>
   <tile/>
   <tile/>
   <tile/>
   <tile/>
   <tile/>
   <tile/>
   <tile/>
   <tile/>
   <tile/>
   <tile/>
   <tile/>
   <tile/>
   <tile/>
   <tile/>
   <tile/>
   <tile/>
   <tile/>
   <tile/>
   <tile/>
   <tile/>
   <tile/>
   <tile/>
   <tile/>
   <tile/>
   <tile/>
   <tile/>
   <tile/>
   <tile/>
   <tile/>
   <tile/>
   <tile/>
   <tile/>
   <tile/>
   <tile/>
   <tile/>
   <tile/>
   <tile/>
   <tile/>
   <tile/>
   <tile/>
   <tile/>
   <tile/>
   <tile/>
   <tile/>
   <tile/>
   <tile/>
   <tile/>
   <tile/>
   <tile/>
   <tile/>
   <tile/>
   <tile/>
   <tile/>
   <tile/>
   <tile/>
   <tile/>
   <tile/>
   <tile/>
   <tile/>
   <tile/>
   <tile/>
   <tile/>
   <tile/>
   <tile/>
   <tile/>
   <tile/>
   <tile/>
   <tile/>
   <tile/>
   <tile/>
   <tile/>
   <tile/>
   <tile/>
   <tile/>
   <tile/>
   <tile/>
   <tile/>
   <tile/>
   <tile/>
   <tile/>
   <tile/>
   <tile/>
   <tile/>
   <tile/>
   <tile/>
   <tile/>
   <tile/>
   <tile/>
   <tile/>
   <tile/>
   <tile/>
   <tile/>
   <tile/>
   <tile/>
   <tile/>
   <tile/>
   <tile/>
   <tile/>
   <tile/>
   <tile/>
   <tile/>
   <tile/>
   <tile/>
   <tile/>
   <tile/>
   <tile/>
   <tile/>
   <tile/>
   <tile/>
   <tile/>
   <tile/>
   <tile/>
   <tile/>
   <tile/>
   <tile/>
   <tile/>
   <tile/>
   <tile/>
   <tile/>
   <tile/>
   <tile/>
   <tile/>
   <tile/>
   <tile/>
   <tile/>
   <tile/>
   <tile/>
   <tile/>
   <tile/>
   <tile/>
   <tile/>
   <tile/>
   <tile/>
   <tile/>
   <tile/>
   <tile/>
   <tile/>
   <tile/>
   <tile/>
   <tile/>
   <tile/>
   <tile/>
   <tile/>
   <tile/>
   <tile/>
   <tile/>
   <tile/>
   <tile/>
   <tile/>
   <tile/>
   <tile/>
   <tile/>
   <tile/>
   <tile/>
   <tile/>
   <tile/>
   <tile/>
   <tile/>
   <tile/>
   <tile/>
   <tile/>
   <tile/>
   <tile/>
   <tile/>
   <tile/>
   <tile/>
   <tile/>
   <tile/>
   <tile/>
   <tile/>
   <tile/>
   <tile/>
   <tile/>
   <tile/>
   <tile/>
   <tile/>
   <tile/>
   <tile/>
   <tile/>
   <tile/>
   <tile/>
   <tile/>
   <tile/>
   <tile/>
   <tile/>
   <tile/>
   <tile/>
   <tile/>
   <tile/>
   <tile/>
   <tile/>
   <tile/>
   <tile/>
   <tile/>
   <tile/>
   <tile/>
   <tile/>
   <tile/>
   <tile/>
   <tile/>
   <tile/>
   <tile/>
   <tile/>
   <tile/>
   <tile/>
   <tile/>
   <tile/>
   <tile/>
   <tile/>
   <tile/>
   <tile/>
   <tile/>
   <tile/>
   <tile/>
   <tile/>
   <tile/>
   <tile/>
   <tile/>
   <tile/>
   <tile/>
   <tile/>
   <tile/>
   <tile/>
   <tile/>
   <tile/>
   <tile/>
   <tile/>
   <tile/>
   <tile/>
   <tile/>
   <tile/>
   <tile/>
   <tile/>
   <tile/>
   <tile/>
   <tile/>
   <tile/>
   <tile/>
   <tile/>
   <tile/>
   <tile/>
   <tile/>
   <tile/>
   <tile/>
   <tile/>
   <tile/>
   <tile/>
   <tile/>
   <tile/>
   <tile/>
   <tile/>
   <tile/>
   <tile/>
   <tile/>
   <tile/>
   <tile/>
   <tile/>
   <tile/>
   <tile/>
   <tile/>
   <tile/>
   <tile/>
   <tile/>
   <tile/>
   <tile/>
   <tile/>
   <tile/>
   <tile/>
   <tile/>
   <tile/>
   <tile/>
   <tile/>
   <tile/>
   <tile/>
   <tile/>
   <tile/>
   <tile/>
   <tile/>
   <tile/>
   <tile/>
   <tile/>
   <tile/>
   <tile/>
   <tile/>
   <tile/>
   <tile/>
   <tile/>
   <tile/>
   <tile/>
   <tile/>
   <tile/>
   <tile/>
   <tile/>
   <tile/>
   <tile/>
   <tile/>
   <tile/>
   <tile/>
   <tile/>
   <tile/>
   <tile/>
   <tile/>
   <tile/>
   <tile/>
   <tile/>
   <tile/>
   <tile/>
   <tile/>
   <tile/>
   <tile/>
   <tile/>
   <tile/>
   <tile/>
   <tile/>
   <tile/>
   <tile/>
   <tile/>
   <tile/>
   <tile/>
   <tile/>
   <tile/>
   <tile/>
   <tile/>
   <tile/>
   <tile/>
   <tile/>
   <tile/>
   <tile/>
   <tile/>
   <tile/>
   <tile/>
   <tile/>
   <tile/>
   <tile/>
   <tile/>
   <tile/>
   <tile/>
   <tile/>
   <tile/>
   <tile/>
   <tile/>
   <tile/>
   <tile/>
   <tile/>
   <tile/>
   <tile/>
   <tile/>
   <tile/>
   <tile/>
   <tile/>
   <tile/>
   <tile/>
   <tile/>
   <tile/>
   <tile/>
   <tile/>
   <tile/>
   <tile/>
   <tile/>
   <tile/>
   <tile/>
   <tile/>
   <tile/>
   <tile/>
   <tile/>
   <tile/>
   <tile/>
   <tile/>
   <tile/>
   <tile/>
   <tile/>
   <tile/>
   <tile/>
   <tile/>
   <tile/>
   <tile/>
   <tile/>
   <tile/>
   <tile/>
   <tile/>
   <tile/>
   <tile/>
   <tile/>
   <tile/>
   <tile/>
   <tile/>
   <tile/>
   <tile/>
   <tile/>
   <tile/>
   <tile/>
   <tile/>
   <tile/>
   <tile/>
   <tile/>
   <tile/>
   <tile/>
   <tile/>
   <tile/>
   <tile/>
   <tile/>
   <tile/>
   <tile/>
   <tile/>
   <tile/>
   <tile/>
   <tile/>
   <tile/>
   <tile/>
   <tile/>
   <tile/>
   <tile/>
   <tile/>
   <tile/>
   <tile/>
   <tile/>
   <tile/>
   <tile/>
   <tile/>
   <tile/>
   <tile/>
   <tile/>
   <tile/>
   <tile/>
   <tile/>
   <tile/>
   <tile/>
   <tile/>
   <tile/>
   <tile/>
   <tile/>
   <tile/>
   <tile/>
   <tile/>
   <tile/>
   <tile/>
   <tile/>
   <tile/>
   <tile/>
   <tile/>
   <tile/>
   <tile/>
   <tile/>
   <tile/>
   <tile/>
   <tile/>
   <tile/>
   <tile/>
   <tile/>
   <tile/>
   <tile/>
   <tile/>
   <tile/>
   <tile/>
   <tile/>
   <tile/>
   <tile/>
   <tile/>
   <tile/>
   <tile/>
   <tile/>
   <tile/>
   <tile/>
   <tile/>
   <tile/>
   <tile/>
   <tile/>
   <tile/>
   <tile/>
   <tile/>
   <tile/>
   <tile/>
   <tile/>
   <tile/>
   <tile/>
   <tile/>
   <tile/>
   <tile/>
   <tile/>
   <tile/>
   <tile/>
   <tile/>
   <tile/>
   <tile/>
   <tile/>
   <tile/>
   <tile/>
   <tile/>
   <tile/>
   <tile/>
   <tile/>
   <tile/>
   <tile/>
   <tile/>
   <tile/>
   <tile/>
   <tile/>
   <tile/>
   <tile/>
   <tile/>
   <tile/>
   <tile/>
   <tile/>
   <tile/>
   <tile/>
   <tile/>
   <tile/>
   <tile/>
   <tile/>
   <tile/>
   <tile/>
   <tile/>
   <tile/>
   <tile/>
   <tile/>
   <tile/>
   <tile/>
   <tile/>
   <tile/>
   <tile/>
   <tile/>
   <tile/>
   <tile/>
   <tile/>
   <tile/>
   <tile/>
   <tile/>
   <tile/>
   <tile/>
   <tile/>
   <tile/>
   <tile/>
   <tile/>
   <tile/>
   <tile/>
   <tile/>
   <tile/>
   <tile/>
   <tile/>
   <tile/>
   <tile/>
   <tile/>
   <tile/>
   <tile/>
   <tile/>
   <tile/>
   <tile/>
   <tile/>
   <tile/>
   <tile/>
   <tile/>
   <tile/>
   <tile/>
   <tile/>
   <tile/>
   <tile/>
   <tile/>
   <tile/>
   <tile/>
   <tile/>
   <tile/>
   <tile/>
   <tile/>
   <tile/>
   <tile/>
   <tile/>
   <tile/>
   <tile/>
   <tile/>
   <tile/>
   <tile/>
   <tile/>
   <tile/>
   <tile/>
   <tile/>
   <tile/>
   <tile/>
   <tile/>
   <tile/>
   <tile/>
   <tile/>
   <tile/>
   <tile/>
   <tile/>
   <tile/>
   <tile/>
   <tile/>
   <tile/>
   <tile/>
   <tile/>
   <tile/>
   <tile/>
   <tile/>
   <tile/>
   <tile/>
   <tile/>
   <tile/>
   <tile/>
   <tile/>
   <tile/>
   <tile/>
   <tile/>
   <tile/>
   <tile/>
   <tile/>
   <tile/>
   <tile/>
   <tile/>
   <tile/>
   <tile/>
   <tile/>
   <tile/>
   <tile/>
   <tile/>
   <tile/>
   <tile/>
   <tile/>
   <tile/>
   <tile/>
   <tile/>
   <tile/>
   <tile/>
   <tile/>
   <tile/>
   <tile/>
   <tile/>
   <tile/>
   <tile/>
   <tile/>
   <tile/>
   <tile/>
   <tile/>
   <tile/>
   <tile/>
   <tile/>
   <tile/>
   <tile/>
   <tile/>
   <tile/>
   <tile/>
   <tile/>
   <tile/>
   <tile/>
   <tile/>
   <tile/>
   <tile/>
   <tile/>
   <tile/>
   <tile/>
   <tile/>
   <tile/>
   <tile/>
   <tile/>
   <tile/>
   <tile/>
   <tile/>
   <tile/>
   <tile/>
   <tile/>
   <tile/>
   <tile/>
   <tile/>
   <tile/>
   <tile/>
   <tile/>
   <tile/>
   <tile/>
   <tile/>
   <tile/>
   <tile/>
   <tile/>
   <tile/>
   <tile/>
   <tile/>
   <tile/>
   <tile/>
   <tile/>
   <tile/>
   <tile/>
   <tile/>
   <tile/>
   <tile/>
   <tile/>
   <tile/>
   <tile/>
   <tile/>
   <tile/>
   <tile/>
   <tile/>
   <tile/>
   <tile/>
   <tile/>
   <tile/>
   <tile/>
   <tile/>
   <tile/>
   <tile/>
   <tile/>
   <tile/>
   <tile/>
   <tile/>
   <tile/>
   <tile/>
   <tile/>
   <tile/>
   <tile/>
   <tile/>
   <tile/>
   <tile/>
   <tile/>
   <tile/>
   <tile/>
   <tile/>
   <tile/>
   <tile/>
   <tile/>
   <tile/>
   <tile/>
   <tile/>
   <tile/>
   <tile/>
   <tile/>
   <tile/>
   <tile/>
   <tile/>
   <tile/>
   <tile/>
   <tile/>
   <tile/>
   <tile/>
   <tile/>
   <tile/>
   <tile/>
   <tile/>
   <tile/>
   <tile/>
   <tile/>
   <tile/>
   <tile/>
   <tile/>
   <tile/>
   <tile/>
   <tile/>
   <tile/>
   <tile/>
   <tile/>
   <tile/>
   <tile/>
   <tile/>
   <tile/>
   <tile/>
   <tile/>
   <tile/>
   <tile/>
   <tile/>
   <tile/>
   <tile/>
   <tile/>
   <tile/>
   <tile/>
   <tile/>
   <tile/>
   <tile/>
   <tile/>
   <tile/>
   <tile/>
   <tile/>
   <tile/>
   <tile/>
   <tile/>
   <tile/>
   <tile/>
   <tile/>
   <tile/>
   <tile/>
   <tile/>
   <tile/>
   <tile/>
   <tile/>
   <tile/>
   <tile/>
   <tile/>
   <tile/>
   <tile/>
   <tile/>
   <tile/>
   <tile/>
   <tile/>
   <tile/>
   <tile/>
   <tile/>
   <tile/>
   <tile/>
   <tile/>
   <tile/>
   <tile/>
   <tile/>
   <tile/>
   <tile/>
   <tile/>
   <tile/>
   <tile/>
   <tile/>
   <tile/>
   <tile/>
   <tile/>
   <tile/>
   <tile/>
   <tile/>
   <tile/>
   <tile/>
   <tile/>
   <tile/>
   <tile/>
   <tile/>
   <tile/>
   <tile/>
   <tile/>
   <tile/>
   <tile/>
   <tile/>
   <tile/>
   <tile/>
   <tile/>
   <tile/>
   <tile/>
   <tile/>
   <tile/>
   <tile/>
   <tile/>
   <tile/>
   <tile/>
   <tile/>
   <tile/>
   <tile/>
   <tile/>
   <tile/>
   <tile/>
   <tile/>
   <tile/>
   <tile/>
   <tile/>
   <tile/>
   <tile/>
   <tile/>
   <tile/>
   <tile/>
   <tile/>
   <tile/>
   <tile/>
   <tile/>
   <tile/>
   <tile/>
   <tile/>
   <tile/>
   <tile/>
   <tile/>
   <tile/>
   <tile/>
   <tile/>
   <tile/>
   <tile/>
   <tile/>
   <tile/>
   <tile/>
   <tile/>
   <tile/>
   <tile/>
   <tile/>
   <tile/>
   <tile/>
   <tile/>
   <tile/>
   <tile/>
   <tile/>
   <tile/>
   <tile/>
   <tile/>
   <tile/>
   <tile/>
   <tile/>
   <tile/>
   <tile/>
   <tile/>
   <tile/>
   <tile/>
   <tile/>
   <tile/>
   <tile/>
   <tile/>
   <tile/>
   <tile/>
   <tile/>
   <tile/>
   <tile/>
   <tile/>
   <tile/>
   <tile/>
   <tile/>
   <tile/>
   <tile/>
   <tile/>
   <tile/>
   <tile/>
   <tile/>
   <tile/>
   <tile/>
   <tile/>
   <tile/>
   <tile/>
   <tile/>
   <tile/>
   <tile/>
   <tile/>
   <tile/>
   <tile/>
   <tile/>
   <tile/>
   <tile/>
   <tile/>
   <tile/>
   <tile/>
   <tile/>
   <tile/>
   <tile/>
   <tile/>
   <tile/>
   <tile/>
   <tile/>
   <tile/>
   <tile/>
   <tile/>
   <tile/>
   <tile/>
   <tile/>
   <tile/>
   <tile/>
   <tile/>
   <tile/>
   <tile/>
   <tile/>
   <tile/>
   <tile/>
   <tile/>
   <tile/>
   <tile/>
   <tile/>
   <tile/>
   <tile/>
   <tile/>
   <tile/>
   <tile/>
   <tile/>
   <tile/>
   <tile/>
   <tile/>
   <tile/>
   <tile/>
   <tile/>
   <tile/>
   <tile/>
   <tile/>
   <tile/>
   <tile/>
   <tile/>
   <tile/>
   <tile/>
   <tile/>
   <tile/>
   <tile/>
   <tile/>
   <tile/>
   <tile/>
   <tile/>
   <tile/>
   <tile/>
   <tile/>
   <tile/>
   <tile/>
   <tile/>
   <tile/>
   <tile/>
   <tile/>
   <tile/>
   <tile/>
   <tile/>
   <tile/>
   <tile/>
   <tile/>
   <tile/>
   <tile/>
   <tile/>
   <tile/>
   <tile/>
   <tile/>
   <tile/>
   <tile/>
   <tile/>
   <tile/>
   <tile/>
   <tile/>
   <tile/>
   <tile/>
   <tile/>
   <tile/>
   <tile/>
   <tile/>
   <tile/>
   <tile/>
   <tile/>
   <tile/>
   <tile/>
   <tile/>
   <tile/>
   <tile/>
   <tile/>
   <tile/>
   <tile/>
   <tile/>
   <tile/>
   <tile/>
   <tile/>
   <tile/>
   <tile/>
   <tile/>
   <tile/>
   <tile/>
   <tile/>
   <tile/>
   <tile/>
   <tile/>
   <tile/>
   <tile/>
   <tile/>
   <tile/>
   <tile/>
   <tile/>
   <tile/>
   <tile/>
   <tile/>
   <tile/>
   <tile/>
   <tile/>
   <tile/>
   <tile/>
   <tile/>
   <tile/>
   <tile/>
   <tile/>
   <tile/>
   <tile/>
   <tile/>
   <tile/>
   <tile/>
   <tile/>
   <tile/>
   <tile/>
   <tile/>
   <tile/>
   <tile/>
   <tile/>
   <tile/>
   <tile/>
   <tile/>
   <tile/>
   <tile/>
   <tile/>
   <tile/>
   <tile/>
   <tile/>
   <tile/>
   <tile/>
   <tile/>
   <tile/>
   <tile/>
   <tile/>
   <tile/>
   <tile/>
   <tile/>
   <tile/>
   <tile/>
   <tile/>
   <tile/>
   <tile/>
   <tile/>
   <tile/>
   <tile/>
   <tile/>
   <tile/>
   <tile/>
   <tile/>
   <tile/>
   <tile/>
   <tile/>
   <tile/>
   <tile/>
   <tile/>
   <tile/>
   <tile/>
   <tile/>
   <tile/>
   <tile/>
   <tile/>
   <tile/>
   <tile/>
   <tile/>
   <tile/>
   <tile/>
   <tile/>
   <tile/>
   <tile/>
   <tile/>
   <tile/>
   <tile/>
   <tile/>
   <tile/>
   <tile/>
   <tile/>
   <tile/>
   <tile/>
   <tile/>
   <tile/>
   <tile/>
   <tile/>
   <tile/>
   <tile/>
   <tile/>
   <tile/>
   <tile/>
   <tile/>
   <tile/>
   <tile/>
   <tile/>
   <tile/>
   <tile/>
   <tile/>
   <tile/>
   <tile/>
   <tile/>
   <tile/>
   <tile/>
   <tile/>
   <tile/>
   <tile/>
   <tile/>
   <tile/>
   <tile/>
   <tile/>
   <tile/>
   <tile/>
   <tile/>
   <tile/>
   <tile/>
   <tile/>
   <tile/>
   <tile/>
   <tile/>
   <tile/>
   <tile/>
   <tile/>
   <tile/>
   <tile/>
   <tile/>
   <tile/>
   <tile/>
   <tile/>
   <tile/>
   <tile/>
   <tile/>
   <tile/>
   <tile/>
   <tile/>
   <tile/>
   <tile/>
   <tile/>
   <tile/>
   <tile/>
   <tile/>
   <tile/>
   <tile/>
   <tile/>
   <tile/>
   <tile/>
   <tile/>
   <tile/>
   <tile/>
   <tile/>
   <tile/>
   <tile/>
   <tile/>
   <tile/>
   <tile/>
   <tile/>
   <tile/>
   <tile/>
   <tile/>
   <tile/>
   <tile/>
   <tile/>
   <tile/>
   <tile/>
   <tile/>
   <tile/>
   <tile/>
   <tile/>
   <tile/>
   <tile/>
   <tile/>
   <tile/>
   <tile/>
   <tile/>
   <tile/>
   <tile/>
   <tile/>
   <tile/>
   <tile/>
   <tile/>
   <tile/>
   <tile/>
   <tile/>
   <tile/>
   <tile/>
   <tile/>
   <tile/>
   <tile/>
   <tile/>
   <tile/>
   <tile/>
   <tile/>
   <tile/>
   <tile/>
   <tile/>
   <tile/>
   <tile/>
   <tile/>
   <tile/>
   <tile/>
   <tile/>
   <tile/>
   <tile/>
   <tile/>
   <tile/>
   <tile/>
   <tile/>
   <tile/>
   <tile/>
   <tile/>
   <tile/>
   <tile/>
   <tile/>
   <tile/>
   <tile/>
   <tile/>
   <tile/>
   <tile/>
   <tile/>
   <tile/>
   <tile/>
   <tile/>
   <tile/>
   <tile/>
   <tile/>
   <tile/>
   <tile/>
   <tile/>
   <tile/>
   <tile/>
   <tile/>
   <tile/>
   <tile/>
   <tile/>
   <tile/>
   <tile/>
   <tile/>
   <tile/>
   <tile/>
   <tile/>
   <tile/>
   <tile/>
   <tile/>
   <tile/>
   <tile/>
   <tile/>
   <tile/>
   <tile/>
   <tile/>
   <tile/>
   <tile/>
   <tile/>
   <tile/>
   <tile/>
   <tile/>
   <tile/>
   <tile/>
   <tile/>
   <tile/>
   <tile/>
   <tile/>
   <tile/>
   <tile/>
   <tile/>
   <tile/>
   <tile/>
   <tile/>
   <tile/>
   <tile/>
   <tile/>
   <tile/>
   <tile/>
   <tile/>
   <tile/>
   <tile/>
   <tile/>
   <tile/>
   <tile/>
   <tile/>
   <tile/>
   <tile/>
   <tile/>
   <tile/>
   <tile/>
   <tile/>
   <tile/>
   <tile/>
   <tile/>
   <tile/>
   <tile/>
   <tile/>
   <tile/>
   <tile/>
   <tile/>
   <tile/>
   <tile/>
   <tile/>
   <tile/>
   <tile/>
   <tile/>
   <tile/>
   <tile/>
   <tile/>
   <tile/>
   <tile/>
   <tile/>
   <tile/>
   <tile/>
   <tile/>
   <tile/>
   <tile/>
   <tile/>
   <tile/>
   <tile/>
   <tile/>
   <tile/>
   <tile/>
   <tile/>
   <tile/>
   <tile/>
   <tile/>
   <tile/>
   <tile/>
   <tile/>
   <tile/>
   <tile/>
   <tile/>
   <tile/>
   <tile/>
   <tile/>
   <tile/>
   <tile/>
   <tile/>
   <tile/>
   <tile/>
   <tile/>
   <tile/>
   <tile/>
   <tile/>
   <tile/>
   <tile/>
   <tile/>
   <tile/>
   <tile/>
   <tile/>
   <tile/>
   <tile/>
   <tile/>
   <tile/>
   <tile/>
   <tile/>
   <tile/>
   <tile/>
   <tile/>
   <tile/>
   <tile/>
   <tile/>
   <tile/>
   <tile/>
   <tile/>
   <tile/>
   <tile/>
   <tile/>
   <tile/>
   <tile/>
   <tile/>
   <tile/>
   <tile/>
   <tile/>
   <tile/>
   <tile/>
   <tile/>
   <tile/>
   <tile/>
   <tile/>
   <tile/>
   <tile/>
   <tile/>
   <tile/>
   <tile/>
   <tile/>
   <tile/>
   <tile/>
   <tile/>
   <tile/>
   <tile/>
   <tile/>
   <tile/>
   <tile/>
   <tile/>
   <tile/>
   <tile/>
   <tile/>
   <tile/>
   <tile/>
   <tile/>
   <tile/>
   <tile/>
   <tile/>
   <tile/>
   <tile/>
   <tile/>
   <tile/>
   <tile/>
   <tile/>
   <tile/>
   <tile/>
   <tile/>
   <tile/>
   <tile/>
   <tile/>
   <tile/>
   <tile/>
   <tile/>
   <tile/>
   <tile/>
   <tile/>
   <tile/>
   <tile/>
   <tile/>
   <tile/>
   <tile/>
   <tile/>
   <tile/>
   <tile/>
   <tile/>
   <tile/>
   <tile/>
   <tile/>
   <tile/>
   <tile/>
   <tile/>
   <tile/>
   <tile/>
   <tile/>
   <tile/>
   <tile/>
   <tile/>
   <tile/>
   <tile/>
   <tile/>
   <tile/>
   <tile/>
   <tile/>
   <tile/>
   <tile/>
   <tile/>
   <tile/>
   <tile/>
   <tile/>
   <tile/>
   <tile/>
   <tile/>
   <tile/>
   <tile/>
   <tile/>
   <tile/>
   <tile/>
   <tile/>
   <tile/>
   <tile/>
   <tile/>
   <tile/>
   <tile/>
   <tile/>
   <tile/>
   <tile/>
   <tile/>
   <tile/>
   <tile/>
   <tile/>
   <tile/>
   <tile/>
   <tile/>
   <tile/>
   <tile/>
   <tile/>
   <tile/>
   <tile/>
   <tile/>
   <tile/>
   <tile/>
   <tile/>
   <tile/>
   <tile/>
   <tile/>
   <tile/>
   <tile/>
   <tile/>
   <tile/>
   <tile/>
   <tile/>
   <tile/>
   <tile/>
   <tile/>
   <tile/>
   <tile/>
   <tile/>
   <tile/>
   <tile/>
   <tile/>
   <tile/>
   <tile/>
   <tile/>
   <tile/>
   <tile/>
   <tile/>
   <tile/>
   <tile/>
   <tile/>
   <tile/>
   <tile/>
   <tile/>
   <tile/>
   <tile/>
   <tile/>
   <tile/>
   <tile/>
   <tile/>
   <tile/>
   <tile/>
   <tile/>
   <tile/>
   <tile/>
   <tile/>
   <tile/>
   <tile/>
   <tile/>
   <tile/>
   <tile/>
   <tile/>
   <tile/>
   <tile/>
   <tile/>
   <tile/>
   <tile/>
   <tile/>
   <tile/>
   <tile/>
   <tile/>
   <tile/>
   <tile/>
   <tile/>
   <tile/>
   <tile/>
   <tile/>
   <tile/>
   <tile/>
   <tile/>
   <tile/>
   <tile/>
   <tile/>
   <tile/>
   <tile/>
   <tile/>
   <tile/>
   <tile/>
   <tile/>
   <tile/>
   <tile/>
   <tile/>
   <tile/>
   <tile/>
   <tile/>
   <tile/>
   <tile/>
   <tile/>
   <tile/>
   <tile/>
   <tile/>
   <tile/>
   <tile/>
   <tile/>
   <tile/>
   <tile/>
   <tile/>
   <tile/>
   <tile/>
   <tile/>
   <tile/>
   <tile/>
   <tile/>
   <tile/>
   <tile/>
   <tile/>
   <tile/>
   <tile/>
   <tile/>
   <tile/>
   <tile/>
   <tile/>
   <tile/>
   <tile/>
   <tile/>
   <tile/>
   <tile/>
   <tile/>
   <tile/>
   <tile/>
   <tile/>
   <tile/>
   <tile/>
   <tile/>
   <tile/>
   <tile/>
   <tile/>
   <tile/>
   <tile/>
   <tile/>
   <tile/>
   <tile/>
   <tile/>
   <tile/>
   <tile/>
   <tile/>
   <tile/>
   <tile/>
   <tile/>
   <tile/>
   <tile/>
   <tile/>
   <tile/>
   <tile/>
   <tile/>
   <tile/>
   <tile/>
   <tile/>
   <tile/>
   <tile/>
   <tile/>
   <tile/>
   <tile/>
   <tile/>
   <tile/>
   <tile/>
   <tile/>
   <tile/>
   <tile/>
   <tile/>
   <tile/>
   <tile/>
   <tile/>
   <tile/>
   <tile/>
   <tile/>
   <tile/>
   <tile/>
   <tile/>
   <tile/>
   <tile/>
   <tile/>
   <tile/>
   <tile/>
   <tile/>
   <tile/>
   <tile/>
   <tile/>
   <tile/>
   <tile/>
   <tile/>
   <tile/>
   <tile/>
   <tile/>
   <tile/>
   <tile/>
   <tile/>
   <tile/>
   <tile/>
   <tile/>
   <tile/>
   <tile/>
   <tile/>
   <tile/>
   <tile/>
   <tile/>
   <tile/>
   <tile/>
   <tile/>
   <tile/>
   <tile/>
   <tile/>
   <tile/>
   <tile/>
   <tile/>
   <tile/>
   <tile/>
   <tile/>
   <tile/>
   <tile/>
   <tile/>
   <tile/>
   <tile/>
   <tile/>
   <tile/>
   <tile/>
   <tile/>
   <tile/>
   <tile/>
   <tile/>
   <tile/>
   <tile/>
   <tile/>
   <tile/>
   <tile/>
   <tile/>
   <tile/>
   <tile/>
   <tile/>
   <tile/>
   <tile/>
   <tile/>
   <tile/>
   <tile/>
   <tile/>
   <tile/>
   <tile/>
   <tile/>
   <tile/>
   <tile/>
   <tile/>
   <tile/>
   <tile/>
   <tile/>
   <tile/>
   <tile/>
   <tile/>
   <tile/>
   <tile/>
   <tile/>
   <tile/>
   <tile/>
   <tile/>
   <tile/>
   <tile/>
   <tile/>
   <tile/>
   <tile/>
   <tile/>
   <tile/>
   <tile/>
   <tile/>
   <tile/>
   <tile/>
   <tile/>
   <tile/>
   <tile/>
   <tile/>
   <tile/>
   <tile/>
   <tile/>
   <tile/>
   <tile/>
   <tile/>
   <tile/>
   <tile/>
   <tile/>
   <tile/>
   <tile/>
   <tile/>
   <tile/>
   <tile/>
   <tile/>
   <tile/>
   <tile/>
   <tile/>
   <tile/>
   <tile/>
   <tile/>
   <tile/>
   <tile/>
   <tile/>
   <tile/>
   <tile/>
   <tile/>
   <tile/>
   <tile/>
   <tile/>
   <tile/>
   <tile/>
   <tile/>
   <tile/>
   <tile/>
   <tile/>
   <tile/>
   <tile/>
   <tile/>
   <tile/>
   <tile/>
   <tile/>
   <tile/>
   <tile/>
   <tile/>
   <tile/>
   <tile/>
   <tile/>
   <tile/>
   <tile/>
   <tile/>
   <tile/>
   <tile/>
   <tile/>
   <tile/>
   <tile/>
   <tile/>
   <tile/>
   <tile/>
   <tile/>
   <tile/>
   <tile/>
   <tile/>
   <tile/>
   <tile/>
   <tile/>
   <tile/>
   <tile/>
   <tile/>
   <tile/>
   <tile/>
   <tile/>
   <tile/>
   <tile/>
   <tile/>
   <tile/>
   <tile/>
   <tile/>
   <tile/>
   <tile/>
   <tile/>
   <tile/>
   <tile/>
   <tile/>
   <tile/>
   <tile/>
   <tile/>
   <tile/>
   <tile/>
   <tile/>
   <tile/>
   <tile/>
   <tile/>
   <tile/>
   <tile/>
   <tile/>
   <tile/>
   <tile/>
   <tile/>
   <tile/>
   <tile/>
   <tile/>
   <tile/>
   <tile/>
   <tile/>
   <tile/>
   <tile/>
   <tile/>
   <tile/>
   <tile/>
   <tile/>
   <tile/>
   <tile/>
   <tile/>
   <tile/>
   <tile/>
   <tile/>
   <tile/>
   <tile/>
   <tile/>
   <tile/>
   <tile/>
   <tile/>
   <tile/>
   <tile/>
   <tile/>
   <tile/>
   <tile/>
   <tile/>
   <tile/>
   <tile/>
   <tile/>
   <tile/>
   <tile/>
   <tile/>
   <tile/>
   <tile/>
   <tile/>
   <tile/>
   <tile/>
   <tile/>
   <tile/>
   <tile/>
   <tile/>
   <tile/>
   <tile/>
   <tile/>
   <tile/>
   <tile/>
   <tile/>
   <tile/>
   <tile/>
   <tile/>
   <tile/>
   <tile/>
   <tile/>
   <tile/>
   <tile/>
   <tile/>
   <tile/>
   <tile/>
   <tile/>
   <tile/>
   <tile/>
   <tile/>
   <tile/>
   <tile/>
   <tile/>
   <tile/>
   <tile/>
   <tile/>
   <tile/>
   <tile/>
   <tile/>
   <tile/>
   <tile/>
   <tile/>
   <tile/>
   <tile/>
   <tile/>
   <tile/>
   <tile/>
   <tile/>
   <tile/>
   <tile/>
   <tile/>
   <tile/>
   <tile/>
   <tile/>
   <tile/>
   <tile/>
   <tile/>
   <tile/>
   <tile/>
   <tile/>
   <tile/>
   <tile/>
   <tile/>
   <tile/>
   <tile/>
   <tile/>
   <tile/>
   <tile/>
   <tile/>
   <tile/>
   <tile/>
   <tile/>
   <tile/>
   <tile/>
   <tile/>
   <tile/>
   <tile/>
   <tile/>
   <tile/>
   <tile/>
   <tile/>
   <tile/>
   <tile/>
   <tile/>
   <tile/>
   <tile/>
   <tile/>
   <tile/>
   <tile/>
   <tile/>
   <tile/>
   <tile/>
   <tile/>
   <tile/>
   <tile/>
   <tile/>
   <tile/>
   <tile/>
   <tile/>
   <tile/>
   <tile/>
   <tile/>
   <tile/>
   <tile/>
   <tile/>
   <tile/>
   <tile/>
   <tile/>
   <tile/>
   <tile/>
   <tile/>
   <tile/>
   <tile/>
   <tile/>
   <tile/>
   <tile/>
   <tile/>
   <tile/>
   <tile/>
   <tile/>
   <tile/>
   <tile/>
   <tile/>
   <tile/>
   <tile/>
   <tile/>
   <tile/>
   <tile/>
   <tile/>
   <tile/>
   <tile/>
   <tile/>
   <tile/>
   <tile/>
   <tile/>
   <tile/>
   <tile/>
   <tile/>
   <tile/>
   <tile/>
   <tile/>
   <tile/>
   <tile/>
   <tile/>
   <tile/>
   <tile/>
   <tile/>
   <tile/>
   <tile/>
   <tile/>
   <tile/>
   <tile/>
   <tile/>
   <tile/>
   <tile/>
   <tile/>
   <tile/>
   <tile/>
   <tile/>
   <tile/>
   <tile/>
   <tile/>
   <tile/>
   <tile/>
   <tile/>
   <tile/>
   <tile/>
   <tile/>
   <tile/>
   <tile/>
   <tile/>
   <tile/>
   <tile/>
   <tile/>
   <tile/>
   <tile/>
   <tile/>
   <tile/>
   <tile/>
   <tile/>
   <tile/>
   <tile/>
   <tile/>
   <tile/>
   <tile/>
   <tile/>
   <tile/>
   <tile/>
   <tile/>
   <tile/>
   <tile/>
   <tile/>
   <tile/>
   <tile/>
   <tile/>
   <tile/>
   <tile/>
   <tile/>
   <tile/>
   <tile/>
   <tile/>
   <tile/>
   <tile/>
   <tile/>
   <tile/>
   <tile/>
   <tile/>
   <tile/>
   <tile/>
   <tile/>
   <tile/>
   <tile/>
   <tile/>
   <tile/>
   <tile/>
   <tile/>
   <tile/>
   <tile/>
   <tile/>
   <tile/>
   <tile/>
   <tile/>
   <tile/>
   <tile/>
   <tile/>
   <tile/>
   <tile/>
   <tile/>
   <tile/>
   <tile/>
   <tile/>
   <tile/>
   <tile/>
   <tile/>
   <tile/>
   <tile/>
   <tile/>
   <tile/>
   <tile/>
   <tile/>
   <tile/>
   <tile/>
   <tile/>
   <tile/>
   <tile/>
   <tile/>
   <tile/>
   <tile/>
   <tile/>
   <tile/>
   <tile/>
   <tile/>
   <tile/>
   <tile/>
   <tile/>
   <tile/>
   <tile/>
   <tile/>
   <tile/>
   <tile/>
   <tile/>
   <tile/>
   <tile/>
   <tile/>
   <tile/>
   <tile/>
   <tile/>
   <tile/>
   <tile/>
   <tile/>
   <tile/>
   <tile/>
   <tile/>
   <tile/>
   <tile/>
   <tile/>
   <tile/>
   <tile/>
   <tile/>
   <tile/>
   <tile/>
   <tile/>
   <tile/>
   <tile/>
   <tile/>
   <tile/>
   <tile/>
   <tile/>
   <tile/>
   <tile/>
   <tile/>
   <tile/>
   <tile/>
   <tile/>
   <tile/>
   <tile/>
   <tile/>
   <tile/>
   <tile/>
   <tile/>
   <tile/>
   <tile/>
   <tile/>
   <tile/>
   <tile/>
   <tile/>
   <tile/>
   <tile/>
   <tile/>
   <tile/>
   <tile/>
   <tile/>
   <tile/>
   <tile/>
   <tile/>
   <tile/>
   <tile/>
   <tile/>
   <tile/>
   <tile/>
   <tile/>
   <tile/>
   <tile/>
   <tile/>
   <tile/>
   <tile/>
   <tile/>
   <tile/>
   <tile/>
   <tile/>
   <tile/>
   <tile/>
   <tile/>
   <tile/>
   <tile/>
   <tile/>
   <tile/>
   <tile/>
   <tile/>
   <tile/>
   <tile/>
   <tile/>
   <tile/>
   <tile/>
   <tile/>
   <tile/>
   <tile/>
   <tile/>
   <tile/>
   <tile/>
   <tile/>
   <tile/>
   <tile/>
   <tile/>
   <tile/>
   <tile/>
   <tile/>
   <tile/>
   <tile/>
   <tile/>
   <tile/>
   <tile/>
   <tile/>
   <tile/>
   <tile/>
   <tile/>
   <tile/>
   <tile/>
   <tile/>
   <tile/>
   <tile/>
   <tile/>
   <tile/>
   <tile/>
   <tile/>
   <tile/>
   <tile/>
   <tile/>
   <tile/>
   <tile/>
   <tile/>
   <tile/>
   <tile/>
   <tile/>
   <tile/>
   <tile/>
   <tile/>
   <tile/>
   <tile/>
   <tile/>
   <tile/>
   <tile/>
   <tile/>
   <tile/>
   <tile/>
   <tile/>
   <tile/>
   <tile/>
   <tile/>
   <tile/>
   <tile/>
   <tile/>
   <tile/>
   <tile/>
   <tile/>
   <tile/>
   <tile/>
   <tile/>
   <tile/>
   <tile/>
   <tile/>
   <tile/>
   <tile/>
   <tile/>
   <tile/>
   <tile/>
   <tile/>
   <tile/>
   <tile/>
   <tile/>
   <tile/>
   <tile/>
   <tile/>
   <tile/>
   <tile/>
   <tile/>
   <tile/>
   <tile/>
   <tile/>
   <tile/>
   <tile/>
   <tile/>
   <tile/>
   <tile/>
   <tile/>
   <tile/>
   <tile/>
   <tile/>
   <tile/>
   <tile/>
   <tile/>
   <tile/>
   <tile/>
   <tile/>
   <tile/>
   <tile/>
   <tile/>
   <tile/>
   <tile/>
   <tile/>
   <tile/>
   <tile/>
   <tile/>
   <tile/>
   <tile/>
   <tile/>
   <tile/>
   <tile/>
   <tile/>
   <tile/>
   <tile/>
   <tile/>
   <tile/>
   <tile/>
   <tile/>
   <tile/>
   <tile/>
   <tile/>
   <tile/>
   <tile/>
   <tile/>
   <tile/>
   <tile/>
   <tile/>
   <tile/>
   <tile/>
   <tile/>
   <tile/>
   <tile/>
   <tile/>
   <tile/>
   <tile/>
   <tile/>
   <tile/>
   <tile/>
   <tile/>
   <tile/>
   <tile/>
   <tile/>
   <tile/>
   <tile/>
   <tile/>
   <tile/>
   <tile/>
   <tile/>
   <tile/>
   <tile/>
   <tile/>
   <tile/>
   <tile/>
   <tile/>
   <tile/>
   <tile/>
   <tile/>
   <tile/>
   <tile/>
   <tile/>
   <tile/>
   <tile/>
   <tile/>
   <tile/>
   <tile/>
   <tile/>
   <tile/>
   <tile/>
   <tile/>
   <tile/>
   <tile/>
   <tile/>
   <tile/>
   <tile/>
   <tile/>
   <tile/>
   <tile/>
   <tile/>
   <tile/>
   <tile/>
   <tile/>
   <tile/>
   <tile/>
   <tile/>
   <tile/>
   <tile/>
   <tile/>
   <tile/>
   <tile/>
   <tile/>
   <tile/>
   <tile/>
   <tile/>
   <tile/>
   <tile/>
   <tile/>
   <tile/>
   <tile/>
   <tile/>
   <tile/>
   <tile/>
   <tile/>
   <tile/>
   <tile/>
   <tile/>
   <tile/>
   <tile/>
   <tile/>
   <tile/>
   <tile/>
   <tile/>
   <tile/>
   <tile/>
   <tile/>
   <tile/>
   <tile/>
   <tile/>
   <tile/>
   <tile/>
   <tile/>
   <tile/>
   <tile/>
   <tile/>
   <tile/>
   <tile/>
   <tile/>
   <tile/>
   <tile/>
   <tile/>
   <tile/>
   <tile/>
   <tile/>
   <tile/>
   <tile/>
   <tile/>
   <tile/>
   <tile/>
   <tile/>
   <tile/>
   <tile/>
   <tile/>
   <tile/>
   <tile/>
   <tile/>
   <tile/>
   <tile/>
   <tile/>
   <tile/>
   <tile/>
   <tile/>
   <tile/>
   <tile/>
   <tile/>
   <tile/>
   <tile/>
   <tile/>
   <tile/>
   <tile/>
   <tile/>
   <tile/>
   <tile/>
   <tile/>
   <tile/>
   <tile/>
   <tile/>
   <tile/>
   <tile/>
   <tile/>
   <tile/>
   <tile/>
   <tile/>
   <tile/>
   <tile/>
   <tile/>
   <tile/>
   <tile/>
   <tile/>
   <tile/>
   <tile/>
   <tile/>
   <tile/>
   <tile/>
   <tile/>
   <tile/>
   <tile/>
   <tile/>
   <tile/>
   <tile/>
   <tile/>
   <tile/>
   <tile/>
   <tile/>
   <tile/>
   <tile/>
   <tile/>
   <tile/>
   <tile/>
   <tile/>
   <tile/>
   <tile/>
   <tile/>
   <tile/>
   <tile/>
   <tile/>
   <tile/>
   <tile/>
   <tile/>
   <tile/>
   <tile/>
   <tile/>
   <tile/>
   <tile/>
   <tile/>
   <tile/>
   <tile/>
   <tile/>
   <tile/>
   <tile/>
   <tile/>
   <tile/>
   <tile/>
   <tile/>
   <tile/>
   <tile/>
   <tile/>
   <tile/>
   <tile/>
   <tile/>
   <tile/>
   <tile/>
   <tile/>
   <tile/>
   <tile/>
   <tile/>
   <tile/>
   <tile/>
   <tile/>
   <tile/>
   <tile/>
   <tile/>
   <tile/>
   <tile/>
   <tile/>
   <tile/>
   <tile/>
   <tile/>
   <tile/>
   <tile/>
   <tile/>
   <tile/>
   <tile/>
   <tile/>
   <tile/>
   <tile/>
   <tile/>
   <tile/>
   <tile/>
   <tile/>
   <tile/>
   <tile/>
   <tile/>
   <tile/>
   <tile/>
   <tile/>
   <tile/>
   <tile/>
   <tile/>
   <tile/>
   <tile/>
   <tile/>
   <tile/>
   <tile/>
   <tile/>
   <tile/>
   <tile/>
   <tile/>
   <tile/>
   <tile/>
   <tile/>
   <tile/>
   <tile/>
   <tile/>
   <tile/>
   <tile/>
   <tile/>
   <tile/>
   <tile/>
   <tile/>
   <tile/>
   <tile/>
   <tile/>
   <tile/>
   <tile/>
   <tile/>
   <tile/>
   <tile/>
   <tile/>
   <tile/>
   <tile/>
   <tile/>
   <tile/>
   <tile/>
   <tile/>
   <tile/>
   <tile/>
   <tile/>
   <tile/>
   <tile/>
   <tile/>
   <tile/>
   <tile/>
   <tile/>
   <tile/>
   <tile/>
   <tile/>
   <tile/>
   <tile/>
   <tile/>
   <tile/>
   <tile/>
   <tile/>
   <tile/>
   <tile/>
   <tile/>
   <tile/>
   <tile/>
   <tile/>
   <tile/>
   <tile/>
   <tile/>
   <tile/>
   <tile/>
   <tile/>
   <tile/>
   <tile/>
   <tile/>
   <tile/>
   <tile/>
   <tile/>
   <tile/>
   <tile/>
   <tile/>
   <tile/>
   <tile/>
   <tile/>
   <tile/>
   <tile/>
   <tile/>
   <tile/>
   <tile/>
   <tile/>
   <tile/>
   <tile/>
   <tile/>
   <tile/>
   <tile/>
   <tile/>
   <tile/>
   <tile/>
   <tile/>
   <tile/>
   <tile/>
   <tile/>
   <tile/>
   <tile/>
   <tile/>
   <tile/>
   <tile/>
   <tile/>
   <tile/>
   <tile/>
   <tile/>
   <tile/>
   <tile/>
   <tile/>
   <tile/>
   <tile/>
   <tile/>
   <tile/>
   <tile/>
   <tile/>
   <tile/>
   <tile/>
   <tile/>
   <tile/>
   <tile/>
   <tile/>
   <tile/>
   <tile/>
   <tile/>
   <tile/>
   <tile/>
   <tile/>
   <tile/>
   <tile/>
   <tile/>
   <tile/>
   <tile/>
   <tile/>
   <tile/>
   <tile/>
   <tile/>
   <tile/>
   <tile/>
   <tile/>
   <tile/>
   <tile/>
   <tile/>
   <tile/>
   <tile/>
   <tile/>
   <tile/>
   <tile/>
   <tile/>
   <tile/>
   <tile/>
   <tile/>
   <tile/>
   <tile/>
   <tile/>
   <tile/>
   <tile/>
   <tile/>
   <tile/>
   <tile/>
   <tile/>
   <tile/>
   <tile/>
   <tile/>
   <tile/>
   <tile/>
   <tile/>
   <tile/>
   <tile/>
   <tile/>
   <tile/>
   <tile/>
   <tile/>
   <tile/>
   <tile/>
   <tile/>
   <tile/>
   <tile/>
   <tile/>
   <tile/>
   <tile/>
   <tile/>
   <tile/>
   <tile/>
   <tile/>
   <tile/>
   <tile/>
   <tile/>
   <tile/>
   <tile/>
   <tile/>
   <tile/>
   <tile/>
   <tile/>
   <tile/>
   <tile/>
   <tile/>
   <tile/>
   <tile/>
   <tile/>
   <tile/>
   <tile/>
   <tile/>
   <tile/>
   <tile/>
   <tile/>
   <tile/>
   <tile/>
   <tile/>
   <tile/>
   <tile/>
   <tile/>
   <tile/>
   <tile/>
   <tile/>
   <tile/>
   <tile/>
   <tile/>
   <tile/>
   <tile/>
   <tile/>
   <tile/>
   <tile/>
   <tile/>
   <tile/>
   <tile/>
   <tile/>
   <tile/>
   <tile/>
   <tile/>
   <tile/>
   <tile/>
   <tile/>
   <tile/>
   <tile/>
   <tile/>
   <tile/>
   <tile/>
   <tile/>
   <tile/>
   <tile/>
   <tile/>
   <tile/>
   <tile/>
   <tile/>
   <tile/>
   <tile/>
   <tile/>
   <tile/>
   <tile/>
   <tile/>
   <tile/>
   <tile/>
   <tile/>
   <tile/>
   <tile/>
   <tile/>
   <tile/>
   <tile/>
   <tile/>
   <tile/>
   <tile/>
   <tile/>
   <tile/>
   <tile/>
   <tile/>
   <tile/>
   <tile/>
   <tile/>
   <tile/>
   <tile/>
   <tile/>
   <tile/>
   <tile/>
   <tile/>
   <tile/>
   <tile/>
   <tile/>
   <tile/>
   <tile/>
   <tile/>
   <tile/>
   <tile/>
   <tile/>
   <tile/>
   <tile/>
   <tile/>
   <tile/>
   <tile/>
   <tile/>
   <tile/>
   <tile/>
   <tile/>
   <tile/>
   <tile/>
   <tile/>
   <tile/>
   <tile/>
   <tile/>
   <tile/>
   <tile/>
   <tile/>
   <tile/>
   <tile/>
   <tile/>
   <tile/>
   <tile/>
   <tile/>
   <tile/>
   <tile/>
   <tile/>
   <tile/>
   <tile/>
   <tile/>
   <tile/>
   <tile/>
   <tile/>
   <tile/>
   <tile/>
   <tile/>
   <tile/>
   <tile/>
   <tile/>
   <tile/>
   <tile/>
   <tile/>
   <tile/>
   <tile/>
   <tile/>
   <tile/>
   <tile/>
   <tile/>
   <tile/>
   <tile/>
   <tile/>
   <tile/>
   <tile/>
   <tile/>
   <tile/>
   <tile/>
   <tile/>
   <tile/>
   <tile/>
   <tile/>
   <tile/>
   <tile/>
   <tile/>
   <tile/>
   <tile/>
   <tile/>
   <tile/>
   <tile/>
   <tile/>
   <tile/>
   <tile/>
   <tile/>
   <tile/>
   <tile/>
   <tile/>
   <tile/>
   <tile/>
   <tile/>
   <tile/>
   <tile/>
   <tile/>
   <tile/>
   <tile/>
   <tile/>
   <tile/>
   <tile/>
   <tile/>
   <tile/>
   <tile/>
   <tile/>
   <tile/>
   <tile/>
   <tile/>
   <tile/>
   <tile/>
   <tile/>
   <tile/>
   <tile/>
   <tile/>
   <tile/>
   <tile/>
   <tile/>
   <tile/>
   <tile/>
   <tile/>
   <tile/>
   <tile/>
   <tile/>
   <tile/>
   <tile/>
   <tile/>
   <tile/>
   <tile/>
   <tile/>
   <tile/>
   <tile/>
   <tile/>
   <tile/>
   <tile/>
   <tile/>
   <tile/>
   <tile/>
   <tile/>
   <tile/>
   <tile/>
   <tile/>
   <tile/>
   <tile/>
   <tile/>
   <tile/>
   <tile/>
   <tile/>
   <tile/>
   <tile/>
   <tile/>
   <tile/>
   <tile/>
   <tile/>
   <tile/>
   <tile/>
   <tile/>
   <tile/>
   <tile/>
   <tile/>
   <tile/>
   <tile/>
   <tile/>
   <tile/>
   <tile/>
   <tile/>
   <tile/>
   <tile/>
   <tile/>
   <tile/>
   <tile/>
   <tile/>
   <tile/>
   <tile/>
   <tile/>
   <tile/>
   <tile/>
   <tile/>
   <tile/>
   <tile/>
   <tile/>
   <tile/>
   <tile/>
   <tile/>
   <tile/>
   <tile/>
   <tile/>
   <tile/>
   <tile/>
   <tile/>
   <tile/>
   <tile/>
   <tile/>
   <tile/>
   <tile/>
   <tile/>
   <tile/>
   <tile/>
   <tile/>
   <tile/>
   <tile/>
   <tile/>
   <tile/>
   <tile/>
   <tile/>
   <tile/>
   <tile/>
   <tile/>
   <tile/>
   <tile/>
   <tile/>
   <tile/>
   <tile/>
   <tile/>
   <tile/>
   <tile/>
   <tile/>
   <tile/>
   <tile/>
   <tile/>
   <tile/>
   <tile/>
   <tile/>
   <tile/>
   <tile/>
   <tile/>
   <tile/>
   <tile/>
   <tile/>
   <tile/>
   <tile/>
   <tile/>
   <tile/>
   <tile/>
   <tile/>
   <tile/>
   <tile/>
   <tile/>
   <tile/>
   <tile/>
   <tile/>
   <tile/>
   <tile/>
   <tile/>
   <tile/>
   <tile/>
   <tile/>
   <tile/>
   <tile/>
   <tile/>
   <tile/>
   <tile/>
   <tile/>
   <tile/>
   <tile/>
   <tile/>
   <tile/>
   <tile/>
   <tile/>
   <tile/>
   <tile/>
   <tile/>
   <tile/>
   <tile/>
   <tile/>
   <tile/>
   <tile/>
   <tile/>
   <tile/>
   <tile/>
   <tile/>
   <tile/>
   <tile/>
   <tile/>
   <tile/>
   <tile/>
   <tile/>
   <tile/>
   <tile/>
   <tile/>
   <tile/>
   <tile/>
   <tile/>
   <tile/>
   <tile/>
   <tile/>
   <tile/>
   <tile/>
   <tile/>
   <tile/>
   <tile/>
   <tile/>
   <tile/>
   <tile/>
   <tile/>
   <tile/>
   <tile/>
   <tile/>
   <tile/>
   <tile/>
   <tile/>
   <tile/>
   <tile/>
   <tile/>
   <tile/>
   <tile/>
   <tile/>
   <tile/>
   <tile/>
   <tile/>
   <tile/>
   <tile/>
   <tile/>
   <tile/>
   <tile/>
   <tile/>
   <tile/>
   <tile/>
   <tile/>
   <tile/>
   <tile/>
   <tile/>
   <tile/>
   <tile/>
   <tile/>
   <tile/>
   <tile/>
   <tile/>
   <tile/>
   <tile/>
   <tile/>
   <tile/>
   <tile/>
   <tile/>
   <tile/>
   <tile/>
   <tile/>
   <tile/>
   <tile/>
   <tile/>
   <tile/>
   <tile/>
   <tile/>
   <tile/>
   <tile/>
   <tile/>
   <tile/>
   <tile/>
   <tile/>
   <tile/>
   <tile/>
   <tile/>
   <tile/>
   <tile/>
   <tile/>
   <tile/>
   <tile/>
   <tile/>
   <tile/>
   <tile/>
   <tile/>
   <tile/>
   <tile/>
   <tile/>
   <tile/>
   <tile/>
   <tile/>
   <tile/>
   <tile/>
   <tile/>
   <tile/>
   <tile/>
   <tile/>
   <tile/>
   <tile/>
   <tile/>
   <tile/>
   <tile/>
   <tile/>
   <tile/>
   <tile/>
   <tile/>
   <tile/>
   <tile/>
   <tile/>
   <tile/>
   <tile/>
   <tile/>
   <tile/>
   <tile/>
   <tile/>
   <tile/>
   <tile/>
   <tile/>
   <tile/>
   <tile/>
   <tile/>
   <tile/>
   <tile/>
   <tile/>
   <tile/>
   <tile/>
   <tile/>
   <tile/>
   <tile/>
   <tile/>
   <tile/>
   <tile/>
   <tile/>
   <tile/>
   <tile/>
   <tile/>
   <tile/>
   <tile/>
   <tile/>
   <tile/>
   <tile/>
   <tile/>
   <tile/>
   <tile/>
   <tile/>
   <tile/>
   <tile/>
   <tile/>
   <tile/>
   <tile/>
   <tile/>
   <tile/>
   <tile/>
   <tile/>
   <tile/>
   <tile/>
   <tile/>
   <tile/>
   <tile/>
   <tile/>
   <tile/>
   <tile/>
   <tile/>
   <tile/>
   <tile/>
   <tile/>
   <tile/>
   <tile/>
   <tile/>
   <tile/>
   <tile/>
   <tile/>
   <tile/>
   <tile/>
   <tile/>
   <tile/>
   <tile/>
   <tile/>
   <tile/>
   <tile/>
   <tile/>
   <tile/>
   <tile/>
   <tile/>
   <tile/>
   <tile/>
   <tile/>
   <tile/>
   <tile/>
   <tile/>
   <tile/>
   <tile/>
   <tile/>
   <tile/>
   <tile/>
   <tile/>
   <tile/>
   <tile/>
   <tile/>
   <tile/>
   <tile/>
   <tile/>
   <tile/>
   <tile/>
   <tile/>
   <tile/>
   <tile/>
   <tile/>
   <tile/>
   <tile/>
   <tile/>
   <tile/>
   <tile/>
   <tile/>
   <tile/>
   <tile/>
   <tile/>
   <tile/>
   <tile/>
   <tile/>
   <tile/>
   <tile/>
   <tile/>
   <tile/>
   <tile/>
   <tile/>
   <tile/>
   <tile/>
   <tile/>
   <tile/>
   <tile/>
   <tile/>
   <tile/>
   <tile/>
   <tile/>
   <tile/>
   <tile/>
   <tile/>
   <tile/>
   <tile/>
   <tile/>
   <tile/>
   <tile/>
   <tile/>
   <tile/>
   <tile/>
   <tile/>
   <tile/>
   <tile/>
   <tile/>
   <tile/>
   <tile/>
   <tile/>
   <tile/>
   <tile/>
   <tile/>
   <tile/>
   <tile/>
   <tile/>
   <tile/>
   <tile/>
   <tile/>
   <tile/>
   <tile/>
   <tile/>
   <tile/>
   <tile/>
   <tile/>
   <tile/>
   <tile/>
   <tile/>
   <tile/>
   <tile/>
   <tile/>
   <tile/>
   <tile/>
   <tile/>
   <tile/>
   <tile/>
   <tile/>
   <tile/>
   <tile/>
   <tile/>
   <tile/>
   <tile/>
   <tile/>
   <tile/>
   <tile/>
   <tile/>
   <tile/>
   <tile/>
   <tile/>
   <tile/>
   <tile/>
   <tile/>
   <tile/>
   <tile/>
   <tile/>
   <tile/>
   <tile/>
   <tile/>
   <tile/>
   <tile/>
   <tile/>
   <tile/>
   <tile/>
   <tile/>
   <tile/>
   <tile/>
   <tile/>
   <tile/>
   <tile/>
   <tile/>
   <tile/>
   <tile/>
   <tile/>
   <tile/>
   <tile/>
   <tile/>
   <tile/>
   <tile/>
   <tile/>
   <tile/>
   <tile/>
   <tile/>
   <tile/>
   <tile/>
   <tile/>
   <tile/>
   <tile/>
   <tile/>
   <tile/>
   <tile/>
   <tile/>
   <tile/>
   <tile/>
   <tile/>
   <tile/>
   <tile/>
   <tile/>
   <tile/>
   <tile/>
   <tile/>
   <tile/>
   <tile/>
   <tile/>
   <tile/>
   <tile/>
   <tile/>
   <tile/>
   <tile/>
   <tile/>
   <tile/>
   <tile/>
   <tile/>
   <tile/>
   <tile/>
   <tile/>
   <tile/>
   <tile/>
   <tile/>
   <tile/>
   <tile/>
   <tile/>
   <tile/>
   <tile/>
   <tile/>
   <tile/>
   <tile/>
   <tile/>
   <tile/>
   <tile/>
   <tile/>
   <tile/>
   <tile/>
   <tile/>
   <tile/>
   <tile/>
   <tile/>
   <tile/>
   <tile/>
   <tile/>
   <tile/>
   <tile/>
   <tile/>
   <tile/>
   <tile/>
   <tile/>
   <tile/>
   <tile/>
   <tile/>
   <tile/>
   <tile/>
   <tile/>
   <tile/>
   <tile/>
   <tile/>
   <tile/>
   <tile/>
   <tile/>
   <tile/>
   <tile/>
   <tile/>
   <tile/>
   <tile/>
   <tile/>
   <tile/>
   <tile/>
   <tile/>
   <tile/>
   <tile/>
   <tile/>
   <tile/>
   <tile/>
   <tile/>
   <tile/>
   <tile/>
   <tile/>
   <tile/>
   <tile/>
   <tile/>
   <tile/>
   <tile/>
   <tile/>
   <tile/>
   <tile/>
   <tile/>
   <tile/>
   <tile/>
   <tile/>
   <tile/>
   <tile/>
   <tile/>
   <tile/>
   <tile/>
   <tile/>
   <tile/>
   <tile/>
   <tile/>
   <tile/>
   <tile/>
   <tile/>
   <tile/>
   <tile/>
   <tile/>
   <tile/>
   <tile/>
   <tile/>
   <tile/>
   <tile/>
   <tile/>
   <tile/>
   <tile/>
   <tile/>
   <tile/>
   <tile/>
   <tile/>
   <tile/>
   <tile/>
   <tile/>
   <tile/>
   <tile/>
   <tile/>
   <tile/>
   <tile/>
   <tile/>
   <tile/>
   <tile/>
   <tile/>
   <tile/>
   <tile/>
   <tile/>
   <tile/>
   <tile/>
   <tile/>
   <tile/>
   <tile/>
   <tile/>
   <tile/>
   <tile/>
   <tile/>
   <tile/>
   <tile/>
   <tile/>
   <tile/>
   <tile/>
   <tile/>
   <tile/>
   <tile/>
   <tile/>
   <tile/>
   <tile/>
   <tile/>
   <tile/>
   <tile/>
   <tile/>
   <tile/>
   <tile/>
   <tile/>
   <tile/>
   <tile/>
   <tile/>
   <tile/>
   <tile/>
   <tile/>
   <tile/>
   <tile/>
   <tile/>
   <tile/>
   <tile/>
   <tile/>
   <tile/>
   <tile/>
   <tile/>
   <tile/>
   <tile/>
   <tile/>
   <tile/>
   <tile/>
   <tile/>
   <tile/>
   <tile/>
   <tile/>
   <tile/>
   <tile/>
   <tile/>
   <tile/>
   <tile/>
   <tile/>
   <tile/>
   <tile/>
   <tile/>
   <tile/>
   <tile/>
   <tile/>
   <tile/>
   <tile/>
   <tile/>
   <tile/>
   <tile/>
   <tile/>
   <tile/>
   <tile/>
   <tile/>
   <tile/>
   <tile/>
   <tile/>
   <tile/>
   <tile/>
   <tile/>
   <tile/>
   <tile/>
   <tile/>
   <tile/>
   <tile/>
   <tile/>
   <tile/>
   <tile/>
   <tile/>
   <tile/>
   <tile/>
   <tile/>
   <tile/>
   <tile/>
   <tile/>
   <tile/>
   <tile/>
   <tile/>
   <tile/>
   <tile/>
   <tile/>
   <tile/>
   <tile/>
   <tile/>
   <tile/>
   <tile/>
   <tile/>
   <tile/>
   <tile/>
   <tile/>
   <tile/>
   <tile/>
   <tile/>
   <tile/>
   <tile/>
   <tile/>
   <tile/>
   <tile/>
   <tile/>
   <tile/>
   <tile/>
   <tile/>
   <tile/>
   <tile/>
   <tile/>
   <tile/>
   <tile/>
   <tile/>
   <tile/>
   <tile/>
   <tile/>
   <tile/>
   <tile/>
   <tile/>
   <tile/>
   <tile/>
   <tile/>
   <tile/>
   <tile/>
   <tile/>
   <tile/>
   <tile/>
   <tile/>
   <tile/>
   <tile/>
   <tile/>
   <tile/>
   <tile/>
   <tile/>
   <tile/>
   <tile/>
   <tile/>
   <tile/>
   <tile/>
   <tile/>
   <tile/>
   <tile/>
   <tile/>
   <tile/>
   <tile/>
   <tile/>
   <tile/>
   <tile/>
   <tile/>
   <tile/>
   <tile/>
   <tile/>
   <tile/>
   <tile/>
   <tile/>
   <tile/>
   <tile/>
   <tile/>
   <tile/>
   <tile/>
   <tile/>
   <tile/>
   <tile/>
   <tile/>
   <tile/>
   <tile/>
   <tile/>
   <tile/>
   <tile/>
   <tile/>
   <tile/>
   <tile/>
   <tile/>
   <tile/>
   <tile/>
   <tile/>
   <tile/>
   <tile/>
   <tile/>
   <tile/>
   <tile/>
   <tile/>
   <tile/>
   <tile/>
   <tile/>
   <tile/>
   <tile/>
   <tile/>
   <tile/>
   <tile/>
   <tile/>
   <tile/>
   <tile/>
   <tile/>
   <tile/>
   <tile/>
   <tile/>
   <tile/>
   <tile/>
   <tile/>
   <tile/>
   <tile/>
   <tile/>
   <tile/>
   <tile/>
   <tile/>
   <tile/>
   <tile/>
   <tile/>
   <tile/>
   <tile/>
   <tile/>
   <tile/>
   <tile/>
   <tile/>
   <tile/>
   <tile/>
   <tile/>
   <tile/>
   <tile/>
   <tile/>
   <tile/>
   <tile/>
   <tile/>
   <tile/>
   <tile/>
   <tile/>
   <tile/>
   <tile/>
   <tile/>
   <tile/>
   <tile/>
   <tile/>
   <tile/>
   <tile/>
   <tile/>
   <tile/>
   <tile/>
   <tile/>
   <tile/>
   <tile/>
   <tile/>
   <tile/>
   <tile/>
   <tile/>
   <tile/>
   <tile/>
   <tile/>
   <tile/>
   <tile/>
   <tile/>
   <tile/>
   <tile/>
   <tile/>
   <tile/>
   <tile/>
   <tile/>
   <tile/>
   <tile/>
   <tile/>
   <tile/>
   <tile/>
   <tile/>
   <tile/>
   <tile/>
   <tile/>
   <tile/>
   <tile/>
   <tile/>
   <tile/>
   <tile/>
   <tile/>
   <tile/>
   <tile/>
   <tile/>
   <tile/>
   <tile/>
   <tile/>
   <tile/>
   <tile/>
   <tile/>
   <tile/>
   <tile/>
   <tile/>
   <tile/>
   <tile/>
   <tile/>
   <tile/>
   <tile/>
   <tile/>
   <tile/>
   <tile/>
   <tile/>
   <tile/>
   <tile/>
   <tile/>
   <tile/>
   <tile/>
   <tile/>
   <tile/>
   <tile/>
   <tile/>
   <tile/>
   <tile/>
   <tile/>
   <tile/>
   <tile/>
   <tile/>
   <tile/>
   <tile/>
   <tile/>
   <tile/>
   <tile/>
   <tile/>
   <tile/>
   <tile/>
   <tile/>
   <tile/>
   <tile/>
   <tile/>
   <tile/>
   <tile/>
   <tile/>
   <tile/>
   <tile/>
   <tile/>
   <tile/>
   <tile/>
   <tile/>
   <tile/>
   <tile/>
   <tile/>
   <tile/>
   <tile/>
   <tile/>
   <tile/>
   <tile/>
   <tile/>
   <tile/>
   <tile/>
   <tile/>
   <tile/>
   <tile/>
   <tile/>
   <tile/>
   <tile/>
   <tile/>
   <tile/>
   <tile/>
   <tile/>
   <tile/>
   <tile/>
   <tile/>
   <tile/>
   <tile/>
   <tile/>
   <tile/>
   <tile/>
   <tile/>
   <tile/>
   <tile/>
   <tile/>
   <tile/>
   <tile/>
   <tile/>
   <tile/>
   <tile/>
   <tile/>
   <tile/>
   <tile/>
   <tile/>
   <tile/>
   <tile/>
   <tile/>
   <tile/>
   <tile/>
   <tile/>
   <tile/>
   <tile/>
   <tile/>
   <tile/>
   <tile/>
   <tile/>
   <tile/>
   <tile/>
   <tile/>
   <tile/>
   <tile/>
   <tile/>
   <tile/>
   <tile/>
   <tile/>
   <tile/>
   <tile/>
   <tile/>
   <tile/>
   <tile/>
   <tile/>
   <tile/>
   <tile/>
   <tile/>
   <tile/>
   <tile/>
   <tile/>
   <tile/>
   <tile/>
   <tile/>
   <tile/>
   <tile/>
   <tile/>
   <tile/>
   <tile/>
   <tile/>
   <tile/>
   <tile/>
   <tile/>
   <tile/>
   <tile/>
   <tile/>
   <tile/>
   <tile/>
   <tile/>
   <tile/>
   <tile/>
   <tile/>
   <tile/>
   <tile/>
   <tile/>
   <tile/>
   <tile/>
   <tile/>
   <tile/>
   <tile/>
   <tile/>
   <tile/>
   <tile/>
   <tile/>
   <tile/>
   <tile/>
   <tile/>
   <tile/>
   <tile/>
   <tile/>
   <tile/>
   <tile/>
   <tile/>
   <tile/>
   <tile/>
   <tile/>
   <tile/>
   <tile/>
   <tile/>
   <tile/>
   <tile/>
   <tile/>
   <tile/>
   <tile/>
   <tile/>
   <tile/>
   <tile/>
   <tile/>
   <tile/>
   <tile/>
   <tile/>
   <tile/>
   <tile/>
   <tile/>
   <tile/>
   <tile/>
   <tile/>
   <tile/>
   <tile/>
   <tile/>
   <tile/>
   <tile/>
   <tile/>
   <tile/>
   <tile/>
   <tile/>
   <tile/>
   <tile/>
   <tile/>
   <tile/>
   <tile/>
   <tile/>
   <tile/>
   <tile/>
   <tile/>
   <tile/>
   <tile/>
   <tile/>
   <tile/>
   <tile/>
   <tile/>
   <tile/>
   <tile/>
   <tile/>
   <tile/>
   <tile/>
   <tile/>
   <tile/>
   <tile/>
   <tile/>
   <tile/>
   <tile/>
   <tile/>
   <tile/>
   <tile/>
   <tile/>
   <tile/>
   <tile/>
   <tile/>
   <tile/>
   <tile/>
   <tile/>
   <tile/>
  </data>
 </layer>
 <layer id="6" name="Map" width="135" height="34">
  <properties>
   <property name="Draw" type="bool" value="true"/>
  </properties>
  <data>
   <tile/>
   <tile/>
   <tile/>
   <tile/>
   <tile/>
   <tile/>
   <tile/>
   <tile/>
   <tile/>
   <tile/>
   <tile/>
   <tile/>
   <tile/>
   <tile/>
   <tile/>
   <tile/>
   <tile/>
   <tile/>
   <tile/>
   <tile/>
   <tile/>
   <tile/>
   <tile/>
   <tile/>
   <tile/>
   <tile/>
   <tile/>
   <tile/>
   <tile/>
   <tile/>
   <tile/>
   <tile/>
   <tile/>
   <tile/>
   <tile/>
   <tile/>
   <tile/>
   <tile/>
   <tile/>
   <tile/>
   <tile/>
   <tile/>
   <tile/>
   <tile/>
   <tile/>
   <tile/>
   <tile/>
   <tile/>
   <tile/>
   <tile/>
   <tile/>
   <tile/>
   <tile/>
   <tile/>
   <tile/>
   <tile/>
   <tile/>
   <tile/>
   <tile/>
   <tile/>
   <tile/>
   <tile/>
   <tile/>
   <tile/>
   <tile/>
   <tile/>
   <tile/>
   <tile/>
   <tile/>
   <tile/>
   <tile/>
   <tile/>
   <tile/>
   <tile/>
   <tile/>
   <tile/>
   <tile/>
   <tile/>
   <tile/>
   <tile/>
   <tile/>
   <tile/>
   <tile/>
   <tile/>
   <tile/>
   <tile/>
   <tile/>
   <tile/>
   <tile/>
   <tile/>
   <tile/>
   <tile/>
   <tile/>
   <tile/>
   <tile/>
   <tile/>
   <tile/>
   <tile/>
   <tile/>
   <tile/>
   <tile/>
   <tile/>
   <tile/>
   <tile/>
   <tile/>
   <tile/>
   <tile/>
   <tile/>
   <tile/>
   <tile/>
   <tile/>
   <tile/>
   <tile/>
   <tile/>
   <tile/>
   <tile/>
   <tile/>
   <tile/>
   <tile/>
   <tile/>
   <tile/>
   <tile/>
   <tile/>
   <tile/>
   <tile/>
   <tile/>
   <tile/>
   <tile/>
   <tile/>
   <tile/>
   <tile/>
   <tile/>
   <tile/>
   <tile/>
   <tile/>
   <tile/>
   <tile/>
   <tile/>
   <tile/>
   <tile/>
   <tile/>
   <tile/>
   <tile/>
   <tile/>
   <tile/>
   <tile/>
   <tile/>
   <tile/>
   <tile/>
   <tile/>
   <tile/>
   <tile/>
   <tile/>
   <tile/>
   <tile/>
   <tile/>
   <tile/>
   <tile/>
   <tile/>
   <tile/>
   <tile/>
   <tile/>
   <tile/>
   <tile/>
   <tile/>
   <tile/>
   <tile/>
   <tile/>
   <tile/>
   <tile/>
   <tile/>
   <tile/>
   <tile/>
   <tile/>
   <tile/>
   <tile/>
   <tile/>
   <tile/>
   <tile/>
   <tile/>
   <tile/>
   <tile/>
   <tile/>
   <tile/>
   <tile/>
   <tile/>
   <tile/>
   <tile/>
   <tile/>
   <tile/>
   <tile/>
   <tile/>
   <tile/>
   <tile/>
   <tile/>
   <tile/>
   <tile/>
   <tile/>
   <tile/>
   <tile/>
   <tile/>
   <tile/>
   <tile/>
   <tile/>
   <tile/>
   <tile/>
   <tile/>
   <tile/>
   <tile/>
   <tile/>
   <tile/>
   <tile/>
   <tile/>
   <tile/>
   <tile/>
   <tile/>
   <tile/>
   <tile/>
   <tile/>
   <tile/>
   <tile/>
   <tile/>
   <tile/>
   <tile/>
   <tile/>
   <tile/>
   <tile/>
   <tile/>
   <tile/>
   <tile/>
   <tile/>
   <tile/>
   <tile/>
   <tile/>
   <tile/>
   <tile/>
   <tile/>
   <tile/>
   <tile/>
   <tile/>
   <tile/>
   <tile/>
   <tile/>
   <tile/>
   <tile/>
   <tile/>
   <tile/>
   <tile/>
   <tile/>
   <tile/>
   <tile/>
   <tile/>
   <tile/>
   <tile/>
   <tile/>
   <tile/>
   <tile/>
   <tile/>
   <tile/>
   <tile/>
   <tile/>
   <tile/>
   <tile/>
   <tile/>
   <tile/>
   <tile/>
   <tile/>
   <tile/>
   <tile/>
   <tile/>
   <tile/>
   <tile/>
   <tile/>
   <tile/>
   <tile/>
   <tile/>
   <tile/>
   <tile/>
   <tile/>
   <tile/>
   <tile/>
   <tile/>
   <tile/>
   <tile/>
   <tile/>
   <tile/>
   <tile/>
   <tile/>
   <tile/>
   <tile/>
   <tile/>
   <tile/>
   <tile/>
   <tile/>
   <tile/>
   <tile/>
   <tile/>
   <tile/>
   <tile/>
   <tile/>
   <tile/>
   <tile/>
   <tile/>
   <tile/>
   <tile/>
   <tile/>
   <tile/>
   <tile/>
   <tile/>
   <tile/>
   <tile/>
   <tile/>
   <tile/>
   <tile/>
   <tile/>
   <tile/>
   <tile/>
   <tile/>
   <tile/>
   <tile/>
   <tile/>
   <tile/>
   <tile/>
   <tile/>
   <tile/>
   <tile/>
   <tile/>
   <tile/>
   <tile/>
   <tile/>
   <tile/>
   <tile/>
   <tile/>
   <tile/>
   <tile/>
   <tile/>
   <tile/>
   <tile/>
   <tile/>
   <tile/>
   <tile/>
   <tile/>
   <tile/>
   <tile/>
   <tile/>
   <tile/>
   <tile/>
   <tile/>
   <tile/>
   <tile/>
   <tile/>
   <tile/>
   <tile/>
   <tile/>
   <tile/>
   <tile/>
   <tile/>
   <tile/>
   <tile/>
   <tile/>
   <tile/>
   <tile/>
   <tile/>
   <tile/>
   <tile/>
   <tile/>
   <tile/>
   <tile/>
   <tile/>
   <tile/>
   <tile/>
   <tile/>
   <tile/>
   <tile/>
   <tile/>
   <tile/>
   <tile/>
   <tile/>
   <tile/>
   <tile/>
   <tile/>
   <tile/>
   <tile/>
   <tile/>
   <tile/>
   <tile/>
   <tile/>
   <tile/>
   <tile/>
   <tile/>
   <tile/>
   <tile/>
   <tile/>
   <tile/>
   <tile/>
   <tile/>
   <tile/>
   <tile/>
   <tile/>
   <tile/>
   <tile/>
   <tile/>
   <tile/>
   <tile/>
   <tile/>
   <tile/>
   <tile/>
   <tile/>
   <tile/>
   <tile/>
   <tile/>
   <tile/>
   <tile/>
   <tile/>
   <tile/>
   <tile/>
   <tile/>
   <tile/>
   <tile/>
   <tile/>
   <tile/>
   <tile/>
   <tile/>
   <tile/>
   <tile/>
   <tile/>
   <tile/>
   <tile/>
   <tile/>
   <tile/>
   <tile/>
   <tile/>
   <tile/>
   <tile/>
   <tile/>
   <tile/>
   <tile/>
   <tile/>
   <tile/>
   <tile/>
   <tile/>
   <tile/>
   <tile/>
   <tile/>
   <tile/>
   <tile/>
   <tile/>
   <tile/>
   <tile/>
   <tile/>
   <tile/>
   <tile/>
   <tile/>
   <tile/>
   <tile/>
   <tile/>
   <tile/>
   <tile/>
   <tile/>
   <tile/>
   <tile/>
   <tile/>
   <tile/>
   <tile/>
   <tile/>
   <tile/>
   <tile/>
   <tile/>
   <tile/>
   <tile/>
   <tile/>
   <tile/>
   <tile/>
   <tile/>
   <tile/>
   <tile/>
   <tile/>
   <tile/>
   <tile/>
   <tile/>
   <tile/>
   <tile/>
   <tile/>
   <tile/>
   <tile/>
   <tile/>
   <tile/>
   <tile/>
   <tile/>
   <tile/>
   <tile/>
   <tile/>
   <tile/>
   <tile/>
   <tile/>
   <tile/>
   <tile/>
   <tile/>
   <tile/>
   <tile/>
   <tile/>
   <tile/>
   <tile/>
   <tile/>
   <tile/>
   <tile/>
   <tile/>
   <tile/>
   <tile/>
   <tile/>
   <tile/>
   <tile/>
   <tile/>
   <tile/>
   <tile/>
   <tile/>
   <tile/>
   <tile/>
   <tile/>
   <tile/>
   <tile/>
   <tile/>
   <tile/>
   <tile/>
   <tile/>
   <tile/>
   <tile/>
   <tile/>
   <tile/>
   <tile/>
   <tile/>
   <tile/>
   <tile/>
   <tile/>
   <tile/>
   <tile/>
   <tile/>
   <tile/>
   <tile/>
   <tile/>
   <tile/>
   <tile/>
   <tile/>
   <tile/>
   <tile/>
   <tile/>
   <tile/>
   <tile/>
   <tile/>
   <tile/>
   <tile/>
   <tile/>
   <tile/>
   <tile/>
   <tile/>
   <tile/>
   <tile/>
   <tile/>
   <tile/>
   <tile/>
   <tile/>
   <tile/>
   <tile/>
   <tile/>
   <tile/>
   <tile/>
   <tile/>
   <tile/>
   <tile/>
   <tile/>
   <tile/>
   <tile/>
   <tile/>
   <tile/>
   <tile/>
   <tile/>
   <tile/>
   <tile/>
   <tile/>
   <tile/>
   <tile/>
   <tile/>
   <tile/>
   <tile/>
   <tile/>
   <tile/>
   <tile/>
   <tile/>
   <tile/>
   <tile/>
   <tile/>
   <tile/>
   <tile/>
   <tile/>
   <tile/>
   <tile/>
   <tile/>
   <tile/>
   <tile/>
   <tile/>
   <tile/>
   <tile/>
   <tile/>
   <tile/>
   <tile/>
   <tile/>
   <tile/>
   <tile/>
   <tile/>
   <tile/>
   <tile/>
   <tile/>
   <tile/>
   <tile/>
   <tile/>
   <tile/>
   <tile/>
   <tile/>
   <tile/>
   <tile/>
   <tile/>
   <tile/>
   <tile/>
   <tile/>
   <tile/>
   <tile/>
   <tile/>
   <tile/>
   <tile/>
   <tile/>
   <tile/>
   <tile/>
   <tile/>
   <tile/>
   <tile/>
   <tile/>
   <tile/>
   <tile/>
   <tile/>
   <tile/>
   <tile/>
   <tile/>
   <tile/>
   <tile/>
   <tile/>
   <tile/>
   <tile/>
   <tile/>
   <tile/>
   <tile/>
   <tile/>
   <tile/>
   <tile/>
   <tile/>
   <tile/>
   <tile/>
   <tile/>
   <tile/>
   <tile/>
   <tile/>
   <tile/>
   <tile/>
   <tile/>
   <tile/>
   <tile/>
   <tile/>
   <tile/>
   <tile/>
   <tile/>
   <tile/>
   <tile/>
   <tile/>
   <tile/>
   <tile/>
   <tile/>
   <tile/>
   <tile/>
   <tile/>
   <tile/>
   <tile/>
   <tile/>
   <tile/>
   <tile/>
   <tile/>
   <tile/>
   <tile/>
   <tile/>
   <tile/>
   <tile/>
   <tile/>
   <tile/>
   <tile/>
   <tile/>
   <tile/>
   <tile/>
   <tile/>
   <tile/>
   <tile/>
   <tile/>
   <tile/>
   <tile/>
   <tile/>
   <tile/>
   <tile/>
   <tile/>
   <tile/>
   <tile/>
   <tile/>
   <tile/>
   <tile/>
   <tile/>
   <tile/>
   <tile/>
   <tile/>
   <tile/>
   <tile/>
   <tile/>
   <tile/>
   <tile/>
   <tile/>
   <tile/>
   <tile/>
   <tile/>
   <tile/>
   <tile/>
   <tile/>
   <tile/>
   <tile/>
   <tile/>
   <tile/>
   <tile/>
   <tile/>
   <tile/>
   <tile/>
   <tile/>
   <tile/>
   <tile/>
   <tile/>
   <tile/>
   <tile/>
   <tile/>
   <tile/>
   <tile/>
   <tile/>
   <tile/>
   <tile/>
   <tile/>
   <tile/>
   <tile/>
   <tile/>
   <tile/>
   <tile/>
   <tile/>
   <tile/>
   <tile/>
   <tile/>
   <tile/>
   <tile/>
   <tile/>
   <tile/>
   <tile/>
   <tile/>
   <tile/>
   <tile/>
   <tile/>
   <tile/>
   <tile/>
   <tile/>
   <tile/>
   <tile/>
   <tile/>
   <tile/>
   <tile/>
   <tile/>
   <tile/>
   <tile/>
   <tile/>
   <tile/>
   <tile/>
   <tile/>
   <tile/>
   <tile/>
   <tile/>
   <tile/>
   <tile/>
   <tile/>
   <tile/>
   <tile/>
   <tile/>
   <tile/>
   <tile/>
   <tile/>
   <tile/>
   <tile/>
   <tile/>
   <tile/>
   <tile/>
   <tile/>
   <tile/>
   <tile/>
   <tile/>
   <tile/>
   <tile/>
   <tile/>
   <tile/>
   <tile/>
   <tile/>
   <tile/>
   <tile/>
   <tile/>
   <tile/>
   <tile/>
   <tile/>
   <tile/>
   <tile/>
   <tile/>
   <tile/>
   <tile/>
   <tile/>
   <tile/>
   <tile/>
   <tile/>
   <tile/>
   <tile/>
   <tile/>
   <tile/>
   <tile/>
   <tile/>
   <tile/>
   <tile/>
   <tile/>
   <tile/>
   <tile/>
   <tile/>
   <tile/>
   <tile/>
   <tile/>
   <tile/>
   <tile/>
   <tile/>
   <tile/>
   <tile/>
   <tile/>
   <tile/>
   <tile/>
   <tile/>
   <tile/>
   <tile/>
   <tile/>
   <tile/>
   <tile/>
   <tile/>
   <tile/>
   <tile/>
   <tile/>
   <tile/>
   <tile/>
   <tile/>
   <tile/>
   <tile/>
   <tile/>
   <tile/>
   <tile/>
   <tile/>
   <tile/>
   <tile/>
   <tile/>
   <tile/>
   <tile/>
   <tile/>
   <tile/>
   <tile/>
   <tile/>
   <tile/>
   <tile/>
   <tile/>
   <tile/>
   <tile/>
   <tile/>
   <tile/>
   <tile/>
   <tile/>
   <tile/>
   <tile/>
   <tile/>
   <tile/>
   <tile/>
   <tile/>
   <tile/>
   <tile/>
   <tile/>
   <tile/>
   <tile/>
   <tile/>
   <tile/>
   <tile/>
   <tile/>
   <tile/>
   <tile/>
   <tile/>
   <tile/>
   <tile/>
   <tile/>
   <tile/>
   <tile/>
   <tile/>
   <tile/>
   <tile/>
   <tile/>
   <tile/>
   <tile/>
   <tile/>
   <tile/>
   <tile/>
   <tile/>
   <tile/>
   <tile/>
   <tile/>
   <tile/>
   <tile/>
   <tile/>
   <tile/>
   <tile/>
   <tile/>
   <tile/>
   <tile/>
   <tile/>
   <tile/>
   <tile/>
   <tile/>
   <tile/>
   <tile/>
   <tile/>
   <tile/>
   <tile/>
   <tile/>
   <tile/>
   <tile/>
   <tile/>
   <tile/>
   <tile/>
   <tile gid="203"/>
   <tile gid="204"/>
   <tile gid="204"/>
   <tile gid="204"/>
   <tile/>
   <tile/>
   <tile/>
   <tile/>
   <tile/>
   <tile/>
   <tile/>
   <tile/>
   <tile/>
   <tile/>
   <tile/>
   <tile/>
   <tile/>
   <tile/>
   <tile/>
   <tile/>
   <tile/>
   <tile/>
   <tile/>
   <tile/>
   <tile/>
   <tile/>
   <tile/>
   <tile/>
   <tile/>
   <tile/>
   <tile/>
   <tile/>
   <tile/>
   <tile/>
   <tile/>
   <tile/>
   <tile/>
   <tile/>
   <tile/>
   <tile/>
   <tile/>
   <tile/>
   <tile/>
   <tile/>
   <tile gid="203"/>
   <tile gid="204"/>
   <tile gid="204"/>
   <tile gid="204"/>
   <tile gid="204"/>
   <tile gid="205"/>
   <tile/>
   <tile/>
   <tile/>
   <tile/>
   <tile/>
   <tile/>
   <tile/>
   <tile/>
   <tile/>
   <tile/>
   <tile/>
   <tile/>
   <tile/>
   <tile/>
   <tile/>
   <tile/>
   <tile/>
   <tile/>
   <tile/>
   <tile/>
   <tile/>
   <tile/>
   <tile/>
   <tile/>
   <tile/>
   <tile/>
   <tile/>
   <tile/>
   <tile/>
   <tile/>
   <tile/>
   <tile/>
   <tile/>
   <tile/>
   <tile/>
   <tile/>
   <tile/>
   <tile/>
   <tile/>
   <tile/>
   <tile/>
   <tile/>
   <tile/>
   <tile/>
   <tile/>
   <tile/>
   <tile/>
   <tile gid="203"/>
   <tile gid="204"/>
   <tile gid="204"/>
   <tile gid="205"/>
   <tile/>
   <tile/>
   <tile/>
   <tile/>
   <tile/>
   <tile/>
   <tile/>
   <tile/>
   <tile/>
   <tile/>
   <tile/>
   <tile/>
   <tile/>
   <tile/>
   <tile/>
   <tile/>
   <tile/>
   <tile/>
   <tile/>
   <tile/>
   <tile/>
   <tile/>
   <tile/>
   <tile/>
   <tile/>
   <tile/>
   <tile/>
   <tile/>
   <tile/>
   <tile/>
   <tile/>
   <tile/>
   <tile/>
   <tile/>
   <tile/>
   <tile/>
   <tile/>
   <tile/>
   <tile gid="204"/>
   <tile gid="204"/>
   <tile gid="204"/>
   <tile gid="205"/>
   <tile/>
   <tile/>
   <tile/>
   <tile/>
   <tile gid="203"/>
   <tile gid="204"/>
   <tile gid="204"/>
   <tile gid="204"/>
   <tile gid="204"/>
   <tile gid="204"/>
   <tile gid="204"/>
   <tile gid="204"/>
   <tile gid="204"/>
   <tile gid="204"/>
   <tile gid="204"/>
   <tile gid="204"/>
   <tile gid="204"/>
   <tile gid="204"/>
   <tile gid="204"/>
   <tile gid="204"/>
   <tile gid="204"/>
   <tile gid="204"/>
   <tile gid="204"/>
   <tile gid="204"/>
   <tile gid="204"/>
   <tile gid="205"/>
   <tile/>
   <tile/>
   <tile/>
   <tile/>
   <tile/>
   <tile/>
   <tile/>
   <tile/>
   <tile/>
   <tile/>
   <tile/>
   <tile/>
   <tile/>
   <tile/>
   <tile/>
   <tile/>
   <tile/>
   <tile/>
   <tile/>
   <tile/>
   <tile/>
   <tile/>
   <tile/>
   <tile/>
   <tile/>
   <tile/>
   <tile/>
   <tile/>
   <tile/>
   <tile/>
   <tile/>
   <tile/>
   <tile/>
   <tile/>
   <tile/>
   <tile/>
   <tile/>
   <tile/>
   <tile/>
   <tile/>
   <tile/>
   <tile/>
   <tile/>
   <tile/>
   <tile/>
   <tile/>
   <tile/>
   <tile/>
   <tile/>
   <tile/>
   <tile/>
   <tile/>
   <tile/>
   <tile/>
   <tile/>
   <tile/>
   <tile/>
   <tile/>
   <tile/>
   <tile/>
   <tile/>
   <tile/>
   <tile/>
   <tile/>
   <tile/>
   <tile/>
   <tile/>
   <tile/>
   <tile/>
   <tile/>
   <tile/>
   <tile gid="203"/>
   <tile gid="204"/>
   <tile gid="204"/>
   <tile gid="204"/>
   <tile gid="204"/>
   <tile gid="204"/>
   <tile gid="204"/>
   <tile gid="204"/>
   <tile gid="204"/>
   <tile gid="204"/>
   <tile gid="204"/>
   <tile gid="204"/>
   <tile gid="205"/>
   <tile/>
   <tile/>
   <tile/>
   <tile/>
   <tile/>
   <tile/>
   <tile/>
   <tile/>
   <tile/>
   <tile/>
   <tile gid="203"/>
   <tile gid="204"/>
   <tile gid="205"/>
   <tile/>
   <tile/>
   <tile/>
   <tile/>
   <tile/>
   <tile/>
   <tile/>
   <tile/>
   <tile/>
   <tile/>
   <tile/>
   <tile/>
   <tile/>
   <tile/>
   <tile/>
   <tile/>
   <tile/>
   <tile/>
   <tile/>
   <tile/>
   <tile/>
   <tile/>
   <tile/>
   <tile/>
   <tile/>
   <tile/>
   <tile/>
   <tile/>
   <tile/>
   <tile/>
   <tile/>
   <tile/>
   <tile/>
   <tile/>
   <tile/>
   <tile/>
   <tile/>
   <tile/>
   <tile/>
   <tile/>
   <tile/>
   <tile/>
   <tile/>
   <tile/>
   <tile/>
   <tile/>
   <tile/>
   <tile/>
   <tile/>
   <tile/>
   <tile/>
   <tile/>
   <tile/>
   <tile/>
   <tile/>
   <tile/>
   <tile/>
   <tile/>
   <tile/>
   <tile/>
   <tile/>
   <tile/>
   <tile/>
   <tile/>
   <tile/>
   <tile/>
   <tile/>
   <tile/>
   <tile/>
   <tile/>
   <tile/>
   <tile/>
   <tile/>
   <tile/>
   <tile/>
   <tile/>
   <tile/>
   <tile/>
   <tile/>
   <tile/>
   <tile/>
   <tile/>
   <tile/>
   <tile/>
   <tile/>
   <tile/>
   <tile/>
   <tile/>
   <tile/>
   <tile/>
   <tile/>
   <tile/>
   <tile/>
   <tile/>
   <tile/>
   <tile/>
   <tile/>
   <tile/>
   <tile/>
   <tile/>
   <tile/>
   <tile/>
   <tile/>
   <tile/>
   <tile/>
   <tile/>
   <tile/>
   <tile/>
   <tile/>
   <tile/>
   <tile/>
   <tile/>
   <tile/>
   <tile/>
   <tile/>
   <tile/>
   <tile/>
   <tile/>
   <tile/>
   <tile/>
   <tile/>
   <tile/>
   <tile/>
   <tile/>
   <tile/>
   <tile/>
   <tile/>
   <tile/>
   <tile/>
   <tile/>
   <tile/>
   <tile/>
   <tile/>
   <tile/>
   <tile/>
   <tile/>
   <tile/>
   <tile/>
   <tile/>
   <tile/>
   <tile/>
   <tile/>
   <tile/>
   <tile/>
   <tile/>
   <tile/>
   <tile/>
   <tile/>
   <tile/>
   <tile/>
   <tile/>
   <tile/>
   <tile/>
   <tile/>
   <tile/>
   <tile/>
   <tile/>
   <tile/>
   <tile/>
   <tile/>
   <tile/>
   <tile/>
   <tile/>
   <tile/>
   <tile/>
   <tile/>
   <tile/>
   <tile/>
   <tile/>
   <tile/>
   <tile/>
   <tile/>
   <tile/>
   <tile/>
   <tile/>
   <tile/>
   <tile/>
   <tile/>
   <tile/>
   <tile/>
   <tile/>
   <tile/>
   <tile/>
   <tile/>
   <tile/>
   <tile/>
   <tile/>
   <tile/>
   <tile/>
   <tile/>
   <tile/>
   <tile/>
   <tile/>
   <tile/>
   <tile/>
   <tile/>
   <tile/>
   <tile/>
   <tile/>
   <tile/>
   <tile/>
   <tile/>
   <tile/>
   <tile/>
   <tile/>
   <tile/>
   <tile/>
   <tile/>
   <tile/>
   <tile/>
   <tile/>
   <tile/>
   <tile/>
   <tile/>
   <tile/>
   <tile/>
   <tile/>
   <tile/>
   <tile/>
   <tile/>
   <tile/>
   <tile/>
   <tile/>
   <tile/>
   <tile/>
   <tile/>
   <tile/>
   <tile/>
   <tile/>
   <tile/>
   <tile/>
   <tile/>
   <tile/>
   <tile/>
   <tile/>
   <tile/>
   <tile/>
   <tile/>
   <tile/>
   <tile/>
   <tile/>
   <tile/>
   <tile/>
   <tile/>
   <tile/>
   <tile/>
   <tile/>
   <tile/>
   <tile/>
   <tile/>
   <tile/>
   <tile/>
   <tile/>
   <tile/>
   <tile/>
   <tile/>
   <tile/>
   <tile/>
   <tile/>
   <tile/>
   <tile/>
   <tile/>
   <tile/>
   <tile/>
   <tile gid="203"/>
   <tile gid="204"/>
   <tile gid="204"/>
   <tile/>
   <tile/>
   <tile/>
   <tile/>
   <tile/>
   <tile/>
   <tile/>
   <tile/>
   <tile/>
   <tile/>
   <tile/>
   <tile/>
   <tile/>
   <tile/>
   <tile/>
   <tile/>
   <tile/>
   <tile/>
   <tile/>
   <tile/>
   <tile/>
   <tile/>
   <tile/>
   <tile/>
   <tile/>
   <tile/>
   <tile/>
   <tile/>
   <tile/>
   <tile/>
   <tile/>
   <tile/>
   <tile/>
   <tile/>
   <tile/>
   <tile/>
   <tile/>
   <tile/>
   <tile/>
   <tile/>
   <tile/>
   <tile/>
   <tile/>
   <tile/>
   <tile/>
   <tile/>
   <tile/>
   <tile/>
   <tile/>
   <tile/>
   <tile/>
   <tile/>
   <tile/>
   <tile/>
   <tile/>
   <tile/>
   <tile/>
   <tile/>
   <tile/>
   <tile/>
   <tile/>
   <tile/>
   <tile/>
   <tile/>
   <tile/>
   <tile/>
   <tile/>
   <tile/>
   <tile/>
   <tile/>
   <tile/>
   <tile/>
   <tile/>
   <tile/>
   <tile/>
   <tile/>
   <tile/>
   <tile/>
   <tile/>
   <tile/>
   <tile/>
   <tile/>
   <tile/>
   <tile/>
   <tile/>
   <tile/>
   <tile/>
   <tile/>
   <tile/>
   <tile/>
   <tile/>
   <tile/>
   <tile/>
   <tile/>
   <tile/>
   <tile/>
   <tile/>
   <tile/>
   <tile/>
   <tile/>
   <tile/>
   <tile/>
   <tile/>
   <tile/>
   <tile/>
   <tile/>
   <tile/>
   <tile/>
   <tile/>
   <tile/>
   <tile/>
   <tile/>
   <tile/>
   <tile/>
   <tile/>
   <tile/>
   <tile/>
   <tile/>
   <tile/>
   <tile/>
   <tile/>
   <tile/>
   <tile/>
   <tile/>
   <tile/>
   <tile/>
   <tile/>
   <tile/>
   <tile/>
   <tile/>
   <tile/>
   <tile/>
   <tile/>
   <tile/>
   <tile/>
   <tile/>
   <tile/>
   <tile/>
   <tile/>
   <tile/>
   <tile/>
   <tile/>
   <tile/>
   <tile/>
   <tile/>
   <tile/>
   <tile/>
   <tile/>
   <tile/>
   <tile/>
   <tile/>
   <tile/>
   <tile/>
   <tile/>
   <tile/>
   <tile/>
   <tile/>
   <tile/>
   <tile/>
   <tile/>
   <tile/>
   <tile/>
   <tile/>
   <tile/>
   <tile/>
   <tile/>
   <tile/>
   <tile/>
   <tile/>
   <tile/>
   <tile/>
   <tile/>
   <tile/>
   <tile/>
   <tile/>
   <tile/>
   <tile/>
   <tile/>
   <tile/>
   <tile/>
   <tile/>
   <tile/>
   <tile/>
   <tile/>
   <tile/>
   <tile/>
   <tile/>
   <tile/>
   <tile/>
   <tile/>
   <tile/>
   <tile/>
   <tile/>
   <tile/>
   <tile/>
   <tile/>
   <tile gid="203"/>
   <tile gid="204"/>
   <tile gid="204"/>
   <tile gid="204"/>
   <tile gid="205"/>
   <tile/>
   <tile/>
   <tile/>
   <tile/>
   <tile/>
   <tile/>
   <tile gid="203"/>
   <tile gid="204"/>
   <tile gid="204"/>
   <tile gid="204"/>
   <tile gid="205"/>
   <tile/>
   <tile/>
   <tile/>
   <tile/>
   <tile/>
   <tile/>
   <tile gid="203"/>
   <tile gid="204"/>
   <tile gid="204"/>
   <tile gid="204"/>
   <tile gid="205"/>
   <tile/>
   <tile/>
   <tile/>
   <tile/>
   <tile/>
   <tile/>
   <tile gid="203"/>
   <tile gid="204"/>
   <tile gid="204"/>
   <tile gid="204"/>
   <tile gid="205"/>
   <tile/>
   <tile/>
   <tile/>
   <tile/>
   <tile/>
   <tile/>
   <tile/>
   <tile/>
   <tile/>
   <tile/>
   <tile/>
   <tile/>
   <tile/>
   <tile/>
   <tile/>
   <tile/>
   <tile/>
   <tile/>
   <tile/>
   <tile/>
   <tile/>
   <tile/>
   <tile/>
   <tile/>
   <tile/>
   <tile/>
   <tile/>
   <tile/>
   <tile/>
   <tile/>
   <tile/>
   <tile/>
   <tile/>
   <tile/>
   <tile/>
   <tile/>
   <tile/>
   <tile/>
   <tile/>
   <tile/>
   <tile/>
   <tile/>
   <tile/>
   <tile/>
   <tile/>
   <tile/>
   <tile/>
   <tile/>
   <tile/>
   <tile/>
   <tile/>
   <tile/>
   <tile/>
   <tile/>
   <tile/>
   <tile/>
   <tile/>
   <tile/>
   <tile/>
   <tile/>
   <tile/>
   <tile/>
   <tile/>
   <tile/>
   <tile/>
   <tile/>
   <tile/>
   <tile/>
   <tile/>
   <tile/>
   <tile/>
   <tile/>
   <tile/>
   <tile/>
   <tile/>
   <tile/>
   <tile/>
   <tile/>
   <tile/>
   <tile/>
   <tile/>
   <tile/>
   <tile/>
   <tile/>
   <tile/>
   <tile/>
   <tile/>
   <tile/>
   <tile/>
   <tile/>
   <tile/>
   <tile/>
   <tile/>
   <tile/>
   <tile/>
   <tile/>
   <tile/>
   <tile/>
   <tile/>
   <tile/>
   <tile/>
   <tile/>
   <tile/>
   <tile/>
   <tile/>
   <tile/>
   <tile/>
   <tile/>
   <tile/>
   <tile/>
   <tile/>
   <tile/>
   <tile/>
   <tile/>
   <tile/>
   <tile/>
   <tile/>
   <tile/>
   <tile/>
   <tile/>
   <tile/>
   <tile/>
   <tile/>
   <tile/>
   <tile/>
   <tile/>
   <tile/>
   <tile/>
   <tile/>
   <tile/>
   <tile/>
   <tile/>
   <tile/>
   <tile/>
   <tile/>
   <tile/>
   <tile/>
   <tile/>
   <tile/>
   <tile/>
   <tile/>
   <tile/>
   <tile/>
   <tile/>
   <tile/>
   <tile/>
   <tile/>
   <tile/>
   <tile/>
   <tile/>
   <tile/>
   <tile/>
   <tile/>
   <tile/>
   <tile/>
   <tile/>
   <tile/>
   <tile/>
   <tile/>
   <tile/>
   <tile/>
   <tile/>
   <tile/>
   <tile/>
   <tile/>
   <tile/>
   <tile/>
   <tile/>
   <tile/>
   <tile/>
   <tile/>
   <tile/>
   <tile/>
   <tile/>
   <tile/>
   <tile/>
   <tile/>
   <tile/>
   <tile/>
   <tile/>
   <tile/>
   <tile/>
   <tile/>
   <tile/>
   <tile/>
   <tile/>
   <tile/>
   <tile/>
   <tile/>
   <tile/>
   <tile/>
   <tile/>
   <tile/>
   <tile/>
   <tile/>
   <tile/>
   <tile/>
   <tile/>
   <tile/>
   <tile/>
   <tile/>
   <tile/>
   <tile/>
   <tile/>
   <tile/>
   <tile/>
   <tile/>
   <tile/>
   <tile/>
   <tile/>
   <tile/>
   <tile/>
   <tile/>
   <tile/>
   <tile/>
   <tile/>
   <tile/>
   <tile/>
   <tile/>
   <tile/>
   <tile/>
   <tile/>
   <tile/>
   <tile/>
   <tile/>
   <tile/>
   <tile/>
   <tile/>
   <tile/>
   <tile/>
   <tile/>
   <tile/>
   <tile/>
   <tile/>
   <tile/>
   <tile/>
   <tile/>
   <tile/>
   <tile/>
   <tile/>
   <tile/>
   <tile/>
   <tile/>
   <tile/>
   <tile/>
   <tile/>
   <tile/>
   <tile/>
   <tile/>
   <tile/>
   <tile/>
   <tile/>
   <tile/>
   <tile/>
   <tile/>
   <tile/>
   <tile/>
   <tile/>
   <tile/>
   <tile/>
   <tile/>
   <tile/>
   <tile/>
   <tile/>
   <tile/>
   <tile/>
   <tile/>
   <tile/>
   <tile/>
   <tile/>
   <tile/>
   <tile/>
   <tile/>
   <tile/>
   <tile/>
   <tile/>
   <tile/>
   <tile/>
   <tile/>
   <tile/>
   <tile/>
   <tile/>
   <tile/>
   <tile/>
   <tile/>
   <tile/>
   <tile/>
   <tile/>
   <tile/>
   <tile/>
   <tile/>
   <tile/>
   <tile/>
   <tile/>
   <tile/>
   <tile/>
   <tile/>
   <tile/>
   <tile/>
   <tile/>
   <tile/>
   <tile/>
   <tile/>
   <tile/>
   <tile/>
   <tile/>
   <tile/>
   <tile/>
   <tile/>
   <tile/>
   <tile/>
   <tile/>
   <tile/>
   <tile/>
   <tile/>
   <tile/>
   <tile/>
   <tile/>
   <tile/>
   <tile/>
   <tile/>
   <tile/>
   <tile/>
   <tile/>
   <tile/>
   <tile/>
   <tile/>
   <tile/>
   <tile/>
   <tile/>
   <tile/>
   <tile/>
   <tile/>
   <tile/>
   <tile/>
   <tile/>
   <tile/>
   <tile/>
   <tile/>
   <tile/>
   <tile/>
   <tile/>
   <tile/>
   <tile/>
   <tile/>
   <tile/>
   <tile/>
   <tile/>
   <tile/>
   <tile/>
   <tile/>
   <tile/>
   <tile/>
   <tile/>
   <tile/>
   <tile/>
   <tile/>
   <tile/>
   <tile/>
   <tile/>
   <tile/>
   <tile/>
   <tile/>
   <tile/>
   <tile/>
   <tile/>
   <tile/>
   <tile/>
   <tile/>
   <tile/>
   <tile/>
   <tile/>
   <tile/>
   <tile/>
   <tile/>
   <tile/>
   <tile/>
   <tile/>
   <tile/>
   <tile/>
   <tile/>
   <tile/>
   <tile/>
   <tile/>
   <tile/>
   <tile/>
   <tile/>
   <tile/>
   <tile/>
   <tile/>
   <tile/>
   <tile/>
   <tile/>
   <tile/>
   <tile/>
   <tile/>
   <tile/>
   <tile/>
   <tile/>
   <tile/>
   <tile/>
   <tile/>
   <tile/>
   <tile/>
   <tile/>
   <tile/>
   <tile/>
   <tile/>
   <tile/>
   <tile/>
   <tile/>
   <tile/>
   <tile/>
   <tile/>
   <tile/>
   <tile/>
   <tile/>
   <tile/>
   <tile/>
   <tile/>
   <tile/>
   <tile/>
   <tile/>
   <tile/>
   <tile/>
   <tile/>
   <tile/>
   <tile/>
   <tile/>
   <tile/>
   <tile/>
   <tile/>
   <tile/>
   <tile/>
   <tile/>
   <tile/>
   <tile/>
   <tile/>
   <tile/>
   <tile/>
   <tile/>
   <tile/>
   <tile/>
   <tile/>
   <tile/>
   <tile/>
   <tile/>
   <tile/>
   <tile/>
   <tile/>
   <tile/>
   <tile/>
   <tile/>
   <tile/>
   <tile/>
   <tile/>
   <tile/>
   <tile/>
   <tile/>
   <tile/>
   <tile/>
   <tile/>
   <tile/>
   <tile/>
   <tile/>
   <tile/>
   <tile/>
   <tile/>
   <tile/>
   <tile/>
   <tile/>
   <tile/>
   <tile/>
   <tile/>
   <tile/>
   <tile/>
   <tile/>
   <tile/>
   <tile/>
   <tile/>
   <tile/>
   <tile/>
   <tile/>
   <tile/>
   <tile/>
   <tile/>
   <tile gid="203"/>
   <tile gid="204"/>
   <tile gid="204"/>
   <tile gid="204"/>
   <tile gid="204"/>
   <tile gid="204"/>
   <tile/>
   <tile/>
   <tile gid="204"/>
   <tile gid="205"/>
   <tile/>
   <tile/>
   <tile/>
   <tile/>
   <tile/>
   <tile/>
   <tile/>
   <tile/>
   <tile/>
   <tile/>
   <tile/>
   <tile/>
   <tile/>
   <tile/>
   <tile/>
   <tile/>
   <tile/>
   <tile/>
   <tile/>
   <tile/>
   <tile/>
   <tile/>
   <tile/>
   <tile/>
   <tile/>
   <tile/>
   <tile/>
   <tile/>
   <tile/>
   <tile/>
   <tile/>
   <tile/>
   <tile/>
   <tile/>
   <tile/>
   <tile/>
   <tile/>
   <tile/>
   <tile/>
   <tile/>
   <tile/>
   <tile/>
   <tile/>
   <tile/>
   <tile/>
   <tile/>
   <tile/>
   <tile/>
   <tile/>
   <tile/>
   <tile/>
   <tile/>
   <tile/>
   <tile/>
   <tile/>
   <tile/>
   <tile/>
   <tile/>
   <tile/>
   <tile/>
   <tile/>
   <tile/>
   <tile/>
   <tile/>
   <tile/>
   <tile/>
   <tile/>
   <tile/>
   <tile/>
   <tile/>
   <tile/>
   <tile/>
   <tile/>
   <tile/>
   <tile/>
   <tile/>
   <tile/>
   <tile/>
   <tile/>
   <tile/>
   <tile/>
   <tile/>
   <tile/>
   <tile/>
   <tile/>
   <tile/>
   <tile/>
   <tile/>
   <tile/>
   <tile/>
   <tile/>
   <tile/>
   <tile/>
   <tile/>
   <tile gid="203"/>
   <tile gid="204"/>
   <tile gid="204"/>
   <tile gid="204"/>
   <tile gid="204"/>
   <tile gid="204"/>
   <tile gid="204"/>
   <tile gid="205"/>
   <tile/>
   <tile/>
   <tile/>
   <tile/>
   <tile/>
   <tile/>
   <tile/>
   <tile/>
   <tile/>
   <tile/>
   <tile/>
   <tile/>
   <tile/>
   <tile/>
   <tile/>
   <tile/>
   <tile/>
   <tile/>
   <tile/>
   <tile/>
   <tile/>
   <tile/>
   <tile/>
   <tile/>
   <tile/>
   <tile/>
   <tile/>
   <tile/>
   <tile/>
   <tile/>
   <tile/>
   <tile/>
   <tile/>
   <tile/>
   <tile/>
   <tile/>
   <tile/>
   <tile/>
   <tile/>
   <tile/>
   <tile/>
   <tile/>
   <tile/>
   <tile/>
   <tile/>
   <tile/>
   <tile/>
   <tile/>
   <tile/>
   <tile/>
   <tile/>
   <tile/>
   <tile/>
   <tile/>
   <tile/>
   <tile/>
   <tile/>
   <tile/>
   <tile/>
   <tile/>
   <tile/>
   <tile/>
   <tile/>
   <tile/>
   <tile/>
   <tile/>
   <tile/>
   <tile/>
   <tile/>
   <tile/>
   <tile/>
   <tile/>
   <tile/>
   <tile/>
   <tile/>
   <tile/>
   <tile/>
   <tile/>
   <tile/>
   <tile/>
   <tile/>
   <tile gid="203"/>
   <tile gid="204"/>
   <tile gid="204"/>
   <tile gid="204"/>
   <tile gid="205"/>
   <tile/>
   <tile/>
   <tile/>
   <tile/>
   <tile/>
   <tile/>
   <tile/>
   <tile/>
   <tile/>
   <tile/>
   <tile/>
   <tile/>
   <tile/>
   <tile/>
   <tile/>
   <tile/>
   <tile/>
   <tile/>
   <tile/>
   <tile/>
   <tile/>
   <tile/>
   <tile/>
   <tile/>
   <tile/>
   <tile/>
   <tile/>
   <tile/>
   <tile/>
   <tile/>
   <tile/>
   <tile/>
   <tile/>
   <tile/>
   <tile/>
   <tile/>
   <tile/>
   <tile/>
   <tile/>
   <tile/>
   <tile/>
   <tile/>
   <tile/>
   <tile/>
   <tile/>
   <tile/>
   <tile/>
   <tile/>
   <tile/>
   <tile/>
   <tile/>
   <tile/>
   <tile/>
   <tile/>
   <tile/>
   <tile/>
   <tile/>
   <tile/>
   <tile/>
   <tile/>
   <tile/>
   <tile/>
   <tile/>
   <tile/>
   <tile/>
   <tile/>
   <tile/>
   <tile/>
   <tile/>
   <tile/>
   <tile/>
   <tile/>
   <tile/>
   <tile/>
   <tile/>
   <tile/>
   <tile/>
   <tile/>
   <tile/>
   <tile/>
   <tile/>
   <tile/>
   <tile/>
   <tile/>
   <tile/>
   <tile/>
   <tile/>
   <tile/>
   <tile/>
   <tile/>
   <tile/>
   <tile/>
   <tile/>
   <tile/>
   <tile/>
   <tile/>
   <tile/>
   <tile/>
   <tile/>
   <tile/>
   <tile/>
   <tile/>
   <tile/>
   <tile/>
   <tile/>
   <tile/>
   <tile/>
   <tile/>
   <tile/>
   <tile/>
   <tile/>
   <tile/>
   <tile/>
   <tile/>
   <tile/>
   <tile/>
   <tile/>
   <tile/>
   <tile/>
   <tile/>
   <tile/>
   <tile/>
   <tile/>
   <tile/>
   <tile/>
   <tile/>
   <tile/>
   <tile/>
   <tile/>
   <tile/>
   <tile/>
   <tile/>
   <tile/>
   <tile/>
   <tile/>
   <tile/>
   <tile/>
   <tile/>
   <tile/>
   <tile/>
   <tile/>
   <tile/>
   <tile/>
   <tile/>
   <tile/>
   <tile/>
   <tile/>
   <tile/>
   <tile/>
   <tile/>
   <tile/>
   <tile/>
   <tile/>
   <tile/>
   <tile/>
   <tile/>
   <tile/>
   <tile/>
   <tile/>
   <tile/>
   <tile/>
   <tile/>
   <tile/>
   <tile/>
   <tile/>
   <tile/>
   <tile/>
   <tile/>
   <tile/>
   <tile/>
   <tile/>
   <tile/>
   <tile/>
   <tile/>
   <tile/>
   <tile/>
   <tile/>
   <tile/>
   <tile/>
   <tile/>
   <tile/>
   <tile/>
   <tile/>
   <tile/>
   <tile/>
   <tile/>
   <tile/>
   <tile/>
   <tile/>
   <tile/>
   <tile/>
   <tile/>
   <tile/>
   <tile/>
   <tile/>
   <tile/>
   <tile/>
   <tile/>
   <tile/>
   <tile/>
   <tile/>
   <tile/>
   <tile/>
   <tile/>
   <tile/>
   <tile/>
   <tile/>
   <tile/>
   <tile/>
   <tile/>
   <tile/>
   <tile/>
   <tile/>
   <tile/>
   <tile/>
   <tile/>
   <tile/>
   <tile/>
   <tile/>
   <tile/>
   <tile/>
   <tile/>
   <tile/>
   <tile/>
   <tile/>
   <tile/>
   <tile/>
   <tile/>
   <tile/>
   <tile/>
   <tile/>
   <tile/>
   <tile/>
   <tile/>
   <tile/>
   <tile/>
   <tile/>
   <tile/>
   <tile/>
   <tile/>
   <tile/>
   <tile/>
   <tile/>
   <tile/>
   <tile/>
   <tile/>
   <tile/>
   <tile/>
   <tile/>
   <tile/>
   <tile/>
   <tile/>
   <tile/>
   <tile/>
   <tile/>
   <tile/>
   <tile/>
   <tile/>
   <tile/>
   <tile/>
   <tile/>
   <tile/>
   <tile/>
   <tile/>
   <tile/>
   <tile/>
   <tile/>
   <tile/>
   <tile/>
   <tile/>
   <tile/>
   <tile/>
   <tile/>
   <tile/>
   <tile/>
   <tile/>
   <tile/>
   <tile/>
   <tile/>
   <tile/>
   <tile/>
   <tile/>
   <tile/>
   <tile/>
   <tile/>
   <tile/>
   <tile/>
   <tile/>
   <tile/>
   <tile/>
   <tile/>
   <tile/>
   <tile/>
   <tile/>
   <tile/>
   <tile/>
   <tile/>
   <tile/>
   <tile/>
   <tile/>
   <tile/>
   <tile/>
   <tile/>
   <tile/>
   <tile/>
   <tile/>
   <tile/>
   <tile/>
   <tile/>
   <tile/>
   <tile/>
   <tile/>
   <tile/>
   <tile/>
   <tile/>
   <tile/>
   <tile/>
   <tile/>
   <tile/>
   <tile/>
   <tile/>
   <tile/>
   <tile/>
   <tile/>
   <tile/>
   <tile/>
   <tile/>
   <tile/>
   <tile/>
   <tile/>
   <tile/>
   <tile/>
   <tile/>
   <tile/>
   <tile/>
   <tile/>
   <tile/>
   <tile/>
   <tile/>
   <tile/>
   <tile/>
   <tile/>
   <tile/>
   <tile/>
   <tile/>
   <tile/>
   <tile/>
   <tile/>
   <tile/>
   <tile/>
   <tile/>
   <tile/>
   <tile/>
   <tile/>
   <tile/>
   <tile/>
   <tile/>
   <tile/>
   <tile/>
   <tile/>
   <tile/>
   <tile/>
   <tile/>
   <tile/>
   <tile/>
   <tile/>
   <tile/>
   <tile/>
   <tile/>
   <tile/>
   <tile/>
   <tile/>
   <tile/>
   <tile/>
   <tile/>
   <tile/>
   <tile/>
   <tile/>
   <tile/>
   <tile/>
   <tile/>
   <tile/>
   <tile/>
   <tile/>
   <tile/>
   <tile/>
   <tile/>
   <tile/>
   <tile/>
   <tile/>
   <tile/>
   <tile/>
   <tile/>
   <tile/>
   <tile/>
   <tile/>
   <tile/>
   <tile/>
   <tile/>
   <tile/>
   <tile/>
   <tile/>
   <tile/>
   <tile/>
   <tile/>
   <tile/>
   <tile/>
   <tile/>
   <tile/>
   <tile/>
   <tile/>
   <tile/>
   <tile/>
   <tile/>
   <tile/>
   <tile/>
   <tile/>
   <tile/>
   <tile/>
   <tile/>
   <tile/>
   <tile/>
   <tile/>
   <tile/>
   <tile/>
   <tile/>
   <tile/>
   <tile/>
   <tile/>
   <tile/>
   <tile/>
   <tile/>
   <tile/>
   <tile/>
   <tile/>
   <tile/>
   <tile/>
   <tile/>
   <tile/>
   <tile/>
   <tile/>
   <tile/>
   <tile/>
   <tile/>
   <tile/>
   <tile/>
   <tile/>
   <tile/>
   <tile/>
   <tile/>
   <tile/>
   <tile/>
   <tile/>
   <tile/>
   <tile/>
   <tile/>
   <tile/>
   <tile/>
   <tile/>
   <tile/>
   <tile/>
   <tile/>
   <tile/>
   <tile/>
   <tile/>
   <tile/>
   <tile/>
   <tile/>
   <tile/>
   <tile/>
   <tile/>
   <tile/>
   <tile/>
   <tile/>
   <tile/>
   <tile/>
   <tile/>
   <tile/>
   <tile/>
   <tile/>
   <tile/>
   <tile/>
   <tile gid="203"/>
   <tile gid="205"/>
   <tile/>
   <tile/>
   <tile/>
   <tile/>
   <tile/>
   <tile/>
   <tile/>
   <tile/>
   <tile/>
   <tile/>
   <tile/>
   <tile/>
   <tile/>
   <tile/>
   <tile/>
   <tile/>
   <tile/>
   <tile/>
   <tile/>
   <tile/>
   <tile/>
   <tile/>
   <tile/>
   <tile/>
   <tile/>
   <tile/>
   <tile/>
   <tile/>
   <tile/>
   <tile/>
   <tile/>
   <tile/>
   <tile/>
   <tile/>
   <tile/>
   <tile/>
   <tile/>
   <tile/>
   <tile/>
   <tile/>
   <tile/>
   <tile/>
   <tile/>
   <tile/>
   <tile/>
   <tile/>
   <tile/>
   <tile/>
   <tile/>
   <tile/>
   <tile/>
   <tile/>
   <tile/>
   <tile/>
   <tile/>
   <tile/>
   <tile/>
   <tile/>
   <tile/>
   <tile/>
   <tile/>
   <tile/>
   <tile/>
   <tile/>
   <tile/>
   <tile/>
   <tile/>
   <tile/>
   <tile/>
   <tile/>
   <tile/>
   <tile/>
   <tile/>
   <tile/>
   <tile/>
   <tile/>
   <tile/>
   <tile/>
   <tile/>
   <tile/>
   <tile/>
   <tile/>
   <tile/>
   <tile/>
   <tile/>
   <tile/>
   <tile/>
   <tile/>
   <tile/>
   <tile/>
   <tile/>
   <tile/>
   <tile/>
   <tile/>
   <tile/>
   <tile/>
   <tile/>
   <tile/>
   <tile/>
   <tile/>
   <tile/>
   <tile/>
   <tile/>
   <tile/>
   <tile/>
   <tile/>
   <tile/>
   <tile/>
   <tile/>
   <tile/>
   <tile/>
   <tile/>
   <tile/>
   <tile/>
   <tile/>
   <tile/>
   <tile/>
   <tile/>
   <tile/>
   <tile/>
   <tile/>
   <tile/>
   <tile/>
   <tile gid="203"/>
   <tile gid="204"/>
   <tile gid="204"/>
   <tile gid="204"/>
   <tile gid="204"/>
   <tile gid="204"/>
   <tile gid="204"/>
   <tile gid="205"/>
   <tile/>
   <tile/>
   <tile/>
   <tile/>
   <tile gid="204"/>
   <tile gid="205"/>
   <tile/>
   <tile/>
   <tile/>
   <tile/>
   <tile/>
   <tile/>
   <tile/>
   <tile/>
   <tile/>
   <tile/>
   <tile/>
   <tile/>
   <tile/>
   <tile/>
   <tile/>
   <tile/>
   <tile/>
   <tile/>
   <tile/>
   <tile/>
   <tile/>
   <tile/>
   <tile/>
   <tile/>
   <tile/>
   <tile/>
   <tile/>
   <tile/>
   <tile/>
   <tile/>
   <tile/>
   <tile/>
   <tile/>
   <tile/>
   <tile/>
   <tile/>
   <tile/>
   <tile/>
   <tile/>
   <tile/>
   <tile/>
   <tile/>
   <tile/>
   <tile/>
   <tile/>
   <tile/>
   <tile/>
   <tile/>
   <tile/>
   <tile/>
   <tile/>
   <tile/>
   <tile/>
   <tile/>
   <tile/>
   <tile/>
   <tile/>
   <tile/>
   <tile/>
   <tile/>
   <tile/>
   <tile/>
   <tile/>
   <tile/>
   <tile/>
   <tile/>
   <tile/>
   <tile/>
   <tile/>
   <tile/>
   <tile/>
   <tile/>
   <tile/>
   <tile/>
   <tile/>
   <tile/>
   <tile/>
   <tile/>
   <tile/>
   <tile/>
   <tile/>
   <tile/>
   <tile/>
   <tile/>
   <tile/>
   <tile/>
   <tile/>
   <tile/>
   <tile/>
   <tile/>
   <tile/>
   <tile/>
   <tile/>
   <tile/>
   <tile/>
   <tile/>
   <tile/>
   <tile/>
   <tile/>
   <tile/>
   <tile/>
   <tile/>
   <tile/>
   <tile/>
   <tile/>
   <tile/>
   <tile/>
   <tile/>
   <tile/>
   <tile/>
   <tile/>
   <tile/>
   <tile/>
   <tile/>
   <tile/>
   <tile/>
   <tile/>
   <tile/>
   <tile/>
   <tile/>
   <tile/>
   <tile/>
   <tile/>
   <tile/>
   <tile/>
   <tile/>
   <tile/>
   <tile/>
   <tile/>
   <tile/>
   <tile/>
   <tile/>
   <tile/>
   <tile/>
   <tile/>
   <tile/>
   <tile/>
   <tile/>
   <tile/>
   <tile/>
   <tile/>
   <tile/>
   <tile/>
   <tile/>
   <tile/>
   <tile/>
   <tile/>
   <tile/>
   <tile/>
   <tile/>
   <tile/>
   <tile/>
   <tile/>
   <tile/>
   <tile/>
   <tile/>
   <tile/>
   <tile/>
   <tile/>
   <tile/>
   <tile/>
   <tile/>
   <tile/>
   <tile/>
   <tile/>
   <tile/>
   <tile/>
   <tile/>
   <tile/>
   <tile/>
   <tile/>
   <tile/>
   <tile/>
   <tile/>
   <tile/>
   <tile/>
   <tile/>
   <tile/>
   <tile/>
   <tile/>
   <tile/>
   <tile/>
   <tile/>
   <tile/>
   <tile/>
   <tile/>
   <tile/>
   <tile/>
   <tile/>
   <tile/>
   <tile/>
   <tile/>
   <tile/>
   <tile/>
   <tile/>
   <tile/>
   <tile/>
   <tile/>
   <tile/>
   <tile/>
   <tile/>
   <tile/>
   <tile/>
   <tile/>
   <tile/>
   <tile/>
   <tile/>
   <tile/>
   <tile/>
   <tile/>
   <tile/>
   <tile/>
   <tile/>
   <tile/>
   <tile/>
   <tile/>
   <tile/>
   <tile/>
   <tile/>
   <tile/>
   <tile/>
   <tile/>
   <tile/>
   <tile/>
   <tile/>
   <tile/>
   <tile/>
   <tile/>
   <tile/>
   <tile/>
   <tile/>
   <tile/>
   <tile/>
   <tile/>
   <tile/>
   <tile/>
   <tile/>
   <tile/>
   <tile/>
   <tile/>
   <tile/>
   <tile/>
   <tile/>
   <tile/>
   <tile/>
   <tile/>
   <tile/>
   <tile/>
   <tile/>
   <tile/>
   <tile/>
   <tile/>
   <tile/>
   <tile/>
   <tile/>
   <tile/>
   <tile/>
   <tile/>
   <tile/>
   <tile/>
   <tile/>
   <tile/>
   <tile/>
   <tile/>
   <tile/>
   <tile/>
   <tile/>
   <tile/>
   <tile/>
   <tile/>
   <tile gid="204"/>
   <tile gid="204"/>
   <tile gid="204"/>
   <tile gid="205"/>
   <tile/>
   <tile/>
   <tile/>
   <tile/>
   <tile/>
   <tile/>
   <tile/>
   <tile/>
   <tile/>
   <tile/>
   <tile/>
   <tile/>
   <tile/>
   <tile/>
   <tile/>
   <tile/>
   <tile/>
   <tile/>
   <tile/>
   <tile/>
   <tile/>
   <tile/>
   <tile/>
   <tile/>
   <tile/>
   <tile/>
   <tile/>
   <tile/>
   <tile/>
   <tile/>
   <tile/>
   <tile/>
   <tile/>
   <tile/>
   <tile/>
   <tile/>
   <tile/>
   <tile/>
   <tile/>
   <tile/>
   <tile/>
   <tile/>
   <tile/>
   <tile/>
   <tile/>
   <tile/>
   <tile/>
   <tile/>
   <tile/>
   <tile/>
   <tile/>
   <tile/>
   <tile/>
   <tile/>
   <tile/>
   <tile/>
   <tile/>
   <tile/>
   <tile/>
   <tile/>
   <tile/>
   <tile/>
   <tile/>
   <tile/>
   <tile/>
   <tile/>
   <tile/>
   <tile/>
   <tile/>
   <tile/>
   <tile/>
   <tile/>
   <tile/>
   <tile/>
   <tile/>
   <tile/>
   <tile/>
   <tile/>
   <tile/>
   <tile/>
   <tile/>
   <tile/>
   <tile/>
   <tile/>
   <tile/>
   <tile/>
   <tile/>
   <tile/>
   <tile/>
   <tile/>
   <tile/>
   <tile/>
   <tile/>
   <tile/>
   <tile/>
   <tile/>
   <tile/>
   <tile/>
   <tile/>
   <tile/>
   <tile/>
   <tile/>
   <tile/>
   <tile/>
   <tile/>
   <tile/>
   <tile gid="203"/>
   <tile gid="204"/>
   <tile gid="204"/>
   <tile gid="204"/>
   <tile gid="204"/>
   <tile gid="204"/>
   <tile gid="205"/>
   <tile/>
   <tile/>
   <tile/>
   <tile/>
   <tile/>
   <tile/>
   <tile/>
   <tile/>
   <tile/>
   <tile/>
   <tile/>
   <tile/>
   <tile/>
   <tile/>
   <tile/>
   <tile/>
   <tile/>
   <tile/>
   <tile/>
   <tile/>
   <tile/>
   <tile/>
   <tile/>
   <tile/>
   <tile/>
   <tile/>
   <tile/>
   <tile/>
   <tile/>
   <tile/>
   <tile/>
   <tile/>
   <tile/>
   <tile/>
   <tile/>
   <tile/>
   <tile/>
   <tile/>
   <tile/>
   <tile/>
   <tile/>
   <tile/>
   <tile/>
   <tile/>
   <tile/>
   <tile/>
   <tile/>
   <tile/>
   <tile/>
   <tile/>
   <tile/>
   <tile/>
   <tile/>
   <tile/>
   <tile/>
   <tile/>
   <tile/>
   <tile/>
   <tile/>
   <tile/>
   <tile/>
   <tile/>
   <tile/>
   <tile/>
   <tile/>
   <tile/>
   <tile/>
   <tile/>
   <tile/>
   <tile/>
   <tile/>
   <tile/>
   <tile/>
   <tile/>
   <tile/>
   <tile/>
   <tile/>
   <tile/>
   <tile/>
   <tile/>
   <tile/>
   <tile/>
   <tile/>
   <tile/>
   <tile/>
   <tile/>
   <tile/>
   <tile/>
   <tile/>
   <tile/>
   <tile/>
   <tile/>
   <tile/>
   <tile/>
   <tile/>
   <tile/>
   <tile/>
   <tile/>
   <tile/>
   <tile/>
   <tile/>
   <tile/>
   <tile/>
   <tile/>
   <tile/>
   <tile/>
   <tile/>
   <tile/>
   <tile/>
   <tile/>
   <tile/>
   <tile/>
   <tile/>
   <tile/>
   <tile/>
   <tile/>
   <tile/>
   <tile/>
   <tile/>
   <tile/>
   <tile/>
   <tile/>
   <tile/>
   <tile/>
   <tile/>
   <tile/>
   <tile/>
   <tile/>
   <tile/>
   <tile/>
   <tile/>
   <tile/>
   <tile/>
   <tile/>
   <tile/>
   <tile/>
   <tile/>
   <tile/>
   <tile/>
   <tile/>
   <tile/>
   <tile/>
   <tile/>
   <tile/>
   <tile/>
   <tile/>
   <tile/>
   <tile/>
   <tile/>
   <tile/>
   <tile/>
   <tile/>
   <tile/>
   <tile/>
   <tile/>
   <tile/>
   <tile/>
   <tile/>
   <tile/>
   <tile/>
   <tile/>
   <tile/>
   <tile/>
   <tile/>
   <tile/>
   <tile/>
   <tile/>
   <tile/>
   <tile/>
   <tile/>
   <tile/>
   <tile/>
   <tile/>
   <tile/>
   <tile/>
   <tile/>
   <tile/>
   <tile/>
   <tile/>
   <tile/>
   <tile/>
   <tile/>
   <tile/>
   <tile/>
   <tile/>
   <tile/>
   <tile/>
   <tile/>
   <tile/>
   <tile/>
   <tile/>
   <tile/>
   <tile/>
   <tile/>
   <tile/>
   <tile/>
   <tile/>
   <tile/>
   <tile/>
   <tile/>
   <tile/>
   <tile/>
   <tile/>
   <tile/>
   <tile/>
   <tile/>
   <tile/>
   <tile/>
   <tile/>
   <tile/>
   <tile/>
   <tile/>
   <tile/>
   <tile gid="204"/>
   <tile gid="204"/>
   <tile gid="204"/>
   <tile gid="204"/>
   <tile gid="204"/>
   <tile gid="204"/>
   <tile gid="204"/>
   <tile gid="204"/>
   <tile gid="204"/>
   <tile gid="204"/>
   <tile gid="205"/>
   <tile/>
   <tile/>
   <tile/>
   <tile/>
   <tile/>
   <tile/>
   <tile/>
   <tile gid="203"/>
   <tile gid="204"/>
   <tile gid="204"/>
   <tile gid="204"/>
   <tile gid="204"/>
   <tile gid="204"/>
   <tile gid="205"/>
   <tile/>
   <tile/>
   <tile/>
   <tile/>
   <tile/>
   <tile/>
   <tile/>
   <tile/>
   <tile/>
   <tile/>
   <tile/>
   <tile/>
   <tile/>
   <tile/>
   <tile/>
   <tile/>
   <tile gid="203"/>
   <tile gid="204"/>
   <tile gid="204"/>
   <tile gid="204"/>
   <tile gid="204"/>
   <tile gid="205"/>
   <tile/>
   <tile/>
   <tile/>
   <tile/>
   <tile/>
   <tile/>
   <tile/>
   <tile/>
   <tile/>
   <tile/>
   <tile/>
   <tile/>
   <tile/>
   <tile/>
   <tile/>
   <tile/>
   <tile/>
   <tile/>
   <tile/>
   <tile/>
   <tile/>
   <tile/>
   <tile/>
   <tile/>
   <tile/>
   <tile/>
   <tile/>
   <tile/>
   <tile/>
   <tile/>
   <tile/>
   <tile/>
   <tile/>
   <tile/>
   <tile/>
   <tile/>
   <tile gid="203"/>
   <tile gid="204"/>
   <tile gid="204"/>
   <tile gid="205"/>
   <tile gid="268"/>
   <tile gid="269"/>
   <tile gid="270"/>
   <tile gid="270"/>
   <tile gid="269"/>
   <tile gid="270"/>
   <tile gid="269"/>
   <tile gid="270"/>
   <tile gid="269"/>
   <tile gid="270"/>
   <tile gid="269"/>
   <tile gid="270"/>
   <tile gid="269"/>
   <tile gid="269"/>
   <tile gid="270"/>
   <tile gid="270"/>
   <tile gid="269"/>
   <tile gid="270"/>
   <tile gid="269"/>
   <tile gid="270"/>
   <tile gid="269"/>
   <tile gid="269"/>
   <tile gid="270"/>
   <tile gid="269"/>
   <tile gid="269"/>
   <tile gid="270"/>
   <tile gid="270"/>
   <tile gid="271"/>
   <tile gid="203"/>
   <tile gid="204"/>
   <tile gid="204"/>
   <tile gid="205"/>
   <tile/>
   <tile/>
   <tile/>
   <tile/>
   <tile gid="203"/>
   <tile gid="204"/>
   <tile gid="204"/>
   <tile gid="204"/>
   <tile gid="204"/>
   <tile gid="204"/>
   <tile gid="205"/>
   <tile/>
   <tile/>
   <tile/>
   <tile/>
   <tile/>
   <tile/>
   <tile/>
   <tile/>
   <tile/>
   <tile/>
   <tile/>
   <tile/>
   <tile/>
   <tile/>
   <tile/>
   <tile/>
   <tile/>
   <tile/>
   <tile/>
   <tile/>
   <tile/>
   <tile/>
   <tile/>
   <tile/>
   <tile/>
   <tile/>
   <tile/>
   <tile/>
   <tile/>
   <tile/>
   <tile/>
   <tile/>
   <tile/>
   <tile/>
   <tile/>
   <tile/>
   <tile/>
   <tile/>
   <tile/>
   <tile/>
   <tile/>
   <tile/>
   <tile/>
   <tile/>
   <tile/>
   <tile/>
   <tile/>
   <tile/>
   <tile/>
   <tile/>
   <tile/>
   <tile/>
   <tile/>
   <tile/>
   <tile/>
   <tile/>
   <tile/>
   <tile/>
   <tile/>
   <tile/>
   <tile/>
   <tile/>
   <tile/>
   <tile/>
   <tile/>
   <tile/>
   <tile/>
   <tile/>
   <tile/>
   <tile/>
   <tile/>
   <tile/>
   <tile/>
   <tile/>
   <tile/>
   <tile/>
   <tile/>
   <tile/>
   <tile/>
   <tile/>
   <tile/>
   <tile/>
   <tile/>
   <tile/>
   <tile/>
   <tile/>
   <tile/>
   <tile/>
   <tile/>
   <tile/>
   <tile/>
   <tile/>
   <tile/>
   <tile/>
   <tile/>
   <tile/>
   <tile/>
   <tile/>
   <tile/>
   <tile/>
   <tile/>
   <tile/>
   <tile/>
   <tile/>
   <tile/>
   <tile/>
   <tile/>
   <tile/>
   <tile/>
   <tile/>
   <tile/>
   <tile/>
   <tile/>
   <tile/>
   <tile/>
   <tile/>
   <tile/>
   <tile/>
   <tile/>
   <tile/>
   <tile/>
   <tile/>
   <tile/>
   <tile/>
   <tile/>
   <tile/>
   <tile/>
   <tile/>
   <tile/>
   <tile/>
   <tile/>
   <tile/>
   <tile/>
   <tile/>
   <tile/>
   <tile/>
   <tile/>
   <tile/>
   <tile/>
   <tile/>
   <tile/>
   <tile/>
   <tile/>
   <tile/>
   <tile/>
   <tile/>
   <tile/>
   <tile/>
   <tile/>
   <tile/>
   <tile/>
   <tile/>
   <tile/>
   <tile/>
   <tile/>
   <tile/>
   <tile/>
   <tile/>
   <tile/>
   <tile/>
   <tile/>
   <tile/>
   <tile/>
   <tile/>
   <tile/>
   <tile/>
   <tile/>
   <tile/>
   <tile/>
   <tile/>
   <tile/>
   <tile/>
   <tile/>
   <tile/>
   <tile/>
   <tile/>
   <tile/>
   <tile/>
   <tile/>
   <tile/>
   <tile/>
   <tile/>
   <tile/>
   <tile/>
   <tile/>
   <tile/>
   <tile/>
   <tile/>
   <tile/>
   <tile/>
   <tile/>
   <tile/>
   <tile/>
   <tile/>
   <tile/>
   <tile/>
   <tile/>
   <tile/>
   <tile/>
   <tile/>
   <tile/>
   <tile/>
   <tile/>
   <tile/>
   <tile/>
   <tile/>
   <tile/>
   <tile/>
   <tile/>
   <tile/>
   <tile/>
   <tile/>
   <tile/>
   <tile/>
   <tile/>
   <tile/>
   <tile/>
   <tile/>
   <tile/>
   <tile/>
   <tile/>
   <tile/>
   <tile/>
   <tile/>
   <tile/>
   <tile/>
   <tile/>
   <tile/>
   <tile/>
   <tile/>
   <tile/>
   <tile/>
   <tile/>
   <tile/>
   <tile/>
   <tile/>
   <tile/>
   <tile/>
   <tile/>
   <tile/>
   <tile/>
   <tile/>
   <tile/>
   <tile/>
   <tile/>
   <tile/>
   <tile/>
   <tile/>
   <tile/>
   <tile/>
   <tile/>
   <tile/>
   <tile/>
   <tile/>
   <tile/>
   <tile/>
   <tile/>
   <tile/>
   <tile/>
   <tile/>
   <tile/>
   <tile/>
   <tile/>
   <tile/>
   <tile/>
   <tile/>
   <tile/>
   <tile/>
   <tile/>
   <tile/>
   <tile/>
   <tile/>
   <tile/>
   <tile/>
   <tile/>
   <tile/>
   <tile/>
   <tile/>
   <tile/>
   <tile/>
   <tile/>
   <tile/>
   <tile/>
   <tile/>
   <tile/>
   <tile/>
   <tile/>
   <tile/>
   <tile/>
   <tile/>
   <tile/>
   <tile/>
   <tile/>
   <tile/>
   <tile/>
   <tile/>
   <tile/>
   <tile/>
   <tile/>
   <tile/>
   <tile/>
   <tile/>
   <tile/>
   <tile/>
   <tile/>
   <tile/>
   <tile/>
   <tile/>
   <tile/>
   <tile/>
   <tile/>
   <tile/>
   <tile/>
   <tile/>
   <tile/>
   <tile/>
   <tile/>
   <tile/>
   <tile/>
   <tile/>
   <tile/>
   <tile/>
   <tile/>
   <tile/>
   <tile/>
   <tile/>
   <tile/>
   <tile/>
   <tile/>
   <tile/>
   <tile/>
   <tile/>
   <tile/>
   <tile/>
   <tile/>
   <tile/>
   <tile/>
   <tile/>
   <tile/>
   <tile/>
   <tile/>
   <tile/>
   <tile/>
   <tile/>
   <tile/>
   <tile/>
   <tile/>
   <tile/>
   <tile/>
   <tile/>
   <tile/>
   <tile/>
   <tile/>
   <tile/>
   <tile/>
   <tile/>
   <tile/>
   <tile/>
   <tile/>
   <tile/>
   <tile/>
   <tile/>
   <tile/>
   <tile/>
   <tile/>
   <tile/>
   <tile/>
   <tile/>
   <tile/>
   <tile/>
   <tile/>
   <tile/>
   <tile/>
   <tile/>
   <tile/>
   <tile/>
   <tile/>
   <tile/>
   <tile/>
   <tile/>
   <tile/>
   <tile/>
   <tile/>
   <tile/>
   <tile/>
   <tile/>
   <tile/>
   <tile/>
   <tile/>
   <tile/>
   <tile/>
   <tile/>
   <tile/>
   <tile/>
   <tile/>
   <tile/>
   <tile/>
   <tile/>
   <tile/>
   <tile/>
   <tile/>
   <tile/>
   <tile/>
   <tile/>
   <tile/>
   <tile/>
   <tile/>
   <tile/>
   <tile/>
   <tile/>
   <tile/>
   <tile/>
   <tile/>
   <tile/>
   <tile/>
   <tile/>
   <tile/>
   <tile/>
   <tile/>
   <tile/>
   <tile/>
   <tile/>
   <tile/>
   <tile/>
   <tile/>
   <tile/>
   <tile/>
   <tile/>
   <tile/>
   <tile/>
   <tile/>
   <tile/>
   <tile/>
   <tile/>
   <tile/>
   <tile/>
   <tile/>
   <tile/>
   <tile/>
   <tile/>
   <tile/>
   <tile/>
   <tile/>
   <tile/>
   <tile/>
   <tile/>
   <tile/>
   <tile/>
   <tile/>
   <tile/>
   <tile/>
   <tile/>
   <tile/>
   <tile/>
   <tile/>
   <tile/>
   <tile/>
   <tile/>
   <tile/>
   <tile/>
   <tile/>
   <tile/>
   <tile/>
   <tile/>
   <tile/>
   <tile/>
   <tile/>
   <tile/>
   <tile/>
   <tile/>
   <tile/>
   <tile/>
   <tile/>
   <tile/>
   <tile/>
   <tile/>
   <tile/>
   <tile/>
   <tile/>
   <tile/>
   <tile/>
   <tile/>
   <tile/>
   <tile/>
   <tile/>
   <tile/>
   <tile/>
   <tile/>
   <tile/>
   <tile/>
   <tile/>
   <tile/>
   <tile/>
   <tile/>
   <tile/>
   <tile/>
   <tile/>
   <tile/>
   <tile/>
   <tile/>
   <tile/>
   <tile/>
   <tile/>
   <tile/>
   <tile/>
   <tile/>
   <tile/>
   <tile/>
   <tile/>
   <tile/>
   <tile/>
   <tile/>
   <tile/>
   <tile/>
   <tile/>
   <tile/>
   <tile/>
   <tile/>
   <tile/>
   <tile/>
   <tile/>
   <tile/>
   <tile/>
   <tile/>
   <tile/>
   <tile/>
   <tile/>
   <tile/>
   <tile/>
   <tile/>
   <tile/>
   <tile/>
   <tile/>
   <tile/>
   <tile/>
   <tile/>
   <tile/>
   <tile/>
   <tile/>
   <tile/>
   <tile/>
   <tile/>
   <tile/>
   <tile/>
   <tile/>
   <tile/>
   <tile/>
   <tile/>
   <tile/>
   <tile/>
   <tile/>
   <tile/>
   <tile/>
   <tile/>
   <tile/>
   <tile/>
   <tile/>
   <tile/>
   <tile/>
   <tile/>
   <tile/>
   <tile/>
   <tile/>
   <tile/>
   <tile/>
   <tile/>
   <tile/>
   <tile/>
   <tile/>
   <tile/>
   <tile/>
   <tile/>
   <tile/>
   <tile/>
   <tile/>
   <tile/>
   <tile/>
   <tile/>
   <tile/>
   <tile gid="204"/>
   <tile gid="204"/>
   <tile gid="204"/>
   <tile gid="204"/>
   <tile gid="204"/>
   <tile gid="204"/>
   <tile gid="204"/>
   <tile gid="204"/>
   <tile gid="204"/>
   <tile gid="204"/>
   <tile gid="204"/>
   <tile gid="204"/>
   <tile gid="205"/>
   <tile/>
   <tile/>
   <tile gid="203"/>
   <tile gid="204"/>
   <tile gid="204"/>
   <tile gid="204"/>
   <tile gid="204"/>
   <tile gid="204"/>
   <tile gid="204"/>
   <tile gid="204"/>
   <tile gid="204"/>
   <tile gid="204"/>
   <tile gid="204"/>
   <tile gid="204"/>
   <tile gid="204"/>
   <tile gid="204"/>
   <tile gid="204"/>
   <tile gid="204"/>
   <tile gid="204"/>
   <tile gid="204"/>
   <tile gid="204"/>
   <tile gid="204"/>
   <tile gid="204"/>
   <tile gid="204"/>
   <tile gid="204"/>
   <tile gid="204"/>
   <tile gid="204"/>
   <tile gid="204"/>
   <tile gid="204"/>
   <tile gid="204"/>
   <tile gid="204"/>
   <tile gid="204"/>
   <tile gid="204"/>
   <tile gid="204"/>
   <tile gid="204"/>
   <tile gid="204"/>
   <tile gid="204"/>
   <tile gid="204"/>
   <tile gid="204"/>
   <tile/>
   <tile/>
   <tile/>
   <tile/>
   <tile/>
   <tile/>
   <tile/>
   <tile/>
   <tile/>
   <tile/>
   <tile/>
   <tile/>
   <tile/>
   <tile/>
   <tile/>
   <tile/>
   <tile/>
   <tile/>
   <tile/>
   <tile/>
   <tile/>
   <tile/>
   <tile/>
   <tile/>
   <tile/>
   <tile/>
   <tile/>
   <tile/>
   <tile/>
   <tile/>
   <tile gid="204"/>
   <tile gid="204"/>
   <tile gid="204"/>
   <tile gid="204"/>
   <tile gid="204"/>
   <tile gid="204"/>
   <tile gid="204"/>
   <tile gid="204"/>
   <tile gid="204"/>
   <tile gid="204"/>
   <tile gid="204"/>
   <tile gid="204"/>
   <tile gid="204"/>
   <tile gid="205"/>
   <tile/>
   <tile/>
   <tile gid="203"/>
   <tile gid="204"/>
   <tile gid="204"/>
   <tile gid="204"/>
   <tile gid="204"/>
   <tile gid="204"/>
   <tile gid="204"/>
   <tile gid="204"/>
   <tile gid="204"/>
   <tile gid="204"/>
   <tile gid="204"/>
   <tile gid="204"/>
   <tile gid="204"/>
   <tile gid="204"/>
   <tile gid="204"/>
   <tile gid="205"/>
   <tile/>
   <tile/>
   <tile gid="203"/>
   <tile gid="204"/>
   <tile gid="204"/>
   <tile gid="204"/>
   <tile gid="204"/>
   <tile gid="204"/>
   <tile gid="204"/>
   <tile gid="204"/>
   <tile gid="204"/>
   <tile gid="204"/>
   <tile gid="204"/>
   <tile gid="204"/>
   <tile gid="204"/>
   <tile gid="204"/>
   <tile gid="204"/>
   <tile gid="204"/>
   <tile/>
   <tile/>
   <tile/>
   <tile/>
   <tile/>
   <tile/>
   <tile/>
   <tile/>
   <tile/>
   <tile/>
   <tile/>
   <tile/>
   <tile/>
   <tile/>
   <tile/>
   <tile/>
   <tile/>
   <tile/>
   <tile/>
   <tile/>
   <tile/>
   <tile/>
   <tile/>
   <tile/>
   <tile/>
   <tile/>
   <tile/>
   <tile/>
   <tile/>
   <tile/>
   <tile/>
   <tile/>
   <tile/>
   <tile/>
   <tile/>
   <tile/>
   <tile/>
   <tile/>
   <tile/>
   <tile/>
   <tile/>
   <tile/>
   <tile/>
   <tile/>
   <tile/>
   <tile/>
   <tile/>
   <tile/>
   <tile/>
   <tile/>
   <tile/>
   <tile/>
   <tile/>
   <tile/>
   <tile/>
   <tile/>
   <tile/>
   <tile/>
   <tile/>
   <tile/>
   <tile/>
   <tile/>
   <tile/>
   <tile/>
   <tile/>
   <tile/>
   <tile/>
   <tile/>
   <tile/>
   <tile/>
   <tile/>
   <tile/>
   <tile/>
   <tile/>
   <tile/>
   <tile/>
   <tile/>
   <tile/>
   <tile/>
   <tile/>
   <tile/>
   <tile/>
   <tile/>
   <tile/>
   <tile/>
   <tile/>
   <tile/>
   <tile/>
   <tile/>
   <tile/>
   <tile/>
   <tile/>
   <tile/>
   <tile/>
   <tile/>
   <tile/>
   <tile/>
   <tile/>
   <tile/>
   <tile/>
   <tile/>
   <tile/>
   <tile/>
   <tile/>
   <tile/>
   <tile/>
   <tile/>
   <tile/>
   <tile/>
   <tile/>
   <tile/>
   <tile/>
   <tile/>
   <tile/>
   <tile/>
   <tile/>
   <tile/>
   <tile/>
   <tile/>
   <tile/>
   <tile/>
   <tile/>
   <tile/>
   <tile/>
   <tile/>
   <tile/>
   <tile/>
   <tile/>
   <tile/>
   <tile/>
   <tile/>
   <tile/>
   <tile/>
   <tile/>
   <tile/>
   <tile/>
  </data>
 </layer>
 <layer id="3" name="Collisions" width="135" height="34">
  <data>
   <tile gid="258"/>
   <tile gid="258"/>
   <tile gid="258"/>
   <tile gid="258"/>
   <tile gid="258"/>
   <tile gid="258"/>
   <tile gid="258"/>
   <tile gid="258"/>
   <tile gid="258"/>
   <tile gid="258"/>
   <tile gid="258"/>
   <tile gid="258"/>
   <tile gid="258"/>
   <tile/>
   <tile/>
   <tile/>
   <tile/>
   <tile/>
   <tile/>
   <tile gid="258"/>
   <tile gid="258"/>
   <tile gid="258"/>
   <tile gid="258"/>
   <tile gid="258"/>
   <tile gid="258"/>
   <tile gid="258"/>
   <tile gid="258"/>
   <tile gid="258"/>
   <tile gid="258"/>
   <tile gid="258"/>
   <tile gid="258"/>
   <tile gid="258"/>
   <tile gid="258"/>
   <tile gid="258"/>
   <tile/>
   <tile/>
   <tile gid="258"/>
   <tile gid="258"/>
   <tile gid="258"/>
   <tile gid="258"/>
   <tile gid="258"/>
   <tile gid="258"/>
   <tile gid="258"/>
   <tile gid="258"/>
   <tile gid="258"/>
   <tile gid="258"/>
   <tile gid="258"/>
   <tile gid="258"/>
   <tile gid="258"/>
   <tile gid="258"/>
   <tile gid="258"/>
   <tile gid="258"/>
   <tile gid="258"/>
   <tile gid="258"/>
   <tile gid="258"/>
   <tile/>
   <tile/>
   <tile/>
   <tile/>
   <tile/>
   <tile/>
   <tile gid="258"/>
   <tile gid="258"/>
   <tile gid="258"/>
   <tile gid="258"/>
   <tile gid="258"/>
   <tile/>
   <tile/>
   <tile/>
   <tile/>
   <tile/>
   <tile/>
   <tile gid="258"/>
   <tile gid="258"/>
   <tile gid="258"/>
   <tile gid="258"/>
   <tile gid="258"/>
   <tile/>
   <tile/>
   <tile/>
   <tile/>
   <tile/>
   <tile/>
   <tile gid="258"/>
   <tile gid="258"/>
   <tile gid="258"/>
   <tile gid="258"/>
   <tile gid="258"/>
   <tile gid="258"/>
   <tile gid="258"/>
   <tile gid="258"/>
   <tile gid="258"/>
   <tile gid="258"/>
   <tile gid="258"/>
   <tile gid="258"/>
   <tile gid="258"/>
   <tile/>
   <tile/>
   <tile/>
   <tile/>
   <tile/>
   <tile/>
   <tile gid="258"/>
   <tile gid="258"/>
   <tile gid="258"/>
   <tile gid="258"/>
   <tile gid="258"/>
   <tile gid="258"/>
   <tile gid="258"/>
   <tile gid="258"/>
   <tile gid="258"/>
   <tile gid="258"/>
   <tile gid="258"/>
   <tile gid="258"/>
   <tile/>
   <tile/>
   <tile/>
   <tile/>
   <tile/>
   <tile/>
   <tile gid="258"/>
   <tile gid="258"/>
   <tile gid="258"/>
   <tile gid="258"/>
   <tile gid="258"/>
   <tile gid="258"/>
   <tile gid="258"/>
   <tile gid="258"/>
   <tile gid="258"/>
   <tile gid="258"/>
   <tile gid="258"/>
   <tile gid="258"/>
   <tile gid="258"/>
   <tile gid="258"/>
   <tile gid="258"/>
   <tile/>
   <tile/>
   <tile/>
   <tile/>
   <tile/>
   <tile/>
   <tile/>
   <tile/>
   <tile/>
   <tile/>
   <tile/>
   <tile/>
   <tile/>
   <tile gid="258"/>
   <tile/>
   <tile/>
   <tile/>
   <tile/>
   <tile gid="258"/>
   <tile/>
   <tile/>
   <tile/>
   <tile/>
   <tile/>
   <tile/>
   <tile/>
   <tile/>
   <tile/>
   <tile/>
   <tile/>
   <tile/>
   <tile/>
   <tile/>
   <tile/>
   <tile gid="258"/>
   <tile gid="258"/>
   <tile/>
   <tile/>
   <tile/>
   <tile/>
   <tile/>
   <tile/>
   <tile/>
   <tile/>
   <tile/>
   <tile/>
   <tile/>
   <tile/>
   <tile/>
   <tile/>
   <tile/>
   <tile/>
   <tile/>
   <tile/>
   <tile/>
   <tile gid="258"/>
   <tile/>
   <tile/>
   <tile/>
   <tile/>
   <tile gid="258"/>
   <tile/>
   <tile/>
   <tile/>
   <tile/>
   <tile/>
   <tile gid="258"/>
   <tile/>
   <tile/>
   <tile/>
   <tile/>
   <tile gid="258"/>
   <tile/>
   <tile/>
   <tile/>
   <tile/>
   <tile/>
   <tile gid="258"/>
   <tile/>
   <tile/>
   <tile/>
   <tile/>
   <tile gid="258"/>
   <tile/>
   <tile/>
   <tile/>
   <tile/>
   <tile/>
   <tile/>
   <tile/>
   <tile/>
   <tile/>
   <tile/>
   <tile/>
   <tile/>
   <tile/>
   <tile gid="258"/>
   <tile/>
   <tile/>
   <tile/>
   <tile/>
   <tile gid="258"/>
   <tile/>
   <tile/>
   <tile/>
   <tile/>
   <tile/>
   <tile/>
   <tile/>
   <tile/>
   <tile/>
   <tile/>
   <tile/>
   <tile/>
   <tile gid="258"/>
   <tile/>
   <tile/>
   <tile/>
   <tile/>
   <tile gid="258"/>
   <tile/>
   <tile/>
   <tile/>
   <tile/>
   <tile/>
   <tile/>
   <tile/>
   <tile/>
   <tile/>
   <tile/>
   <tile/>
   <tile/>
   <tile/>
   <tile/>
   <tile/>
   <tile/>
   <tile/>
   <tile/>
   <tile/>
   <tile/>
   <tile/>
   <tile/>
   <tile/>
   <tile/>
   <tile/>
   <tile/>
   <tile/>
   <tile/>
   <tile/>
   <tile gid="258"/>
   <tile gid="258"/>
   <tile gid="258"/>
   <tile gid="258"/>
   <tile/>
   <tile/>
   <tile/>
   <tile/>
   <tile/>
   <tile/>
   <tile/>
   <tile/>
   <tile/>
   <tile/>
   <tile/>
   <tile/>
   <tile/>
   <tile/>
   <tile/>
   <tile/>
   <tile gid="258"/>
   <tile gid="258"/>
   <tile/>
   <tile/>
   <tile/>
   <tile/>
   <tile/>
   <tile/>
   <tile/>
   <tile/>
   <tile/>
   <tile/>
   <tile/>
   <tile/>
   <tile/>
   <tile/>
   <tile/>
   <tile/>
   <tile/>
   <tile/>
   <tile/>
   <tile/>
   <tile gid="258"/>
   <tile gid="258"/>
   <tile gid="258"/>
   <tile gid="258"/>
   <tile/>
   <tile/>
   <tile/>
   <tile/>
   <tile/>
   <tile/>
   <tile/>
   <tile gid="258"/>
   <tile gid="258"/>
   <tile gid="258"/>
   <tile gid="258"/>
   <tile/>
   <tile/>
   <tile/>
   <tile/>
   <tile/>
   <tile/>
   <tile/>
   <tile gid="258"/>
   <tile gid="258"/>
   <tile gid="258"/>
   <tile gid="258"/>
   <tile/>
   <tile/>
   <tile/>
   <tile/>
   <tile/>
   <tile/>
   <tile/>
   <tile/>
   <tile/>
   <tile/>
   <tile/>
   <tile/>
   <tile/>
   <tile/>
   <tile/>
   <tile gid="258"/>
   <tile gid="258"/>
   <tile gid="258"/>
   <tile gid="258"/>
   <tile/>
   <tile/>
   <tile/>
   <tile/>
   <tile/>
   <tile/>
   <tile/>
   <tile/>
   <tile/>
   <tile/>
   <tile/>
   <tile/>
   <tile/>
   <tile/>
   <tile gid="258"/>
   <tile gid="258"/>
   <tile gid="258"/>
   <tile gid="258"/>
   <tile/>
   <tile/>
   <tile/>
   <tile/>
   <tile/>
   <tile/>
   <tile/>
   <tile/>
   <tile/>
   <tile/>
   <tile/>
   <tile/>
   <tile/>
   <tile/>
   <tile/>
   <tile/>
   <tile/>
   <tile/>
   <tile/>
   <tile/>
   <tile/>
   <tile/>
   <tile/>
   <tile/>
   <tile/>
   <tile/>
   <tile/>
   <tile/>
   <tile/>
   <tile/>
   <tile/>
   <tile/>
   <tile/>
   <tile/>
   <tile/>
   <tile/>
   <tile/>
   <tile/>
   <tile/>
   <tile/>
   <tile/>
   <tile/>
   <tile/>
   <tile/>
   <tile/>
   <tile/>
   <tile/>
   <tile/>
   <tile/>
   <tile/>
   <tile gid="258"/>
   <tile gid="258"/>
   <tile/>
   <tile/>
   <tile/>
   <tile/>
   <tile/>
   <tile/>
   <tile/>
   <tile/>
   <tile/>
   <tile/>
   <tile/>
   <tile/>
   <tile/>
   <tile/>
   <tile/>
   <tile/>
   <tile/>
   <tile/>
   <tile/>
   <tile/>
   <tile/>
   <tile/>
   <tile/>
   <tile/>
   <tile/>
   <tile/>
   <tile/>
   <tile/>
   <tile/>
   <tile/>
   <tile/>
   <tile/>
   <tile/>
   <tile/>
   <tile/>
   <tile/>
   <tile/>
   <tile/>
   <tile/>
   <tile/>
   <tile/>
   <tile/>
   <tile/>
   <tile/>
   <tile/>
   <tile/>
   <tile/>
   <tile/>
   <tile/>
   <tile/>
   <tile/>
   <tile/>
   <tile/>
   <tile/>
   <tile/>
   <tile/>
   <tile/>
   <tile/>
   <tile/>
   <tile/>
   <tile/>
   <tile/>
   <tile/>
   <tile/>
   <tile/>
   <tile/>
   <tile/>
   <tile/>
   <tile/>
   <tile/>
   <tile/>
   <tile/>
   <tile/>
   <tile/>
   <tile/>
   <tile/>
   <tile/>
   <tile/>
   <tile/>
   <tile/>
   <tile/>
   <tile/>
   <tile/>
   <tile/>
   <tile/>
   <tile/>
   <tile/>
   <tile/>
   <tile/>
   <tile/>
   <tile/>
   <tile/>
   <tile/>
   <tile/>
   <tile/>
   <tile/>
   <tile/>
   <tile/>
   <tile/>
   <tile/>
   <tile/>
   <tile/>
   <tile/>
   <tile/>
   <tile/>
   <tile/>
   <tile/>
   <tile/>
   <tile/>
   <tile/>
   <tile/>
   <tile/>
   <tile/>
   <tile/>
   <tile/>
   <tile/>
   <tile/>
   <tile/>
   <tile/>
   <tile/>
   <tile/>
   <tile/>
   <tile/>
   <tile/>
   <tile/>
   <tile/>
   <tile/>
   <tile/>
   <tile/>
   <tile/>
   <tile/>
   <tile/>
   <tile/>
   <tile gid="258"/>
   <tile gid="258"/>
   <tile/>
   <tile/>
   <tile/>
   <tile/>
   <tile/>
   <tile/>
   <tile/>
   <tile/>
   <tile/>
   <tile/>
   <tile/>
   <tile/>
   <tile/>
   <tile/>
   <tile/>
   <tile/>
   <tile/>
   <tile/>
   <tile/>
   <tile/>
   <tile/>
   <tile/>
   <tile/>
   <tile/>
   <tile/>
   <tile/>
   <tile/>
   <tile/>
   <tile/>
   <tile/>
   <tile/>
   <tile/>
   <tile/>
   <tile/>
   <tile/>
   <tile/>
   <tile/>
   <tile/>
   <tile/>
   <tile/>
   <tile/>
   <tile/>
   <tile/>
   <tile/>
   <tile/>
   <tile/>
   <tile/>
   <tile/>
   <tile/>
   <tile/>
   <tile/>
   <tile/>
   <tile/>
   <tile/>
   <tile/>
   <tile/>
   <tile/>
   <tile/>
   <tile/>
   <tile/>
   <tile/>
   <tile/>
   <tile/>
   <tile/>
   <tile/>
   <tile/>
   <tile/>
   <tile/>
   <tile/>
   <tile/>
   <tile/>
   <tile/>
   <tile/>
   <tile/>
   <tile/>
   <tile/>
   <tile/>
   <tile/>
   <tile/>
   <tile/>
   <tile/>
   <tile/>
   <tile/>
   <tile/>
   <tile/>
   <tile/>
   <tile/>
   <tile/>
   <tile/>
   <tile/>
   <tile/>
   <tile/>
   <tile/>
   <tile/>
   <tile/>
   <tile/>
   <tile/>
   <tile/>
   <tile/>
   <tile/>
   <tile/>
   <tile/>
   <tile/>
   <tile/>
   <tile/>
   <tile/>
   <tile/>
   <tile/>
   <tile/>
   <tile/>
   <tile/>
   <tile/>
   <tile/>
   <tile/>
   <tile/>
   <tile/>
   <tile/>
   <tile/>
   <tile/>
   <tile/>
   <tile/>
   <tile/>
   <tile/>
   <tile/>
   <tile/>
   <tile/>
   <tile/>
   <tile/>
   <tile/>
   <tile/>
   <tile/>
   <tile/>
   <tile/>
   <tile gid="258"/>
   <tile gid="258"/>
   <tile/>
   <tile/>
   <tile/>
   <tile/>
   <tile/>
   <tile/>
   <tile/>
   <tile/>
   <tile/>
   <tile/>
   <tile/>
   <tile/>
   <tile/>
   <tile/>
   <tile/>
   <tile/>
   <tile/>
   <tile/>
   <tile/>
   <tile/>
   <tile/>
   <tile/>
   <tile/>
   <tile/>
   <tile/>
   <tile/>
   <tile/>
   <tile/>
   <tile/>
   <tile/>
   <tile/>
   <tile/>
   <tile/>
   <tile/>
   <tile/>
   <tile/>
   <tile/>
   <tile/>
   <tile/>
   <tile/>
   <tile/>
   <tile/>
   <tile/>
   <tile/>
   <tile/>
   <tile/>
   <tile/>
   <tile/>
   <tile/>
   <tile/>
   <tile/>
   <tile/>
   <tile/>
   <tile/>
   <tile/>
   <tile/>
   <tile/>
   <tile/>
   <tile/>
   <tile/>
   <tile/>
   <tile/>
   <tile/>
   <tile/>
   <tile/>
   <tile/>
   <tile/>
   <tile/>
   <tile/>
   <tile/>
   <tile/>
   <tile/>
   <tile/>
   <tile/>
   <tile/>
   <tile/>
   <tile/>
   <tile/>
   <tile/>
   <tile/>
   <tile/>
   <tile/>
   <tile/>
   <tile/>
   <tile/>
   <tile/>
   <tile/>
   <tile/>
   <tile/>
   <tile/>
   <tile/>
   <tile/>
   <tile/>
   <tile/>
   <tile/>
   <tile/>
   <tile/>
   <tile/>
   <tile/>
   <tile/>
   <tile/>
   <tile/>
   <tile/>
   <tile/>
   <tile/>
   <tile/>
   <tile/>
   <tile/>
   <tile/>
   <tile/>
   <tile/>
   <tile/>
   <tile/>
   <tile/>
   <tile/>
   <tile/>
   <tile/>
   <tile/>
   <tile/>
   <tile/>
   <tile/>
   <tile/>
   <tile/>
   <tile/>
   <tile/>
   <tile/>
   <tile/>
   <tile/>
   <tile/>
   <tile/>
   <tile/>
   <tile/>
   <tile/>
   <tile gid="258"/>
   <tile gid="258"/>
   <tile/>
   <tile/>
   <tile/>
   <tile/>
   <tile/>
   <tile/>
   <tile/>
   <tile/>
   <tile/>
   <tile/>
   <tile/>
   <tile/>
   <tile/>
   <tile/>
   <tile/>
   <tile/>
   <tile/>
   <tile/>
   <tile/>
   <tile/>
   <tile/>
   <tile/>
   <tile/>
   <tile/>
   <tile/>
   <tile/>
   <tile/>
   <tile/>
   <tile/>
   <tile/>
   <tile/>
   <tile/>
   <tile/>
   <tile/>
   <tile/>
   <tile/>
   <tile/>
   <tile/>
   <tile/>
   <tile/>
   <tile/>
   <tile/>
   <tile/>
   <tile/>
   <tile/>
   <tile/>
   <tile/>
   <tile/>
   <tile/>
   <tile/>
   <tile/>
   <tile/>
   <tile/>
   <tile/>
   <tile/>
   <tile/>
   <tile/>
   <tile/>
   <tile/>
   <tile/>
   <tile/>
   <tile/>
   <tile/>
   <tile/>
   <tile/>
   <tile/>
   <tile/>
   <tile/>
   <tile/>
   <tile/>
   <tile/>
   <tile/>
   <tile/>
   <tile/>
   <tile/>
   <tile/>
   <tile/>
   <tile/>
   <tile/>
   <tile/>
   <tile/>
   <tile/>
   <tile/>
   <tile/>
   <tile/>
   <tile/>
   <tile/>
   <tile/>
   <tile/>
   <tile/>
   <tile/>
   <tile/>
   <tile/>
   <tile/>
   <tile/>
   <tile/>
   <tile/>
   <tile/>
   <tile/>
   <tile/>
   <tile/>
   <tile/>
   <tile/>
   <tile/>
   <tile/>
   <tile/>
   <tile/>
   <tile/>
   <tile/>
   <tile/>
   <tile/>
   <tile/>
   <tile/>
   <tile/>
   <tile/>
   <tile/>
   <tile/>
   <tile/>
   <tile/>
   <tile/>
   <tile/>
   <tile/>
   <tile/>
   <tile/>
   <tile/>
   <tile/>
   <tile/>
   <tile/>
   <tile/>
   <tile/>
   <tile/>
   <tile/>
   <tile/>
   <tile gid="258"/>
   <tile gid="258"/>
   <tile/>
   <tile/>
   <tile/>
   <tile/>
   <tile/>
   <tile/>
   <tile/>
   <tile/>
   <tile/>
   <tile/>
   <tile/>
   <tile/>
   <tile/>
   <tile/>
   <tile/>
   <tile/>
   <tile/>
   <tile/>
   <tile/>
   <tile/>
   <tile/>
   <tile/>
   <tile/>
   <tile/>
   <tile/>
   <tile/>
   <tile/>
   <tile/>
   <tile/>
   <tile/>
   <tile/>
   <tile/>
   <tile/>
   <tile/>
   <tile/>
   <tile/>
   <tile/>
   <tile/>
   <tile/>
   <tile/>
   <tile/>
   <tile/>
   <tile/>
   <tile/>
   <tile/>
   <tile/>
   <tile/>
   <tile/>
   <tile/>
   <tile/>
   <tile/>
   <tile/>
   <tile/>
   <tile/>
   <tile/>
   <tile/>
   <tile/>
   <tile/>
   <tile/>
   <tile/>
   <tile/>
   <tile/>
   <tile/>
   <tile/>
   <tile/>
   <tile/>
   <tile/>
   <tile/>
   <tile/>
   <tile/>
   <tile/>
   <tile/>
   <tile/>
   <tile/>
   <tile/>
   <tile/>
   <tile/>
   <tile/>
   <tile/>
   <tile/>
   <tile/>
   <tile/>
   <tile/>
   <tile/>
   <tile/>
   <tile/>
   <tile/>
   <tile/>
   <tile/>
   <tile/>
   <tile/>
   <tile/>
   <tile/>
   <tile/>
   <tile/>
   <tile gid="258"/>
   <tile gid="258"/>
   <tile gid="258"/>
   <tile gid="258"/>
   <tile/>
   <tile/>
   <tile/>
   <tile/>
   <tile/>
   <tile/>
   <tile/>
   <tile/>
   <tile/>
   <tile/>
   <tile/>
   <tile/>
   <tile/>
   <tile/>
   <tile/>
   <tile/>
   <tile/>
   <tile/>
   <tile/>
   <tile/>
   <tile/>
   <tile/>
   <tile/>
   <tile/>
   <tile/>
   <tile/>
   <tile/>
   <tile/>
   <tile/>
   <tile/>
   <tile/>
   <tile/>
   <tile/>
   <tile/>
   <tile gid="258"/>
   <tile gid="258"/>
   <tile/>
   <tile/>
   <tile/>
   <tile/>
   <tile gid="258"/>
   <tile gid="258"/>
   <tile gid="258"/>
   <tile gid="258"/>
   <tile gid="258"/>
   <tile gid="258"/>
   <tile/>
   <tile/>
   <tile/>
   <tile/>
   <tile/>
   <tile/>
   <tile/>
   <tile/>
   <tile/>
   <tile/>
   <tile/>
   <tile/>
   <tile/>
   <tile/>
   <tile/>
   <tile/>
   <tile/>
   <tile/>
   <tile/>
   <tile/>
   <tile/>
   <tile/>
   <tile/>
   <tile/>
   <tile/>
   <tile/>
   <tile/>
   <tile/>
   <tile/>
   <tile/>
   <tile/>
   <tile/>
   <tile/>
   <tile/>
   <tile/>
   <tile/>
   <tile/>
   <tile/>
   <tile/>
   <tile/>
   <tile/>
   <tile/>
   <tile/>
   <tile/>
   <tile/>
   <tile/>
   <tile/>
   <tile gid="258"/>
   <tile gid="258"/>
   <tile gid="258"/>
   <tile gid="258"/>
   <tile/>
   <tile/>
   <tile/>
   <tile/>
   <tile/>
   <tile/>
   <tile/>
   <tile/>
   <tile/>
   <tile/>
   <tile/>
   <tile/>
   <tile/>
   <tile/>
   <tile/>
   <tile/>
   <tile/>
   <tile/>
   <tile/>
   <tile/>
   <tile/>
   <tile/>
   <tile/>
   <tile/>
   <tile/>
   <tile/>
   <tile/>
   <tile/>
   <tile/>
   <tile/>
   <tile/>
   <tile/>
   <tile/>
   <tile/>
   <tile gid="258"/>
   <tile/>
   <tile/>
   <tile/>
   <tile gid="258"/>
   <tile gid="258"/>
   <tile gid="258"/>
   <tile gid="258"/>
   <tile/>
   <tile/>
   <tile/>
   <tile/>
   <tile gid="258"/>
   <tile gid="258"/>
   <tile gid="258"/>
   <tile gid="258"/>
   <tile gid="258"/>
   <tile gid="258"/>
   <tile gid="258"/>
   <tile gid="258"/>
   <tile gid="258"/>
   <tile gid="258"/>
   <tile gid="258"/>
   <tile gid="258"/>
   <tile gid="258"/>
   <tile gid="258"/>
   <tile gid="258"/>
   <tile gid="258"/>
   <tile gid="258"/>
   <tile gid="258"/>
   <tile gid="258"/>
   <tile gid="258"/>
   <tile gid="258"/>
   <tile gid="258"/>
   <tile/>
   <tile/>
   <tile/>
   <tile/>
   <tile gid="258"/>
   <tile gid="258"/>
   <tile/>
   <tile/>
   <tile/>
   <tile/>
   <tile gid="258"/>
   <tile/>
   <tile/>
   <tile gid="258"/>
   <tile/>
   <tile/>
   <tile/>
   <tile/>
   <tile/>
   <tile/>
   <tile/>
   <tile/>
   <tile/>
   <tile/>
   <tile/>
   <tile/>
   <tile/>
   <tile/>
   <tile/>
   <tile/>
   <tile/>
   <tile/>
   <tile/>
   <tile/>
   <tile/>
   <tile/>
   <tile/>
   <tile/>
   <tile/>
   <tile/>
   <tile/>
   <tile/>
   <tile/>
   <tile/>
   <tile/>
   <tile/>
   <tile/>
   <tile/>
   <tile/>
   <tile/>
   <tile/>
   <tile/>
   <tile/>
   <tile/>
   <tile/>
   <tile/>
   <tile/>
   <tile/>
   <tile/>
   <tile/>
   <tile/>
   <tile/>
   <tile/>
   <tile/>
   <tile/>
   <tile gid="258"/>
   <tile gid="258"/>
   <tile/>
   <tile/>
   <tile/>
   <tile/>
   <tile gid="258"/>
   <tile gid="258"/>
   <tile gid="258"/>
   <tile gid="258"/>
   <tile gid="258"/>
   <tile gid="258"/>
   <tile gid="258"/>
   <tile gid="258"/>
   <tile gid="258"/>
   <tile gid="258"/>
   <tile gid="258"/>
   <tile gid="258"/>
   <tile gid="258"/>
   <tile/>
   <tile/>
   <tile/>
   <tile/>
   <tile/>
   <tile/>
   <tile/>
   <tile/>
   <tile/>
   <tile/>
   <tile gid="258"/>
   <tile gid="258"/>
   <tile gid="258"/>
   <tile/>
   <tile/>
   <tile/>
   <tile/>
   <tile gid="258"/>
   <tile gid="258"/>
   <tile/>
   <tile/>
   <tile/>
   <tile/>
   <tile gid="258"/>
   <tile gid="258"/>
   <tile/>
   <tile/>
   <tile/>
   <tile/>
   <tile gid="258"/>
   <tile/>
   <tile/>
   <tile gid="258"/>
   <tile gid="258"/>
   <tile/>
   <tile/>
   <tile/>
   <tile/>
   <tile/>
   <tile/>
   <tile/>
   <tile gid="258"/>
   <tile/>
   <tile gid="258"/>
   <tile gid="258"/>
   <tile/>
   <tile/>
   <tile/>
   <tile gid="258"/>
   <tile/>
   <tile gid="258"/>
   <tile/>
   <tile/>
   <tile/>
   <tile/>
   <tile gid="258"/>
   <tile gid="258"/>
   <tile/>
   <tile/>
   <tile/>
   <tile/>
   <tile gid="258"/>
   <tile/>
   <tile gid="258"/>
   <tile/>
   <tile/>
   <tile/>
   <tile/>
   <tile/>
   <tile/>
   <tile/>
   <tile/>
   <tile/>
   <tile/>
   <tile/>
   <tile/>
   <tile/>
   <tile/>
   <tile/>
   <tile/>
   <tile/>
   <tile/>
   <tile/>
   <tile/>
   <tile/>
   <tile/>
   <tile/>
   <tile/>
   <tile/>
   <tile/>
   <tile/>
   <tile/>
   <tile/>
   <tile/>
   <tile/>
   <tile/>
   <tile/>
   <tile/>
   <tile/>
   <tile/>
   <tile/>
   <tile/>
   <tile/>
   <tile/>
   <tile/>
   <tile/>
   <tile/>
   <tile/>
   <tile/>
   <tile/>
   <tile/>
   <tile/>
   <tile/>
   <tile/>
   <tile/>
   <tile/>
   <tile gid="258"/>
   <tile gid="258"/>
   <tile/>
   <tile/>
   <tile/>
   <tile/>
   <tile gid="258"/>
   <tile/>
   <tile/>
   <tile/>
   <tile/>
   <tile gid="258"/>
   <tile gid="258"/>
   <tile gid="258"/>
   <tile gid="258"/>
   <tile/>
   <tile/>
   <tile/>
   <tile/>
   <tile/>
   <tile/>
   <tile/>
   <tile/>
   <tile/>
   <tile/>
   <tile/>
   <tile/>
   <tile/>
   <tile/>
   <tile gid="258"/>
   <tile/>
   <tile gid="258"/>
   <tile/>
   <tile/>
   <tile/>
   <tile/>
   <tile gid="258"/>
   <tile/>
   <tile gid="258"/>
   <tile/>
   <tile/>
   <tile/>
   <tile gid="258"/>
   <tile/>
   <tile/>
   <tile/>
   <tile/>
   <tile/>
   <tile gid="258"/>
   <tile/>
   <tile gid="258"/>
   <tile/>
   <tile/>
   <tile/>
   <tile/>
   <tile/>
   <tile/>
   <tile/>
   <tile/>
   <tile/>
   <tile/>
   <tile gid="258"/>
   <tile/>
   <tile/>
   <tile/>
   <tile/>
   <tile/>
   <tile/>
   <tile gid="258"/>
   <tile gid="258"/>
   <tile/>
   <tile/>
   <tile/>
   <tile/>
   <tile gid="258"/>
   <tile gid="258"/>
   <tile/>
   <tile/>
   <tile/>
   <tile/>
   <tile gid="258"/>
   <tile gid="258"/>
   <tile/>
   <tile/>
   <tile/>
   <tile/>
   <tile/>
   <tile/>
   <tile/>
   <tile/>
   <tile/>
   <tile/>
   <tile/>
   <tile/>
   <tile/>
   <tile/>
   <tile/>
   <tile/>
   <tile/>
   <tile/>
   <tile/>
   <tile/>
   <tile/>
   <tile/>
   <tile/>
   <tile/>
   <tile/>
   <tile/>
   <tile/>
   <tile/>
   <tile/>
   <tile/>
   <tile/>
   <tile/>
   <tile/>
   <tile/>
   <tile/>
   <tile/>
   <tile/>
   <tile/>
   <tile/>
   <tile/>
   <tile/>
   <tile/>
   <tile/>
   <tile/>
   <tile/>
   <tile/>
   <tile/>
   <tile/>
   <tile/>
   <tile/>
   <tile/>
   <tile/>
   <tile/>
   <tile gid="258"/>
   <tile gid="258"/>
   <tile/>
   <tile/>
   <tile/>
   <tile/>
   <tile gid="258"/>
   <tile/>
   <tile/>
   <tile gid="258"/>
   <tile gid="258"/>
   <tile/>
   <tile/>
   <tile/>
   <tile/>
   <tile/>
   <tile/>
   <tile/>
   <tile/>
   <tile/>
   <tile/>
   <tile/>
   <tile/>
   <tile/>
   <tile/>
   <tile/>
   <tile gid="258"/>
   <tile gid="258"/>
   <tile gid="258"/>
   <tile/>
   <tile/>
   <tile gid="258"/>
   <tile/>
   <tile/>
   <tile/>
   <tile/>
   <tile gid="258"/>
   <tile/>
   <tile gid="258"/>
   <tile/>
   <tile/>
   <tile/>
   <tile gid="258"/>
   <tile/>
   <tile/>
   <tile/>
   <tile/>
   <tile/>
   <tile gid="258"/>
   <tile gid="258"/>
   <tile/>
   <tile/>
   <tile/>
   <tile/>
   <tile/>
   <tile/>
   <tile/>
   <tile/>
   <tile/>
   <tile/>
   <tile/>
   <tile/>
   <tile/>
   <tile/>
   <tile/>
   <tile/>
   <tile/>
   <tile/>
   <tile gid="258"/>
   <tile gid="258"/>
   <tile/>
   <tile/>
   <tile/>
   <tile/>
   <tile/>
   <tile/>
   <tile/>
   <tile/>
   <tile/>
   <tile/>
   <tile gid="258"/>
   <tile gid="258"/>
   <tile/>
   <tile/>
   <tile/>
   <tile/>
   <tile/>
   <tile/>
   <tile/>
   <tile/>
   <tile/>
   <tile/>
   <tile/>
   <tile/>
   <tile/>
   <tile/>
   <tile/>
   <tile/>
   <tile/>
   <tile/>
   <tile/>
   <tile/>
   <tile/>
   <tile/>
   <tile/>
   <tile/>
   <tile/>
   <tile/>
   <tile/>
   <tile/>
   <tile/>
   <tile/>
   <tile/>
   <tile/>
   <tile/>
   <tile/>
   <tile/>
   <tile/>
   <tile/>
   <tile/>
   <tile/>
   <tile/>
   <tile/>
   <tile/>
   <tile/>
   <tile/>
   <tile/>
   <tile/>
   <tile/>
   <tile/>
   <tile/>
   <tile/>
   <tile/>
   <tile/>
   <tile/>
   <tile gid="258"/>
   <tile gid="258"/>
   <tile/>
   <tile/>
   <tile/>
   <tile/>
   <tile gid="258"/>
   <tile/>
   <tile gid="258"/>
   <tile/>
   <tile/>
   <tile/>
   <tile/>
   <tile/>
   <tile/>
   <tile/>
   <tile/>
   <tile/>
   <tile/>
   <tile/>
   <tile/>
   <tile/>
   <tile/>
   <tile/>
   <tile/>
   <tile/>
   <tile gid="258"/>
   <tile/>
   <tile/>
   <tile/>
   <tile/>
   <tile gid="258"/>
   <tile/>
   <tile/>
   <tile/>
   <tile/>
   <tile gid="258"/>
   <tile/>
   <tile/>
   <tile gid="258"/>
   <tile/>
   <tile/>
   <tile gid="258"/>
   <tile/>
   <tile/>
   <tile/>
   <tile/>
   <tile/>
   <tile gid="258"/>
   <tile/>
   <tile/>
   <tile/>
   <tile/>
   <tile/>
   <tile/>
   <tile/>
   <tile/>
   <tile/>
   <tile/>
   <tile/>
   <tile/>
   <tile/>
   <tile/>
   <tile/>
   <tile/>
   <tile/>
   <tile/>
   <tile/>
   <tile gid="258"/>
   <tile gid="258"/>
   <tile/>
   <tile/>
   <tile/>
   <tile/>
   <tile/>
   <tile/>
   <tile/>
   <tile/>
   <tile/>
   <tile/>
   <tile gid="258"/>
   <tile gid="258"/>
   <tile/>
   <tile/>
   <tile/>
   <tile/>
   <tile/>
   <tile/>
   <tile/>
   <tile/>
   <tile gid="258"/>
   <tile gid="258"/>
   <tile gid="258"/>
   <tile gid="258"/>
   <tile gid="258"/>
   <tile/>
   <tile/>
   <tile/>
   <tile/>
   <tile/>
   <tile/>
   <tile gid="258"/>
   <tile gid="258"/>
   <tile gid="258"/>
   <tile gid="258"/>
   <tile gid="258"/>
   <tile/>
   <tile/>
   <tile/>
   <tile/>
   <tile/>
   <tile/>
   <tile gid="258"/>
   <tile gid="258"/>
   <tile gid="258"/>
   <tile gid="258"/>
   <tile gid="258"/>
   <tile/>
   <tile/>
   <tile/>
   <tile/>
   <tile/>
   <tile/>
   <tile gid="258"/>
   <tile gid="258"/>
   <tile gid="258"/>
   <tile gid="258"/>
   <tile gid="258"/>
   <tile/>
   <tile/>
   <tile/>
   <tile/>
   <tile/>
   <tile/>
   <tile gid="258"/>
   <tile gid="258"/>
   <tile gid="258"/>
   <tile/>
   <tile/>
   <tile/>
   <tile/>
   <tile gid="258"/>
   <tile/>
   <tile gid="258"/>
   <tile/>
   <tile/>
   <tile/>
   <tile/>
   <tile/>
   <tile/>
   <tile/>
   <tile/>
   <tile/>
   <tile/>
   <tile/>
   <tile/>
   <tile/>
   <tile/>
   <tile/>
   <tile/>
   <tile/>
   <tile gid="258"/>
   <tile/>
   <tile/>
   <tile/>
   <tile/>
   <tile gid="258"/>
   <tile/>
   <tile/>
   <tile/>
   <tile/>
   <tile gid="258"/>
   <tile/>
   <tile/>
   <tile gid="258"/>
   <tile/>
   <tile/>
   <tile gid="258"/>
   <tile/>
   <tile/>
   <tile/>
   <tile/>
   <tile/>
   <tile gid="258"/>
   <tile/>
   <tile/>
   <tile/>
   <tile/>
   <tile/>
   <tile/>
   <tile/>
   <tile/>
   <tile/>
   <tile/>
   <tile/>
   <tile/>
   <tile/>
   <tile/>
   <tile/>
   <tile/>
   <tile/>
   <tile/>
   <tile/>
   <tile gid="258"/>
   <tile gid="258"/>
   <tile/>
   <tile/>
   <tile/>
   <tile/>
   <tile/>
   <tile/>
   <tile/>
   <tile/>
   <tile/>
   <tile/>
   <tile gid="258"/>
   <tile gid="258"/>
   <tile/>
   <tile/>
   <tile/>
   <tile/>
   <tile/>
   <tile/>
   <tile/>
   <tile/>
   <tile/>
   <tile gid="258"/>
   <tile gid="258"/>
   <tile gid="258"/>
   <tile/>
   <tile/>
   <tile/>
   <tile/>
   <tile/>
   <tile/>
   <tile/>
   <tile/>
   <tile gid="258"/>
   <tile gid="258"/>
   <tile gid="258"/>
   <tile/>
   <tile/>
   <tile/>
   <tile/>
   <tile/>
   <tile/>
   <tile/>
   <tile/>
   <tile gid="258"/>
   <tile gid="258"/>
   <tile gid="258"/>
   <tile/>
   <tile/>
   <tile/>
   <tile/>
   <tile/>
   <tile/>
   <tile/>
   <tile/>
   <tile gid="258"/>
   <tile gid="258"/>
   <tile gid="258"/>
   <tile/>
   <tile/>
   <tile/>
   <tile/>
   <tile/>
   <tile/>
   <tile/>
   <tile/>
   <tile/>
   <tile/>
   <tile/>
   <tile/>
   <tile/>
   <tile/>
   <tile gid="258"/>
   <tile gid="258"/>
   <tile/>
   <tile/>
   <tile/>
   <tile/>
   <tile/>
   <tile/>
   <tile/>
   <tile/>
   <tile/>
   <tile/>
   <tile/>
   <tile/>
   <tile/>
   <tile/>
   <tile/>
   <tile/>
   <tile/>
   <tile/>
   <tile gid="258"/>
   <tile/>
   <tile/>
   <tile/>
   <tile/>
   <tile gid="258"/>
   <tile/>
   <tile/>
   <tile/>
   <tile/>
   <tile gid="258"/>
   <tile/>
   <tile/>
   <tile gid="258"/>
   <tile/>
   <tile/>
   <tile gid="258"/>
   <tile/>
   <tile/>
   <tile/>
   <tile/>
   <tile/>
   <tile/>
   <tile/>
   <tile/>
   <tile/>
   <tile/>
   <tile/>
   <tile/>
   <tile/>
   <tile/>
   <tile/>
   <tile/>
   <tile/>
   <tile/>
   <tile/>
   <tile/>
   <tile/>
   <tile/>
   <tile/>
   <tile/>
   <tile/>
   <tile/>
   <tile gid="258"/>
   <tile/>
   <tile/>
   <tile/>
   <tile/>
   <tile/>
   <tile/>
   <tile/>
   <tile/>
   <tile/>
   <tile/>
   <tile gid="258"/>
   <tile gid="258"/>
   <tile/>
   <tile/>
   <tile/>
   <tile/>
   <tile/>
   <tile/>
   <tile/>
   <tile/>
   <tile/>
   <tile/>
   <tile/>
   <tile/>
   <tile/>
   <tile/>
   <tile/>
   <tile/>
   <tile/>
   <tile/>
   <tile/>
   <tile/>
   <tile/>
   <tile/>
   <tile/>
   <tile/>
   <tile/>
   <tile/>
   <tile/>
   <tile/>
   <tile/>
   <tile/>
   <tile/>
   <tile/>
   <tile/>
   <tile/>
   <tile/>
   <tile/>
   <tile/>
   <tile/>
   <tile/>
   <tile/>
   <tile/>
   <tile/>
   <tile/>
   <tile/>
   <tile/>
   <tile/>
   <tile/>
   <tile/>
   <tile/>
   <tile/>
   <tile/>
   <tile/>
   <tile/>
   <tile/>
   <tile/>
   <tile/>
   <tile/>
   <tile/>
   <tile/>
   <tile gid="258"/>
   <tile gid="258"/>
   <tile/>
   <tile/>
   <tile/>
   <tile/>
   <tile/>
   <tile/>
   <tile/>
   <tile/>
   <tile/>
   <tile/>
   <tile/>
   <tile/>
   <tile/>
   <tile/>
   <tile/>
   <tile/>
   <tile/>
   <tile/>
   <tile gid="258"/>
   <tile/>
   <tile/>
   <tile/>
   <tile/>
   <tile gid="258"/>
   <tile/>
   <tile/>
   <tile/>
   <tile/>
   <tile gid="258"/>
   <tile/>
   <tile/>
   <tile gid="258"/>
   <tile/>
   <tile/>
   <tile gid="258"/>
   <tile/>
   <tile/>
   <tile/>
   <tile/>
   <tile/>
   <tile/>
   <tile/>
   <tile/>
   <tile/>
   <tile/>
   <tile/>
   <tile/>
   <tile/>
   <tile/>
   <tile/>
   <tile/>
   <tile/>
   <tile/>
   <tile/>
   <tile/>
   <tile/>
   <tile/>
   <tile/>
   <tile/>
   <tile/>
   <tile/>
   <tile gid="258"/>
   <tile/>
   <tile/>
   <tile/>
   <tile/>
   <tile/>
   <tile/>
   <tile/>
   <tile/>
   <tile/>
   <tile/>
   <tile gid="258"/>
   <tile gid="258"/>
   <tile/>
   <tile/>
   <tile/>
   <tile/>
   <tile/>
   <tile/>
   <tile/>
   <tile/>
   <tile/>
   <tile/>
   <tile/>
   <tile/>
   <tile/>
   <tile/>
   <tile/>
   <tile/>
   <tile/>
   <tile/>
   <tile/>
   <tile/>
   <tile/>
   <tile/>
   <tile/>
   <tile/>
   <tile/>
   <tile/>
   <tile/>
   <tile/>
   <tile/>
   <tile/>
   <tile/>
   <tile/>
   <tile/>
   <tile/>
   <tile/>
   <tile/>
   <tile/>
   <tile/>
   <tile/>
   <tile/>
   <tile/>
   <tile/>
   <tile/>
   <tile/>
   <tile/>
   <tile/>
   <tile/>
   <tile/>
   <tile/>
   <tile/>
   <tile/>
   <tile/>
   <tile/>
   <tile/>
   <tile/>
   <tile/>
   <tile/>
   <tile/>
   <tile/>
   <tile gid="258"/>
   <tile gid="258"/>
   <tile/>
   <tile/>
   <tile/>
   <tile/>
   <tile/>
   <tile/>
   <tile/>
   <tile/>
   <tile/>
   <tile/>
   <tile/>
   <tile/>
   <tile/>
   <tile/>
   <tile/>
   <tile/>
   <tile/>
   <tile/>
   <tile gid="258"/>
   <tile/>
   <tile/>
   <tile/>
   <tile/>
   <tile gid="258"/>
   <tile/>
   <tile/>
   <tile/>
   <tile/>
   <tile gid="258"/>
   <tile/>
   <tile/>
   <tile gid="258"/>
   <tile/>
   <tile gid="258"/>
   <tile/>
   <tile/>
   <tile/>
   <tile/>
   <tile/>
   <tile/>
   <tile/>
   <tile/>
   <tile/>
   <tile/>
   <tile/>
   <tile/>
   <tile/>
   <tile/>
   <tile/>
   <tile/>
   <tile/>
   <tile/>
   <tile/>
   <tile/>
   <tile/>
   <tile/>
   <tile/>
   <tile/>
   <tile/>
   <tile/>
   <tile/>
   <tile gid="258"/>
   <tile/>
   <tile/>
   <tile/>
   <tile/>
   <tile gid="258"/>
   <tile gid="258"/>
   <tile gid="258"/>
   <tile gid="258"/>
   <tile gid="258"/>
   <tile gid="258"/>
   <tile/>
   <tile/>
   <tile gid="258"/>
   <tile gid="258"/>
   <tile/>
   <tile/>
   <tile/>
   <tile/>
   <tile/>
   <tile/>
   <tile/>
   <tile/>
   <tile/>
   <tile/>
   <tile/>
   <tile/>
   <tile/>
   <tile/>
   <tile/>
   <tile/>
   <tile/>
   <tile/>
   <tile/>
   <tile/>
   <tile/>
   <tile/>
   <tile/>
   <tile/>
   <tile/>
   <tile/>
   <tile/>
   <tile/>
   <tile/>
   <tile/>
   <tile/>
   <tile/>
   <tile/>
   <tile/>
   <tile/>
   <tile/>
   <tile/>
   <tile/>
   <tile/>
   <tile/>
   <tile/>
   <tile/>
   <tile/>
   <tile/>
   <tile/>
   <tile/>
   <tile/>
   <tile/>
   <tile/>
   <tile/>
   <tile/>
   <tile/>
   <tile/>
   <tile/>
   <tile/>
   <tile/>
   <tile/>
   <tile gid="258"/>
   <tile gid="258"/>
   <tile/>
   <tile/>
   <tile/>
   <tile/>
   <tile/>
   <tile/>
   <tile/>
   <tile/>
   <tile/>
   <tile/>
   <tile/>
   <tile/>
   <tile/>
   <tile/>
   <tile/>
   <tile/>
   <tile/>
   <tile/>
   <tile gid="258"/>
   <tile gid="258"/>
   <tile gid="258"/>
   <tile/>
   <tile/>
   <tile gid="258"/>
   <tile/>
   <tile/>
   <tile/>
   <tile/>
   <tile gid="258"/>
   <tile/>
   <tile/>
   <tile gid="258"/>
   <tile/>
   <tile gid="258"/>
   <tile/>
   <tile gid="258"/>
   <tile gid="258"/>
   <tile gid="258"/>
   <tile gid="258"/>
   <tile gid="258"/>
   <tile gid="258"/>
   <tile gid="258"/>
   <tile gid="258"/>
   <tile/>
   <tile/>
   <tile/>
   <tile/>
   <tile/>
   <tile/>
   <tile/>
   <tile/>
   <tile/>
   <tile/>
   <tile/>
   <tile/>
   <tile/>
   <tile/>
   <tile/>
   <tile/>
   <tile/>
   <tile/>
   <tile/>
   <tile/>
   <tile/>
   <tile/>
   <tile/>
   <tile/>
   <tile gid="258"/>
   <tile gid="258"/>
   <tile gid="258"/>
   <tile gid="258"/>
   <tile gid="258"/>
   <tile gid="258"/>
   <tile gid="258"/>
   <tile gid="258"/>
   <tile/>
   <tile/>
   <tile/>
   <tile/>
   <tile/>
   <tile/>
   <tile/>
   <tile/>
   <tile/>
   <tile/>
   <tile/>
   <tile/>
   <tile/>
   <tile/>
   <tile/>
   <tile/>
   <tile/>
   <tile/>
   <tile/>
   <tile/>
   <tile/>
   <tile/>
   <tile/>
   <tile/>
   <tile/>
   <tile/>
   <tile/>
   <tile/>
   <tile/>
   <tile/>
   <tile/>
   <tile/>
   <tile/>
   <tile/>
   <tile/>
   <tile/>
   <tile/>
   <tile/>
   <tile/>
   <tile/>
   <tile/>
   <tile/>
   <tile/>
   <tile/>
   <tile/>
   <tile/>
   <tile/>
   <tile/>
   <tile/>
   <tile gid="258"/>
   <tile gid="258"/>
   <tile gid="258"/>
   <tile gid="258"/>
   <tile gid="258"/>
   <tile/>
   <tile/>
   <tile/>
   <tile/>
   <tile gid="258"/>
   <tile gid="258"/>
   <tile/>
   <tile/>
   <tile/>
   <tile/>
   <tile/>
   <tile/>
   <tile/>
   <tile/>
   <tile/>
   <tile/>
   <tile/>
   <tile/>
   <tile/>
   <tile/>
   <tile/>
   <tile/>
   <tile/>
   <tile/>
   <tile/>
   <tile/>
   <tile/>
   <tile gid="258"/>
   <tile/>
   <tile gid="258"/>
   <tile/>
   <tile/>
   <tile/>
   <tile/>
   <tile gid="258"/>
   <tile/>
   <tile/>
   <tile gid="258"/>
   <tile/>
   <tile gid="258"/>
   <tile/>
   <tile/>
   <tile gid="258"/>
   <tile/>
   <tile/>
   <tile/>
   <tile/>
   <tile gid="258"/>
   <tile/>
   <tile/>
   <tile/>
   <tile/>
   <tile/>
   <tile/>
   <tile/>
   <tile/>
   <tile/>
   <tile/>
   <tile/>
   <tile/>
   <tile/>
   <tile/>
   <tile/>
   <tile/>
   <tile/>
   <tile/>
   <tile/>
   <tile/>
   <tile/>
   <tile/>
   <tile/>
   <tile/>
   <tile/>
   <tile/>
   <tile/>
   <tile/>
   <tile/>
   <tile/>
   <tile/>
   <tile/>
   <tile/>
   <tile/>
   <tile/>
   <tile/>
   <tile/>
   <tile/>
   <tile/>
   <tile/>
   <tile/>
   <tile/>
   <tile/>
   <tile/>
   <tile/>
   <tile/>
   <tile/>
   <tile/>
   <tile/>
   <tile/>
   <tile/>
   <tile/>
   <tile/>
   <tile/>
   <tile/>
   <tile/>
   <tile/>
   <tile/>
   <tile/>
   <tile/>
   <tile/>
   <tile/>
   <tile/>
   <tile/>
   <tile/>
   <tile/>
   <tile/>
   <tile/>
   <tile/>
   <tile/>
   <tile/>
   <tile/>
   <tile/>
   <tile/>
   <tile/>
   <tile/>
   <tile/>
   <tile/>
   <tile/>
   <tile/>
   <tile/>
   <tile/>
   <tile/>
   <tile/>
   <tile gid="258"/>
   <tile gid="258"/>
   <tile gid="258"/>
   <tile/>
   <tile/>
   <tile/>
   <tile/>
   <tile gid="258"/>
   <tile gid="258"/>
   <tile/>
   <tile/>
   <tile/>
   <tile/>
   <tile/>
   <tile/>
   <tile/>
   <tile/>
   <tile/>
   <tile/>
   <tile/>
   <tile/>
   <tile/>
   <tile/>
   <tile/>
   <tile/>
   <tile/>
   <tile/>
   <tile/>
   <tile/>
   <tile/>
   <tile gid="258"/>
   <tile/>
   <tile gid="258"/>
   <tile/>
   <tile/>
   <tile/>
   <tile/>
   <tile gid="258"/>
   <tile/>
   <tile/>
   <tile gid="258"/>
   <tile/>
   <tile gid="258"/>
   <tile/>
   <tile/>
   <tile/>
   <tile gid="258"/>
   <tile gid="258"/>
   <tile gid="258"/>
   <tile gid="258"/>
   <tile/>
   <tile/>
   <tile/>
   <tile/>
   <tile/>
   <tile/>
   <tile/>
   <tile/>
   <tile/>
   <tile/>
   <tile/>
   <tile/>
   <tile/>
   <tile/>
   <tile/>
   <tile/>
   <tile/>
   <tile/>
   <tile/>
   <tile/>
   <tile/>
   <tile/>
   <tile/>
   <tile/>
   <tile/>
   <tile/>
   <tile/>
   <tile/>
   <tile/>
   <tile/>
   <tile/>
   <tile/>
   <tile/>
   <tile/>
   <tile/>
   <tile/>
   <tile/>
   <tile/>
   <tile/>
   <tile/>
   <tile/>
   <tile/>
   <tile/>
   <tile/>
   <tile/>
   <tile/>
   <tile/>
   <tile/>
   <tile/>
   <tile/>
   <tile/>
   <tile/>
   <tile/>
   <tile/>
   <tile/>
   <tile/>
   <tile/>
   <tile/>
   <tile/>
   <tile/>
   <tile/>
   <tile/>
   <tile/>
   <tile/>
   <tile/>
   <tile/>
   <tile/>
   <tile/>
   <tile/>
   <tile/>
   <tile/>
   <tile/>
   <tile/>
   <tile/>
   <tile/>
   <tile/>
   <tile/>
   <tile/>
   <tile/>
   <tile/>
   <tile/>
   <tile/>
   <tile/>
   <tile/>
   <tile/>
   <tile/>
   <tile gid="258"/>
   <tile gid="258"/>
   <tile/>
   <tile/>
   <tile/>
   <tile/>
   <tile gid="258"/>
   <tile gid="258"/>
   <tile/>
   <tile/>
   <tile/>
   <tile/>
   <tile/>
   <tile/>
   <tile/>
   <tile/>
   <tile/>
   <tile/>
   <tile/>
   <tile/>
   <tile/>
   <tile/>
   <tile/>
   <tile/>
   <tile/>
   <tile/>
   <tile/>
   <tile/>
   <tile/>
   <tile/>
   <tile gid="258"/>
   <tile gid="258"/>
   <tile/>
   <tile/>
   <tile/>
   <tile/>
   <tile gid="258"/>
   <tile/>
   <tile/>
   <tile gid="258"/>
   <tile/>
   <tile gid="258"/>
   <tile/>
   <tile/>
   <tile/>
   <tile/>
   <tile/>
   <tile/>
   <tile/>
   <tile/>
   <tile/>
   <tile/>
   <tile/>
   <tile/>
   <tile/>
   <tile/>
   <tile/>
   <tile/>
   <tile/>
   <tile/>
   <tile/>
   <tile/>
   <tile/>
   <tile/>
   <tile/>
   <tile/>
   <tile/>
   <tile/>
   <tile/>
   <tile/>
   <tile/>
   <tile/>
   <tile/>
   <tile/>
   <tile/>
   <tile/>
   <tile/>
   <tile/>
   <tile/>
   <tile/>
   <tile/>
   <tile/>
   <tile/>
   <tile/>
   <tile/>
   <tile/>
   <tile/>
   <tile/>
   <tile/>
   <tile/>
   <tile/>
   <tile/>
   <tile/>
   <tile/>
   <tile/>
   <tile/>
   <tile/>
   <tile/>
   <tile/>
   <tile/>
   <tile/>
   <tile/>
   <tile/>
   <tile/>
   <tile/>
   <tile/>
   <tile/>
   <tile/>
   <tile/>
   <tile/>
   <tile/>
   <tile/>
   <tile/>
   <tile/>
   <tile/>
   <tile/>
   <tile/>
   <tile/>
   <tile/>
   <tile/>
   <tile/>
   <tile/>
   <tile/>
   <tile/>
   <tile/>
   <tile/>
   <tile/>
   <tile/>
   <tile/>
   <tile/>
   <tile/>
   <tile/>
   <tile/>
   <tile/>
   <tile/>
   <tile gid="258"/>
   <tile gid="258"/>
   <tile/>
   <tile/>
   <tile/>
   <tile/>
   <tile gid="258"/>
   <tile gid="258"/>
   <tile/>
   <tile/>
   <tile/>
   <tile/>
   <tile/>
   <tile/>
   <tile/>
   <tile/>
   <tile/>
   <tile/>
   <tile/>
   <tile/>
   <tile/>
   <tile/>
   <tile/>
   <tile/>
   <tile/>
   <tile/>
   <tile/>
   <tile/>
   <tile/>
   <tile/>
   <tile gid="258"/>
   <tile gid="258"/>
   <tile/>
   <tile/>
   <tile/>
   <tile/>
   <tile gid="258"/>
   <tile/>
   <tile/>
   <tile gid="258"/>
   <tile/>
   <tile gid="258"/>
   <tile/>
   <tile/>
   <tile/>
   <tile/>
   <tile/>
   <tile/>
   <tile/>
   <tile/>
   <tile/>
   <tile/>
   <tile/>
   <tile/>
   <tile/>
   <tile/>
   <tile/>
   <tile/>
   <tile/>
   <tile/>
   <tile/>
   <tile/>
   <tile/>
   <tile/>
   <tile/>
   <tile/>
   <tile/>
   <tile/>
   <tile/>
   <tile/>
   <tile/>
   <tile/>
   <tile/>
   <tile/>
   <tile/>
   <tile/>
   <tile/>
   <tile/>
   <tile/>
   <tile gid="258"/>
   <tile gid="258"/>
   <tile/>
   <tile/>
   <tile/>
   <tile/>
   <tile/>
   <tile/>
   <tile/>
   <tile/>
   <tile/>
   <tile/>
   <tile/>
   <tile/>
   <tile/>
   <tile/>
   <tile/>
   <tile/>
   <tile/>
   <tile/>
   <tile/>
   <tile/>
   <tile/>
   <tile/>
   <tile/>
   <tile/>
   <tile/>
   <tile/>
   <tile/>
   <tile/>
   <tile/>
   <tile/>
   <tile/>
   <tile/>
   <tile/>
   <tile/>
   <tile/>
   <tile/>
   <tile/>
   <tile/>
   <tile/>
   <tile/>
   <tile/>
   <tile/>
   <tile/>
   <tile/>
   <tile/>
   <tile/>
   <tile/>
   <tile/>
   <tile/>
   <tile/>
   <tile/>
   <tile/>
   <tile/>
   <tile/>
   <tile gid="258"/>
   <tile gid="258"/>
   <tile/>
   <tile/>
   <tile/>
   <tile/>
   <tile gid="258"/>
   <tile gid="258"/>
   <tile/>
   <tile/>
   <tile/>
   <tile/>
   <tile/>
   <tile/>
   <tile/>
   <tile/>
   <tile/>
   <tile/>
   <tile/>
   <tile/>
   <tile/>
   <tile/>
   <tile/>
   <tile/>
   <tile/>
   <tile/>
   <tile/>
   <tile/>
   <tile/>
   <tile/>
   <tile gid="258"/>
   <tile gid="258"/>
   <tile/>
   <tile/>
   <tile/>
   <tile/>
   <tile gid="258"/>
   <tile/>
   <tile/>
   <tile gid="258"/>
   <tile/>
   <tile gid="258"/>
   <tile/>
   <tile/>
   <tile/>
   <tile/>
   <tile/>
   <tile/>
   <tile/>
   <tile/>
   <tile/>
   <tile/>
   <tile/>
   <tile/>
   <tile/>
   <tile/>
   <tile/>
   <tile/>
   <tile/>
   <tile/>
   <tile/>
   <tile/>
   <tile/>
   <tile/>
   <tile/>
   <tile/>
   <tile/>
   <tile/>
   <tile/>
   <tile gid="258"/>
   <tile gid="258"/>
   <tile gid="258"/>
   <tile gid="258"/>
   <tile gid="258"/>
   <tile gid="258"/>
   <tile gid="258"/>
   <tile gid="258"/>
   <tile/>
   <tile/>
   <tile gid="258"/>
   <tile/>
   <tile gid="258"/>
   <tile gid="258"/>
   <tile/>
   <tile/>
   <tile/>
   <tile/>
   <tile/>
   <tile/>
   <tile/>
   <tile/>
   <tile/>
   <tile/>
   <tile/>
   <tile/>
   <tile/>
   <tile/>
   <tile/>
   <tile/>
   <tile/>
   <tile/>
   <tile/>
   <tile/>
   <tile/>
   <tile/>
   <tile/>
   <tile/>
   <tile/>
   <tile/>
   <tile/>
   <tile/>
   <tile/>
   <tile/>
   <tile/>
   <tile/>
   <tile/>
   <tile/>
   <tile/>
   <tile/>
   <tile/>
   <tile/>
   <tile/>
   <tile/>
   <tile/>
   <tile/>
   <tile/>
   <tile/>
   <tile/>
   <tile/>
   <tile/>
   <tile/>
   <tile/>
   <tile/>
   <tile/>
   <tile/>
   <tile/>
   <tile gid="258"/>
   <tile/>
   <tile/>
   <tile/>
   <tile/>
   <tile gid="258"/>
   <tile gid="258"/>
   <tile/>
   <tile/>
   <tile/>
   <tile/>
   <tile/>
   <tile/>
   <tile/>
   <tile/>
   <tile/>
   <tile/>
   <tile/>
   <tile/>
   <tile/>
   <tile/>
   <tile/>
   <tile/>
   <tile/>
   <tile/>
   <tile/>
   <tile/>
   <tile/>
   <tile/>
   <tile/>
   <tile gid="258"/>
   <tile/>
   <tile/>
   <tile/>
   <tile/>
   <tile/>
   <tile/>
   <tile/>
   <tile gid="258"/>
   <tile/>
   <tile gid="258"/>
   <tile/>
   <tile/>
   <tile/>
   <tile/>
   <tile/>
   <tile/>
   <tile/>
   <tile/>
   <tile/>
   <tile/>
   <tile/>
   <tile/>
   <tile/>
   <tile/>
   <tile/>
   <tile/>
   <tile/>
   <tile/>
   <tile/>
   <tile/>
   <tile/>
   <tile/>
   <tile/>
   <tile/>
   <tile/>
   <tile/>
   <tile/>
   <tile/>
   <tile gid="258"/>
   <tile/>
   <tile/>
   <tile/>
   <tile/>
   <tile gid="258"/>
   <tile/>
   <tile/>
   <tile/>
   <tile gid="258"/>
   <tile/>
   <tile/>
   <tile gid="258"/>
   <tile/>
   <tile/>
   <tile/>
   <tile/>
   <tile/>
   <tile/>
   <tile/>
   <tile/>
   <tile/>
   <tile/>
   <tile/>
   <tile/>
   <tile/>
   <tile/>
   <tile/>
   <tile/>
   <tile/>
   <tile/>
   <tile/>
   <tile/>
   <tile/>
   <tile/>
   <tile/>
   <tile/>
   <tile/>
   <tile/>
   <tile/>
   <tile/>
   <tile/>
   <tile/>
   <tile/>
   <tile/>
   <tile/>
   <tile/>
   <tile/>
   <tile/>
   <tile/>
   <tile/>
   <tile/>
   <tile/>
   <tile/>
   <tile/>
   <tile/>
   <tile/>
   <tile/>
   <tile/>
   <tile/>
   <tile/>
   <tile/>
   <tile/>
   <tile/>
   <tile/>
   <tile/>
   <tile gid="258"/>
   <tile/>
   <tile/>
   <tile/>
   <tile/>
   <tile gid="258"/>
   <tile gid="258"/>
   <tile/>
   <tile/>
   <tile/>
   <tile/>
   <tile/>
   <tile/>
   <tile/>
   <tile/>
   <tile/>
   <tile/>
   <tile/>
   <tile/>
   <tile/>
   <tile/>
   <tile/>
   <tile/>
   <tile/>
   <tile/>
   <tile/>
   <tile/>
   <tile/>
   <tile/>
   <tile/>
   <tile/>
   <tile/>
   <tile/>
   <tile/>
   <tile/>
   <tile/>
   <tile/>
   <tile/>
   <tile gid="258"/>
   <tile/>
   <tile gid="258"/>
   <tile/>
   <tile/>
   <tile/>
   <tile/>
   <tile/>
   <tile/>
   <tile/>
   <tile/>
   <tile/>
   <tile/>
   <tile/>
   <tile/>
   <tile/>
   <tile/>
   <tile/>
   <tile/>
   <tile/>
   <tile/>
   <tile/>
   <tile/>
   <tile/>
   <tile/>
   <tile/>
   <tile/>
   <tile/>
   <tile/>
   <tile/>
   <tile/>
   <tile/>
   <tile gid="258"/>
   <tile gid="258"/>
   <tile gid="258"/>
   <tile gid="258"/>
   <tile/>
   <tile/>
   <tile/>
   <tile/>
   <tile gid="258"/>
   <tile/>
   <tile/>
   <tile/>
   <tile gid="258"/>
   <tile gid="258"/>
   <tile gid="258"/>
   <tile gid="258"/>
   <tile/>
   <tile/>
   <tile/>
   <tile/>
   <tile/>
   <tile/>
   <tile/>
   <tile/>
   <tile/>
   <tile/>
   <tile/>
   <tile/>
   <tile/>
   <tile/>
   <tile/>
   <tile/>
   <tile/>
   <tile/>
   <tile/>
   <tile/>
   <tile/>
   <tile/>
   <tile/>
   <tile/>
   <tile/>
   <tile/>
   <tile/>
   <tile/>
   <tile/>
   <tile/>
   <tile/>
   <tile/>
   <tile/>
   <tile/>
   <tile/>
   <tile/>
   <tile/>
   <tile/>
   <tile/>
   <tile/>
   <tile/>
   <tile/>
   <tile/>
   <tile/>
   <tile/>
   <tile/>
   <tile/>
   <tile/>
   <tile/>
   <tile/>
   <tile/>
   <tile/>
   <tile/>
   <tile/>
   <tile gid="258"/>
   <tile gid="258"/>
   <tile/>
   <tile/>
   <tile/>
   <tile/>
   <tile/>
   <tile/>
   <tile/>
   <tile/>
   <tile/>
   <tile/>
   <tile/>
   <tile/>
   <tile/>
   <tile/>
   <tile/>
   <tile/>
   <tile/>
   <tile/>
   <tile/>
   <tile/>
   <tile/>
   <tile/>
   <tile/>
   <tile/>
   <tile/>
   <tile/>
   <tile/>
   <tile/>
   <tile/>
   <tile/>
   <tile/>
   <tile gid="258"/>
   <tile/>
   <tile gid="258"/>
   <tile/>
   <tile/>
   <tile/>
   <tile/>
   <tile/>
   <tile/>
   <tile/>
   <tile/>
   <tile/>
   <tile/>
   <tile/>
   <tile/>
   <tile/>
   <tile/>
   <tile/>
   <tile/>
   <tile gid="258"/>
   <tile gid="258"/>
   <tile gid="258"/>
   <tile gid="258"/>
   <tile gid="258"/>
   <tile gid="258"/>
   <tile gid="258"/>
   <tile/>
   <tile/>
   <tile/>
   <tile/>
   <tile/>
   <tile/>
   <tile/>
   <tile/>
   <tile/>
   <tile/>
   <tile/>
   <tile/>
   <tile/>
   <tile/>
   <tile gid="258"/>
   <tile/>
   <tile/>
   <tile/>
   <tile/>
   <tile gid="258"/>
   <tile gid="258"/>
   <tile gid="258"/>
   <tile/>
   <tile/>
   <tile/>
   <tile/>
   <tile/>
   <tile/>
   <tile/>
   <tile/>
   <tile/>
   <tile/>
   <tile/>
   <tile/>
   <tile/>
   <tile/>
   <tile/>
   <tile/>
   <tile/>
   <tile/>
   <tile/>
   <tile/>
   <tile/>
   <tile/>
   <tile/>
   <tile/>
   <tile/>
   <tile/>
   <tile/>
   <tile/>
   <tile/>
   <tile/>
   <tile/>
   <tile/>
   <tile/>
   <tile/>
   <tile/>
   <tile/>
   <tile/>
   <tile/>
   <tile/>
   <tile/>
   <tile/>
   <tile/>
   <tile/>
   <tile/>
   <tile/>
   <tile/>
   <tile/>
   <tile/>
   <tile/>
   <tile/>
   <tile/>
   <tile/>
   <tile/>
   <tile/>
   <tile gid="258"/>
   <tile gid="258"/>
   <tile/>
   <tile/>
   <tile/>
   <tile/>
   <tile/>
   <tile/>
   <tile/>
   <tile/>
   <tile/>
   <tile/>
   <tile/>
   <tile/>
   <tile/>
   <tile/>
   <tile/>
   <tile/>
   <tile/>
   <tile/>
   <tile/>
   <tile/>
   <tile/>
   <tile/>
   <tile/>
   <tile/>
   <tile/>
   <tile/>
   <tile/>
   <tile/>
   <tile/>
   <tile/>
   <tile/>
   <tile gid="258"/>
   <tile/>
   <tile gid="258"/>
   <tile/>
   <tile/>
   <tile/>
   <tile/>
   <tile/>
   <tile/>
   <tile/>
   <tile/>
   <tile/>
   <tile/>
   <tile/>
   <tile/>
   <tile/>
   <tile/>
   <tile/>
   <tile/>
   <tile/>
   <tile gid="258"/>
   <tile/>
   <tile/>
   <tile/>
   <tile gid="258"/>
   <tile/>
   <tile/>
   <tile/>
   <tile/>
   <tile/>
   <tile/>
   <tile/>
   <tile/>
   <tile/>
   <tile/>
   <tile/>
   <tile/>
   <tile/>
   <tile/>
   <tile/>
   <tile gid="258"/>
   <tile gid="258"/>
   <tile gid="258"/>
   <tile gid="258"/>
   <tile gid="258"/>
   <tile/>
   <tile/>
   <tile/>
   <tile/>
   <tile/>
   <tile/>
   <tile/>
   <tile/>
   <tile/>
   <tile/>
   <tile/>
   <tile/>
   <tile/>
   <tile/>
   <tile/>
   <tile/>
   <tile/>
   <tile/>
   <tile/>
   <tile/>
   <tile/>
   <tile/>
   <tile/>
   <tile/>
   <tile/>
   <tile/>
   <tile/>
   <tile/>
   <tile/>
   <tile/>
   <tile/>
   <tile/>
   <tile/>
   <tile/>
   <tile/>
   <tile/>
   <tile/>
   <tile/>
   <tile/>
   <tile/>
   <tile/>
   <tile/>
   <tile/>
   <tile/>
   <tile/>
   <tile/>
   <tile/>
   <tile/>
   <tile/>
   <tile/>
   <tile/>
   <tile/>
   <tile/>
   <tile/>
   <tile/>
   <tile/>
   <tile/>
   <tile gid="258"/>
   <tile gid="258"/>
   <tile gid="258"/>
   <tile gid="258"/>
   <tile gid="258"/>
   <tile gid="258"/>
   <tile gid="258"/>
   <tile gid="258"/>
   <tile gid="258"/>
   <tile gid="258"/>
   <tile gid="258"/>
   <tile gid="258"/>
   <tile gid="258"/>
   <tile/>
   <tile/>
   <tile/>
   <tile/>
   <tile/>
   <tile/>
   <tile/>
   <tile gid="258"/>
   <tile gid="258"/>
   <tile gid="258"/>
   <tile gid="258"/>
   <tile gid="258"/>
   <tile gid="258"/>
   <tile gid="258"/>
   <tile/>
   <tile/>
   <tile/>
   <tile/>
   <tile/>
   <tile/>
   <tile gid="258"/>
   <tile/>
   <tile gid="258"/>
   <tile/>
   <tile/>
   <tile/>
   <tile/>
   <tile/>
   <tile/>
   <tile/>
   <tile gid="258"/>
   <tile gid="258"/>
   <tile gid="258"/>
   <tile gid="258"/>
   <tile gid="258"/>
   <tile gid="258"/>
   <tile/>
   <tile/>
   <tile/>
   <tile/>
   <tile/>
   <tile gid="258"/>
   <tile gid="258"/>
   <tile gid="258"/>
   <tile/>
   <tile/>
   <tile/>
   <tile/>
   <tile/>
   <tile/>
   <tile/>
   <tile/>
   <tile/>
   <tile/>
   <tile/>
   <tile/>
   <tile/>
   <tile/>
   <tile/>
   <tile/>
   <tile/>
   <tile/>
   <tile/>
   <tile/>
   <tile/>
   <tile/>
   <tile/>
   <tile/>
   <tile/>
   <tile/>
   <tile/>
   <tile/>
   <tile gid="258"/>
   <tile gid="258"/>
   <tile gid="258"/>
   <tile gid="258"/>
   <tile gid="258"/>
   <tile gid="258"/>
   <tile gid="258"/>
   <tile gid="258"/>
   <tile gid="258"/>
   <tile gid="258"/>
   <tile gid="258"/>
   <tile gid="258"/>
   <tile gid="258"/>
   <tile gid="258"/>
   <tile gid="258"/>
   <tile gid="258"/>
   <tile gid="258"/>
   <tile gid="258"/>
   <tile gid="258"/>
   <tile gid="258"/>
   <tile gid="258"/>
   <tile gid="258"/>
   <tile gid="258"/>
   <tile gid="258"/>
   <tile gid="258"/>
   <tile gid="258"/>
   <tile gid="258"/>
   <tile gid="258"/>
   <tile gid="258"/>
   <tile gid="258"/>
   <tile gid="258"/>
   <tile gid="258"/>
   <tile gid="258"/>
   <tile gid="258"/>
   <tile gid="258"/>
   <tile gid="258"/>
   <tile/>
   <tile/>
   <tile/>
   <tile/>
   <tile gid="258"/>
   <tile gid="258"/>
   <tile gid="258"/>
   <tile gid="258"/>
   <tile gid="258"/>
   <tile gid="258"/>
   <tile gid="258"/>
   <tile/>
   <tile/>
   <tile/>
   <tile/>
   <tile/>
   <tile gid="258"/>
   <tile/>
   <tile/>
   <tile/>
   <tile/>
   <tile gid="258"/>
   <tile gid="258"/>
   <tile gid="258"/>
   <tile gid="258"/>
   <tile/>
   <tile/>
   <tile/>
   <tile/>
   <tile/>
   <tile/>
   <tile/>
   <tile/>
   <tile/>
   <tile/>
   <tile gid="258"/>
   <tile gid="258"/>
   <tile gid="258"/>
   <tile gid="258"/>
   <tile gid="258"/>
   <tile/>
   <tile/>
   <tile/>
   <tile/>
   <tile/>
   <tile/>
   <tile/>
   <tile gid="258"/>
   <tile/>
   <tile gid="258"/>
   <tile/>
   <tile/>
   <tile/>
   <tile/>
   <tile/>
   <tile/>
   <tile/>
   <tile/>
   <tile gid="258"/>
   <tile/>
   <tile/>
   <tile gid="258"/>
   <tile/>
   <tile/>
   <tile/>
   <tile/>
   <tile/>
   <tile/>
   <tile/>
   <tile/>
   <tile/>
   <tile/>
   <tile/>
   <tile/>
   <tile/>
   <tile/>
   <tile/>
   <tile/>
   <tile/>
   <tile/>
   <tile/>
   <tile/>
   <tile/>
   <tile/>
   <tile/>
   <tile/>
   <tile/>
   <tile/>
   <tile/>
   <tile/>
   <tile/>
   <tile/>
   <tile/>
   <tile/>
   <tile/>
   <tile/>
   <tile/>
   <tile/>
   <tile/>
   <tile/>
   <tile/>
   <tile gid="258"/>
   <tile/>
   <tile/>
   <tile/>
   <tile/>
   <tile/>
   <tile/>
   <tile/>
   <tile/>
   <tile/>
   <tile/>
   <tile/>
   <tile/>
   <tile/>
   <tile/>
   <tile/>
   <tile/>
   <tile/>
   <tile/>
   <tile/>
   <tile/>
   <tile/>
   <tile/>
   <tile/>
   <tile/>
   <tile/>
   <tile/>
   <tile/>
   <tile/>
   <tile/>
   <tile/>
   <tile gid="258"/>
   <tile/>
   <tile/>
   <tile/>
   <tile/>
   <tile/>
   <tile/>
   <tile/>
   <tile gid="258"/>
   <tile/>
   <tile/>
   <tile/>
   <tile gid="258"/>
   <tile/>
   <tile/>
   <tile/>
   <tile/>
   <tile/>
   <tile/>
   <tile/>
   <tile gid="258"/>
   <tile gid="258"/>
   <tile gid="258"/>
   <tile gid="258"/>
   <tile/>
   <tile/>
   <tile/>
   <tile/>
   <tile/>
   <tile/>
   <tile/>
   <tile/>
   <tile/>
   <tile/>
   <tile/>
   <tile/>
   <tile/>
   <tile/>
   <tile/>
   <tile/>
   <tile/>
   <tile/>
   <tile/>
   <tile/>
   <tile/>
   <tile/>
   <tile/>
   <tile/>
   <tile/>
   <tile/>
   <tile gid="258"/>
   <tile/>
   <tile gid="258"/>
   <tile/>
   <tile/>
   <tile/>
   <tile/>
   <tile/>
   <tile/>
   <tile/>
   <tile/>
   <tile/>
   <tile gid="258"/>
   <tile gid="258"/>
   <tile/>
   <tile/>
   <tile/>
   <tile/>
   <tile/>
   <tile/>
   <tile/>
   <tile/>
   <tile/>
   <tile/>
   <tile/>
   <tile/>
   <tile/>
   <tile/>
   <tile/>
   <tile/>
   <tile/>
   <tile/>
   <tile/>
   <tile/>
   <tile/>
   <tile/>
   <tile/>
   <tile/>
   <tile/>
   <tile/>
   <tile/>
   <tile/>
   <tile/>
   <tile/>
   <tile/>
   <tile/>
   <tile/>
   <tile/>
   <tile/>
   <tile/>
   <tile/>
   <tile/>
   <tile/>
   <tile/>
   <tile/>
   <tile gid="258"/>
   <tile/>
   <tile/>
   <tile/>
   <tile/>
   <tile/>
   <tile/>
   <tile/>
   <tile/>
   <tile/>
   <tile/>
   <tile/>
   <tile/>
   <tile/>
   <tile/>
   <tile/>
   <tile/>
   <tile/>
   <tile/>
   <tile/>
   <tile/>
   <tile/>
   <tile/>
   <tile/>
   <tile/>
   <tile/>
   <tile/>
   <tile/>
   <tile/>
   <tile gid="258"/>
   <tile/>
   <tile/>
   <tile/>
   <tile/>
   <tile/>
   <tile/>
   <tile/>
   <tile/>
   <tile/>
   <tile gid="258"/>
   <tile gid="258"/>
   <tile gid="258"/>
   <tile/>
   <tile/>
   <tile/>
   <tile/>
   <tile/>
   <tile/>
   <tile/>
   <tile/>
   <tile/>
   <tile/>
   <tile/>
   <tile/>
   <tile/>
   <tile/>
   <tile/>
   <tile/>
   <tile/>
   <tile/>
   <tile/>
   <tile/>
   <tile/>
   <tile/>
   <tile/>
   <tile/>
   <tile/>
   <tile/>
   <tile/>
   <tile/>
   <tile/>
   <tile/>
   <tile/>
   <tile/>
   <tile/>
   <tile/>
   <tile/>
   <tile/>
   <tile/>
   <tile/>
   <tile gid="258"/>
   <tile/>
   <tile gid="258"/>
   <tile/>
   <tile/>
   <tile/>
   <tile/>
   <tile/>
   <tile/>
   <tile/>
   <tile/>
   <tile/>
   <tile/>
   <tile/>
   <tile/>
   <tile/>
   <tile/>
   <tile/>
   <tile/>
   <tile/>
   <tile/>
   <tile/>
   <tile/>
   <tile/>
   <tile/>
   <tile/>
   <tile/>
   <tile/>
   <tile/>
   <tile/>
   <tile/>
   <tile/>
   <tile/>
   <tile/>
   <tile/>
   <tile/>
   <tile/>
   <tile/>
   <tile/>
   <tile/>
   <tile/>
   <tile/>
   <tile/>
   <tile/>
   <tile/>
   <tile/>
   <tile/>
   <tile/>
   <tile/>
   <tile/>
   <tile/>
   <tile/>
   <tile/>
   <tile/>
   <tile/>
   <tile gid="258"/>
   <tile/>
   <tile/>
   <tile/>
   <tile/>
   <tile/>
   <tile/>
   <tile/>
   <tile/>
   <tile/>
   <tile/>
   <tile/>
   <tile/>
   <tile/>
   <tile/>
   <tile/>
   <tile/>
   <tile/>
   <tile/>
   <tile/>
   <tile/>
   <tile/>
   <tile/>
   <tile/>
   <tile/>
   <tile/>
   <tile/>
   <tile/>
   <tile/>
   <tile gid="258"/>
   <tile/>
   <tile/>
   <tile/>
   <tile/>
   <tile/>
   <tile/>
   <tile/>
   <tile/>
   <tile/>
   <tile/>
   <tile/>
   <tile/>
   <tile/>
   <tile/>
   <tile/>
   <tile/>
   <tile/>
   <tile/>
   <tile/>
   <tile/>
   <tile/>
   <tile/>
   <tile/>
   <tile/>
   <tile/>
   <tile/>
   <tile/>
   <tile/>
   <tile/>
   <tile/>
   <tile/>
   <tile/>
   <tile/>
   <tile/>
   <tile/>
   <tile/>
   <tile/>
   <tile/>
   <tile/>
   <tile/>
   <tile/>
   <tile/>
   <tile/>
   <tile/>
   <tile/>
   <tile/>
   <tile/>
   <tile/>
   <tile/>
   <tile/>
   <tile gid="258"/>
   <tile/>
   <tile gid="258"/>
   <tile/>
   <tile/>
   <tile/>
   <tile/>
   <tile/>
   <tile/>
   <tile/>
   <tile/>
   <tile/>
   <tile/>
   <tile/>
   <tile/>
   <tile/>
   <tile/>
   <tile/>
   <tile/>
   <tile/>
   <tile/>
   <tile/>
   <tile/>
   <tile/>
   <tile/>
   <tile/>
   <tile/>
   <tile/>
   <tile/>
   <tile/>
   <tile/>
   <tile/>
   <tile/>
   <tile/>
   <tile/>
   <tile/>
   <tile/>
   <tile/>
   <tile/>
   <tile/>
   <tile/>
   <tile/>
   <tile/>
   <tile/>
   <tile/>
   <tile/>
   <tile/>
   <tile/>
   <tile/>
   <tile/>
   <tile/>
   <tile/>
   <tile/>
   <tile/>
   <tile/>
   <tile gid="258"/>
   <tile/>
   <tile/>
   <tile/>
   <tile/>
   <tile/>
   <tile/>
   <tile/>
   <tile/>
   <tile/>
   <tile/>
   <tile/>
   <tile/>
   <tile/>
   <tile/>
   <tile/>
   <tile/>
   <tile/>
   <tile/>
   <tile/>
   <tile/>
   <tile/>
   <tile/>
   <tile/>
   <tile/>
   <tile/>
   <tile/>
   <tile/>
   <tile/>
   <tile gid="258"/>
   <tile/>
   <tile/>
   <tile/>
   <tile/>
   <tile/>
   <tile/>
   <tile/>
   <tile/>
   <tile/>
   <tile/>
   <tile/>
   <tile/>
   <tile/>
   <tile/>
   <tile/>
   <tile/>
   <tile/>
   <tile/>
   <tile/>
   <tile/>
   <tile/>
   <tile/>
   <tile/>
   <tile/>
   <tile/>
   <tile/>
   <tile/>
   <tile/>
   <tile/>
   <tile/>
   <tile/>
   <tile/>
   <tile/>
   <tile/>
   <tile/>
   <tile/>
   <tile/>
   <tile/>
   <tile/>
   <tile/>
   <tile/>
   <tile/>
   <tile/>
   <tile/>
   <tile/>
   <tile/>
   <tile/>
   <tile/>
   <tile/>
   <tile/>
   <tile gid="258"/>
   <tile/>
   <tile/>
   <tile gid="258"/>
   <tile gid="258"/>
   <tile gid="258"/>
   <tile gid="258"/>
   <tile gid="258"/>
   <tile gid="258"/>
   <tile gid="258"/>
   <tile gid="258"/>
   <tile gid="258"/>
   <tile gid="258"/>
   <tile gid="258"/>
   <tile gid="258"/>
   <tile gid="258"/>
   <tile/>
   <tile/>
   <tile gid="258"/>
   <tile gid="258"/>
   <tile gid="258"/>
   <tile gid="258"/>
   <tile gid="258"/>
   <tile gid="258"/>
   <tile gid="258"/>
   <tile gid="258"/>
   <tile gid="258"/>
   <tile gid="258"/>
   <tile gid="258"/>
   <tile gid="258"/>
   <tile gid="258"/>
   <tile gid="258"/>
   <tile gid="258"/>
   <tile gid="258"/>
   <tile gid="258"/>
   <tile gid="258"/>
   <tile gid="258"/>
   <tile gid="258"/>
   <tile gid="258"/>
   <tile gid="258"/>
   <tile gid="258"/>
   <tile gid="258"/>
   <tile gid="258"/>
   <tile gid="258"/>
   <tile gid="258"/>
   <tile gid="258"/>
   <tile gid="258"/>
   <tile gid="258"/>
   <tile gid="258"/>
   <tile gid="258"/>
   <tile gid="258"/>
   <tile gid="258"/>
   <tile gid="258"/>
   <tile gid="258"/>
   <tile gid="258"/>
   <tile gid="258"/>
   <tile/>
   <tile/>
   <tile/>
   <tile/>
   <tile/>
   <tile/>
   <tile/>
   <tile/>
   <tile/>
   <tile/>
   <tile/>
   <tile/>
   <tile/>
   <tile/>
   <tile/>
   <tile/>
   <tile/>
   <tile/>
   <tile/>
   <tile/>
   <tile/>
   <tile/>
   <tile/>
   <tile/>
   <tile/>
   <tile/>
   <tile/>
   <tile/>
   <tile gid="258"/>
   <tile gid="258"/>
   <tile gid="258"/>
   <tile gid="258"/>
   <tile gid="258"/>
   <tile gid="258"/>
   <tile gid="258"/>
   <tile gid="258"/>
   <tile gid="258"/>
   <tile gid="258"/>
   <tile gid="258"/>
   <tile gid="258"/>
   <tile gid="258"/>
   <tile gid="258"/>
   <tile gid="258"/>
   <tile/>
   <tile/>
   <tile gid="258"/>
   <tile gid="258"/>
   <tile gid="258"/>
   <tile gid="258"/>
   <tile gid="258"/>
   <tile gid="258"/>
   <tile gid="258"/>
   <tile gid="258"/>
   <tile gid="258"/>
   <tile gid="258"/>
   <tile gid="258"/>
   <tile gid="258"/>
   <tile gid="258"/>
   <tile gid="258"/>
   <tile gid="258"/>
   <tile gid="258"/>
   <tile/>
   <tile/>
   <tile gid="258"/>
   <tile gid="258"/>
   <tile gid="258"/>
   <tile gid="258"/>
   <tile gid="258"/>
   <tile gid="258"/>
   <tile gid="258"/>
   <tile gid="258"/>
   <tile gid="258"/>
   <tile gid="258"/>
   <tile gid="258"/>
   <tile gid="258"/>
   <tile gid="258"/>
   <tile gid="258"/>
   <tile gid="258"/>
   <tile gid="258"/>
   <tile/>
  </data>
 </layer>
 <objectgroup id="4" name="Entities" visible="0">
  <object id="1" name="Door" type="Door" x="-5.88649" y="66.5373" width="29.9548" height="503.289">
   <properties>
    <property name="Destination" value="MapEstomac_Sala1.tmx"/>
    <property name="Type" value="Door"/>
    <property name="playerX" type="float" value="1790"/>
    <property name="playerY" type="float" value="390"/>
   </properties>
  </object>
  <object id="3" name="Door" type="Door" x="8618.36" y="63.507" width="29.9548" height="382.077">
   <properties>
    <property name="Destination" value="MapEstomac_Sala3.tmx"/>
    <property name="Type" value="Door"/>
    <property name="playerX" type="float" value="244"/>
    <property name="playerY" type="float" value="260"/>
   </properties>
  </object>
  <object id="4" name="Player" type="Player" x="597.822" y="421.416">
   <properties>
    <property name="Type" value="Player"/>
   </properties>
   <point/>
  </object>
  <object id="6" name="Acid" type="Acid" x="3528.67" y="1776.67" width="1766.67" height="70.6667">
   <properties>
    <property name="Type" value="Acid"/>
   </properties>
  </object>
  <object id="7" name="Salmonella" type="Cell" x="1500" y="450">
   <point/>
  </object>
  <object id="8" name="Eosinofilo " type="Enemy" x="1398" y="1100">
   <point/>
  </object>
  <object id="9" name="VirusBasico " type="Enemy" x="4766.67" y="375.758">
   <point/>
  </object>
  <object id="10" name="LinfocitoT " type="Enemy" x="6876" y="476">
   <point/>
  </object>
  <object id="11" name="Eosinofilo" type="Enemy" x="6908" y="1000">
   <point/>
  </object>
  <object id="12" name="Collectibles" type="Collectibles" x="6770" y="1678">
   <properties>
    <property name="c_num" type="int" value="13"/>
   </properties>
   <point/>
  </object>
  <object id="64" name="Climbable" type="Climbable" x="4356.57" y="188" width="126.865" height="1600">
   <properties>
    <property name="Type" value="Climbable"/>
    <property name="isWaterfall" type="bool" value="true"/>
   </properties>
  </object>
  <object id="89" name="Climbable" type="Climbable" x="5054.75" y="181.818" width="126.865" height="1600">
   <properties>
    <property name="Type" value="Climbable"/>
    <property name="isWaterfall" type="bool" value="true"/>
   </properties>
  </object>
  <object id="90" name="Climbable" type="Climbable" x="3636.57" y="184.848" width="126.865" height="1600">
   <properties>
    <property name="Type" value="Climbable"/>
    <property name="isWaterfall" type="bool" value="true"/>
   </properties>
  </object>
  <object id="139" name="Climbable" type="Climbable" x="6275.96" y="190.909" width="126.865" height="1978.79">
   <properties>
    <property name="Type" value="Climbable"/>
    <property name="isWaterfall" type="bool" value="true"/>
   </properties>
  </object>
  <object id="140" name="Climbable" type="Climbable" x="7433.54" y="196.97" width="126.865" height="1975.76">
   <properties>
    <property name="Type" value="Climbable"/>
    <property name="isWaterfall" type="bool" value="true"/>
   </properties>
  </object>
  <object id="213" name="Climbable" type="Climbable" x="957.78" y="636.364" width="126.865" height="1530.3">
   <properties>
    <property name="Type" value="Climbable"/>
    <property name="isWaterfall" type="bool" value="true"/>
   </properties>
  </object>
  <object id="259" name="Climbable" type="Climbable" x="960.81" y="180.305" width="126.865" height="369.694">
   <properties>
    <property name="Type" value="Climbable"/>
    <property name="isWaterfall" type="bool" value="true"/>
   </properties>
  </object>
 </objectgroup>
 <objectgroup id="5" name="Anim_Tiles">
  <object id="115" name="cascada_acid" type="anim_tile" x="3636" y="193.879" width="128" height="64">
   <properties>
    <property name="Texture" value="cascada_acid_2T"/>
    <property name="Type" value="anim_tile"/>
   </properties>
  </object>
  <object id="116" name="cascada_acid" type="anim_tile" x="3636" y="705.879" width="128" height="64">
   <properties>
    <property name="Texture" value="cascada_acid_2T"/>
    <property name="Type" value="anim_tile"/>
   </properties>
  </object>
  <object id="117" name="cascada_acid" type="anim_tile" x="3636" y="449.879" width="128" height="64">
   <properties>
    <property name="Texture" value="cascada_acid_2T"/>
    <property name="Type" value="anim_tile"/>
   </properties>
  </object>
  <object id="118" name="cascada_acid" type="anim_tile" x="3636" y="961.879" width="128" height="64">
   <properties>
    <property name="Texture" value="cascada_acid_2T"/>
    <property name="Type" value="anim_tile"/>
   </properties>
  </object>
  <object id="119" name="cascada_acid" type="anim_tile" x="3636" y="1345.88" width="128" height="64">
   <properties>
    <property name="Texture" value="cascada_acid_2T"/>
    <property name="Type" value="anim_tile"/>
   </properties>
  </object>
  <object id="120" name="cascada_acid" type="anim_tile" x="3636" y="321.879" width="128" height="64">
   <properties>
    <property name="Texture" value="cascada_acid_2T"/>
    <property name="Type" value="anim_tile"/>
   </properties>
  </object>
  <object id="121" name="cascada_acid" type="anim_tile" x="3636" y="833.879" width="128" height="64">
   <properties>
    <property name="Texture" value="cascada_acid_2T"/>
    <property name="Type" value="anim_tile"/>
   </properties>
  </object>
  <object id="122" name="cascada_acid" type="anim_tile" x="3636" y="1217.88" width="128" height="64">
   <properties>
    <property name="Texture" value="cascada_acid_2T"/>
    <property name="Type" value="anim_tile"/>
   </properties>
  </object>
  <object id="123" name="cascada_acid" type="anim_tile" x="3636" y="577.879" width="128" height="64">
   <properties>
    <property name="Texture" value="cascada_acid_2T"/>
    <property name="Type" value="anim_tile"/>
   </properties>
  </object>
  <object id="124" name="cascada_acid" type="anim_tile" x="3636" y="1089.88" width="128" height="64">
   <properties>
    <property name="Texture" value="cascada_acid_2T"/>
    <property name="Type" value="anim_tile"/>
   </properties>
  </object>
  <object id="125" name="cascada_acid" type="anim_tile" x="3636" y="1665.88" width="128" height="64">
   <properties>
    <property name="Texture" value="cascada_acid_2T"/>
    <property name="Type" value="anim_tile"/>
   </properties>
  </object>
  <object id="126" name="cascada_acid" type="anim_tile" x="3636" y="1537.88" width="128" height="64">
   <properties>
    <property name="Texture" value="cascada_acid_2T"/>
    <property name="Type" value="anim_tile"/>
   </properties>
  </object>
  <object id="127" name="cascada_acid" type="anim_tile" x="3636" y="257.879" width="128" height="64">
   <properties>
    <property name="Texture" value="cascada_acid_2T"/>
    <property name="Type" value="anim_tile"/>
   </properties>
  </object>
  <object id="128" name="cascada_acid" type="anim_tile" x="3636" y="769.879" width="128" height="64">
   <properties>
    <property name="Texture" value="cascada_acid_2T"/>
    <property name="Type" value="anim_tile"/>
   </properties>
  </object>
  <object id="129" name="cascada_acid" type="anim_tile" x="3636" y="513.879" width="128" height="64">
   <properties>
    <property name="Texture" value="cascada_acid_2T"/>
    <property name="Type" value="anim_tile"/>
   </properties>
  </object>
  <object id="130" name="cascada_acid" type="anim_tile" x="3636" y="1025.88" width="128" height="64">
   <properties>
    <property name="Texture" value="cascada_acid_2T"/>
    <property name="Type" value="anim_tile"/>
   </properties>
  </object>
  <object id="131" name="cascada_acid" type="anim_tile" x="3636" y="1409.88" width="128" height="64">
   <properties>
    <property name="Texture" value="cascada_acid_2T"/>
    <property name="Type" value="anim_tile"/>
   </properties>
  </object>
  <object id="132" name="cascada_acid" type="anim_tile" x="3636" y="1601.88" width="128" height="64">
   <properties>
    <property name="Texture" value="cascada_acid_2T"/>
    <property name="Type" value="anim_tile"/>
   </properties>
  </object>
  <object id="133" name="cascada_acid" type="anim_tile" x="3636" y="1473.88" width="128" height="64">
   <properties>
    <property name="Texture" value="cascada_acid_2T"/>
    <property name="Type" value="anim_tile"/>
   </properties>
  </object>
  <object id="134" name="cascada_acid" type="anim_tile" x="3636" y="385.879" width="128" height="64">
   <properties>
    <property name="Texture" value="cascada_acid_2T"/>
    <property name="Type" value="anim_tile"/>
   </properties>
  </object>
  <object id="135" name="cascada_acid" type="anim_tile" x="3636" y="897.879" width="128" height="64">
   <properties>
    <property name="Texture" value="cascada_acid_2T"/>
    <property name="Type" value="anim_tile"/>
   </properties>
  </object>
  <object id="136" name="cascada_acid" type="anim_tile" x="3636" y="1281.88" width="128" height="64">
   <properties>
    <property name="Texture" value="cascada_acid_2T"/>
    <property name="Type" value="anim_tile"/>
   </properties>
  </object>
  <object id="137" name="cascada_acid" type="anim_tile" x="3636" y="641.879" width="128" height="64">
   <properties>
    <property name="Texture" value="cascada_acid_2T"/>
    <property name="Type" value="anim_tile"/>
   </properties>
  </object>
  <object id="138" name="cascada_acid" type="anim_tile" x="3636" y="1153.88" width="128" height="64">
   <properties>
    <property name="Texture" value="cascada_acid_2T"/>
    <property name="Type" value="anim_tile"/>
   </properties>
  </object>
  <object id="141" name="cascada_acid" type="anim_tile" x="6275.39" y="186.544" width="128" height="64">
   <properties>
    <property name="Texture" value="cascada_acid_2T"/>
    <property name="Type" value="anim_tile"/>
   </properties>
  </object>
  <object id="142" name="cascada_acid" type="anim_tile" x="6275.39" y="698.544" width="128" height="64">
   <properties>
    <property name="Texture" value="cascada_acid_2T"/>
    <property name="Type" value="anim_tile"/>
   </properties>
  </object>
  <object id="143" name="cascada_acid" type="anim_tile" x="6275.39" y="442.544" width="128" height="64">
   <properties>
    <property name="Texture" value="cascada_acid_2T"/>
    <property name="Type" value="anim_tile"/>
   </properties>
  </object>
  <object id="144" name="cascada_acid" type="anim_tile" x="6275.39" y="954.544" width="128" height="64">
   <properties>
    <property name="Texture" value="cascada_acid_2T"/>
    <property name="Type" value="anim_tile"/>
   </properties>
  </object>
  <object id="145" name="cascada_acid" type="anim_tile" x="6275.39" y="1338.55" width="128" height="64">
   <properties>
    <property name="Texture" value="cascada_acid_2T"/>
    <property name="Type" value="anim_tile"/>
   </properties>
  </object>
  <object id="146" name="cascada_acid" type="anim_tile" x="6275.39" y="314.544" width="128" height="64">
   <properties>
    <property name="Texture" value="cascada_acid_2T"/>
    <property name="Type" value="anim_tile"/>
   </properties>
  </object>
  <object id="147" name="cascada_acid" type="anim_tile" x="6275.39" y="826.544" width="128" height="64">
   <properties>
    <property name="Texture" value="cascada_acid_2T"/>
    <property name="Type" value="anim_tile"/>
   </properties>
  </object>
  <object id="148" name="cascada_acid" type="anim_tile" x="6275.39" y="1210.55" width="128" height="64">
   <properties>
    <property name="Texture" value="cascada_acid_2T"/>
    <property name="Type" value="anim_tile"/>
   </properties>
  </object>
  <object id="149" name="cascada_acid" type="anim_tile" x="6275.39" y="570.544" width="128" height="64">
   <properties>
    <property name="Texture" value="cascada_acid_2T"/>
    <property name="Type" value="anim_tile"/>
   </properties>
  </object>
  <object id="150" name="cascada_acid" type="anim_tile" x="6275.39" y="1082.55" width="128" height="64">
   <properties>
    <property name="Texture" value="cascada_acid_2T"/>
    <property name="Type" value="anim_tile"/>
   </properties>
  </object>
  <object id="151" name="cascada_acid" type="anim_tile" x="6275.39" y="1658.55" width="128" height="64">
   <properties>
    <property name="Texture" value="cascada_acid_2T"/>
    <property name="Type" value="anim_tile"/>
   </properties>
  </object>
  <object id="152" name="cascada_acid" type="anim_tile" x="6275.39" y="1530.55" width="128" height="64">
   <properties>
    <property name="Texture" value="cascada_acid_2T"/>
    <property name="Type" value="anim_tile"/>
   </properties>
  </object>
  <object id="153" name="cascada_acid" type="anim_tile" x="6275.39" y="250.544" width="128" height="64">
   <properties>
    <property name="Texture" value="cascada_acid_2T"/>
    <property name="Type" value="anim_tile"/>
   </properties>
  </object>
  <object id="154" name="cascada_acid" type="anim_tile" x="6275.39" y="762.544" width="128" height="64">
   <properties>
    <property name="Texture" value="cascada_acid_2T"/>
    <property name="Type" value="anim_tile"/>
   </properties>
  </object>
  <object id="155" name="cascada_acid" type="anim_tile" x="6275.39" y="506.544" width="128" height="64">
   <properties>
    <property name="Texture" value="cascada_acid_2T"/>
    <property name="Type" value="anim_tile"/>
   </properties>
  </object>
  <object id="156" name="cascada_acid" type="anim_tile" x="6275.39" y="1018.55" width="128" height="64">
   <properties>
    <property name="Texture" value="cascada_acid_2T"/>
    <property name="Type" value="anim_tile"/>
   </properties>
  </object>
  <object id="157" name="cascada_acid" type="anim_tile" x="6275.39" y="1402.55" width="128" height="64">
   <properties>
    <property name="Texture" value="cascada_acid_2T"/>
    <property name="Type" value="anim_tile"/>
   </properties>
  </object>
  <object id="158" name="cascada_acid" type="anim_tile" x="6275.39" y="1594.55" width="128" height="64">
   <properties>
    <property name="Texture" value="cascada_acid_2T"/>
    <property name="Type" value="anim_tile"/>
   </properties>
  </object>
  <object id="159" name="cascada_acid" type="anim_tile" x="6275.39" y="1466.55" width="128" height="64">
   <properties>
    <property name="Texture" value="cascada_acid_2T"/>
    <property name="Type" value="anim_tile"/>
   </properties>
  </object>
  <object id="160" name="cascada_acid" type="anim_tile" x="6275.39" y="378.544" width="128" height="64">
   <properties>
    <property name="Texture" value="cascada_acid_2T"/>
    <property name="Type" value="anim_tile"/>
   </properties>
  </object>
  <object id="161" name="cascada_acid" type="anim_tile" x="6275.39" y="890.544" width="128" height="64">
   <properties>
    <property name="Texture" value="cascada_acid_2T"/>
    <property name="Type" value="anim_tile"/>
   </properties>
  </object>
  <object id="162" name="cascada_acid" type="anim_tile" x="6275.39" y="1274.55" width="128" height="64">
   <properties>
    <property name="Texture" value="cascada_acid_2T"/>
    <property name="Type" value="anim_tile"/>
   </properties>
  </object>
  <object id="163" name="cascada_acid" type="anim_tile" x="6275.39" y="634.544" width="128" height="64">
   <properties>
    <property name="Texture" value="cascada_acid_2T"/>
    <property name="Type" value="anim_tile"/>
   </properties>
  </object>
  <object id="164" name="cascada_acid" type="anim_tile" x="6275.39" y="1146.55" width="128" height="64">
   <properties>
    <property name="Texture" value="cascada_acid_2T"/>
    <property name="Type" value="anim_tile"/>
   </properties>
  </object>
  <object id="165" name="cascada_acid" type="anim_tile" x="7426.94" y="192.666" width="128" height="64">
   <properties>
    <property name="Texture" value="cascada_acid_2T"/>
    <property name="Type" value="anim_tile"/>
   </properties>
  </object>
  <object id="166" name="cascada_acid" type="anim_tile" x="7426.94" y="704.666" width="128" height="64">
   <properties>
    <property name="Texture" value="cascada_acid_2T"/>
    <property name="Type" value="anim_tile"/>
   </properties>
  </object>
  <object id="167" name="cascada_acid" type="anim_tile" x="7426.94" y="448.666" width="128" height="64">
   <properties>
    <property name="Texture" value="cascada_acid_2T"/>
    <property name="Type" value="anim_tile"/>
   </properties>
  </object>
  <object id="168" name="cascada_acid" type="anim_tile" x="7426.94" y="960.666" width="128" height="64">
   <properties>
    <property name="Texture" value="cascada_acid_2T"/>
    <property name="Type" value="anim_tile"/>
   </properties>
  </object>
  <object id="169" name="cascada_acid" type="anim_tile" x="7426.94" y="1344.67" width="128" height="64">
   <properties>
    <property name="Texture" value="cascada_acid_2T"/>
    <property name="Type" value="anim_tile"/>
   </properties>
  </object>
  <object id="170" name="cascada_acid" type="anim_tile" x="7426.94" y="320.666" width="128" height="64">
   <properties>
    <property name="Texture" value="cascada_acid_2T"/>
    <property name="Type" value="anim_tile"/>
   </properties>
  </object>
  <object id="171" name="cascada_acid" type="anim_tile" x="7426.94" y="832.666" width="128" height="64">
   <properties>
    <property name="Texture" value="cascada_acid_2T"/>
    <property name="Type" value="anim_tile"/>
   </properties>
  </object>
  <object id="172" name="cascada_acid" type="anim_tile" x="7426.94" y="1216.67" width="128" height="64">
   <properties>
    <property name="Texture" value="cascada_acid_2T"/>
    <property name="Type" value="anim_tile"/>
   </properties>
  </object>
  <object id="173" name="cascada_acid" type="anim_tile" x="7426.94" y="576.666" width="128" height="64">
   <properties>
    <property name="Texture" value="cascada_acid_2T"/>
    <property name="Type" value="anim_tile"/>
   </properties>
  </object>
  <object id="174" name="cascada_acid" type="anim_tile" x="7426.94" y="1088.67" width="128" height="64">
   <properties>
    <property name="Texture" value="cascada_acid_2T"/>
    <property name="Type" value="anim_tile"/>
   </properties>
  </object>
  <object id="175" name="cascada_acid" type="anim_tile" x="7426.94" y="1664.67" width="128" height="64">
   <properties>
    <property name="Texture" value="cascada_acid_2T"/>
    <property name="Type" value="anim_tile"/>
   </properties>
  </object>
  <object id="176" name="cascada_acid" type="anim_tile" x="7426.94" y="1536.67" width="128" height="64">
   <properties>
    <property name="Texture" value="cascada_acid_2T"/>
    <property name="Type" value="anim_tile"/>
   </properties>
  </object>
  <object id="177" name="cascada_acid" type="anim_tile" x="7426.94" y="256.666" width="128" height="64">
   <properties>
    <property name="Texture" value="cascada_acid_2T"/>
    <property name="Type" value="anim_tile"/>
   </properties>
  </object>
  <object id="178" name="cascada_acid" type="anim_tile" x="7426.94" y="768.666" width="128" height="64">
   <properties>
    <property name="Texture" value="cascada_acid_2T"/>
    <property name="Type" value="anim_tile"/>
   </properties>
  </object>
  <object id="179" name="cascada_acid" type="anim_tile" x="7426.94" y="512.666" width="128" height="64">
   <properties>
    <property name="Texture" value="cascada_acid_2T"/>
    <property name="Type" value="anim_tile"/>
   </properties>
  </object>
  <object id="180" name="cascada_acid" type="anim_tile" x="7426.94" y="1024.67" width="128" height="64">
   <properties>
    <property name="Texture" value="cascada_acid_2T"/>
    <property name="Type" value="anim_tile"/>
   </properties>
  </object>
  <object id="181" name="cascada_acid" type="anim_tile" x="7426.94" y="1408.67" width="128" height="64">
   <properties>
    <property name="Texture" value="cascada_acid_2T"/>
    <property name="Type" value="anim_tile"/>
   </properties>
  </object>
  <object id="182" name="cascada_acid" type="anim_tile" x="7426.94" y="1600.67" width="128" height="64">
   <properties>
    <property name="Texture" value="cascada_acid_2T"/>
    <property name="Type" value="anim_tile"/>
   </properties>
  </object>
  <object id="183" name="cascada_acid" type="anim_tile" x="7426.94" y="1472.67" width="128" height="64">
   <properties>
    <property name="Texture" value="cascada_acid_2T"/>
    <property name="Type" value="anim_tile"/>
   </properties>
  </object>
  <object id="184" name="cascada_acid" type="anim_tile" x="7426.94" y="384.666" width="128" height="64">
   <properties>
    <property name="Texture" value="cascada_acid_2T"/>
    <property name="Type" value="anim_tile"/>
   </properties>
  </object>
  <object id="185" name="cascada_acid" type="anim_tile" x="7426.94" y="896.666" width="128" height="64">
   <properties>
    <property name="Texture" value="cascada_acid_2T"/>
    <property name="Type" value="anim_tile"/>
   </properties>
  </object>
  <object id="186" name="cascada_acid" type="anim_tile" x="7426.94" y="1280.67" width="128" height="64">
   <properties>
    <property name="Texture" value="cascada_acid_2T"/>
    <property name="Type" value="anim_tile"/>
   </properties>
  </object>
  <object id="187" name="cascada_acid" type="anim_tile" x="7426.94" y="640.666" width="128" height="64">
   <properties>
    <property name="Texture" value="cascada_acid_2T"/>
    <property name="Type" value="anim_tile"/>
   </properties>
  </object>
  <object id="188" name="cascada_acid" type="anim_tile" x="7426.94" y="1152.67" width="128" height="64">
   <properties>
    <property name="Texture" value="cascada_acid_2T"/>
    <property name="Type" value="anim_tile"/>
   </properties>
  </object>
  <object id="199" name="cascada_acid" type="anim_tile" x="7429.97" y="1785.52" width="128" height="64">
   <properties>
    <property name="Texture" value="cascada_acid_2T"/>
    <property name="Type" value="anim_tile"/>
   </properties>
  </object>
  <object id="200" name="cascada_acid" type="anim_tile" x="7429.97" y="2105.52" width="128" height="64">
   <properties>
    <property name="Texture" value="cascada_acid_2T"/>
    <property name="Type" value="anim_tile"/>
   </properties>
  </object>
  <object id="201" name="cascada_acid" type="anim_tile" x="7429.97" y="1977.52" width="128" height="64">
   <properties>
    <property name="Texture" value="cascada_acid_2T"/>
    <property name="Type" value="anim_tile"/>
   </properties>
  </object>
  <object id="202" name="cascada_acid" type="anim_tile" x="7429.97" y="1849.52" width="128" height="64">
   <properties>
    <property name="Texture" value="cascada_acid_2T"/>
    <property name="Type" value="anim_tile"/>
   </properties>
  </object>
  <object id="203" name="cascada_acid" type="anim_tile" x="7429.97" y="2041.52" width="128" height="64">
   <properties>
    <property name="Texture" value="cascada_acid_2T"/>
    <property name="Type" value="anim_tile"/>
   </properties>
  </object>
  <object id="204" name="cascada_acid" type="anim_tile" x="7429.97" y="1913.52" width="128" height="64">
   <properties>
    <property name="Texture" value="cascada_acid_2T"/>
    <property name="Type" value="anim_tile"/>
   </properties>
  </object>
  <object id="205" name="cascada_acid" type="anim_tile" x="7429.97" y="1721.52" width="128" height="64">
   <properties>
    <property name="Texture" value="cascada_acid_2T"/>
    <property name="Type" value="anim_tile"/>
   </properties>
  </object>
  <object id="206" name="cascada_acid" type="anim_tile" x="6278.42" y="1794.55" width="128" height="64">
   <properties>
    <property name="Texture" value="cascada_acid_2T"/>
    <property name="Type" value="anim_tile"/>
   </properties>
  </object>
  <object id="207" name="cascada_acid" type="anim_tile" x="6278.42" y="2114.55" width="128" height="64">
   <properties>
    <property name="Texture" value="cascada_acid_2T"/>
    <property name="Type" value="anim_tile"/>
   </properties>
  </object>
  <object id="208" name="cascada_acid" type="anim_tile" x="6278.42" y="1986.55" width="128" height="64">
   <properties>
    <property name="Texture" value="cascada_acid_2T"/>
    <property name="Type" value="anim_tile"/>
   </properties>
  </object>
  <object id="209" name="cascada_acid" type="anim_tile" x="6278.42" y="1858.55" width="128" height="64">
   <properties>
    <property name="Texture" value="cascada_acid_2T"/>
    <property name="Type" value="anim_tile"/>
   </properties>
  </object>
  <object id="210" name="cascada_acid" type="anim_tile" x="6278.42" y="2050.55" width="128" height="64">
   <properties>
    <property name="Texture" value="cascada_acid_2T"/>
    <property name="Type" value="anim_tile"/>
   </properties>
  </object>
  <object id="211" name="cascada_acid" type="anim_tile" x="6278.42" y="1922.55" width="128" height="64">
   <properties>
    <property name="Texture" value="cascada_acid_2T"/>
    <property name="Type" value="anim_tile"/>
   </properties>
  </object>
  <object id="212" name="cascada_acid" type="anim_tile" x="6278.42" y="1730.55" width="128" height="64">
   <properties>
    <property name="Texture" value="cascada_acid_2T"/>
    <property name="Type" value="anim_tile"/>
   </properties>
  </object>
  <object id="214" name="cascada_acid" type="anim_tile" x="961.758" y="203.999" width="128" height="64">
   <properties>
    <property name="Texture" value="cascada_acid_2T"/>
    <property name="Type" value="anim_tile"/>
   </properties>
  </object>
  <object id="215" name="cascada_acid" type="anim_tile" x="961.758" y="715.999" width="128" height="64">
   <properties>
    <property name="Texture" value="cascada_acid_2T"/>
    <property name="Type" value="anim_tile"/>
   </properties>
  </object>
  <object id="217" name="cascada_acid" type="anim_tile" x="961.758" y="971.999" width="128" height="64">
   <properties>
    <property name="Texture" value="cascada_acid_2T"/>
    <property name="Type" value="anim_tile"/>
   </properties>
  </object>
  <object id="218" name="cascada_acid" type="anim_tile" x="961.758" y="1356" width="128" height="64">
   <properties>
    <property name="Texture" value="cascada_acid_2T"/>
    <property name="Type" value="anim_tile"/>
   </properties>
  </object>
  <object id="219" name="cascada_acid" type="anim_tile" x="961.758" y="331.999" width="128" height="64">
   <properties>
    <property name="Texture" value="cascada_acid_2T"/>
    <property name="Type" value="anim_tile"/>
   </properties>
  </object>
  <object id="220" name="cascada_acid" type="anim_tile" x="961.758" y="843.999" width="128" height="64">
   <properties>
    <property name="Texture" value="cascada_acid_2T"/>
    <property name="Type" value="anim_tile"/>
   </properties>
  </object>
  <object id="221" name="cascada_acid" type="anim_tile" x="961.758" y="1228" width="128" height="64">
   <properties>
    <property name="Texture" value="cascada_acid_2T"/>
    <property name="Type" value="anim_tile"/>
   </properties>
  </object>
  <object id="223" name="cascada_acid" type="anim_tile" x="961.758" y="1100" width="128" height="64">
   <properties>
    <property name="Texture" value="cascada_acid_2T"/>
    <property name="Type" value="anim_tile"/>
   </properties>
  </object>
  <object id="224" name="cascada_acid" type="anim_tile" x="961.758" y="1676" width="128" height="64">
   <properties>
    <property name="Texture" value="cascada_acid_2T"/>
    <property name="Type" value="anim_tile"/>
   </properties>
  </object>
  <object id="225" name="cascada_acid" type="anim_tile" x="961.758" y="1548" width="128" height="64">
   <properties>
    <property name="Texture" value="cascada_acid_2T"/>
    <property name="Type" value="anim_tile"/>
   </properties>
  </object>
  <object id="226" name="cascada_acid" type="anim_tile" x="961.758" y="267.999" width="128" height="64">
   <properties>
    <property name="Texture" value="cascada_acid_2T"/>
    <property name="Type" value="anim_tile"/>
   </properties>
  </object>
  <object id="227" name="cascada_acid" type="anim_tile" x="961.758" y="779.999" width="128" height="64">
   <properties>
    <property name="Texture" value="cascada_acid_2T"/>
    <property name="Type" value="anim_tile"/>
   </properties>
  </object>
  <object id="229" name="cascada_acid" type="anim_tile" x="961.758" y="1036" width="128" height="64">
   <properties>
    <property name="Texture" value="cascada_acid_2T"/>
    <property name="Type" value="anim_tile"/>
   </properties>
  </object>
  <object id="230" name="cascada_acid" type="anim_tile" x="961.758" y="1420" width="128" height="64">
   <properties>
    <property name="Texture" value="cascada_acid_2T"/>
    <property name="Type" value="anim_tile"/>
   </properties>
  </object>
  <object id="231" name="cascada_acid" type="anim_tile" x="961.758" y="1612" width="128" height="64">
   <properties>
    <property name="Texture" value="cascada_acid_2T"/>
    <property name="Type" value="anim_tile"/>
   </properties>
  </object>
  <object id="232" name="cascada_acid" type="anim_tile" x="961.758" y="1484" width="128" height="64">
   <properties>
    <property name="Texture" value="cascada_acid_2T"/>
    <property name="Type" value="anim_tile"/>
   </properties>
  </object>
  <object id="233" name="cascada_acid" type="anim_tile" x="961.758" y="395.999" width="128" height="64">
   <properties>
    <property name="Texture" value="cascada_acid_2T"/>
    <property name="Type" value="anim_tile"/>
   </properties>
  </object>
  <object id="234" name="cascada_acid" type="anim_tile" x="961.758" y="907.999" width="128" height="64">
   <properties>
    <property name="Texture" value="cascada_acid_2T"/>
    <property name="Type" value="anim_tile"/>
   </properties>
  </object>
  <object id="235" name="cascada_acid" type="anim_tile" x="961.758" y="1292" width="128" height="64">
   <properties>
    <property name="Texture" value="cascada_acid_2T"/>
    <property name="Type" value="anim_tile"/>
   </properties>
  </object>
  <object id="236" name="cascada_acid" type="anim_tile" x="961.758" y="651.999" width="128" height="64">
   <properties>
    <property name="Texture" value="cascada_acid_2T"/>
    <property name="Type" value="anim_tile"/>
   </properties>
  </object>
  <object id="237" name="cascada_acid" type="anim_tile" x="961.758" y="1164" width="128" height="64">
   <properties>
    <property name="Texture" value="cascada_acid_2T"/>
    <property name="Type" value="anim_tile"/>
   </properties>
  </object>
  <object id="238" name="cascada_acid" type="anim_tile" x="962.121" y="1806.67" width="128" height="64">
   <properties>
    <property name="Texture" value="cascada_acid_2T"/>
    <property name="Type" value="anim_tile"/>
   </properties>
  </object>
  <object id="239" name="cascada_acid" type="anim_tile" x="962.121" y="2126.67" width="128" height="64">
   <properties>
    <property name="Texture" value="cascada_acid_2T"/>
    <property name="Type" value="anim_tile"/>
   </properties>
  </object>
  <object id="240" name="cascada_acid" type="anim_tile" x="962.121" y="1998.67" width="128" height="64">
   <properties>
    <property name="Texture" value="cascada_acid_2T"/>
    <property name="Type" value="anim_tile"/>
   </properties>
  </object>
  <object id="241" name="cascada_acid" type="anim_tile" x="962.121" y="1870.67" width="128" height="64">
   <properties>
    <property name="Texture" value="cascada_acid_2T"/>
    <property name="Type" value="anim_tile"/>
   </properties>
  </object>
  <object id="242" name="cascada_acid" type="anim_tile" x="962.121" y="2062.67" width="128" height="64">
   <properties>
    <property name="Texture" value="cascada_acid_2T"/>
    <property name="Type" value="anim_tile"/>
   </properties>
  </object>
  <object id="243" name="cascada_acid" type="anim_tile" x="962.121" y="1934.67" width="128" height="64">
   <properties>
    <property name="Texture" value="cascada_acid_2T"/>
    <property name="Type" value="anim_tile"/>
   </properties>
  </object>
  <object id="244" name="cascada_acid" type="anim_tile" x="962.121" y="1742.67" width="128" height="64">
   <properties>
    <property name="Texture" value="cascada_acid_2T"/>
    <property name="Type" value="anim_tile"/>
   </properties>
  </object>
  <object id="257" name="cascada_acid" type="anim_tile" x="3636" y="1731.33" width="128" height="64">
   <properties>
    <property name="Texture" value="cascada_acid_2T"/>
    <property name="Type" value="anim_tile"/>
   </properties>
  </object>
  <object id="258" name="cascada_acid" type="anim_tile" x="3636.67" y="1792.67" width="128" height="64">
   <properties>
    <property name="Texture" value="cascada_acid_2T"/>
    <property name="Type" value="anim_tile"/>
   </properties>
  </object>
  <object id="286" name="cascada_acid" type="anim_tile" x="961" y="462" width="128" height="79">
   <properties>
    <property name="Texture" value="cascada_acid_2T"/>
    <property name="Type" value="anim_tile"/>
   </properties>
  </object>
  <object id="287" name="cascada_acid" type="anim_tile" x="4353.85" y="190.301" width="128" height="64">
   <properties>
    <property name="Texture" value="cascada_acid_2T"/>
    <property name="Type" value="anim_tile"/>
   </properties>
  </object>
  <object id="288" name="cascada_acid" type="anim_tile" x="4353.85" y="702.301" width="128" height="64">
   <properties>
    <property name="Texture" value="cascada_acid_2T"/>
    <property name="Type" value="anim_tile"/>
   </properties>
  </object>
  <object id="289" name="cascada_acid" type="anim_tile" x="4353.85" y="446.301" width="128" height="64">
   <properties>
    <property name="Texture" value="cascada_acid_2T"/>
    <property name="Type" value="anim_tile"/>
   </properties>
  </object>
  <object id="290" name="cascada_acid" type="anim_tile" x="4353.85" y="958.301" width="128" height="64">
   <properties>
    <property name="Texture" value="cascada_acid_2T"/>
    <property name="Type" value="anim_tile"/>
   </properties>
  </object>
  <object id="291" name="cascada_acid" type="anim_tile" x="4353.85" y="1342.3" width="128" height="64">
   <properties>
    <property name="Texture" value="cascada_acid_2T"/>
    <property name="Type" value="anim_tile"/>
   </properties>
  </object>
  <object id="292" name="cascada_acid" type="anim_tile" x="4353.85" y="318.301" width="128" height="64">
   <properties>
    <property name="Texture" value="cascada_acid_2T"/>
    <property name="Type" value="anim_tile"/>
   </properties>
  </object>
  <object id="293" name="cascada_acid" type="anim_tile" x="4353.85" y="830.301" width="128" height="64">
   <properties>
    <property name="Texture" value="cascada_acid_2T"/>
    <property name="Type" value="anim_tile"/>
   </properties>
  </object>
  <object id="294" name="cascada_acid" type="anim_tile" x="4353.85" y="1214.3" width="128" height="64">
   <properties>
    <property name="Texture" value="cascada_acid_2T"/>
    <property name="Type" value="anim_tile"/>
   </properties>
  </object>
  <object id="295" name="cascada_acid" type="anim_tile" x="4353.85" y="574.301" width="128" height="64">
   <properties>
    <property name="Texture" value="cascada_acid_2T"/>
    <property name="Type" value="anim_tile"/>
   </properties>
  </object>
  <object id="296" name="cascada_acid" type="anim_tile" x="4353.85" y="1086.3" width="128" height="64">
   <properties>
    <property name="Texture" value="cascada_acid_2T"/>
    <property name="Type" value="anim_tile"/>
   </properties>
  </object>
  <object id="297" name="cascada_acid" type="anim_tile" x="4353.85" y="1662.3" width="128" height="64">
   <properties>
    <property name="Texture" value="cascada_acid_2T"/>
    <property name="Type" value="anim_tile"/>
   </properties>
  </object>
  <object id="298" name="cascada_acid" type="anim_tile" x="4353.85" y="1534.3" width="128" height="64">
   <properties>
    <property name="Texture" value="cascada_acid_2T"/>
    <property name="Type" value="anim_tile"/>
   </properties>
  </object>
  <object id="299" name="cascada_acid" type="anim_tile" x="4353.85" y="254.301" width="128" height="64">
   <properties>
    <property name="Texture" value="cascada_acid_2T"/>
    <property name="Type" value="anim_tile"/>
   </properties>
  </object>
  <object id="300" name="cascada_acid" type="anim_tile" x="4353.85" y="766.301" width="128" height="64">
   <properties>
    <property name="Texture" value="cascada_acid_2T"/>
    <property name="Type" value="anim_tile"/>
   </properties>
  </object>
  <object id="301" name="cascada_acid" type="anim_tile" x="4353.85" y="510.301" width="128" height="64">
   <properties>
    <property name="Texture" value="cascada_acid_2T"/>
    <property name="Type" value="anim_tile"/>
   </properties>
  </object>
  <object id="302" name="cascada_acid" type="anim_tile" x="4353.85" y="1022.3" width="128" height="64">
   <properties>
    <property name="Texture" value="cascada_acid_2T"/>
    <property name="Type" value="anim_tile"/>
   </properties>
  </object>
  <object id="303" name="cascada_acid" type="anim_tile" x="4353.85" y="1406.3" width="128" height="64">
   <properties>
    <property name="Texture" value="cascada_acid_2T"/>
    <property name="Type" value="anim_tile"/>
   </properties>
  </object>
  <object id="304" name="cascada_acid" type="anim_tile" x="4353.85" y="1598.3" width="128" height="64">
   <properties>
    <property name="Texture" value="cascada_acid_2T"/>
    <property name="Type" value="anim_tile"/>
   </properties>
  </object>
  <object id="305" name="cascada_acid" type="anim_tile" x="4353.85" y="1470.3" width="128" height="64">
   <properties>
    <property name="Texture" value="cascada_acid_2T"/>
    <property name="Type" value="anim_tile"/>
   </properties>
  </object>
  <object id="306" name="cascada_acid" type="anim_tile" x="4353.85" y="382.301" width="128" height="64">
   <properties>
    <property name="Texture" value="cascada_acid_2T"/>
    <property name="Type" value="anim_tile"/>
   </properties>
  </object>
  <object id="307" name="cascada_acid" type="anim_tile" x="4353.85" y="894.301" width="128" height="64">
   <properties>
    <property name="Texture" value="cascada_acid_2T"/>
    <property name="Type" value="anim_tile"/>
   </properties>
  </object>
  <object id="308" name="cascada_acid" type="anim_tile" x="4353.85" y="1278.3" width="128" height="64">
   <properties>
    <property name="Texture" value="cascada_acid_2T"/>
    <property name="Type" value="anim_tile"/>
   </properties>
  </object>
  <object id="309" name="cascada_acid" type="anim_tile" x="4353.85" y="638.301" width="128" height="64">
   <properties>
    <property name="Texture" value="cascada_acid_2T"/>
    <property name="Type" value="anim_tile"/>
   </properties>
  </object>
  <object id="310" name="cascada_acid" type="anim_tile" x="4353.85" y="1150.3" width="128" height="64">
   <properties>
    <property name="Texture" value="cascada_acid_2T"/>
    <property name="Type" value="anim_tile"/>
   </properties>
  </object>
  <object id="311" name="cascada_acid" type="anim_tile" x="4353.85" y="1727.75" width="128" height="64">
   <properties>
    <property name="Texture" value="cascada_acid_2T"/>
    <property name="Type" value="anim_tile"/>
   </properties>
  </object>
  <object id="312" name="cascada_acid" type="anim_tile" x="4354.52" y="1789.09" width="128" height="64">
   <properties>
    <property name="Texture" value="cascada_acid_2T"/>
    <property name="Type" value="anim_tile"/>
   </properties>
  </object>
  <object id="313" name="cascada_acid" type="anim_tile" x="5059.91" y="189.817" width="128" height="64">
   <properties>
    <property name="Texture" value="cascada_acid_2T"/>
    <property name="Type" value="anim_tile"/>
   </properties>
  </object>
  <object id="314" name="cascada_acid" type="anim_tile" x="5059.91" y="701.817" width="128" height="64">
   <properties>
    <property name="Texture" value="cascada_acid_2T"/>
    <property name="Type" value="anim_tile"/>
   </properties>
  </object>
  <object id="315" name="cascada_acid" type="anim_tile" x="5059.91" y="445.817" width="128" height="64">
   <properties>
    <property name="Texture" value="cascada_acid_2T"/>
    <property name="Type" value="anim_tile"/>
   </properties>
  </object>
  <object id="316" name="cascada_acid" type="anim_tile" x="5059.91" y="957.817" width="128" height="64">
   <properties>
    <property name="Texture" value="cascada_acid_2T"/>
    <property name="Type" value="anim_tile"/>
   </properties>
  </object>
  <object id="317" name="cascada_acid" type="anim_tile" x="5059.91" y="1341.82" width="128" height="64">
   <properties>
    <property name="Texture" value="cascada_acid_2T"/>
    <property name="Type" value="anim_tile"/>
   </properties>
  </object>
  <object id="318" name="cascada_acid" type="anim_tile" x="5059.91" y="317.817" width="128" height="64">
   <properties>
    <property name="Texture" value="cascada_acid_2T"/>
    <property name="Type" value="anim_tile"/>
   </properties>
  </object>
  <object id="319" name="cascada_acid" type="anim_tile" x="5059.91" y="829.817" width="128" height="64">
   <properties>
    <property name="Texture" value="cascada_acid_2T"/>
    <property name="Type" value="anim_tile"/>
   </properties>
  </object>
  <object id="320" name="cascada_acid" type="anim_tile" x="5059.91" y="1213.82" width="128" height="64">
   <properties>
    <property name="Texture" value="cascada_acid_2T"/>
    <property name="Type" value="anim_tile"/>
   </properties>
  </object>
  <object id="321" name="cascada_acid" type="anim_tile" x="5059.91" y="573.817" width="128" height="64">
   <properties>
    <property name="Texture" value="cascada_acid_2T"/>
    <property name="Type" value="anim_tile"/>
   </properties>
  </object>
  <object id="322" name="cascada_acid" type="anim_tile" x="5059.91" y="1085.82" width="128" height="64">
   <properties>
    <property name="Texture" value="cascada_acid_2T"/>
    <property name="Type" value="anim_tile"/>
   </properties>
  </object>
  <object id="323" name="cascada_acid" type="anim_tile" x="5059.91" y="1661.82" width="128" height="64">
   <properties>
    <property name="Texture" value="cascada_acid_2T"/>
    <property name="Type" value="anim_tile"/>
   </properties>
  </object>
  <object id="324" name="cascada_acid" type="anim_tile" x="5059.91" y="1533.82" width="128" height="64">
   <properties>
    <property name="Texture" value="cascada_acid_2T"/>
    <property name="Type" value="anim_tile"/>
   </properties>
  </object>
  <object id="325" name="cascada_acid" type="anim_tile" x="5059.91" y="253.817" width="128" height="64">
   <properties>
    <property name="Texture" value="cascada_acid_2T"/>
    <property name="Type" value="anim_tile"/>
   </properties>
  </object>
  <object id="326" name="cascada_acid" type="anim_tile" x="5059.91" y="765.817" width="128" height="64">
   <properties>
    <property name="Texture" value="cascada_acid_2T"/>
    <property name="Type" value="anim_tile"/>
   </properties>
  </object>
  <object id="327" name="cascada_acid" type="anim_tile" x="5059.91" y="509.817" width="128" height="64">
   <properties>
    <property name="Texture" value="cascada_acid_2T"/>
    <property name="Type" value="anim_tile"/>
   </properties>
  </object>
  <object id="328" name="cascada_acid" type="anim_tile" x="5059.91" y="1021.82" width="128" height="64">
   <properties>
    <property name="Texture" value="cascada_acid_2T"/>
    <property name="Type" value="anim_tile"/>
   </properties>
  </object>
  <object id="329" name="cascada_acid" type="anim_tile" x="5059.91" y="1405.82" width="128" height="64">
   <properties>
    <property name="Texture" value="cascada_acid_2T"/>
    <property name="Type" value="anim_tile"/>
   </properties>
  </object>
  <object id="330" name="cascada_acid" type="anim_tile" x="5059.91" y="1597.82" width="128" height="64">
   <properties>
    <property name="Texture" value="cascada_acid_2T"/>
    <property name="Type" value="anim_tile"/>
   </properties>
  </object>
  <object id="331" name="cascada_acid" type="anim_tile" x="5059.91" y="1469.82" width="128" height="64">
   <properties>
    <property name="Texture" value="cascada_acid_2T"/>
    <property name="Type" value="anim_tile"/>
   </properties>
  </object>
  <object id="332" name="cascada_acid" type="anim_tile" x="5059.91" y="381.817" width="128" height="64">
   <properties>
    <property name="Texture" value="cascada_acid_2T"/>
    <property name="Type" value="anim_tile"/>
   </properties>
  </object>
  <object id="333" name="cascada_acid" type="anim_tile" x="5059.91" y="893.817" width="128" height="64">
   <properties>
    <property name="Texture" value="cascada_acid_2T"/>
    <property name="Type" value="anim_tile"/>
   </properties>
  </object>
  <object id="334" name="cascada_acid" type="anim_tile" x="5059.91" y="1277.82" width="128" height="64">
   <properties>
    <property name="Texture" value="cascada_acid_2T"/>
    <property name="Type" value="anim_tile"/>
   </properties>
  </object>
  <object id="335" name="cascada_acid" type="anim_tile" x="5059.91" y="637.817" width="128" height="64">
   <properties>
    <property name="Texture" value="cascada_acid_2T"/>
    <property name="Type" value="anim_tile"/>
   </properties>
  </object>
  <object id="336" name="cascada_acid" type="anim_tile" x="5059.91" y="1149.82" width="128" height="64">
   <properties>
    <property name="Texture" value="cascada_acid_2T"/>
    <property name="Type" value="anim_tile"/>
   </properties>
  </object>
  <object id="337" name="cascada_acid" type="anim_tile" x="5059.91" y="1727.27" width="128" height="64">
   <properties>
    <property name="Texture" value="cascada_acid_2T"/>
    <property name="Type" value="anim_tile"/>
   </properties>
  </object>
  <object id="338" name="cascada_acid" type="anim_tile" x="5060.58" y="1788.61" width="128" height="64">
   <properties>
    <property name="Texture" value="cascada_acid_2T"/>
    <property name="Type" value="anim_tile"/>
   </properties>
  </object>
 </objectgroup>
</map>
