<?xml version="1.0" encoding="UTF-8"?>
<map version="1.10" tiledversion="1.11.2" orientation="orthogonal" renderorder="right-down" width="45" height="24" tilewidth="64" tileheight="64" infinite="0" nextlayerid="6" nextobjectid="3">
 <properties>
  <property name="Draw" type="bool" value="true"/>
 </properties>
 <tileset firstgid="1" name="TileMetadata" tilewidth="64" tileheight="64" tilecount="2" columns="2">
  <image source="TileMetadata.png" width="128" height="64"/>
 </tileset>
 <tileset firstgid="3" name="atñas_2.6" tilewidth="64" tileheight="64" tilecount="256" columns="16">
  <image source="atñas_2.6.png" width="1024" height="1024"/>
 </tileset>
 <layer id="1" name="Solid" width="45" height="24">
  <properties>
   <property name="Draw" type="bool" value="true"/>
  </properties>
  <data>
   <tile gid="238"/>
   <tile gid="254"/>
   <tile gid="254"/>
   <tile gid="254"/>
   <tile gid="254"/>
   <tile gid="254"/>
   <tile gid="254"/>
   <tile gid="254"/>
   <tile gid="254"/>
   <tile gid="254"/>
   <tile gid="254"/>
   <tile gid="254"/>
   <tile gid="254"/>
   <tile gid="254"/>
   <tile gid="254"/>
   <tile gid="254"/>
   <tile gid="254"/>
   <tile gid="254"/>
   <tile gid="254"/>
   <tile gid="254"/>
   <tile gid="254"/>
   <tile gid="254"/>
   <tile gid="254"/>
   <tile gid="254"/>
   <tile gid="254"/>
   <tile gid="254"/>
   <tile gid="254"/>
   <tile gid="254"/>
   <tile gid="254"/>
   <tile gid="254"/>
   <tile gid="238"/>
   <tile gid="238"/>
   <tile gid="238"/>
   <tile gid="238"/>
   <tile gid="238"/>
   <tile gid="238"/>
   <tile gid="238"/>
   <tile gid="238"/>
   <tile gid="254"/>
   <tile gid="254"/>
   <tile gid="254"/>
   <tile gid="254"/>
   <tile gid="254"/>
   <tile gid="254"/>
   <tile gid="238"/>
   <tile gid="258"/>
   <tile/>
   <tile/>
   <tile/>
   <tile/>
   <tile/>
   <tile/>
   <tile/>
   <tile/>
   <tile/>
   <tile/>
   <tile/>
   <tile/>
   <tile/>
   <tile/>
   <tile/>
   <tile/>
   <tile/>
   <tile/>
   <tile/>
   <tile/>
   <tile/>
   <tile/>
   <tile/>
   <tile/>
   <tile/>
   <tile/>
   <tile/>
   <tile/>
   <tile/>
   <tile gid="253"/>
   <tile gid="238"/>
   <tile gid="238"/>
   <tile gid="238"/>
   <tile gid="238"/>
   <tile gid="238"/>
   <tile gid="238"/>
   <tile gid="255"/>
   <tile/>
   <tile/>
   <tile/>
   <tile/>
   <tile/>
   <tile/>
   <tile gid="241"/>
   <tile gid="258"/>
   <tile/>
   <tile/>
   <tile/>
   <tile/>
   <tile/>
   <tile/>
   <tile/>
   <tile/>
   <tile/>
   <tile/>
   <tile/>
   <tile/>
   <tile/>
   <tile/>
   <tile/>
   <tile/>
   <tile/>
   <tile/>
   <tile/>
   <tile/>
   <tile/>
   <tile/>
   <tile/>
   <tile/>
   <tile/>
   <tile/>
   <tile/>
   <tile/>
   <tile/>
   <tile/>
   <tile gid="253"/>
   <tile gid="238"/>
   <tile gid="238"/>
   <tile gid="238"/>
   <tile gid="238"/>
   <tile gid="255"/>
   <tile/>
   <tile/>
   <tile/>
   <tile/>
   <tile/>
   <tile/>
   <tile/>
   <tile gid="241"/>
   <tile gid="258"/>
   <tile/>
   <tile/>
   <tile/>
   <tile/>
   <tile/>
   <tile/>
   <tile/>
   <tile/>
   <tile/>
   <tile/>
   <tile/>
   <tile/>
   <tile/>
   <tile/>
   <tile/>
   <tile/>
   <tile/>
   <tile/>
   <tile/>
   <tile/>
   <tile/>
   <tile/>
   <tile/>
   <tile/>
   <tile/>
   <tile/>
   <tile/>
   <tile/>
   <tile/>
   <tile/>
   <tile/>
   <tile gid="237"/>
   <tile gid="238"/>
   <tile gid="238"/>
   <tile gid="239"/>
   <tile/>
   <tile/>
   <tile/>
   <tile/>
   <tile/>
   <tile/>
   <tile/>
   <tile/>
   <tile gid="241"/>
   <tile gid="258"/>
   <tile/>
   <tile/>
   <tile/>
   <tile/>
   <tile/>
   <tile/>
   <tile/>
   <tile/>
   <tile/>
   <tile/>
   <tile/>
   <tile/>
   <tile/>
   <tile/>
   <tile/>
   <tile/>
   <tile/>
   <tile/>
   <tile/>
   <tile gid="221"/>
   <tile gid="222"/>
   <tile gid="222"/>
   <tile gid="222"/>
   <tile gid="223"/>
   <tile/>
   <tile/>
   <tile/>
   <tile/>
   <tile/>
   <tile/>
   <tile/>
   <tile gid="253"/>
   <tile gid="254"/>
   <tile gid="254"/>
   <tile gid="255"/>
   <tile/>
   <tile/>
   <tile/>
   <tile/>
   <tile/>
   <tile/>
   <tile/>
   <tile/>
   <tile gid="241"/>
   <tile gid="258"/>
   <tile/>
   <tile/>
   <tile/>
   <tile/>
   <tile/>
   <tile/>
   <tile/>
   <tile/>
   <tile/>
   <tile/>
   <tile/>
   <tile/>
   <tile/>
   <tile/>
   <tile/>
   <tile/>
   <tile/>
   <tile/>
   <tile/>
   <tile gid="237"/>
   <tile gid="238"/>
   <tile gid="238"/>
   <tile gid="238"/>
   <tile gid="239"/>
   <tile/>
   <tile/>
   <tile/>
   <tile/>
   <tile/>
   <tile/>
   <tile/>
   <tile/>
   <tile/>
   <tile/>
   <tile/>
   <tile/>
   <tile/>
   <tile/>
   <tile/>
   <tile/>
   <tile/>
   <tile/>
   <tile/>
   <tile gid="241"/>
   <tile gid="258"/>
   <tile/>
   <tile/>
   <tile/>
   <tile/>
   <tile gid="249"/>
   <tile gid="222"/>
   <tile gid="222"/>
   <tile gid="222"/>
   <tile gid="222"/>
   <tile gid="222"/>
   <tile gid="222"/>
   <tile gid="222"/>
   <tile gid="222"/>
   <tile gid="222"/>
   <tile gid="222"/>
   <tile gid="222"/>
   <tile gid="222"/>
   <tile gid="222"/>
   <tile gid="222"/>
   <tile gid="250"/>
   <tile gid="238"/>
   <tile gid="238"/>
   <tile gid="238"/>
   <tile gid="251"/>
   <tile gid="222"/>
   <tile gid="222"/>
   <tile gid="222"/>
   <tile gid="222"/>
   <tile gid="222"/>
   <tile gid="222"/>
   <tile gid="222"/>
   <tile gid="222"/>
   <tile gid="222"/>
   <tile gid="222"/>
   <tile gid="222"/>
   <tile gid="222"/>
   <tile gid="222"/>
   <tile gid="222"/>
   <tile gid="222"/>
   <tile gid="222"/>
   <tile gid="222"/>
   <tile gid="222"/>
   <tile gid="222"/>
   <tile gid="250"/>
   <tile gid="258"/>
   <tile/>
   <tile/>
   <tile/>
   <tile/>
   <tile gid="253"/>
   <tile gid="254"/>
   <tile gid="254"/>
   <tile gid="254"/>
   <tile gid="254"/>
   <tile gid="254"/>
   <tile gid="254"/>
   <tile gid="254"/>
   <tile gid="254"/>
   <tile gid="254"/>
   <tile gid="254"/>
   <tile gid="254"/>
   <tile gid="254"/>
   <tile gid="254"/>
   <tile gid="254"/>
   <tile gid="254"/>
   <tile gid="238"/>
   <tile gid="238"/>
   <tile gid="238"/>
   <tile gid="254"/>
   <tile gid="254"/>
   <tile gid="254"/>
   <tile gid="254"/>
   <tile gid="254"/>
   <tile gid="254"/>
   <tile gid="254"/>
   <tile gid="254"/>
   <tile gid="254"/>
   <tile gid="254"/>
   <tile gid="254"/>
   <tile gid="254"/>
   <tile gid="254"/>
   <tile gid="254"/>
   <tile gid="254"/>
   <tile gid="254"/>
   <tile gid="254"/>
   <tile gid="254"/>
   <tile gid="254"/>
   <tile gid="254"/>
   <tile gid="238"/>
   <tile gid="258"/>
   <tile/>
   <tile/>
   <tile/>
   <tile/>
   <tile/>
   <tile/>
   <tile/>
   <tile/>
   <tile/>
   <tile/>
   <tile/>
   <tile/>
   <tile/>
   <tile/>
   <tile/>
   <tile/>
   <tile/>
   <tile/>
   <tile/>
   <tile/>
   <tile gid="237"/>
   <tile gid="238"/>
   <tile gid="235"/>
   <tile/>
   <tile/>
   <tile/>
   <tile/>
   <tile/>
   <tile/>
   <tile/>
   <tile/>
   <tile/>
   <tile/>
   <tile/>
   <tile/>
   <tile/>
   <tile/>
   <tile/>
   <tile/>
   <tile/>
   <tile/>
   <tile/>
   <tile/>
   <tile gid="241"/>
   <tile gid="258"/>
   <tile/>
   <tile/>
   <tile/>
   <tile/>
   <tile/>
   <tile/>
   <tile/>
   <tile/>
   <tile/>
   <tile/>
   <tile/>
   <tile/>
   <tile/>
   <tile/>
   <tile/>
   <tile/>
   <tile/>
   <tile/>
   <tile/>
   <tile/>
   <tile gid="237"/>
   <tile gid="238"/>
   <tile gid="235"/>
   <tile/>
   <tile/>
   <tile/>
   <tile/>
   <tile/>
   <tile/>
   <tile/>
   <tile/>
   <tile/>
   <tile/>
   <tile/>
   <tile/>
   <tile/>
   <tile/>
   <tile/>
   <tile/>
   <tile/>
   <tile/>
   <tile/>
   <tile/>
   <tile gid="241"/>
   <tile gid="258"/>
   <tile/>
   <tile/>
   <tile/>
   <tile/>
   <tile/>
   <tile/>
   <tile/>
   <tile/>
   <tile/>
   <tile/>
   <tile/>
   <tile/>
   <tile/>
   <tile/>
   <tile/>
   <tile/>
   <tile/>
   <tile/>
   <tile/>
   <tile/>
   <tile gid="237"/>
   <tile gid="238"/>
   <tile gid="235"/>
   <tile/>
   <tile/>
   <tile/>
   <tile/>
   <tile/>
   <tile/>
   <tile/>
   <tile/>
   <tile/>
   <tile/>
   <tile/>
   <tile/>
   <tile/>
   <tile/>
   <tile/>
   <tile/>
   <tile/>
   <tile/>
   <tile/>
   <tile/>
   <tile gid="241"/>
   <tile gid="258"/>
   <tile/>
   <tile/>
   <tile/>
   <tile/>
   <tile/>
   <tile/>
   <tile/>
   <tile/>
   <tile/>
   <tile/>
   <tile/>
   <tile/>
   <tile/>
   <tile/>
   <tile/>
   <tile/>
   <tile/>
   <tile/>
   <tile/>
   <tile/>
   <tile gid="237"/>
   <tile gid="238"/>
   <tile gid="235"/>
   <tile/>
   <tile/>
   <tile/>
   <tile/>
   <tile/>
   <tile/>
   <tile/>
   <tile/>
   <tile/>
   <tile/>
   <tile/>
   <tile/>
   <tile/>
   <tile/>
   <tile/>
   <tile/>
   <tile/>
   <tile/>
   <tile/>
   <tile/>
   <tile gid="241"/>
   <tile gid="258"/>
   <tile/>
   <tile/>
   <tile/>
   <tile/>
   <tile/>
   <tile/>
   <tile/>
   <tile/>
   <tile/>
   <tile/>
   <tile/>
   <tile/>
   <tile/>
   <tile/>
   <tile/>
   <tile/>
   <tile/>
   <tile/>
   <tile/>
   <tile/>
   <tile gid="237"/>
   <tile gid="238"/>
   <tile gid="235"/>
   <tile/>
   <tile/>
   <tile/>
   <tile/>
   <tile/>
   <tile/>
   <tile/>
   <tile/>
   <tile/>
   <tile/>
   <tile/>
   <tile/>
   <tile/>
   <tile/>
   <tile/>
   <tile/>
   <tile/>
   <tile/>
   <tile/>
   <tile/>
   <tile gid="241"/>
   <tile gid="247"/>
   <tile gid="248"/>
   <tile gid="222"/>
   <tile gid="222"/>
   <tile gid="222"/>
   <tile gid="222"/>
   <tile gid="222"/>
   <tile gid="222"/>
   <tile gid="252"/>
   <tile/>
   <tile/>
   <tile/>
   <tile/>
   <tile gid="249"/>
   <tile gid="222"/>
   <tile gid="222"/>
   <tile gid="222"/>
   <tile gid="222"/>
   <tile gid="222"/>
   <tile gid="222"/>
   <tile gid="222"/>
   <tile gid="250"/>
   <tile gid="238"/>
   <tile gid="251"/>
   <tile gid="245"/>
   <tile gid="245"/>
   <tile gid="245"/>
   <tile gid="245"/>
   <tile gid="245"/>
   <tile gid="245"/>
   <tile gid="245"/>
   <tile gid="245"/>
   <tile gid="245"/>
   <tile gid="245"/>
   <tile gid="245"/>
   <tile gid="245"/>
   <tile gid="245"/>
   <tile gid="245"/>
   <tile gid="245"/>
   <tile gid="245"/>
   <tile gid="245"/>
   <tile gid="245"/>
   <tile gid="245"/>
   <tile gid="245"/>
   <tile gid="250"/>
   <tile gid="254"/>
   <tile gid="254"/>
   <tile gid="254"/>
   <tile gid="254"/>
   <tile gid="254"/>
   <tile gid="254"/>
   <tile gid="254"/>
   <tile gid="254"/>
   <tile gid="255"/>
   <tile/>
   <tile/>
   <tile/>
   <tile/>
   <tile gid="237"/>
   <tile gid="238"/>
   <tile gid="254"/>
   <tile gid="254"/>
   <tile gid="254"/>
   <tile gid="254"/>
   <tile gid="254"/>
   <tile gid="254"/>
   <tile gid="238"/>
   <tile gid="238"/>
   <tile gid="238"/>
   <tile gid="254"/>
   <tile gid="254"/>
   <tile gid="254"/>
   <tile gid="254"/>
   <tile gid="254"/>
   <tile gid="254"/>
   <tile gid="254"/>
   <tile gid="254"/>
   <tile gid="254"/>
   <tile gid="254"/>
   <tile gid="254"/>
   <tile gid="254"/>
   <tile gid="254"/>
   <tile gid="254"/>
   <tile gid="254"/>
   <tile gid="254"/>
   <tile gid="254"/>
   <tile gid="254"/>
   <tile gid="254"/>
   <tile gid="254"/>
   <tile gid="254"/>
   <tile/>
   <tile/>
   <tile/>
   <tile/>
   <tile/>
   <tile/>
   <tile/>
   <tile/>
   <tile/>
   <tile/>
   <tile/>
   <tile/>
   <tile/>
   <tile gid="237"/>
   <tile gid="239"/>
   <tile/>
   <tile/>
   <tile/>
   <tile/>
   <tile/>
   <tile/>
   <tile gid="237"/>
   <tile gid="238"/>
   <tile gid="239"/>
   <tile/>
   <tile/>
   <tile/>
   <tile/>
   <tile/>
   <tile/>
   <tile/>
   <tile/>
   <tile/>
   <tile/>
   <tile/>
   <tile/>
   <tile/>
   <tile/>
   <tile/>
   <tile/>
   <tile/>
   <tile/>
   <tile/>
   <tile/>
   <tile/>
   <tile/>
   <tile/>
   <tile/>
   <tile/>
   <tile/>
   <tile/>
   <tile/>
   <tile/>
   <tile/>
   <tile/>
   <tile/>
   <tile/>
   <tile/>
   <tile gid="237"/>
   <tile gid="239"/>
   <tile/>
   <tile/>
   <tile/>
   <tile/>
   <tile/>
   <tile/>
   <tile gid="237"/>
   <tile gid="238"/>
   <tile gid="239"/>
   <tile/>
   <tile/>
   <tile/>
   <tile/>
   <tile/>
   <tile/>
   <tile/>
   <tile/>
   <tile/>
   <tile/>
   <tile/>
   <tile/>
   <tile/>
   <tile/>
   <tile/>
   <tile/>
   <tile/>
   <tile/>
   <tile/>
   <tile/>
   <tile/>
   <tile/>
   <tile/>
   <tile/>
   <tile/>
   <tile/>
   <tile/>
   <tile/>
   <tile/>
   <tile/>
   <tile/>
   <tile/>
   <tile/>
   <tile/>
   <tile gid="237"/>
   <tile gid="239"/>
   <tile/>
   <tile/>
   <tile/>
   <tile/>
   <tile/>
   <tile/>
   <tile gid="253"/>
   <tile gid="254"/>
   <tile gid="255"/>
   <tile/>
   <tile/>
   <tile/>
   <tile/>
   <tile/>
   <tile/>
   <tile/>
   <tile/>
   <tile/>
   <tile/>
   <tile/>
   <tile/>
   <tile/>
   <tile/>
   <tile/>
   <tile/>
   <tile/>
   <tile/>
   <tile/>
   <tile/>
   <tile/>
   <tile gid="9"/>
   <tile gid="9"/>
   <tile gid="9"/>
   <tile gid="9"/>
   <tile gid="9"/>
   <tile gid="9"/>
   <tile gid="9"/>
   <tile gid="9"/>
   <tile gid="9"/>
   <tile gid="9"/>
   <tile gid="9"/>
   <tile gid="9"/>
   <tile gid="9"/>
   <tile gid="9"/>
   <tile gid="9"/>
   <tile gid="9"/>
   <tile gid="9"/>
   <tile gid="9"/>
   <tile gid="9"/>
   <tile gid="9"/>
   <tile gid="9"/>
   <tile gid="9"/>
   <tile gid="9"/>
   <tile gid="9"/>
   <tile gid="9"/>
   <tile gid="9"/>
   <tile gid="9"/>
   <tile gid="9"/>
   <tile gid="9"/>
   <tile gid="9"/>
   <tile gid="9"/>
   <tile gid="9"/>
   <tile gid="9"/>
   <tile gid="9"/>
   <tile gid="9"/>
   <tile gid="9"/>
   <tile gid="9"/>
   <tile gid="9"/>
   <tile gid="9"/>
   <tile gid="9"/>
   <tile gid="9"/>
   <tile gid="9"/>
   <tile gid="9"/>
   <tile gid="9"/>
   <tile gid="9"/>
   <tile/>
   <tile/>
   <tile/>
   <tile/>
   <tile/>
   <tile/>
   <tile/>
   <tile/>
   <tile/>
   <tile/>
   <tile/>
   <tile/>
   <tile/>
   <tile/>
   <tile/>
   <tile/>
   <tile/>
   <tile/>
   <tile/>
   <tile/>
   <tile/>
   <tile/>
   <tile/>
   <tile/>
   <tile/>
   <tile/>
   <tile/>
   <tile/>
   <tile/>
   <tile/>
   <tile/>
   <tile/>
   <tile/>
   <tile/>
   <tile/>
   <tile/>
   <tile/>
   <tile/>
   <tile/>
   <tile/>
   <tile/>
   <tile/>
   <tile/>
   <tile/>
   <tile/>
   <tile/>
   <tile/>
   <tile/>
   <tile/>
   <tile/>
   <tile/>
   <tile/>
   <tile/>
   <tile/>
   <tile/>
   <tile/>
   <tile/>
   <tile/>
   <tile/>
   <tile/>
   <tile/>
   <tile/>
   <tile/>
   <tile/>
   <tile/>
   <tile/>
   <tile/>
   <tile/>
   <tile/>
   <tile/>
   <tile/>
   <tile/>
   <tile/>
   <tile/>
   <tile/>
   <tile/>
   <tile/>
   <tile/>
   <tile/>
   <tile/>
   <tile/>
   <tile/>
   <tile/>
   <tile/>
   <tile/>
   <tile/>
   <tile/>
   <tile/>
   <tile/>
   <tile/>
   <tile/>
   <tile/>
   <tile/>
   <tile/>
   <tile/>
   <tile/>
   <tile/>
   <tile/>
   <tile/>
   <tile/>
   <tile/>
   <tile/>
   <tile/>
   <tile/>
   <tile/>
   <tile/>
   <tile/>
   <tile/>
   <tile/>
   <tile/>
   <tile/>
   <tile/>
   <tile/>
   <tile/>
   <tile/>
   <tile/>
   <tile/>
   <tile/>
   <tile/>
   <tile/>
   <tile/>
   <tile/>
   <tile/>
   <tile/>
   <tile/>
   <tile/>
   <tile/>
   <tile/>
   <tile/>
   <tile/>
   <tile/>
   <tile/>
   <tile/>
   <tile/>
   <tile/>
   <tile/>
   <tile/>
   <tile/>
   <tile/>
   <tile/>
   <tile/>
   <tile/>
   <tile/>
   <tile/>
   <tile/>
   <tile/>
   <tile/>
   <tile/>
   <tile/>
   <tile/>
   <tile/>
   <tile/>
   <tile/>
   <tile/>
   <tile/>
   <tile/>
   <tile/>
   <tile/>
   <tile/>
   <tile/>
   <tile/>
   <tile/>
   <tile/>
   <tile/>
   <tile/>
   <tile/>
   <tile/>
   <tile/>
   <tile/>
   <tile/>
   <tile/>
   <tile/>
   <tile/>
   <tile/>
   <tile/>
   <tile/>
   <tile/>
   <tile/>
   <tile/>
   <tile/>
   <tile/>
   <tile/>
   <tile/>
   <tile/>
   <tile/>
   <tile/>
   <tile/>
   <tile/>
   <tile/>
   <tile/>
   <tile/>
   <tile/>
   <tile/>
   <tile/>
   <tile/>
   <tile/>
   <tile/>
   <tile/>
   <tile/>
   <tile/>
   <tile/>
   <tile/>
   <tile/>
   <tile/>
   <tile/>
   <tile/>
   <tile/>
   <tile/>
   <tile/>
   <tile/>
   <tile/>
   <tile/>
   <tile/>
   <tile/>
   <tile/>
   <tile/>
   <tile/>
   <tile/>
   <tile/>
   <tile/>
   <tile/>
   <tile/>
   <tile/>
   <tile/>
   <tile/>
  </data>
 </layer>
 <layer id="2" name="Map" width="45" height="24">
  <properties>
   <property name="Draw" type="bool" value="true"/>
  </properties>
  <data>
   <tile/>
   <tile/>
   <tile/>
   <tile/>
   <tile/>
   <tile/>
   <tile/>
   <tile/>
   <tile/>
   <tile/>
   <tile/>
   <tile/>
   <tile/>
   <tile/>
   <tile/>
   <tile/>
   <tile/>
   <tile/>
   <tile/>
   <tile/>
   <tile/>
   <tile/>
   <tile/>
   <tile/>
   <tile/>
   <tile/>
   <tile/>
   <tile/>
   <tile/>
   <tile/>
   <tile/>
   <tile/>
   <tile/>
   <tile/>
   <tile/>
   <tile/>
   <tile/>
   <tile/>
   <tile/>
   <tile/>
   <tile/>
   <tile/>
   <tile/>
   <tile/>
   <tile/>
   <tile/>
   <tile/>
   <tile/>
   <tile/>
   <tile/>
   <tile/>
   <tile/>
   <tile/>
   <tile/>
   <tile/>
   <tile/>
   <tile/>
   <tile/>
   <tile/>
   <tile/>
   <tile/>
   <tile/>
   <tile/>
   <tile/>
   <tile/>
   <tile/>
   <tile/>
   <tile/>
   <tile/>
   <tile/>
   <tile/>
   <tile/>
   <tile/>
   <tile/>
   <tile/>
   <tile/>
   <tile/>
   <tile/>
   <tile/>
   <tile/>
   <tile/>
   <tile/>
   <tile/>
   <tile/>
   <tile/>
   <tile/>
   <tile/>
   <tile/>
   <tile/>
   <tile/>
   <tile/>
   <tile/>
   <tile/>
   <tile/>
   <tile/>
   <tile/>
   <tile/>
   <tile/>
   <tile/>
   <tile/>
   <tile/>
   <tile/>
   <tile/>
   <tile/>
   <tile/>
   <tile/>
   <tile/>
   <tile/>
   <tile/>
   <tile/>
   <tile/>
   <tile/>
   <tile/>
   <tile/>
   <tile/>
   <tile/>
   <tile/>
   <tile/>
   <tile/>
   <tile/>
   <tile/>
   <tile/>
   <tile/>
   <tile/>
   <tile/>
   <tile/>
   <tile/>
   <tile/>
   <tile/>
   <tile/>
   <tile/>
   <tile/>
   <tile/>
   <tile/>
   <tile/>
   <tile/>
   <tile/>
   <tile/>
   <tile/>
   <tile/>
   <tile/>
   <tile/>
   <tile/>
   <tile/>
   <tile/>
   <tile/>
   <tile/>
   <tile/>
   <tile/>
   <tile/>
   <tile/>
   <tile/>
   <tile/>
   <tile/>
   <tile/>
   <tile gid="233"/>
   <tile gid="229"/>
   <tile gid="229"/>
   <tile gid="229"/>
   <tile gid="236"/>
   <tile/>
   <tile/>
   <tile/>
   <tile/>
   <tile/>
   <tile/>
   <tile/>
   <tile/>
   <tile/>
   <tile/>
   <tile/>
   <tile/>
   <tile/>
   <tile/>
   <tile/>
   <tile/>
   <tile/>
   <tile/>
   <tile/>
   <tile/>
   <tile/>
   <tile/>
   <tile/>
   <tile/>
   <tile/>
   <tile/>
   <tile/>
   <tile/>
   <tile/>
   <tile/>
   <tile/>
   <tile/>
   <tile/>
   <tile/>
   <tile/>
   <tile/>
   <tile/>
   <tile/>
   <tile/>
   <tile/>
   <tile/>
   <tile/>
   <tile/>
   <tile/>
   <tile/>
   <tile/>
   <tile/>
   <tile/>
   <tile/>
   <tile/>
   <tile/>
   <tile/>
   <tile/>
   <tile/>
   <tile/>
   <tile/>
   <tile/>
   <tile/>
   <tile/>
   <tile/>
   <tile/>
   <tile/>
   <tile/>
   <tile/>
   <tile/>
   <tile/>
   <tile/>
   <tile/>
   <tile/>
   <tile/>
   <tile gid="233"/>
   <tile gid="229"/>
   <tile gid="229"/>
   <tile gid="229"/>
   <tile gid="229"/>
   <tile gid="229"/>
   <tile gid="229"/>
   <tile gid="229"/>
   <tile gid="229"/>
   <tile gid="229"/>
   <tile gid="229"/>
   <tile gid="229"/>
   <tile gid="229"/>
   <tile gid="229"/>
   <tile gid="229"/>
   <tile gid="230"/>
   <tile/>
   <tile/>
   <tile/>
   <tile gid="231"/>
   <tile gid="229"/>
   <tile gid="229"/>
   <tile gid="229"/>
   <tile gid="229"/>
   <tile gid="229"/>
   <tile gid="229"/>
   <tile gid="229"/>
   <tile gid="229"/>
   <tile gid="229"/>
   <tile gid="229"/>
   <tile gid="229"/>
   <tile gid="229"/>
   <tile gid="229"/>
   <tile gid="229"/>
   <tile gid="229"/>
   <tile gid="229"/>
   <tile gid="229"/>
   <tile gid="229"/>
   <tile gid="229"/>
   <tile gid="230"/>
   <tile/>
   <tile/>
   <tile/>
   <tile/>
   <tile/>
   <tile/>
   <tile/>
   <tile/>
   <tile/>
   <tile/>
   <tile/>
   <tile/>
   <tile/>
   <tile/>
   <tile/>
   <tile/>
   <tile/>
   <tile/>
   <tile/>
   <tile/>
   <tile/>
   <tile/>
   <tile/>
   <tile/>
   <tile/>
   <tile/>
   <tile/>
   <tile/>
   <tile/>
   <tile/>
   <tile/>
   <tile/>
   <tile/>
   <tile/>
   <tile/>
   <tile/>
   <tile/>
   <tile/>
   <tile/>
   <tile/>
   <tile/>
   <tile/>
   <tile/>
   <tile/>
   <tile/>
   <tile/>
   <tile/>
   <tile/>
   <tile/>
   <tile/>
   <tile/>
   <tile/>
   <tile/>
   <tile/>
   <tile/>
   <tile/>
   <tile/>
   <tile/>
   <tile/>
   <tile/>
   <tile/>
   <tile/>
   <tile/>
   <tile/>
   <tile/>
   <tile/>
   <tile/>
   <tile/>
   <tile/>
   <tile/>
   <tile/>
   <tile/>
   <tile/>
   <tile/>
   <tile/>
   <tile/>
   <tile/>
   <tile/>
   <tile/>
   <tile/>
   <tile/>
   <tile/>
   <tile/>
   <tile/>
   <tile/>
   <tile/>
   <tile/>
   <tile/>
   <tile/>
   <tile/>
   <tile/>
   <tile/>
   <tile/>
   <tile/>
   <tile/>
   <tile/>
   <tile/>
   <tile/>
   <tile/>
   <tile/>
   <tile/>
   <tile/>
   <tile/>
   <tile/>
   <tile/>
   <tile/>
   <tile/>
   <tile/>
   <tile/>
   <tile/>
   <tile/>
   <tile/>
   <tile/>
   <tile/>
   <tile/>
   <tile/>
   <tile/>
   <tile/>
   <tile/>
   <tile/>
   <tile/>
   <tile/>
   <tile/>
   <tile/>
   <tile/>
   <tile/>
   <tile/>
   <tile/>
   <tile/>
   <tile/>
   <tile/>
   <tile/>
   <tile/>
   <tile/>
   <tile/>
   <tile/>
   <tile/>
   <tile/>
   <tile/>
   <tile/>
   <tile/>
   <tile/>
   <tile/>
   <tile/>
   <tile/>
   <tile/>
   <tile/>
   <tile/>
   <tile/>
   <tile/>
   <tile/>
   <tile/>
   <tile/>
   <tile/>
   <tile/>
   <tile/>
   <tile/>
   <tile/>
   <tile/>
   <tile/>
   <tile/>
   <tile/>
   <tile/>
   <tile/>
   <tile/>
   <tile/>
   <tile/>
   <tile/>
   <tile/>
   <tile/>
   <tile/>
   <tile/>
   <tile/>
   <tile/>
   <tile/>
   <tile/>
   <tile/>
   <tile/>
   <tile/>
   <tile/>
   <tile/>
   <tile/>
   <tile/>
   <tile/>
   <tile/>
   <tile/>
   <tile/>
   <tile/>
   <tile/>
   <tile/>
   <tile/>
   <tile/>
   <tile/>
   <tile/>
   <tile/>
   <tile/>
   <tile/>
   <tile/>
   <tile/>
   <tile/>
   <tile/>
   <tile/>
   <tile/>
   <tile/>
   <tile/>
   <tile/>
   <tile/>
   <tile/>
   <tile/>
   <tile/>
   <tile/>
   <tile/>
   <tile/>
   <tile/>
   <tile/>
   <tile/>
   <tile/>
   <tile/>
   <tile/>
   <tile/>
   <tile/>
   <tile/>
   <tile/>
   <tile/>
   <tile/>
   <tile/>
   <tile/>
   <tile/>
   <tile/>
   <tile/>
   <tile/>
   <tile/>
   <tile/>
   <tile/>
   <tile/>
   <tile/>
   <tile/>
   <tile/>
   <tile/>
   <tile/>
   <tile/>
   <tile/>
   <tile/>
   <tile/>
   <tile/>
   <tile/>
   <tile/>
   <tile/>
   <tile/>
   <tile/>
   <tile/>
   <tile/>
   <tile/>
   <tile/>
   <tile/>
   <tile/>
   <tile/>
   <tile/>
   <tile/>
   <tile/>
   <tile/>
   <tile/>
   <tile/>
   <tile/>
   <tile/>
   <tile/>
   <tile/>
   <tile/>
   <tile/>
   <tile/>
   <tile gid="231"/>
   <tile gid="229"/>
   <tile gid="229"/>
   <tile gid="229"/>
   <tile gid="229"/>
   <tile gid="229"/>
   <tile gid="229"/>
   <tile gid="229"/>
   <tile gid="236"/>
   <tile/>
   <tile/>
   <tile/>
   <tile/>
   <tile gid="233"/>
   <tile gid="229"/>
   <tile gid="229"/>
   <tile gid="229"/>
   <tile gid="229"/>
   <tile gid="229"/>
   <tile gid="229"/>
   <tile gid="229"/>
   <tile gid="230"/>
   <tile/>
   <tile gid="231"/>
   <tile gid="229"/>
   <tile gid="229"/>
   <tile gid="229"/>
   <tile gid="229"/>
   <tile gid="229"/>
   <tile gid="229"/>
   <tile gid="229"/>
   <tile gid="229"/>
   <tile gid="229"/>
   <tile gid="229"/>
   <tile gid="229"/>
   <tile gid="229"/>
   <tile gid="229"/>
   <tile gid="229"/>
   <tile gid="229"/>
   <tile gid="229"/>
   <tile gid="229"/>
   <tile gid="229"/>
   <tile gid="229"/>
   <tile gid="229"/>
   <tile gid="230"/>
   <tile/>
   <tile/>
   <tile/>
   <tile/>
   <tile/>
   <tile/>
   <tile/>
   <tile/>
   <tile/>
   <tile/>
   <tile/>
   <tile/>
   <tile/>
   <tile/>
   <tile/>
   <tile/>
   <tile/>
   <tile/>
   <tile/>
   <tile/>
   <tile/>
   <tile/>
   <tile/>
   <tile/>
   <tile/>
   <tile/>
   <tile/>
   <tile/>
   <tile/>
   <tile/>
   <tile/>
   <tile/>
   <tile/>
   <tile/>
   <tile/>
   <tile/>
   <tile/>
   <tile/>
   <tile/>
   <tile/>
   <tile/>
   <tile/>
   <tile/>
   <tile/>
   <tile/>
   <tile/>
   <tile/>
   <tile/>
   <tile/>
   <tile/>
   <tile/>
   <tile/>
   <tile/>
   <tile/>
   <tile/>
   <tile/>
   <tile/>
   <tile/>
   <tile/>
   <tile/>
   <tile/>
   <tile/>
   <tile/>
   <tile/>
   <tile/>
   <tile/>
   <tile/>
   <tile/>
   <tile/>
   <tile/>
   <tile/>
   <tile/>
   <tile/>
   <tile/>
   <tile/>
   <tile/>
   <tile/>
   <tile/>
   <tile/>
   <tile/>
   <tile/>
   <tile/>
   <tile/>
   <tile/>
   <tile/>
   <tile/>
   <tile/>
   <tile/>
   <tile/>
   <tile/>
   <tile/>
   <tile/>
   <tile/>
   <tile/>
   <tile/>
   <tile/>
   <tile/>
   <tile/>
   <tile/>
   <tile/>
   <tile/>
   <tile/>
   <tile/>
   <tile/>
   <tile/>
   <tile/>
   <tile/>
   <tile/>
   <tile/>
   <tile/>
   <tile/>
   <tile/>
   <tile/>
   <tile/>
   <tile/>
   <tile/>
   <tile/>
   <tile/>
   <tile/>
   <tile/>
   <tile/>
   <tile/>
   <tile/>
   <tile/>
   <tile/>
   <tile/>
   <tile/>
   <tile/>
   <tile/>
   <tile/>
   <tile/>
   <tile/>
   <tile/>
   <tile/>
   <tile/>
   <tile/>
   <tile/>
   <tile/>
   <tile/>
   <tile/>
   <tile/>
   <tile/>
   <tile/>
   <tile/>
   <tile/>
   <tile/>
   <tile/>
   <tile/>
   <tile/>
   <tile/>
   <tile/>
   <tile/>
   <tile/>
   <tile/>
   <tile/>
   <tile/>
   <tile/>
   <tile/>
   <tile/>
   <tile/>
   <tile/>
   <tile/>
   <tile/>
   <tile/>
   <tile/>
   <tile/>
   <tile/>
   <tile/>
   <tile/>
   <tile/>
   <tile/>
   <tile/>
   <tile/>
   <tile/>
   <tile/>
   <tile/>
   <tile/>
   <tile/>
   <tile/>
   <tile/>
   <tile/>
   <tile/>
   <tile/>
   <tile/>
   <tile/>
   <tile/>
   <tile/>
   <tile/>
   <tile/>
   <tile/>
   <tile/>
   <tile/>
   <tile/>
   <tile/>
   <tile/>
   <tile/>
   <tile/>
   <tile/>
   <tile/>
   <tile/>
   <tile/>
   <tile/>
   <tile/>
   <tile/>
   <tile/>
   <tile/>
   <tile/>
   <tile/>
   <tile/>
   <tile/>
   <tile/>
   <tile/>
   <tile/>
   <tile/>
   <tile/>
   <tile/>
   <tile/>
   <tile/>
   <tile/>
   <tile/>
   <tile/>
   <tile/>
   <tile/>
   <tile/>
   <tile/>
   <tile/>
   <tile/>
   <tile/>
   <tile/>
   <tile/>
   <tile/>
   <tile/>
   <tile/>
   <tile/>
   <tile/>
   <tile/>
   <tile/>
   <tile/>
   <tile/>
   <tile/>
   <tile/>
   <tile/>
   <tile/>
   <tile/>
   <tile/>
   <tile/>
   <tile/>
   <tile/>
   <tile/>
   <tile/>
   <tile/>
   <tile/>
   <tile/>
   <tile/>
   <tile/>
   <tile/>
   <tile/>
   <tile/>
   <tile/>
   <tile/>
   <tile/>
   <tile/>
   <tile/>
   <tile/>
   <tile/>
   <tile/>
   <tile/>
   <tile/>
   <tile/>
   <tile/>
   <tile/>
   <tile/>
   <tile/>
   <tile/>
   <tile/>
   <tile/>
   <tile/>
   <tile/>
   <tile/>
   <tile/>
   <tile/>
   <tile/>
   <tile/>
   <tile/>
   <tile/>
   <tile/>
   <tile/>
   <tile/>
   <tile/>
   <tile/>
   <tile/>
   <tile/>
   <tile/>
   <tile/>
   <tile/>
   <tile/>
   <tile/>
   <tile/>
   <tile/>
   <tile/>
   <tile/>
   <tile/>
   <tile/>
   <tile/>
   <tile/>
   <tile/>
   <tile/>
   <tile/>
   <tile/>
   <tile/>
   <tile/>
   <tile/>
   <tile/>
   <tile/>
   <tile/>
   <tile/>
   <tile/>
   <tile/>
   <tile/>
   <tile/>
   <tile/>
   <tile/>
   <tile/>
   <tile/>
   <tile/>
   <tile/>
   <tile/>
   <tile/>
   <tile/>
   <tile/>
   <tile/>
   <tile/>
   <tile/>
   <tile/>
   <tile/>
   <tile/>
   <tile/>
   <tile/>
   <tile/>
   <tile/>
   <tile/>
   <tile/>
   <tile/>
   <tile/>
   <tile/>
   <tile/>
   <tile/>
   <tile/>
   <tile/>
   <tile/>
   <tile/>
   <tile/>
   <tile/>
   <tile/>
   <tile/>
   <tile/>
   <tile/>
   <tile/>
   <tile/>
   <tile/>
   <tile/>
   <tile/>
   <tile/>
   <tile/>
   <tile/>
   <tile/>
   <tile/>
   <tile/>
   <tile/>
   <tile/>
   <tile/>
   <tile/>
   <tile/>
   <tile/>
   <tile/>
   <tile/>
   <tile/>
   <tile/>
   <tile/>
   <tile/>
   <tile/>
   <tile/>
   <tile/>
   <tile/>
   <tile/>
   <tile/>
   <tile/>
   <tile/>
   <tile/>
   <tile/>
   <tile/>
   <tile/>
   <tile/>
   <tile/>
   <tile/>
   <tile/>
   <tile/>
   <tile/>
   <tile/>
   <tile/>
   <tile/>
   <tile/>
   <tile/>
   <tile/>
   <tile/>
   <tile/>
   <tile/>
   <tile/>
   <tile/>
   <tile/>
   <tile/>
   <tile/>
   <tile/>
   <tile/>
   <tile/>
   <tile/>
   <tile/>
   <tile/>
   <tile/>
   <tile/>
   <tile/>
   <tile/>
   <tile/>
   <tile/>
   <tile/>
   <tile/>
   <tile/>
   <tile/>
   <tile/>
   <tile/>
   <tile/>
   <tile/>
   <tile/>
   <tile/>
   <tile/>
   <tile/>
   <tile/>
   <tile/>
   <tile/>
   <tile/>
   <tile/>
   <tile/>
   <tile/>
   <tile/>
   <tile/>
   <tile/>
   <tile/>
   <tile/>
   <tile/>
   <tile/>
   <tile/>
   <tile/>
   <tile/>
   <tile/>
   <tile/>
   <tile/>
   <tile/>
   <tile/>
   <tile/>
   <tile/>
   <tile/>
   <tile/>
   <tile/>
   <tile/>
   <tile/>
   <tile/>
   <tile/>
   <tile/>
   <tile/>
   <tile/>
   <tile/>
   <tile/>
   <tile/>
   <tile/>
   <tile/>
   <tile/>
   <tile/>
   <tile/>
   <tile/>
   <tile/>
   <tile/>
   <tile/>
   <tile/>
   <tile/>
   <tile/>
   <tile/>
   <tile/>
   <tile/>
   <tile/>
   <tile/>
   <tile/>
   <tile/>
   <tile/>
   <tile/>
   <tile/>
  </data>
 </layer>
 <layer id="3" name="Collisions" width="45" height="24">
  <data>
   <tile/>
   <tile gid="2"/>
   <tile gid="2"/>
   <tile gid="2"/>
   <tile gid="2"/>
   <tile gid="2"/>
   <tile gid="2"/>
   <tile gid="2"/>
   <tile gid="2"/>
   <tile gid="2"/>
   <tile gid="2"/>
   <tile gid="2"/>
   <tile gid="2"/>
   <tile gid="2"/>
   <tile gid="2"/>
   <tile gid="2"/>
   <tile gid="2"/>
   <tile gid="2"/>
   <tile gid="2"/>
   <tile gid="2"/>
   <tile gid="2"/>
   <tile gid="2"/>
   <tile gid="2"/>
   <tile gid="2"/>
   <tile gid="2"/>
   <tile gid="2"/>
   <tile gid="2"/>
   <tile gid="2"/>
   <tile gid="2"/>
   <tile gid="2"/>
   <tile/>
   <tile/>
   <tile/>
   <tile/>
   <tile/>
   <tile/>
   <tile/>
   <tile/>
   <tile gid="2"/>
   <tile gid="2"/>
   <tile gid="2"/>
   <tile gid="2"/>
   <tile gid="2"/>
   <tile gid="2"/>
   <tile/>
   <tile gid="2"/>
   <tile/>
   <tile/>
   <tile/>
   <tile/>
   <tile/>
   <tile/>
   <tile/>
   <tile/>
   <tile/>
   <tile/>
   <tile/>
   <tile/>
   <tile/>
   <tile/>
   <tile/>
   <tile/>
   <tile/>
   <tile/>
   <tile/>
   <tile/>
   <tile/>
   <tile/>
   <tile/>
   <tile/>
   <tile/>
   <tile/>
   <tile/>
   <tile/>
   <tile/>
   <tile gid="2"/>
   <tile/>
   <tile/>
   <tile/>
   <tile/>
   <tile/>
   <tile/>
   <tile gid="2"/>
   <tile/>
   <tile/>
   <tile/>
   <tile/>
   <tile/>
   <tile/>
   <tile gid="2"/>
   <tile gid="2"/>
   <tile/>
   <tile/>
   <tile/>
   <tile/>
   <tile/>
   <tile/>
   <tile/>
   <tile/>
   <tile/>
   <tile/>
   <tile/>
   <tile/>
   <tile/>
   <tile/>
   <tile/>
   <tile/>
   <tile/>
   <tile/>
   <tile/>
   <tile/>
   <tile/>
   <tile/>
   <tile/>
   <tile/>
   <tile/>
   <tile/>
   <tile/>
   <tile/>
   <tile/>
   <tile/>
   <tile gid="2"/>
   <tile/>
   <tile/>
   <tile/>
   <tile/>
   <tile gid="2"/>
   <tile/>
   <tile/>
   <tile/>
   <tile/>
   <tile/>
   <tile/>
   <tile/>
   <tile gid="2"/>
   <tile gid="2"/>
   <tile/>
   <tile/>
   <tile/>
   <tile/>
   <tile/>
   <tile/>
   <tile/>
   <tile/>
   <tile/>
   <tile/>
   <tile/>
   <tile/>
   <tile/>
   <tile/>
   <tile/>
   <tile/>
   <tile/>
   <tile/>
   <tile/>
   <tile/>
   <tile/>
   <tile/>
   <tile/>
   <tile/>
   <tile/>
   <tile/>
   <tile/>
   <tile/>
   <tile/>
   <tile/>
   <tile/>
   <tile gid="2"/>
   <tile/>
   <tile/>
   <tile gid="2"/>
   <tile/>
   <tile/>
   <tile/>
   <tile/>
   <tile/>
   <tile/>
   <tile/>
   <tile/>
   <tile gid="2"/>
   <tile gid="2"/>
   <tile/>
   <tile/>
   <tile/>
   <tile/>
   <tile/>
   <tile/>
   <tile/>
   <tile/>
   <tile/>
   <tile/>
   <tile/>
   <tile/>
   <tile/>
   <tile/>
   <tile/>
   <tile/>
   <tile/>
   <tile/>
   <tile/>
   <tile gid="2"/>
   <tile gid="2"/>
   <tile gid="2"/>
   <tile gid="2"/>
   <tile gid="2"/>
   <tile/>
   <tile/>
   <tile/>
   <tile/>
   <tile/>
   <tile/>
   <tile/>
   <tile gid="2"/>
   <tile gid="2"/>
   <tile gid="2"/>
   <tile gid="2"/>
   <tile/>
   <tile/>
   <tile/>
   <tile/>
   <tile/>
   <tile/>
   <tile/>
   <tile/>
   <tile gid="2"/>
   <tile gid="2"/>
   <tile/>
   <tile/>
   <tile/>
   <tile/>
   <tile/>
   <tile/>
   <tile/>
   <tile/>
   <tile/>
   <tile/>
   <tile/>
   <tile/>
   <tile/>
   <tile/>
   <tile/>
   <tile/>
   <tile/>
   <tile/>
   <tile/>
   <tile gid="2"/>
   <tile/>
   <tile/>
   <tile/>
   <tile gid="2"/>
   <tile/>
   <tile/>
   <tile/>
   <tile/>
   <tile/>
   <tile/>
   <tile/>
   <tile/>
   <tile/>
   <tile/>
   <tile/>
   <tile/>
   <tile/>
   <tile/>
   <tile/>
   <tile/>
   <tile/>
   <tile/>
   <tile/>
   <tile gid="2"/>
   <tile gid="2"/>
   <tile/>
   <tile/>
   <tile/>
   <tile/>
   <tile gid="2"/>
   <tile gid="2"/>
   <tile gid="2"/>
   <tile gid="2"/>
   <tile gid="2"/>
   <tile gid="2"/>
   <tile gid="2"/>
   <tile gid="2"/>
   <tile gid="2"/>
   <tile gid="2"/>
   <tile gid="2"/>
   <tile gid="2"/>
   <tile gid="2"/>
   <tile gid="2"/>
   <tile gid="2"/>
   <tile gid="2"/>
   <tile/>
   <tile/>
   <tile/>
   <tile gid="2"/>
   <tile gid="2"/>
   <tile gid="2"/>
   <tile gid="2"/>
   <tile gid="2"/>
   <tile gid="2"/>
   <tile gid="2"/>
   <tile gid="2"/>
   <tile gid="2"/>
   <tile gid="2"/>
   <tile gid="2"/>
   <tile gid="2"/>
   <tile gid="2"/>
   <tile gid="2"/>
   <tile gid="2"/>
   <tile gid="2"/>
   <tile gid="2"/>
   <tile gid="2"/>
   <tile gid="2"/>
   <tile gid="2"/>
   <tile/>
   <tile gid="2"/>
   <tile/>
   <tile/>
   <tile/>
   <tile/>
   <tile gid="2"/>
   <tile gid="2"/>
   <tile gid="2"/>
   <tile gid="2"/>
   <tile gid="2"/>
   <tile gid="2"/>
   <tile gid="2"/>
   <tile gid="2"/>
   <tile gid="2"/>
   <tile gid="2"/>
   <tile gid="2"/>
   <tile gid="2"/>
   <tile gid="2"/>
   <tile gid="2"/>
   <tile gid="2"/>
   <tile gid="2"/>
   <tile/>
   <tile/>
   <tile/>
   <tile gid="2"/>
   <tile gid="2"/>
   <tile gid="2"/>
   <tile gid="2"/>
   <tile gid="2"/>
   <tile gid="2"/>
   <tile gid="2"/>
   <tile gid="2"/>
   <tile gid="2"/>
   <tile gid="2"/>
   <tile gid="2"/>
   <tile gid="2"/>
   <tile gid="2"/>
   <tile gid="2"/>
   <tile gid="2"/>
   <tile gid="2"/>
   <tile gid="2"/>
   <tile gid="2"/>
   <tile gid="2"/>
   <tile gid="2"/>
   <tile/>
   <tile gid="2"/>
   <tile/>
   <tile/>
   <tile/>
   <tile/>
   <tile/>
   <tile/>
   <tile/>
   <tile/>
   <tile/>
   <tile/>
   <tile/>
   <tile/>
   <tile/>
   <tile/>
   <tile/>
   <tile/>
   <tile/>
   <tile/>
   <tile/>
   <tile/>
   <tile gid="2"/>
   <tile/>
   <tile gid="2"/>
   <tile/>
   <tile/>
   <tile/>
   <tile/>
   <tile/>
   <tile/>
   <tile/>
   <tile/>
   <tile/>
   <tile/>
   <tile/>
   <tile/>
   <tile/>
   <tile/>
   <tile/>
   <tile/>
   <tile/>
   <tile/>
   <tile/>
   <tile/>
   <tile gid="2"/>
   <tile gid="2"/>
   <tile/>
   <tile/>
   <tile/>
   <tile/>
   <tile/>
   <tile/>
   <tile/>
   <tile/>
   <tile/>
   <tile/>
   <tile/>
   <tile/>
   <tile/>
   <tile/>
   <tile/>
   <tile/>
   <tile/>
   <tile/>
   <tile/>
   <tile/>
   <tile gid="2"/>
   <tile/>
   <tile gid="2"/>
   <tile/>
   <tile/>
   <tile/>
   <tile/>
   <tile/>
   <tile/>
   <tile/>
   <tile/>
   <tile/>
   <tile/>
   <tile/>
   <tile/>
   <tile/>
   <tile/>
   <tile/>
   <tile/>
   <tile/>
   <tile/>
   <tile/>
   <tile/>
   <tile gid="2"/>
   <tile gid="2"/>
   <tile/>
   <tile/>
   <tile/>
   <tile/>
   <tile/>
   <tile/>
   <tile/>
   <tile/>
   <tile/>
   <tile/>
   <tile/>
   <tile/>
   <tile/>
   <tile/>
   <tile/>
   <tile/>
   <tile/>
   <tile/>
   <tile/>
   <tile/>
   <tile gid="2"/>
   <tile/>
   <tile gid="2"/>
   <tile/>
   <tile/>
   <tile/>
   <tile/>
   <tile/>
   <tile/>
   <tile/>
   <tile/>
   <tile/>
   <tile/>
   <tile/>
   <tile/>
   <tile/>
   <tile/>
   <tile/>
   <tile/>
   <tile/>
   <tile/>
   <tile/>
   <tile/>
   <tile gid="2"/>
   <tile gid="2"/>
   <tile/>
   <tile/>
   <tile/>
   <tile/>
   <tile/>
   <tile/>
   <tile/>
   <tile/>
   <tile/>
   <tile/>
   <tile/>
   <tile/>
   <tile/>
   <tile/>
   <tile/>
   <tile/>
   <tile/>
   <tile/>
   <tile/>
   <tile/>
   <tile gid="2"/>
   <tile/>
   <tile gid="2"/>
   <tile/>
   <tile/>
   <tile/>
   <tile/>
   <tile/>
   <tile/>
   <tile/>
   <tile/>
   <tile/>
   <tile/>
   <tile/>
   <tile/>
   <tile/>
   <tile/>
   <tile/>
   <tile/>
   <tile/>
   <tile/>
   <tile/>
   <tile/>
   <tile gid="2"/>
   <tile gid="2"/>
   <tile/>
   <tile/>
   <tile/>
   <tile/>
   <tile/>
   <tile/>
   <tile/>
   <tile/>
   <tile/>
   <tile/>
   <tile/>
   <tile/>
   <tile/>
   <tile/>
   <tile/>
   <tile/>
   <tile/>
   <tile/>
   <tile/>
   <tile/>
   <tile gid="2"/>
   <tile/>
   <tile gid="2"/>
   <tile/>
   <tile/>
   <tile/>
   <tile/>
   <tile/>
   <tile/>
   <tile/>
   <tile/>
   <tile/>
   <tile/>
   <tile/>
   <tile/>
   <tile/>
   <tile/>
   <tile/>
   <tile/>
   <tile/>
   <tile/>
   <tile/>
   <tile/>
   <tile gid="2"/>
   <tile/>
   <tile gid="2"/>
   <tile gid="2"/>
   <tile gid="2"/>
   <tile gid="2"/>
   <tile gid="2"/>
   <tile gid="2"/>
   <tile gid="2"/>
   <tile gid="2"/>
   <tile/>
   <tile/>
   <tile/>
   <tile/>
   <tile gid="2"/>
   <tile gid="2"/>
   <tile gid="2"/>
   <tile gid="2"/>
   <tile gid="2"/>
   <tile gid="2"/>
   <tile gid="2"/>
   <tile gid="2"/>
   <tile/>
   <tile/>
   <tile/>
   <tile gid="2"/>
   <tile gid="2"/>
   <tile gid="2"/>
   <tile gid="2"/>
   <tile gid="2"/>
   <tile gid="2"/>
   <tile gid="2"/>
   <tile gid="2"/>
   <tile gid="2"/>
   <tile gid="2"/>
   <tile gid="2"/>
   <tile gid="2"/>
   <tile gid="2"/>
   <tile gid="2"/>
   <tile gid="2"/>
   <tile gid="2"/>
   <tile gid="2"/>
   <tile gid="2"/>
   <tile gid="2"/>
   <tile gid="2"/>
   <tile/>
   <tile gid="2"/>
   <tile gid="2"/>
   <tile gid="2"/>
   <tile gid="2"/>
   <tile gid="2"/>
   <tile gid="2"/>
   <tile gid="2"/>
   <tile gid="2"/>
   <tile gid="2"/>
   <tile/>
   <tile/>
   <tile/>
   <tile/>
   <tile gid="2"/>
   <tile/>
   <tile gid="2"/>
   <tile gid="2"/>
   <tile gid="2"/>
   <tile gid="2"/>
   <tile gid="2"/>
   <tile gid="2"/>
   <tile/>
   <tile/>
   <tile/>
   <tile gid="2"/>
   <tile gid="2"/>
   <tile gid="2"/>
   <tile gid="2"/>
   <tile gid="2"/>
   <tile gid="2"/>
   <tile gid="2"/>
   <tile gid="2"/>
   <tile gid="2"/>
   <tile gid="2"/>
   <tile gid="2"/>
   <tile gid="2"/>
   <tile gid="2"/>
   <tile gid="2"/>
   <tile gid="2"/>
   <tile gid="2"/>
   <tile gid="2"/>
   <tile gid="2"/>
   <tile gid="2"/>
   <tile gid="2"/>
   <tile gid="2"/>
   <tile/>
   <tile/>
   <tile/>
   <tile/>
   <tile/>
   <tile/>
   <tile/>
   <tile/>
   <tile/>
   <tile/>
   <tile/>
   <tile/>
   <tile/>
   <tile gid="2"/>
   <tile gid="2"/>
   <tile/>
   <tile/>
   <tile/>
   <tile/>
   <tile/>
   <tile/>
   <tile gid="2"/>
   <tile/>
   <tile gid="2"/>
   <tile/>
   <tile/>
   <tile/>
   <tile/>
   <tile/>
   <tile/>
   <tile/>
   <tile/>
   <tile/>
   <tile/>
   <tile/>
   <tile/>
   <tile/>
   <tile/>
   <tile/>
   <tile/>
   <tile/>
   <tile/>
   <tile/>
   <tile/>
   <tile/>
   <tile/>
   <tile/>
   <tile/>
   <tile/>
   <tile/>
   <tile/>
   <tile/>
   <tile/>
   <tile/>
   <tile/>
   <tile/>
   <tile/>
   <tile/>
   <tile gid="2"/>
   <tile gid="2"/>
   <tile/>
   <tile/>
   <tile/>
   <tile/>
   <tile/>
   <tile/>
   <tile gid="2"/>
   <tile/>
   <tile gid="2"/>
   <tile/>
   <tile/>
   <tile/>
   <tile/>
   <tile/>
   <tile/>
   <tile/>
   <tile/>
   <tile/>
   <tile/>
   <tile/>
   <tile/>
   <tile/>
   <tile/>
   <tile/>
   <tile/>
   <tile/>
   <tile/>
   <tile/>
   <tile/>
   <tile/>
   <tile/>
   <tile/>
   <tile/>
   <tile/>
   <tile/>
   <tile/>
   <tile/>
   <tile/>
   <tile/>
   <tile/>
   <tile/>
   <tile/>
   <tile/>
   <tile gid="2"/>
   <tile gid="2"/>
   <tile/>
   <tile/>
   <tile/>
   <tile/>
   <tile/>
   <tile/>
   <tile gid="2"/>
   <tile gid="2"/>
   <tile gid="2"/>
   <tile/>
   <tile/>
   <tile/>
   <tile/>
   <tile/>
   <tile/>
   <tile/>
   <tile/>
   <tile/>
   <tile/>
   <tile/>
   <tile/>
   <tile/>
   <tile/>
   <tile/>
   <tile/>
   <tile/>
   <tile/>
   <tile/>
   <tile/>
   <tile/>
   <tile/>
   <tile/>
   <tile/>
   <tile/>
   <tile/>
   <tile/>
   <tile/>
   <tile/>
   <tile/>
   <tile/>
   <tile/>
   <tile/>
   <tile/>
   <tile/>
   <tile/>
   <tile/>
   <tile/>
   <tile/>
   <tile/>
   <tile/>
   <tile/>
   <tile/>
   <tile/>
   <tile/>
   <tile/>
   <tile/>
   <tile/>
   <tile/>
   <tile/>
   <tile/>
   <tile/>
   <tile/>
   <tile/>
   <tile/>
   <tile/>
   <tile/>
   <tile/>
   <tile/>
   <tile/>
   <tile/>
   <tile/>
   <tile/>
   <tile/>
   <tile/>
   <tile/>
   <tile gid="2"/>
   <tile gid="2"/>
   <tile gid="2"/>
   <tile gid="2"/>
   <tile gid="2"/>
   <tile gid="2"/>
   <tile gid="2"/>
   <tile gid="2"/>
   <tile gid="2"/>
   <tile gid="2"/>
   <tile gid="2"/>
   <tile gid="2"/>
   <tile gid="2"/>
   <tile gid="2"/>
   <tile gid="2"/>
   <tile gid="2"/>
   <tile gid="2"/>
   <tile gid="2"/>
   <tile gid="2"/>
   <tile gid="2"/>
   <tile gid="2"/>
   <tile gid="2"/>
   <tile gid="2"/>
   <tile gid="2"/>
   <tile gid="2"/>
   <tile gid="2"/>
   <tile gid="2"/>
   <tile gid="2"/>
   <tile gid="2"/>
   <tile gid="2"/>
   <tile gid="2"/>
   <tile gid="2"/>
   <tile gid="2"/>
   <tile gid="2"/>
   <tile gid="2"/>
   <tile gid="2"/>
   <tile gid="2"/>
   <tile gid="2"/>
   <tile gid="2"/>
   <tile gid="2"/>
   <tile gid="2"/>
   <tile gid="2"/>
   <tile gid="2"/>
   <tile gid="2"/>
   <tile gid="2"/>
   <tile/>
   <tile/>
   <tile/>
   <tile/>
   <tile/>
   <tile/>
   <tile/>
   <tile/>
   <tile/>
   <tile/>
   <tile/>
   <tile/>
   <tile/>
   <tile/>
   <tile/>
   <tile/>
   <tile/>
   <tile/>
   <tile/>
   <tile/>
   <tile/>
   <tile/>
   <tile/>
   <tile/>
   <tile/>
   <tile/>
   <tile/>
   <tile/>
   <tile/>
   <tile/>
   <tile/>
   <tile/>
   <tile/>
   <tile/>
   <tile/>
   <tile/>
   <tile/>
   <tile/>
   <tile/>
   <tile/>
   <tile/>
   <tile/>
   <tile/>
   <tile/>
   <tile/>
   <tile/>
   <tile/>
   <tile/>
   <tile/>
   <tile/>
   <tile/>
   <tile/>
   <tile/>
   <tile/>
   <tile/>
   <tile/>
   <tile/>
   <tile/>
   <tile/>
   <tile/>
   <tile/>
   <tile/>
   <tile/>
   <tile/>
   <tile/>
   <tile/>
   <tile/>
   <tile/>
   <tile/>
   <tile/>
   <tile/>
   <tile/>
   <tile/>
   <tile/>
   <tile/>
   <tile/>
   <tile/>
   <tile/>
   <tile/>
   <tile/>
   <tile/>
   <tile/>
   <tile/>
   <tile/>
   <tile/>
   <tile/>
   <tile/>
   <tile/>
   <tile/>
   <tile/>
   <tile/>
   <tile/>
   <tile/>
   <tile/>
   <tile/>
   <tile/>
   <tile/>
   <tile/>
   <tile/>
   <tile/>
   <tile/>
   <tile/>
   <tile/>
   <tile/>
   <tile/>
   <tile/>
   <tile/>
   <tile/>
   <tile/>
   <tile/>
   <tile/>
   <tile/>
   <tile/>
   <tile/>
   <tile/>
   <tile/>
   <tile/>
   <tile/>
   <tile/>
   <tile/>
   <tile/>
   <tile/>
   <tile/>
   <tile/>
   <tile/>
   <tile/>
   <tile/>
   <tile/>
   <tile/>
   <tile/>
   <tile/>
   <tile/>
   <tile/>
   <tile/>
   <tile/>
   <tile/>
   <tile/>
   <tile/>
   <tile/>
   <tile/>
   <tile/>
   <tile/>
   <tile/>
   <tile/>
   <tile/>
   <tile/>
   <tile/>
   <tile/>
   <tile/>
   <tile/>
   <tile/>
   <tile/>
   <tile/>
   <tile/>
   <tile/>
   <tile/>
   <tile/>
   <tile/>
   <tile/>
   <tile/>
   <tile/>
   <tile/>
   <tile/>
   <tile/>
   <tile/>
   <tile/>
   <tile/>
   <tile/>
   <tile/>
   <tile/>
   <tile/>
   <tile/>
   <tile/>
   <tile/>
   <tile/>
   <tile/>
   <tile/>
   <tile/>
   <tile/>
   <tile/>
  </data>
 </layer>
 <objectgroup id="4" name="Entities">
  <object id="1" name="Plaqueta" type="Enemy" x="575.758" y="312.121">
   <point/>
  </object>
  <object id="2" name="Eosinofilo" type="Enemy" x="1033.33" y="651.515">
   <point/>
  </object>
 </objectgroup>
 <objectgroup id="5" name="Anim_Tiles"/>
</map>
