<?xml version="1.0" encoding="UTF-8"?>
<map version="1.10" tiledversion="1.12.1" orientation="orthogonal" renderorder="right-down" width="90" height="68" tilewidth="64" tileheight="64" infinite="0" nextlayerid="9" nextobjectid="6">
 <tileset firstgid="1" name="Atlas_3.4" tilewidth="64" tileheight="64" tilecount="256" columns="16">
  <image source="Atlas_3.4.png" width="1024" height="1024"/>
 </tileset>
 <tileset firstgid="257" name="TileMetadata" tilewidth="64" tileheight="64" tilecount="2" columns="2">
  <image source="TileMetadata.png" width="128" height="64"/>
 </tileset>
 <tileset firstgid="259" name="Background" tilewidth="64" tileheight="64" tilecount="2300" columns="50">
  <image source="../Textures/Backgrounds/Medula/Background.png" width="3200" height="2944"/>
 </tileset>
 <tileset firstgid="2559" name="middleground" tilewidth="5760" tileheight="4361" tilecount="1" columns="0">
  <grid orientation="orthogonal" width="1" height="1"/>
  <tile id="0">
   <image source="../Textures/Middleground/Medula/Medula_Espinal_Middleground.png" width="5760" height="4361"/>
  </tile>
 </tileset>
 <layer id="7" name="Background" width="90" height="68" parallaxx="1.2">
  <properties>
   <property name="Draw" type="bool" value="true"/>
  </properties>
  <data>
   <tile gid="259"/>
   <tile gid="260"/>
   <tile gid="261"/>
   <tile gid="262"/>
   <tile gid="263"/>
   <tile gid="264"/>
   <tile gid="265"/>
   <tile gid="266"/>
   <tile gid="267"/>
   <tile gid="268"/>
   <tile gid="269"/>
   <tile gid="270"/>
   <tile gid="271"/>
   <tile gid="272"/>
   <tile gid="273"/>
   <tile gid="274"/>
   <tile gid="275"/>
   <tile gid="276"/>
   <tile gid="277"/>
   <tile gid="278"/>
   <tile gid="279"/>
   <tile gid="280"/>
   <tile gid="281"/>
   <tile gid="282"/>
   <tile gid="283"/>
   <tile gid="284"/>
   <tile gid="285"/>
   <tile gid="286"/>
   <tile gid="287"/>
   <tile gid="288"/>
   <tile gid="289"/>
   <tile gid="290"/>
   <tile gid="291"/>
   <tile gid="292"/>
   <tile gid="293"/>
   <tile gid="294"/>
   <tile gid="295"/>
   <tile gid="296"/>
   <tile gid="297"/>
   <tile gid="298"/>
   <tile gid="299"/>
   <tile gid="300"/>
   <tile gid="301"/>
   <tile gid="302"/>
   <tile gid="303"/>
   <tile gid="304"/>
   <tile gid="305"/>
   <tile gid="306"/>
   <tile gid="307"/>
   <tile gid="308"/>
   <tile gid="259"/>
   <tile gid="260"/>
   <tile gid="261"/>
   <tile gid="262"/>
   <tile gid="263"/>
   <tile gid="264"/>
   <tile gid="265"/>
   <tile gid="266"/>
   <tile gid="267"/>
   <tile gid="268"/>
   <tile gid="269"/>
   <tile gid="270"/>
   <tile gid="271"/>
   <tile gid="272"/>
   <tile gid="273"/>
   <tile gid="274"/>
   <tile gid="275"/>
   <tile gid="276"/>
   <tile gid="277"/>
   <tile gid="278"/>
   <tile gid="279"/>
   <tile gid="280"/>
   <tile gid="281"/>
   <tile gid="282"/>
   <tile gid="283"/>
   <tile gid="284"/>
   <tile gid="285"/>
   <tile gid="286"/>
   <tile gid="287"/>
   <tile gid="288"/>
   <tile gid="289"/>
   <tile gid="290"/>
   <tile gid="291"/>
   <tile gid="292"/>
   <tile gid="293"/>
   <tile gid="294"/>
   <tile gid="295"/>
   <tile gid="296"/>
   <tile gid="297"/>
   <tile gid="298"/>
   <tile gid="309"/>
   <tile gid="310"/>
   <tile gid="311"/>
   <tile gid="312"/>
   <tile gid="313"/>
   <tile gid="314"/>
   <tile gid="315"/>
   <tile gid="316"/>
   <tile gid="317"/>
   <tile gid="318"/>
   <tile gid="319"/>
   <tile gid="320"/>
   <tile gid="321"/>
   <tile gid="322"/>
   <tile gid="323"/>
   <tile gid="324"/>
   <tile gid="325"/>
   <tile gid="326"/>
   <tile gid="327"/>
   <tile gid="328"/>
   <tile gid="329"/>
   <tile gid="330"/>
   <tile gid="331"/>
   <tile gid="332"/>
   <tile gid="333"/>
   <tile gid="334"/>
   <tile gid="335"/>
   <tile gid="336"/>
   <tile gid="337"/>
   <tile gid="338"/>
   <tile gid="339"/>
   <tile gid="340"/>
   <tile gid="341"/>
   <tile gid="342"/>
   <tile gid="343"/>
   <tile gid="344"/>
   <tile gid="345"/>
   <tile gid="346"/>
   <tile gid="347"/>
   <tile gid="348"/>
   <tile gid="349"/>
   <tile gid="350"/>
   <tile gid="351"/>
   <tile gid="352"/>
   <tile gid="353"/>
   <tile gid="354"/>
   <tile gid="355"/>
   <tile gid="356"/>
   <tile gid="357"/>
   <tile gid="358"/>
   <tile gid="309"/>
   <tile gid="310"/>
   <tile gid="311"/>
   <tile gid="312"/>
   <tile gid="313"/>
   <tile gid="314"/>
   <tile gid="315"/>
   <tile gid="316"/>
   <tile gid="317"/>
   <tile gid="318"/>
   <tile gid="319"/>
   <tile gid="320"/>
   <tile gid="321"/>
   <tile gid="322"/>
   <tile gid="323"/>
   <tile gid="324"/>
   <tile gid="325"/>
   <tile gid="326"/>
   <tile gid="327"/>
   <tile gid="328"/>
   <tile gid="329"/>
   <tile gid="330"/>
   <tile gid="331"/>
   <tile gid="332"/>
   <tile gid="333"/>
   <tile gid="334"/>
   <tile gid="335"/>
   <tile gid="336"/>
   <tile gid="337"/>
   <tile gid="338"/>
   <tile gid="339"/>
   <tile gid="340"/>
   <tile gid="341"/>
   <tile gid="342"/>
   <tile gid="343"/>
   <tile gid="344"/>
   <tile gid="345"/>
   <tile gid="346"/>
   <tile gid="347"/>
   <tile gid="348"/>
   <tile gid="359"/>
   <tile gid="360"/>
   <tile gid="361"/>
   <tile gid="362"/>
   <tile gid="363"/>
   <tile gid="364"/>
   <tile gid="365"/>
   <tile gid="366"/>
   <tile gid="367"/>
   <tile gid="368"/>
   <tile gid="369"/>
   <tile gid="370"/>
   <tile gid="371"/>
   <tile gid="372"/>
   <tile gid="373"/>
   <tile gid="374"/>
   <tile gid="375"/>
   <tile gid="376"/>
   <tile gid="377"/>
   <tile gid="378"/>
   <tile gid="379"/>
   <tile gid="380"/>
   <tile gid="381"/>
   <tile gid="382"/>
   <tile gid="383"/>
   <tile gid="384"/>
   <tile gid="385"/>
   <tile gid="386"/>
   <tile gid="387"/>
   <tile gid="388"/>
   <tile gid="389"/>
   <tile gid="390"/>
   <tile gid="391"/>
   <tile gid="392"/>
   <tile gid="393"/>
   <tile gid="394"/>
   <tile gid="395"/>
   <tile gid="396"/>
   <tile gid="397"/>
   <tile gid="398"/>
   <tile gid="399"/>
   <tile gid="400"/>
   <tile gid="401"/>
   <tile gid="402"/>
   <tile gid="403"/>
   <tile gid="404"/>
   <tile gid="405"/>
   <tile gid="406"/>
   <tile gid="407"/>
   <tile gid="408"/>
   <tile gid="359"/>
   <tile gid="360"/>
   <tile gid="361"/>
   <tile gid="362"/>
   <tile gid="363"/>
   <tile gid="364"/>
   <tile gid="365"/>
   <tile gid="366"/>
   <tile gid="367"/>
   <tile gid="368"/>
   <tile gid="369"/>
   <tile gid="370"/>
   <tile gid="371"/>
   <tile gid="372"/>
   <tile gid="373"/>
   <tile gid="374"/>
   <tile gid="375"/>
   <tile gid="376"/>
   <tile gid="377"/>
   <tile gid="378"/>
   <tile gid="379"/>
   <tile gid="380"/>
   <tile gid="381"/>
   <tile gid="382"/>
   <tile gid="383"/>
   <tile gid="384"/>
   <tile gid="385"/>
   <tile gid="386"/>
   <tile gid="387"/>
   <tile gid="388"/>
   <tile gid="389"/>
   <tile gid="390"/>
   <tile gid="391"/>
   <tile gid="392"/>
   <tile gid="393"/>
   <tile gid="394"/>
   <tile gid="395"/>
   <tile gid="396"/>
   <tile gid="397"/>
   <tile gid="398"/>
   <tile gid="409"/>
   <tile gid="410"/>
   <tile gid="411"/>
   <tile gid="412"/>
   <tile gid="413"/>
   <tile gid="414"/>
   <tile gid="415"/>
   <tile gid="416"/>
   <tile gid="417"/>
   <tile gid="418"/>
   <tile gid="419"/>
   <tile gid="420"/>
   <tile gid="421"/>
   <tile gid="422"/>
   <tile gid="423"/>
   <tile gid="424"/>
   <tile gid="425"/>
   <tile gid="426"/>
   <tile gid="427"/>
   <tile gid="428"/>
   <tile gid="429"/>
   <tile gid="430"/>
   <tile gid="431"/>
   <tile gid="432"/>
   <tile gid="433"/>
   <tile gid="434"/>
   <tile gid="435"/>
   <tile gid="436"/>
   <tile gid="437"/>
   <tile gid="438"/>
   <tile gid="439"/>
   <tile gid="440"/>
   <tile gid="441"/>
   <tile gid="442"/>
   <tile gid="443"/>
   <tile gid="444"/>
   <tile gid="445"/>
   <tile gid="446"/>
   <tile gid="447"/>
   <tile gid="448"/>
   <tile gid="449"/>
   <tile gid="450"/>
   <tile gid="451"/>
   <tile gid="452"/>
   <tile gid="453"/>
   <tile gid="454"/>
   <tile gid="455"/>
   <tile gid="456"/>
   <tile gid="457"/>
   <tile gid="458"/>
   <tile gid="409"/>
   <tile gid="410"/>
   <tile gid="411"/>
   <tile gid="412"/>
   <tile gid="413"/>
   <tile gid="414"/>
   <tile gid="415"/>
   <tile gid="416"/>
   <tile gid="417"/>
   <tile gid="418"/>
   <tile gid="419"/>
   <tile gid="420"/>
   <tile gid="421"/>
   <tile gid="422"/>
   <tile gid="423"/>
   <tile gid="424"/>
   <tile gid="425"/>
   <tile gid="426"/>
   <tile gid="427"/>
   <tile gid="428"/>
   <tile gid="429"/>
   <tile gid="430"/>
   <tile gid="431"/>
   <tile gid="432"/>
   <tile gid="433"/>
   <tile gid="434"/>
   <tile gid="435"/>
   <tile gid="436"/>
   <tile gid="437"/>
   <tile gid="438"/>
   <tile gid="439"/>
   <tile gid="440"/>
   <tile gid="441"/>
   <tile gid="442"/>
   <tile gid="443"/>
   <tile gid="444"/>
   <tile gid="445"/>
   <tile gid="446"/>
   <tile gid="447"/>
   <tile gid="448"/>
   <tile gid="459"/>
   <tile gid="460"/>
   <tile gid="461"/>
   <tile gid="462"/>
   <tile gid="463"/>
   <tile gid="464"/>
   <tile gid="465"/>
   <tile gid="466"/>
   <tile gid="467"/>
   <tile gid="468"/>
   <tile gid="469"/>
   <tile gid="470"/>
   <tile gid="471"/>
   <tile gid="472"/>
   <tile gid="473"/>
   <tile gid="474"/>
   <tile gid="475"/>
   <tile gid="476"/>
   <tile gid="477"/>
   <tile gid="478"/>
   <tile gid="479"/>
   <tile gid="480"/>
   <tile gid="481"/>
   <tile gid="482"/>
   <tile gid="483"/>
   <tile gid="484"/>
   <tile gid="485"/>
   <tile gid="486"/>
   <tile gid="487"/>
   <tile gid="488"/>
   <tile gid="489"/>
   <tile gid="490"/>
   <tile gid="491"/>
   <tile gid="492"/>
   <tile gid="493"/>
   <tile gid="494"/>
   <tile gid="495"/>
   <tile gid="496"/>
   <tile gid="497"/>
   <tile gid="498"/>
   <tile gid="499"/>
   <tile gid="500"/>
   <tile gid="501"/>
   <tile gid="502"/>
   <tile gid="503"/>
   <tile gid="504"/>
   <tile gid="505"/>
   <tile gid="506"/>
   <tile gid="507"/>
   <tile gid="508"/>
   <tile gid="459"/>
   <tile gid="460"/>
   <tile gid="461"/>
   <tile gid="462"/>
   <tile gid="463"/>
   <tile gid="464"/>
   <tile gid="465"/>
   <tile gid="466"/>
   <tile gid="467"/>
   <tile gid="468"/>
   <tile gid="469"/>
   <tile gid="470"/>
   <tile gid="471"/>
   <tile gid="472"/>
   <tile gid="473"/>
   <tile gid="474"/>
   <tile gid="475"/>
   <tile gid="476"/>
   <tile gid="477"/>
   <tile gid="478"/>
   <tile gid="479"/>
   <tile gid="480"/>
   <tile gid="481"/>
   <tile gid="482"/>
   <tile gid="483"/>
   <tile gid="484"/>
   <tile gid="485"/>
   <tile gid="486"/>
   <tile gid="487"/>
   <tile gid="488"/>
   <tile gid="489"/>
   <tile gid="490"/>
   <tile gid="491"/>
   <tile gid="492"/>
   <tile gid="493"/>
   <tile gid="494"/>
   <tile gid="495"/>
   <tile gid="496"/>
   <tile gid="497"/>
   <tile gid="498"/>
   <tile gid="509"/>
   <tile gid="510"/>
   <tile gid="511"/>
   <tile gid="512"/>
   <tile gid="513"/>
   <tile gid="514"/>
   <tile gid="515"/>
   <tile gid="516"/>
   <tile gid="517"/>
   <tile gid="518"/>
   <tile gid="519"/>
   <tile gid="520"/>
   <tile gid="521"/>
   <tile gid="522"/>
   <tile gid="523"/>
   <tile gid="524"/>
   <tile gid="525"/>
   <tile gid="526"/>
   <tile gid="527"/>
   <tile gid="528"/>
   <tile gid="529"/>
   <tile gid="530"/>
   <tile gid="531"/>
   <tile gid="532"/>
   <tile gid="533"/>
   <tile gid="534"/>
   <tile gid="535"/>
   <tile gid="536"/>
   <tile gid="537"/>
   <tile gid="538"/>
   <tile gid="539"/>
   <tile gid="540"/>
   <tile gid="541"/>
   <tile gid="542"/>
   <tile gid="543"/>
   <tile gid="544"/>
   <tile gid="545"/>
   <tile gid="546"/>
   <tile gid="547"/>
   <tile gid="548"/>
   <tile gid="549"/>
   <tile gid="550"/>
   <tile gid="551"/>
   <tile gid="552"/>
   <tile gid="553"/>
   <tile gid="554"/>
   <tile gid="555"/>
   <tile gid="556"/>
   <tile gid="557"/>
   <tile gid="558"/>
   <tile gid="509"/>
   <tile gid="510"/>
   <tile gid="511"/>
   <tile gid="512"/>
   <tile gid="513"/>
   <tile gid="514"/>
   <tile gid="515"/>
   <tile gid="516"/>
   <tile gid="517"/>
   <tile gid="518"/>
   <tile gid="519"/>
   <tile gid="520"/>
   <tile gid="521"/>
   <tile gid="522"/>
   <tile gid="523"/>
   <tile gid="524"/>
   <tile gid="525"/>
   <tile gid="526"/>
   <tile gid="527"/>
   <tile gid="528"/>
   <tile gid="529"/>
   <tile gid="530"/>
   <tile gid="531"/>
   <tile gid="532"/>
   <tile gid="533"/>
   <tile gid="534"/>
   <tile gid="535"/>
   <tile gid="536"/>
   <tile gid="537"/>
   <tile gid="538"/>
   <tile gid="539"/>
   <tile gid="540"/>
   <tile gid="541"/>
   <tile gid="542"/>
   <tile gid="543"/>
   <tile gid="544"/>
   <tile gid="545"/>
   <tile gid="546"/>
   <tile gid="547"/>
   <tile gid="548"/>
   <tile gid="559"/>
   <tile gid="560"/>
   <tile gid="561"/>
   <tile gid="562"/>
   <tile gid="563"/>
   <tile gid="564"/>
   <tile gid="565"/>
   <tile gid="566"/>
   <tile gid="567"/>
   <tile gid="568"/>
   <tile gid="569"/>
   <tile gid="570"/>
   <tile gid="571"/>
   <tile gid="572"/>
   <tile gid="573"/>
   <tile gid="574"/>
   <tile gid="575"/>
   <tile gid="576"/>
   <tile gid="577"/>
   <tile gid="578"/>
   <tile gid="579"/>
   <tile gid="580"/>
   <tile gid="581"/>
   <tile gid="582"/>
   <tile gid="583"/>
   <tile gid="584"/>
   <tile gid="585"/>
   <tile gid="586"/>
   <tile gid="587"/>
   <tile gid="588"/>
   <tile gid="589"/>
   <tile gid="590"/>
   <tile gid="591"/>
   <tile gid="592"/>
   <tile gid="593"/>
   <tile gid="594"/>
   <tile gid="595"/>
   <tile gid="596"/>
   <tile gid="597"/>
   <tile gid="598"/>
   <tile gid="599"/>
   <tile gid="600"/>
   <tile gid="601"/>
   <tile gid="602"/>
   <tile gid="603"/>
   <tile gid="604"/>
   <tile gid="605"/>
   <tile gid="606"/>
   <tile gid="607"/>
   <tile gid="608"/>
   <tile gid="559"/>
   <tile gid="560"/>
   <tile gid="561"/>
   <tile gid="562"/>
   <tile gid="563"/>
   <tile gid="564"/>
   <tile gid="565"/>
   <tile gid="566"/>
   <tile gid="567"/>
   <tile gid="568"/>
   <tile gid="569"/>
   <tile gid="570"/>
   <tile gid="571"/>
   <tile gid="572"/>
   <tile gid="573"/>
   <tile gid="574"/>
   <tile gid="575"/>
   <tile gid="576"/>
   <tile gid="577"/>
   <tile gid="578"/>
   <tile gid="579"/>
   <tile gid="580"/>
   <tile gid="581"/>
   <tile gid="582"/>
   <tile gid="583"/>
   <tile gid="584"/>
   <tile gid="585"/>
   <tile gid="586"/>
   <tile gid="587"/>
   <tile gid="588"/>
   <tile gid="589"/>
   <tile gid="590"/>
   <tile gid="591"/>
   <tile gid="592"/>
   <tile gid="593"/>
   <tile gid="594"/>
   <tile gid="595"/>
   <tile gid="596"/>
   <tile gid="597"/>
   <tile gid="598"/>
   <tile gid="609"/>
   <tile gid="610"/>
   <tile gid="611"/>
   <tile gid="612"/>
   <tile gid="613"/>
   <tile gid="614"/>
   <tile gid="615"/>
   <tile gid="616"/>
   <tile gid="617"/>
   <tile gid="618"/>
   <tile gid="619"/>
   <tile gid="620"/>
   <tile gid="621"/>
   <tile gid="622"/>
   <tile gid="623"/>
   <tile gid="624"/>
   <tile gid="625"/>
   <tile gid="626"/>
   <tile gid="627"/>
   <tile gid="628"/>
   <tile gid="629"/>
   <tile gid="630"/>
   <tile gid="631"/>
   <tile gid="632"/>
   <tile gid="633"/>
   <tile gid="634"/>
   <tile gid="635"/>
   <tile gid="636"/>
   <tile gid="637"/>
   <tile gid="638"/>
   <tile gid="639"/>
   <tile gid="640"/>
   <tile gid="641"/>
   <tile gid="642"/>
   <tile gid="643"/>
   <tile gid="644"/>
   <tile gid="645"/>
   <tile gid="646"/>
   <tile gid="647"/>
   <tile gid="648"/>
   <tile gid="649"/>
   <tile gid="650"/>
   <tile gid="651"/>
   <tile gid="652"/>
   <tile gid="653"/>
   <tile gid="654"/>
   <tile gid="655"/>
   <tile gid="656"/>
   <tile gid="657"/>
   <tile gid="658"/>
   <tile gid="609"/>
   <tile gid="610"/>
   <tile gid="611"/>
   <tile gid="612"/>
   <tile gid="613"/>
   <tile gid="614"/>
   <tile gid="615"/>
   <tile gid="616"/>
   <tile gid="617"/>
   <tile gid="618"/>
   <tile gid="619"/>
   <tile gid="620"/>
   <tile gid="621"/>
   <tile gid="622"/>
   <tile gid="623"/>
   <tile gid="624"/>
   <tile gid="625"/>
   <tile gid="626"/>
   <tile gid="627"/>
   <tile gid="628"/>
   <tile gid="629"/>
   <tile gid="630"/>
   <tile gid="631"/>
   <tile gid="632"/>
   <tile gid="633"/>
   <tile gid="634"/>
   <tile gid="635"/>
   <tile gid="636"/>
   <tile gid="637"/>
   <tile gid="638"/>
   <tile gid="639"/>
   <tile gid="640"/>
   <tile gid="641"/>
   <tile gid="642"/>
   <tile gid="643"/>
   <tile gid="644"/>
   <tile gid="645"/>
   <tile gid="646"/>
   <tile gid="647"/>
   <tile gid="648"/>
   <tile gid="659"/>
   <tile gid="660"/>
   <tile gid="661"/>
   <tile gid="662"/>
   <tile gid="663"/>
   <tile gid="664"/>
   <tile gid="665"/>
   <tile gid="666"/>
   <tile gid="667"/>
   <tile gid="668"/>
   <tile gid="669"/>
   <tile gid="670"/>
   <tile gid="671"/>
   <tile gid="672"/>
   <tile gid="673"/>
   <tile gid="674"/>
   <tile gid="675"/>
   <tile gid="676"/>
   <tile gid="677"/>
   <tile gid="678"/>
   <tile gid="679"/>
   <tile gid="680"/>
   <tile gid="681"/>
   <tile gid="682"/>
   <tile gid="683"/>
   <tile gid="684"/>
   <tile gid="685"/>
   <tile gid="686"/>
   <tile gid="687"/>
   <tile gid="688"/>
   <tile gid="689"/>
   <tile gid="690"/>
   <tile gid="691"/>
   <tile gid="692"/>
   <tile gid="693"/>
   <tile gid="694"/>
   <tile gid="695"/>
   <tile gid="696"/>
   <tile gid="697"/>
   <tile gid="698"/>
   <tile gid="699"/>
   <tile gid="700"/>
   <tile gid="701"/>
   <tile gid="702"/>
   <tile gid="703"/>
   <tile gid="704"/>
   <tile gid="705"/>
   <tile gid="706"/>
   <tile gid="707"/>
   <tile gid="708"/>
   <tile gid="659"/>
   <tile gid="660"/>
   <tile gid="661"/>
   <tile gid="662"/>
   <tile gid="663"/>
   <tile gid="664"/>
   <tile gid="665"/>
   <tile gid="666"/>
   <tile gid="667"/>
   <tile gid="668"/>
   <tile gid="669"/>
   <tile gid="670"/>
   <tile gid="671"/>
   <tile gid="672"/>
   <tile gid="673"/>
   <tile gid="674"/>
   <tile gid="675"/>
   <tile gid="676"/>
   <tile gid="677"/>
   <tile gid="678"/>
   <tile gid="679"/>
   <tile gid="680"/>
   <tile gid="681"/>
   <tile gid="682"/>
   <tile gid="683"/>
   <tile gid="684"/>
   <tile gid="685"/>
   <tile gid="686"/>
   <tile gid="687"/>
   <tile gid="688"/>
   <tile gid="689"/>
   <tile gid="690"/>
   <tile gid="691"/>
   <tile gid="692"/>
   <tile gid="693"/>
   <tile gid="694"/>
   <tile gid="695"/>
   <tile gid="696"/>
   <tile gid="697"/>
   <tile gid="698"/>
   <tile gid="709"/>
   <tile gid="710"/>
   <tile gid="711"/>
   <tile gid="712"/>
   <tile gid="713"/>
   <tile gid="714"/>
   <tile gid="715"/>
   <tile gid="716"/>
   <tile gid="717"/>
   <tile gid="718"/>
   <tile gid="719"/>
   <tile gid="720"/>
   <tile gid="721"/>
   <tile gid="722"/>
   <tile gid="723"/>
   <tile gid="724"/>
   <tile gid="725"/>
   <tile gid="726"/>
   <tile gid="727"/>
   <tile gid="728"/>
   <tile gid="729"/>
   <tile gid="730"/>
   <tile gid="731"/>
   <tile gid="732"/>
   <tile gid="733"/>
   <tile gid="734"/>
   <tile gid="735"/>
   <tile gid="736"/>
   <tile gid="737"/>
   <tile gid="738"/>
   <tile gid="739"/>
   <tile gid="740"/>
   <tile gid="741"/>
   <tile gid="742"/>
   <tile gid="743"/>
   <tile gid="744"/>
   <tile gid="745"/>
   <tile gid="746"/>
   <tile gid="747"/>
   <tile gid="748"/>
   <tile gid="749"/>
   <tile gid="750"/>
   <tile gid="751"/>
   <tile gid="752"/>
   <tile gid="753"/>
   <tile gid="754"/>
   <tile gid="755"/>
   <tile gid="756"/>
   <tile gid="757"/>
   <tile gid="758"/>
   <tile gid="709"/>
   <tile gid="710"/>
   <tile gid="711"/>
   <tile gid="712"/>
   <tile gid="713"/>
   <tile gid="714"/>
   <tile gid="715"/>
   <tile gid="716"/>
   <tile gid="717"/>
   <tile gid="718"/>
   <tile gid="719"/>
   <tile gid="720"/>
   <tile gid="721"/>
   <tile gid="722"/>
   <tile gid="723"/>
   <tile gid="724"/>
   <tile gid="725"/>
   <tile gid="726"/>
   <tile gid="727"/>
   <tile gid="728"/>
   <tile gid="729"/>
   <tile gid="730"/>
   <tile gid="731"/>
   <tile gid="732"/>
   <tile gid="733"/>
   <tile gid="734"/>
   <tile gid="735"/>
   <tile gid="736"/>
   <tile gid="737"/>
   <tile gid="738"/>
   <tile gid="739"/>
   <tile gid="740"/>
   <tile gid="741"/>
   <tile gid="742"/>
   <tile gid="743"/>
   <tile gid="744"/>
   <tile gid="745"/>
   <tile gid="746"/>
   <tile gid="747"/>
   <tile gid="748"/>
   <tile gid="759"/>
   <tile gid="760"/>
   <tile gid="761"/>
   <tile gid="762"/>
   <tile gid="763"/>
   <tile gid="764"/>
   <tile gid="765"/>
   <tile gid="766"/>
   <tile gid="767"/>
   <tile gid="768"/>
   <tile gid="769"/>
   <tile gid="770"/>
   <tile gid="771"/>
   <tile gid="772"/>
   <tile gid="773"/>
   <tile gid="774"/>
   <tile gid="775"/>
   <tile gid="776"/>
   <tile gid="777"/>
   <tile gid="778"/>
   <tile gid="779"/>
   <tile gid="780"/>
   <tile gid="781"/>
   <tile gid="782"/>
   <tile gid="783"/>
   <tile gid="784"/>
   <tile gid="785"/>
   <tile gid="786"/>
   <tile gid="787"/>
   <tile gid="788"/>
   <tile gid="789"/>
   <tile gid="790"/>
   <tile gid="791"/>
   <tile gid="792"/>
   <tile gid="793"/>
   <tile gid="794"/>
   <tile gid="795"/>
   <tile gid="796"/>
   <tile gid="797"/>
   <tile gid="798"/>
   <tile gid="799"/>
   <tile gid="800"/>
   <tile gid="801"/>
   <tile gid="802"/>
   <tile gid="803"/>
   <tile gid="804"/>
   <tile gid="805"/>
   <tile gid="806"/>
   <tile gid="807"/>
   <tile gid="808"/>
   <tile gid="759"/>
   <tile gid="760"/>
   <tile gid="761"/>
   <tile gid="762"/>
   <tile gid="763"/>
   <tile gid="764"/>
   <tile gid="765"/>
   <tile gid="766"/>
   <tile gid="767"/>
   <tile gid="768"/>
   <tile gid="769"/>
   <tile gid="770"/>
   <tile gid="771"/>
   <tile gid="772"/>
   <tile gid="773"/>
   <tile gid="774"/>
   <tile gid="775"/>
   <tile gid="776"/>
   <tile gid="777"/>
   <tile gid="778"/>
   <tile gid="779"/>
   <tile gid="780"/>
   <tile gid="781"/>
   <tile gid="782"/>
   <tile gid="783"/>
   <tile gid="784"/>
   <tile gid="785"/>
   <tile gid="786"/>
   <tile gid="787"/>
   <tile gid="788"/>
   <tile gid="789"/>
   <tile gid="790"/>
   <tile gid="791"/>
   <tile gid="792"/>
   <tile gid="793"/>
   <tile gid="794"/>
   <tile gid="795"/>
   <tile gid="796"/>
   <tile gid="797"/>
   <tile gid="798"/>
   <tile gid="809"/>
   <tile gid="810"/>
   <tile gid="811"/>
   <tile gid="812"/>
   <tile gid="813"/>
   <tile gid="814"/>
   <tile gid="815"/>
   <tile gid="816"/>
   <tile gid="817"/>
   <tile gid="818"/>
   <tile gid="819"/>
   <tile gid="820"/>
   <tile gid="821"/>
   <tile gid="822"/>
   <tile gid="823"/>
   <tile gid="824"/>
   <tile gid="825"/>
   <tile gid="826"/>
   <tile gid="827"/>
   <tile gid="828"/>
   <tile gid="829"/>
   <tile gid="830"/>
   <tile gid="831"/>
   <tile gid="832"/>
   <tile gid="833"/>
   <tile gid="834"/>
   <tile gid="835"/>
   <tile gid="836"/>
   <tile gid="837"/>
   <tile gid="838"/>
   <tile gid="839"/>
   <tile gid="840"/>
   <tile gid="841"/>
   <tile gid="842"/>
   <tile gid="843"/>
   <tile gid="844"/>
   <tile gid="845"/>
   <tile gid="846"/>
   <tile gid="847"/>
   <tile gid="848"/>
   <tile gid="849"/>
   <tile gid="850"/>
   <tile gid="851"/>
   <tile gid="852"/>
   <tile gid="853"/>
   <tile gid="854"/>
   <tile gid="855"/>
   <tile gid="856"/>
   <tile gid="857"/>
   <tile gid="858"/>
   <tile gid="809"/>
   <tile gid="810"/>
   <tile gid="811"/>
   <tile gid="812"/>
   <tile gid="813"/>
   <tile gid="814"/>
   <tile gid="815"/>
   <tile gid="816"/>
   <tile gid="817"/>
   <tile gid="818"/>
   <tile gid="819"/>
   <tile gid="820"/>
   <tile gid="821"/>
   <tile gid="822"/>
   <tile gid="823"/>
   <tile gid="824"/>
   <tile gid="825"/>
   <tile gid="826"/>
   <tile gid="827"/>
   <tile gid="828"/>
   <tile gid="829"/>
   <tile gid="830"/>
   <tile gid="831"/>
   <tile gid="832"/>
   <tile gid="833"/>
   <tile gid="834"/>
   <tile gid="835"/>
   <tile gid="836"/>
   <tile gid="837"/>
   <tile gid="838"/>
   <tile gid="839"/>
   <tile gid="840"/>
   <tile gid="841"/>
   <tile gid="842"/>
   <tile gid="843"/>
   <tile gid="844"/>
   <tile gid="845"/>
   <tile gid="846"/>
   <tile gid="847"/>
   <tile gid="848"/>
   <tile gid="859"/>
   <tile gid="860"/>
   <tile gid="861"/>
   <tile gid="862"/>
   <tile gid="863"/>
   <tile gid="864"/>
   <tile gid="865"/>
   <tile gid="866"/>
   <tile gid="867"/>
   <tile gid="868"/>
   <tile gid="869"/>
   <tile gid="870"/>
   <tile gid="871"/>
   <tile gid="872"/>
   <tile gid="873"/>
   <tile gid="874"/>
   <tile gid="875"/>
   <tile gid="876"/>
   <tile gid="877"/>
   <tile gid="878"/>
   <tile gid="879"/>
   <tile gid="880"/>
   <tile gid="881"/>
   <tile gid="882"/>
   <tile gid="883"/>
   <tile gid="884"/>
   <tile gid="885"/>
   <tile gid="886"/>
   <tile gid="887"/>
   <tile gid="888"/>
   <tile gid="889"/>
   <tile gid="890"/>
   <tile gid="891"/>
   <tile gid="892"/>
   <tile gid="893"/>
   <tile gid="894"/>
   <tile gid="895"/>
   <tile gid="896"/>
   <tile gid="897"/>
   <tile gid="898"/>
   <tile gid="899"/>
   <tile gid="900"/>
   <tile gid="901"/>
   <tile gid="902"/>
   <tile gid="903"/>
   <tile gid="904"/>
   <tile gid="905"/>
   <tile gid="906"/>
   <tile gid="907"/>
   <tile gid="908"/>
   <tile gid="859"/>
   <tile gid="860"/>
   <tile gid="861"/>
   <tile gid="862"/>
   <tile gid="863"/>
   <tile gid="864"/>
   <tile gid="865"/>
   <tile gid="866"/>
   <tile gid="867"/>
   <tile gid="868"/>
   <tile gid="869"/>
   <tile gid="870"/>
   <tile gid="871"/>
   <tile gid="872"/>
   <tile gid="873"/>
   <tile gid="874"/>
   <tile gid="875"/>
   <tile gid="876"/>
   <tile gid="877"/>
   <tile gid="878"/>
   <tile gid="879"/>
   <tile gid="880"/>
   <tile gid="881"/>
   <tile gid="882"/>
   <tile gid="883"/>
   <tile gid="884"/>
   <tile gid="885"/>
   <tile gid="886"/>
   <tile gid="887"/>
   <tile gid="888"/>
   <tile gid="889"/>
   <tile gid="890"/>
   <tile gid="891"/>
   <tile gid="892"/>
   <tile gid="893"/>
   <tile gid="894"/>
   <tile gid="895"/>
   <tile gid="896"/>
   <tile gid="897"/>
   <tile gid="898"/>
   <tile gid="909"/>
   <tile gid="910"/>
   <tile gid="911"/>
   <tile gid="912"/>
   <tile gid="913"/>
   <tile gid="914"/>
   <tile gid="915"/>
   <tile gid="916"/>
   <tile gid="917"/>
   <tile gid="918"/>
   <tile gid="919"/>
   <tile gid="920"/>
   <tile gid="921"/>
   <tile gid="922"/>
   <tile gid="923"/>
   <tile gid="924"/>
   <tile gid="925"/>
   <tile gid="926"/>
   <tile gid="927"/>
   <tile gid="928"/>
   <tile gid="929"/>
   <tile gid="930"/>
   <tile gid="931"/>
   <tile gid="932"/>
   <tile gid="933"/>
   <tile gid="934"/>
   <tile gid="935"/>
   <tile gid="936"/>
   <tile gid="937"/>
   <tile gid="938"/>
   <tile gid="939"/>
   <tile gid="940"/>
   <tile gid="941"/>
   <tile gid="942"/>
   <tile gid="943"/>
   <tile gid="944"/>
   <tile gid="945"/>
   <tile gid="946"/>
   <tile gid="947"/>
   <tile gid="948"/>
   <tile gid="949"/>
   <tile gid="950"/>
   <tile gid="951"/>
   <tile gid="952"/>
   <tile gid="953"/>
   <tile gid="954"/>
   <tile gid="955"/>
   <tile gid="956"/>
   <tile gid="957"/>
   <tile gid="958"/>
   <tile gid="909"/>
   <tile gid="910"/>
   <tile gid="911"/>
   <tile gid="912"/>
   <tile gid="913"/>
   <tile gid="914"/>
   <tile gid="915"/>
   <tile gid="916"/>
   <tile gid="917"/>
   <tile gid="918"/>
   <tile gid="919"/>
   <tile gid="920"/>
   <tile gid="921"/>
   <tile gid="922"/>
   <tile gid="923"/>
   <tile gid="924"/>
   <tile gid="925"/>
   <tile gid="926"/>
   <tile gid="927"/>
   <tile gid="928"/>
   <tile gid="929"/>
   <tile gid="930"/>
   <tile gid="931"/>
   <tile gid="932"/>
   <tile gid="933"/>
   <tile gid="934"/>
   <tile gid="935"/>
   <tile gid="936"/>
   <tile gid="937"/>
   <tile gid="938"/>
   <tile gid="939"/>
   <tile gid="940"/>
   <tile gid="941"/>
   <tile gid="942"/>
   <tile gid="943"/>
   <tile gid="944"/>
   <tile gid="945"/>
   <tile gid="946"/>
   <tile gid="947"/>
   <tile gid="948"/>
   <tile gid="959"/>
   <tile gid="960"/>
   <tile gid="961"/>
   <tile gid="962"/>
   <tile gid="963"/>
   <tile gid="964"/>
   <tile gid="965"/>
   <tile gid="966"/>
   <tile gid="967"/>
   <tile gid="968"/>
   <tile gid="969"/>
   <tile gid="970"/>
   <tile gid="971"/>
   <tile gid="972"/>
   <tile gid="973"/>
   <tile gid="974"/>
   <tile gid="975"/>
   <tile gid="976"/>
   <tile gid="977"/>
   <tile gid="978"/>
   <tile gid="979"/>
   <tile gid="980"/>
   <tile gid="981"/>
   <tile gid="982"/>
   <tile gid="983"/>
   <tile gid="984"/>
   <tile gid="985"/>
   <tile gid="986"/>
   <tile gid="987"/>
   <tile gid="988"/>
   <tile gid="989"/>
   <tile gid="990"/>
   <tile gid="991"/>
   <tile gid="992"/>
   <tile gid="993"/>
   <tile gid="994"/>
   <tile gid="995"/>
   <tile gid="996"/>
   <tile gid="997"/>
   <tile gid="998"/>
   <tile gid="999"/>
   <tile gid="1000"/>
   <tile gid="1001"/>
   <tile gid="1002"/>
   <tile gid="1003"/>
   <tile gid="1004"/>
   <tile gid="1005"/>
   <tile gid="1006"/>
   <tile gid="1007"/>
   <tile gid="1008"/>
   <tile gid="959"/>
   <tile gid="960"/>
   <tile gid="961"/>
   <tile gid="962"/>
   <tile gid="963"/>
   <tile gid="964"/>
   <tile gid="965"/>
   <tile gid="966"/>
   <tile gid="967"/>
   <tile gid="968"/>
   <tile gid="969"/>
   <tile gid="970"/>
   <tile gid="971"/>
   <tile gid="972"/>
   <tile gid="973"/>
   <tile gid="974"/>
   <tile gid="975"/>
   <tile gid="976"/>
   <tile gid="977"/>
   <tile gid="978"/>
   <tile gid="979"/>
   <tile gid="980"/>
   <tile gid="981"/>
   <tile gid="982"/>
   <tile gid="983"/>
   <tile gid="984"/>
   <tile gid="985"/>
   <tile gid="986"/>
   <tile gid="987"/>
   <tile gid="988"/>
   <tile gid="989"/>
   <tile gid="990"/>
   <tile gid="991"/>
   <tile gid="992"/>
   <tile gid="993"/>
   <tile gid="994"/>
   <tile gid="995"/>
   <tile gid="996"/>
   <tile gid="997"/>
   <tile gid="998"/>
   <tile gid="1009"/>
   <tile gid="1010"/>
   <tile gid="1011"/>
   <tile gid="1012"/>
   <tile gid="1013"/>
   <tile gid="1014"/>
   <tile gid="1015"/>
   <tile gid="1016"/>
   <tile gid="1017"/>
   <tile gid="1018"/>
   <tile gid="1019"/>
   <tile gid="1020"/>
   <tile gid="1021"/>
   <tile gid="1022"/>
   <tile gid="1023"/>
   <tile gid="1024"/>
   <tile gid="1025"/>
   <tile gid="1026"/>
   <tile gid="1027"/>
   <tile gid="1028"/>
   <tile gid="1029"/>
   <tile gid="1030"/>
   <tile gid="1031"/>
   <tile gid="1032"/>
   <tile gid="1033"/>
   <tile gid="1034"/>
   <tile gid="1035"/>
   <tile gid="1036"/>
   <tile gid="1037"/>
   <tile gid="1038"/>
   <tile gid="1039"/>
   <tile gid="1040"/>
   <tile gid="1041"/>
   <tile gid="1042"/>
   <tile gid="1043"/>
   <tile gid="1044"/>
   <tile gid="1045"/>
   <tile gid="1046"/>
   <tile gid="1047"/>
   <tile gid="1048"/>
   <tile gid="1049"/>
   <tile gid="1050"/>
   <tile gid="1051"/>
   <tile gid="1052"/>
   <tile gid="1053"/>
   <tile gid="1054"/>
   <tile gid="1055"/>
   <tile gid="1056"/>
   <tile gid="1057"/>
   <tile gid="1058"/>
   <tile gid="1009"/>
   <tile gid="1010"/>
   <tile gid="1011"/>
   <tile gid="1012"/>
   <tile gid="1013"/>
   <tile gid="1014"/>
   <tile gid="1015"/>
   <tile gid="1016"/>
   <tile gid="1017"/>
   <tile gid="1018"/>
   <tile gid="1019"/>
   <tile gid="1020"/>
   <tile gid="1021"/>
   <tile gid="1022"/>
   <tile gid="1023"/>
   <tile gid="1024"/>
   <tile gid="1025"/>
   <tile gid="1026"/>
   <tile gid="1027"/>
   <tile gid="1028"/>
   <tile gid="1029"/>
   <tile gid="1030"/>
   <tile gid="1031"/>
   <tile gid="1032"/>
   <tile gid="1033"/>
   <tile gid="1034"/>
   <tile gid="1035"/>
   <tile gid="1036"/>
   <tile gid="1037"/>
   <tile gid="1038"/>
   <tile gid="1039"/>
   <tile gid="1040"/>
   <tile gid="1041"/>
   <tile gid="1042"/>
   <tile gid="1043"/>
   <tile gid="1044"/>
   <tile gid="1045"/>
   <tile gid="1046"/>
   <tile gid="1047"/>
   <tile gid="1048"/>
   <tile gid="1059"/>
   <tile gid="1060"/>
   <tile gid="1061"/>
   <tile gid="1062"/>
   <tile gid="1063"/>
   <tile gid="1064"/>
   <tile gid="1065"/>
   <tile gid="1066"/>
   <tile gid="1067"/>
   <tile gid="1068"/>
   <tile gid="1069"/>
   <tile gid="1070"/>
   <tile gid="1071"/>
   <tile gid="1072"/>
   <tile gid="1073"/>
   <tile gid="1074"/>
   <tile gid="1075"/>
   <tile gid="1076"/>
   <tile gid="1077"/>
   <tile gid="1078"/>
   <tile gid="1079"/>
   <tile gid="1080"/>
   <tile gid="1081"/>
   <tile gid="1082"/>
   <tile gid="1083"/>
   <tile gid="1084"/>
   <tile gid="1085"/>
   <tile gid="1086"/>
   <tile gid="1087"/>
   <tile gid="1088"/>
   <tile gid="1089"/>
   <tile gid="1090"/>
   <tile gid="1091"/>
   <tile gid="1092"/>
   <tile gid="1093"/>
   <tile gid="1094"/>
   <tile gid="1095"/>
   <tile gid="1096"/>
   <tile gid="1097"/>
   <tile gid="1098"/>
   <tile gid="1099"/>
   <tile gid="1100"/>
   <tile gid="1101"/>
   <tile gid="1102"/>
   <tile gid="1103"/>
   <tile gid="1104"/>
   <tile gid="1105"/>
   <tile gid="1106"/>
   <tile gid="1107"/>
   <tile gid="1108"/>
   <tile gid="1059"/>
   <tile gid="1060"/>
   <tile gid="1061"/>
   <tile gid="1062"/>
   <tile gid="1063"/>
   <tile gid="1064"/>
   <tile gid="1065"/>
   <tile gid="1066"/>
   <tile gid="1067"/>
   <tile gid="1068"/>
   <tile gid="1069"/>
   <tile gid="1070"/>
   <tile gid="1071"/>
   <tile gid="1072"/>
   <tile gid="1073"/>
   <tile gid="1074"/>
   <tile gid="1075"/>
   <tile gid="1076"/>
   <tile gid="1077"/>
   <tile gid="1078"/>
   <tile gid="1079"/>
   <tile gid="1080"/>
   <tile gid="1081"/>
   <tile gid="1082"/>
   <tile gid="1083"/>
   <tile gid="1084"/>
   <tile gid="1085"/>
   <tile gid="1086"/>
   <tile gid="1087"/>
   <tile gid="1088"/>
   <tile gid="1089"/>
   <tile gid="1090"/>
   <tile gid="1091"/>
   <tile gid="1092"/>
   <tile gid="1093"/>
   <tile gid="1094"/>
   <tile gid="1095"/>
   <tile gid="1096"/>
   <tile gid="1097"/>
   <tile gid="1098"/>
   <tile gid="1109"/>
   <tile gid="1110"/>
   <tile gid="1111"/>
   <tile gid="1112"/>
   <tile gid="1113"/>
   <tile gid="1114"/>
   <tile gid="1115"/>
   <tile gid="1116"/>
   <tile gid="1117"/>
   <tile gid="1118"/>
   <tile gid="1119"/>
   <tile gid="1120"/>
   <tile gid="1121"/>
   <tile gid="1122"/>
   <tile gid="1123"/>
   <tile gid="1124"/>
   <tile gid="1125"/>
   <tile gid="1126"/>
   <tile gid="1127"/>
   <tile gid="1128"/>
   <tile gid="1129"/>
   <tile gid="1130"/>
   <tile gid="1131"/>
   <tile gid="1132"/>
   <tile gid="1133"/>
   <tile gid="1134"/>
   <tile gid="1135"/>
   <tile gid="1136"/>
   <tile gid="1137"/>
   <tile gid="1138"/>
   <tile gid="1139"/>
   <tile gid="1140"/>
   <tile gid="1141"/>
   <tile gid="1142"/>
   <tile gid="1143"/>
   <tile gid="1144"/>
   <tile gid="1145"/>
   <tile gid="1146"/>
   <tile gid="1147"/>
   <tile gid="1148"/>
   <tile gid="1149"/>
   <tile gid="1150"/>
   <tile gid="1151"/>
   <tile gid="1152"/>
   <tile gid="1153"/>
   <tile gid="1154"/>
   <tile gid="1155"/>
   <tile gid="1156"/>
   <tile gid="1157"/>
   <tile gid="1158"/>
   <tile gid="1109"/>
   <tile gid="1110"/>
   <tile gid="1111"/>
   <tile gid="1112"/>
   <tile gid="1113"/>
   <tile gid="1114"/>
   <tile gid="1115"/>
   <tile gid="1116"/>
   <tile gid="1117"/>
   <tile gid="1118"/>
   <tile gid="1119"/>
   <tile gid="1120"/>
   <tile gid="1121"/>
   <tile gid="1122"/>
   <tile gid="1123"/>
   <tile gid="1124"/>
   <tile gid="1125"/>
   <tile gid="1126"/>
   <tile gid="1127"/>
   <tile gid="1128"/>
   <tile gid="1129"/>
   <tile gid="1130"/>
   <tile gid="1131"/>
   <tile gid="1132"/>
   <tile gid="1133"/>
   <tile gid="1134"/>
   <tile gid="1135"/>
   <tile gid="1136"/>
   <tile gid="1137"/>
   <tile gid="1138"/>
   <tile gid="1139"/>
   <tile gid="1140"/>
   <tile gid="1141"/>
   <tile gid="1142"/>
   <tile gid="1143"/>
   <tile gid="1144"/>
   <tile gid="1145"/>
   <tile gid="1146"/>
   <tile gid="1147"/>
   <tile gid="1148"/>
   <tile gid="1159"/>
   <tile gid="1160"/>
   <tile gid="1161"/>
   <tile gid="1162"/>
   <tile gid="1163"/>
   <tile gid="1164"/>
   <tile gid="1165"/>
   <tile gid="1166"/>
   <tile gid="1167"/>
   <tile gid="1168"/>
   <tile gid="1169"/>
   <tile gid="1170"/>
   <tile gid="1171"/>
   <tile gid="1172"/>
   <tile gid="1173"/>
   <tile gid="1174"/>
   <tile gid="1175"/>
   <tile gid="1176"/>
   <tile gid="1177"/>
   <tile gid="1178"/>
   <tile gid="1179"/>
   <tile gid="1180"/>
   <tile gid="1181"/>
   <tile gid="1182"/>
   <tile gid="1183"/>
   <tile gid="1184"/>
   <tile gid="1185"/>
   <tile gid="1186"/>
   <tile gid="1187"/>
   <tile gid="1188"/>
   <tile gid="1189"/>
   <tile gid="1190"/>
   <tile gid="1191"/>
   <tile gid="1192"/>
   <tile gid="1193"/>
   <tile gid="1194"/>
   <tile gid="1195"/>
   <tile gid="1196"/>
   <tile gid="1197"/>
   <tile gid="1198"/>
   <tile gid="1199"/>
   <tile gid="1200"/>
   <tile gid="1201"/>
   <tile gid="1202"/>
   <tile gid="1203"/>
   <tile gid="1204"/>
   <tile gid="1205"/>
   <tile gid="1206"/>
   <tile gid="1207"/>
   <tile gid="1208"/>
   <tile gid="1159"/>
   <tile gid="1160"/>
   <tile gid="1161"/>
   <tile gid="1162"/>
   <tile gid="1163"/>
   <tile gid="1164"/>
   <tile gid="1165"/>
   <tile gid="1166"/>
   <tile gid="1167"/>
   <tile gid="1168"/>
   <tile gid="1169"/>
   <tile gid="1170"/>
   <tile gid="1171"/>
   <tile gid="1172"/>
   <tile gid="1173"/>
   <tile gid="1174"/>
   <tile gid="1175"/>
   <tile gid="1176"/>
   <tile gid="1177"/>
   <tile gid="1178"/>
   <tile gid="1179"/>
   <tile gid="1180"/>
   <tile gid="1181"/>
   <tile gid="1182"/>
   <tile gid="1183"/>
   <tile gid="1184"/>
   <tile gid="1185"/>
   <tile gid="1186"/>
   <tile gid="1187"/>
   <tile gid="1188"/>
   <tile gid="1189"/>
   <tile gid="1190"/>
   <tile gid="1191"/>
   <tile gid="1192"/>
   <tile gid="1193"/>
   <tile gid="1194"/>
   <tile gid="1195"/>
   <tile gid="1196"/>
   <tile gid="1197"/>
   <tile gid="1198"/>
   <tile gid="1209"/>
   <tile gid="1210"/>
   <tile gid="1211"/>
   <tile gid="1212"/>
   <tile gid="1213"/>
   <tile gid="1214"/>
   <tile gid="1215"/>
   <tile gid="1216"/>
   <tile gid="1217"/>
   <tile gid="1218"/>
   <tile gid="1219"/>
   <tile gid="1220"/>
   <tile gid="1221"/>
   <tile gid="1222"/>
   <tile gid="1223"/>
   <tile gid="1224"/>
   <tile gid="1225"/>
   <tile gid="1226"/>
   <tile gid="1227"/>
   <tile gid="1228"/>
   <tile gid="1229"/>
   <tile gid="1230"/>
   <tile gid="1231"/>
   <tile gid="1232"/>
   <tile gid="1233"/>
   <tile gid="1234"/>
   <tile gid="1235"/>
   <tile gid="1236"/>
   <tile gid="1237"/>
   <tile gid="1238"/>
   <tile gid="1239"/>
   <tile gid="1240"/>
   <tile gid="1241"/>
   <tile gid="1242"/>
   <tile gid="1243"/>
   <tile gid="1244"/>
   <tile gid="1245"/>
   <tile gid="1246"/>
   <tile gid="1247"/>
   <tile gid="1248"/>
   <tile gid="1249"/>
   <tile gid="1250"/>
   <tile gid="1251"/>
   <tile gid="1252"/>
   <tile gid="1253"/>
   <tile gid="1254"/>
   <tile gid="1255"/>
   <tile gid="1256"/>
   <tile gid="1257"/>
   <tile gid="1258"/>
   <tile gid="1209"/>
   <tile gid="1210"/>
   <tile gid="1211"/>
   <tile gid="1212"/>
   <tile gid="1213"/>
   <tile gid="1214"/>
   <tile gid="1215"/>
   <tile gid="1216"/>
   <tile gid="1217"/>
   <tile gid="1218"/>
   <tile gid="1219"/>
   <tile gid="1220"/>
   <tile gid="1221"/>
   <tile gid="1222"/>
   <tile gid="1223"/>
   <tile gid="1224"/>
   <tile gid="1225"/>
   <tile gid="1226"/>
   <tile gid="1227"/>
   <tile gid="1228"/>
   <tile gid="1229"/>
   <tile gid="1230"/>
   <tile gid="1231"/>
   <tile gid="1232"/>
   <tile gid="1233"/>
   <tile gid="1234"/>
   <tile gid="1235"/>
   <tile gid="1236"/>
   <tile gid="1237"/>
   <tile gid="1238"/>
   <tile gid="1239"/>
   <tile gid="1240"/>
   <tile gid="1241"/>
   <tile gid="1242"/>
   <tile gid="1243"/>
   <tile gid="1244"/>
   <tile gid="1245"/>
   <tile gid="1246"/>
   <tile gid="1247"/>
   <tile gid="1248"/>
   <tile gid="1259"/>
   <tile gid="1260"/>
   <tile gid="1261"/>
   <tile gid="1262"/>
   <tile gid="1263"/>
   <tile gid="1264"/>
   <tile gid="1265"/>
   <tile gid="1266"/>
   <tile gid="1267"/>
   <tile gid="1268"/>
   <tile gid="1269"/>
   <tile gid="1270"/>
   <tile gid="1271"/>
   <tile gid="1272"/>
   <tile gid="1273"/>
   <tile gid="1274"/>
   <tile gid="1275"/>
   <tile gid="1276"/>
   <tile gid="1277"/>
   <tile gid="1278"/>
   <tile gid="1279"/>
   <tile gid="1280"/>
   <tile gid="1281"/>
   <tile gid="1282"/>
   <tile gid="1283"/>
   <tile gid="1284"/>
   <tile gid="1285"/>
   <tile gid="1286"/>
   <tile gid="1287"/>
   <tile gid="1288"/>
   <tile gid="1289"/>
   <tile gid="1290"/>
   <tile gid="1291"/>
   <tile gid="1292"/>
   <tile gid="1293"/>
   <tile gid="1294"/>
   <tile gid="1295"/>
   <tile gid="1296"/>
   <tile gid="1297"/>
   <tile gid="1298"/>
   <tile gid="1299"/>
   <tile gid="1300"/>
   <tile gid="1301"/>
   <tile gid="1302"/>
   <tile gid="1303"/>
   <tile gid="1304"/>
   <tile gid="1305"/>
   <tile gid="1306"/>
   <tile gid="1307"/>
   <tile gid="1308"/>
   <tile gid="1259"/>
   <tile gid="1260"/>
   <tile gid="1261"/>
   <tile gid="1262"/>
   <tile gid="1263"/>
   <tile gid="1264"/>
   <tile gid="1265"/>
   <tile gid="1266"/>
   <tile gid="1267"/>
   <tile gid="1268"/>
   <tile gid="1269"/>
   <tile gid="1270"/>
   <tile gid="1271"/>
   <tile gid="1272"/>
   <tile gid="1273"/>
   <tile gid="1274"/>
   <tile gid="1275"/>
   <tile gid="1276"/>
   <tile gid="1277"/>
   <tile gid="1278"/>
   <tile gid="1279"/>
   <tile gid="1280"/>
   <tile gid="1281"/>
   <tile gid="1282"/>
   <tile gid="1283"/>
   <tile gid="1284"/>
   <tile gid="1285"/>
   <tile gid="1286"/>
   <tile gid="1287"/>
   <tile gid="1288"/>
   <tile gid="1289"/>
   <tile gid="1290"/>
   <tile gid="1291"/>
   <tile gid="1292"/>
   <tile gid="1293"/>
   <tile gid="1294"/>
   <tile gid="1295"/>
   <tile gid="1296"/>
   <tile gid="1297"/>
   <tile gid="1298"/>
   <tile gid="1309"/>
   <tile gid="1310"/>
   <tile gid="1311"/>
   <tile gid="1312"/>
   <tile gid="1313"/>
   <tile gid="1314"/>
   <tile gid="1315"/>
   <tile gid="1316"/>
   <tile gid="1317"/>
   <tile gid="1318"/>
   <tile gid="1319"/>
   <tile gid="1320"/>
   <tile gid="1321"/>
   <tile gid="1322"/>
   <tile gid="1323"/>
   <tile gid="1324"/>
   <tile gid="1325"/>
   <tile gid="1326"/>
   <tile gid="1327"/>
   <tile gid="1328"/>
   <tile gid="1329"/>
   <tile gid="1330"/>
   <tile gid="1331"/>
   <tile gid="1332"/>
   <tile gid="1333"/>
   <tile gid="1334"/>
   <tile gid="1335"/>
   <tile gid="1336"/>
   <tile gid="1337"/>
   <tile gid="1338"/>
   <tile gid="1339"/>
   <tile gid="1340"/>
   <tile gid="1341"/>
   <tile gid="1342"/>
   <tile gid="1343"/>
   <tile gid="1344"/>
   <tile gid="1345"/>
   <tile gid="1346"/>
   <tile gid="1347"/>
   <tile gid="1348"/>
   <tile gid="1349"/>
   <tile gid="1350"/>
   <tile gid="1351"/>
   <tile gid="1352"/>
   <tile gid="1353"/>
   <tile gid="1354"/>
   <tile gid="1355"/>
   <tile gid="1356"/>
   <tile gid="1357"/>
   <tile gid="1358"/>
   <tile gid="1309"/>
   <tile gid="1310"/>
   <tile gid="1311"/>
   <tile gid="1312"/>
   <tile gid="1313"/>
   <tile gid="1314"/>
   <tile gid="1315"/>
   <tile gid="1316"/>
   <tile gid="1317"/>
   <tile gid="1318"/>
   <tile gid="1319"/>
   <tile gid="1320"/>
   <tile gid="1321"/>
   <tile gid="1322"/>
   <tile gid="1323"/>
   <tile gid="1324"/>
   <tile gid="1325"/>
   <tile gid="1326"/>
   <tile gid="1327"/>
   <tile gid="1328"/>
   <tile gid="1329"/>
   <tile gid="1330"/>
   <tile gid="1331"/>
   <tile gid="1332"/>
   <tile gid="1333"/>
   <tile gid="1334"/>
   <tile gid="1335"/>
   <tile gid="1336"/>
   <tile gid="1337"/>
   <tile gid="1338"/>
   <tile gid="1339"/>
   <tile gid="1340"/>
   <tile gid="1341"/>
   <tile gid="1342"/>
   <tile gid="1343"/>
   <tile gid="1344"/>
   <tile gid="1345"/>
   <tile gid="1346"/>
   <tile gid="1347"/>
   <tile gid="1348"/>
   <tile gid="1359"/>
   <tile gid="1360"/>
   <tile gid="1361"/>
   <tile gid="1362"/>
   <tile gid="1363"/>
   <tile gid="1364"/>
   <tile gid="1365"/>
   <tile gid="1366"/>
   <tile gid="1367"/>
   <tile gid="1368"/>
   <tile gid="1369"/>
   <tile gid="1370"/>
   <tile gid="1371"/>
   <tile gid="1372"/>
   <tile gid="1373"/>
   <tile gid="1374"/>
   <tile gid="1375"/>
   <tile gid="1376"/>
   <tile gid="1377"/>
   <tile gid="1378"/>
   <tile gid="1379"/>
   <tile gid="1380"/>
   <tile gid="1381"/>
   <tile gid="1382"/>
   <tile gid="1383"/>
   <tile gid="1384"/>
   <tile gid="1385"/>
   <tile gid="1386"/>
   <tile gid="1387"/>
   <tile gid="1388"/>
   <tile gid="1389"/>
   <tile gid="1390"/>
   <tile gid="1391"/>
   <tile gid="1392"/>
   <tile gid="1393"/>
   <tile gid="1394"/>
   <tile gid="1395"/>
   <tile gid="1396"/>
   <tile gid="1397"/>
   <tile gid="1398"/>
   <tile gid="1399"/>
   <tile gid="1400"/>
   <tile gid="1401"/>
   <tile gid="1402"/>
   <tile gid="1403"/>
   <tile gid="1404"/>
   <tile gid="1405"/>
   <tile gid="1406"/>
   <tile gid="1407"/>
   <tile gid="1408"/>
   <tile gid="1359"/>
   <tile gid="1360"/>
   <tile gid="1361"/>
   <tile gid="1362"/>
   <tile gid="1363"/>
   <tile gid="1364"/>
   <tile gid="1365"/>
   <tile gid="1366"/>
   <tile gid="1367"/>
   <tile gid="1368"/>
   <tile gid="1369"/>
   <tile gid="1370"/>
   <tile gid="1371"/>
   <tile gid="1372"/>
   <tile gid="1373"/>
   <tile gid="1374"/>
   <tile gid="1375"/>
   <tile gid="1376"/>
   <tile gid="1377"/>
   <tile gid="1378"/>
   <tile gid="1379"/>
   <tile gid="1380"/>
   <tile gid="1381"/>
   <tile gid="1382"/>
   <tile gid="1383"/>
   <tile gid="1384"/>
   <tile gid="1385"/>
   <tile gid="1386"/>
   <tile gid="1387"/>
   <tile gid="1388"/>
   <tile gid="1389"/>
   <tile gid="1390"/>
   <tile gid="1391"/>
   <tile gid="1392"/>
   <tile gid="1393"/>
   <tile gid="1394"/>
   <tile gid="1395"/>
   <tile gid="1396"/>
   <tile gid="1397"/>
   <tile gid="1398"/>
   <tile gid="1409"/>
   <tile gid="1410"/>
   <tile gid="1411"/>
   <tile gid="1412"/>
   <tile gid="1413"/>
   <tile gid="1414"/>
   <tile gid="1415"/>
   <tile gid="1416"/>
   <tile gid="1417"/>
   <tile gid="1418"/>
   <tile gid="1419"/>
   <tile gid="1420"/>
   <tile gid="1421"/>
   <tile gid="1422"/>
   <tile gid="1423"/>
   <tile gid="1424"/>
   <tile gid="1425"/>
   <tile gid="1426"/>
   <tile gid="1427"/>
   <tile gid="1428"/>
   <tile gid="1429"/>
   <tile gid="1430"/>
   <tile gid="1431"/>
   <tile gid="1432"/>
   <tile gid="1433"/>
   <tile gid="1434"/>
   <tile gid="1435"/>
   <tile gid="1436"/>
   <tile gid="1437"/>
   <tile gid="1438"/>
   <tile gid="1439"/>
   <tile gid="1440"/>
   <tile gid="1441"/>
   <tile gid="1442"/>
   <tile gid="1443"/>
   <tile gid="1444"/>
   <tile gid="1445"/>
   <tile gid="1446"/>
   <tile gid="1447"/>
   <tile gid="1448"/>
   <tile gid="1449"/>
   <tile gid="1450"/>
   <tile gid="1451"/>
   <tile gid="1452"/>
   <tile gid="1453"/>
   <tile gid="1454"/>
   <tile gid="1455"/>
   <tile gid="1456"/>
   <tile gid="1457"/>
   <tile gid="1458"/>
   <tile gid="1409"/>
   <tile gid="1410"/>
   <tile gid="1411"/>
   <tile gid="1412"/>
   <tile gid="1413"/>
   <tile gid="1414"/>
   <tile gid="1415"/>
   <tile gid="1416"/>
   <tile gid="1417"/>
   <tile gid="1418"/>
   <tile gid="1419"/>
   <tile gid="1420"/>
   <tile gid="1421"/>
   <tile gid="1422"/>
   <tile gid="1423"/>
   <tile gid="1424"/>
   <tile gid="1425"/>
   <tile gid="1426"/>
   <tile gid="1427"/>
   <tile gid="1428"/>
   <tile gid="1429"/>
   <tile gid="1430"/>
   <tile gid="1431"/>
   <tile gid="1432"/>
   <tile gid="1433"/>
   <tile gid="1434"/>
   <tile gid="1435"/>
   <tile gid="1436"/>
   <tile gid="1437"/>
   <tile gid="1438"/>
   <tile gid="1439"/>
   <tile gid="1440"/>
   <tile gid="1441"/>
   <tile gid="1442"/>
   <tile gid="1443"/>
   <tile gid="1444"/>
   <tile gid="1445"/>
   <tile gid="1446"/>
   <tile gid="1447"/>
   <tile gid="1448"/>
   <tile gid="1459"/>
   <tile gid="1460"/>
   <tile gid="1461"/>
   <tile gid="1462"/>
   <tile gid="1463"/>
   <tile gid="1464"/>
   <tile gid="1465"/>
   <tile gid="1466"/>
   <tile gid="1467"/>
   <tile gid="1468"/>
   <tile gid="1469"/>
   <tile gid="1470"/>
   <tile gid="1471"/>
   <tile gid="1472"/>
   <tile gid="1473"/>
   <tile gid="1474"/>
   <tile gid="1475"/>
   <tile gid="1476"/>
   <tile gid="1477"/>
   <tile gid="1478"/>
   <tile gid="1479"/>
   <tile gid="1480"/>
   <tile gid="1481"/>
   <tile gid="1482"/>
   <tile gid="1483"/>
   <tile gid="1484"/>
   <tile gid="1485"/>
   <tile gid="1486"/>
   <tile gid="1487"/>
   <tile gid="1488"/>
   <tile gid="1489"/>
   <tile gid="1490"/>
   <tile gid="1491"/>
   <tile gid="1492"/>
   <tile gid="1493"/>
   <tile gid="1494"/>
   <tile gid="1495"/>
   <tile gid="1496"/>
   <tile gid="1497"/>
   <tile gid="1498"/>
   <tile gid="1499"/>
   <tile gid="1500"/>
   <tile gid="1501"/>
   <tile gid="1502"/>
   <tile gid="1503"/>
   <tile gid="1504"/>
   <tile gid="1505"/>
   <tile gid="1506"/>
   <tile gid="1507"/>
   <tile gid="1508"/>
   <tile gid="1459"/>
   <tile gid="1460"/>
   <tile gid="1461"/>
   <tile gid="1462"/>
   <tile gid="1463"/>
   <tile gid="1464"/>
   <tile gid="1465"/>
   <tile gid="1466"/>
   <tile gid="1467"/>
   <tile gid="1468"/>
   <tile gid="1469"/>
   <tile gid="1470"/>
   <tile gid="1471"/>
   <tile gid="1472"/>
   <tile gid="1473"/>
   <tile gid="1474"/>
   <tile gid="1475"/>
   <tile gid="1476"/>
   <tile gid="1477"/>
   <tile gid="1478"/>
   <tile gid="1479"/>
   <tile gid="1480"/>
   <tile gid="1481"/>
   <tile gid="1482"/>
   <tile gid="1483"/>
   <tile gid="1484"/>
   <tile gid="1485"/>
   <tile gid="1486"/>
   <tile gid="1487"/>
   <tile gid="1488"/>
   <tile gid="1489"/>
   <tile gid="1490"/>
   <tile gid="1491"/>
   <tile gid="1492"/>
   <tile gid="1493"/>
   <tile gid="1494"/>
   <tile gid="1495"/>
   <tile gid="1496"/>
   <tile gid="1497"/>
   <tile gid="1498"/>
   <tile gid="1509"/>
   <tile gid="1510"/>
   <tile gid="1511"/>
   <tile gid="1512"/>
   <tile gid="1513"/>
   <tile gid="1514"/>
   <tile gid="1515"/>
   <tile gid="1516"/>
   <tile gid="1517"/>
   <tile gid="1518"/>
   <tile gid="1519"/>
   <tile gid="1520"/>
   <tile gid="1521"/>
   <tile gid="1522"/>
   <tile gid="1523"/>
   <tile gid="1524"/>
   <tile gid="1525"/>
   <tile gid="1526"/>
   <tile gid="1527"/>
   <tile gid="1528"/>
   <tile gid="1529"/>
   <tile gid="1530"/>
   <tile gid="1531"/>
   <tile gid="1532"/>
   <tile gid="1533"/>
   <tile gid="1534"/>
   <tile gid="1535"/>
   <tile gid="1536"/>
   <tile gid="1537"/>
   <tile gid="1538"/>
   <tile gid="1539"/>
   <tile gid="1540"/>
   <tile gid="1541"/>
   <tile gid="1542"/>
   <tile gid="1543"/>
   <tile gid="1544"/>
   <tile gid="1545"/>
   <tile gid="1546"/>
   <tile gid="1547"/>
   <tile gid="1548"/>
   <tile gid="1549"/>
   <tile gid="1550"/>
   <tile gid="1551"/>
   <tile gid="1552"/>
   <tile gid="1553"/>
   <tile gid="1554"/>
   <tile gid="1555"/>
   <tile gid="1556"/>
   <tile gid="1557"/>
   <tile gid="1558"/>
   <tile gid="1509"/>
   <tile gid="1510"/>
   <tile gid="1511"/>
   <tile gid="1512"/>
   <tile gid="1513"/>
   <tile gid="1514"/>
   <tile gid="1515"/>
   <tile gid="1516"/>
   <tile gid="1517"/>
   <tile gid="1518"/>
   <tile gid="1519"/>
   <tile gid="1520"/>
   <tile gid="1521"/>
   <tile gid="1522"/>
   <tile gid="1523"/>
   <tile gid="1524"/>
   <tile gid="1525"/>
   <tile gid="1526"/>
   <tile gid="1527"/>
   <tile gid="1528"/>
   <tile gid="1529"/>
   <tile gid="1530"/>
   <tile gid="1531"/>
   <tile gid="1532"/>
   <tile gid="1533"/>
   <tile gid="1534"/>
   <tile gid="1535"/>
   <tile gid="1536"/>
   <tile gid="1537"/>
   <tile gid="1538"/>
   <tile gid="1539"/>
   <tile gid="1540"/>
   <tile gid="1541"/>
   <tile gid="1542"/>
   <tile gid="1543"/>
   <tile gid="1544"/>
   <tile gid="1545"/>
   <tile gid="1546"/>
   <tile gid="1547"/>
   <tile gid="1548"/>
   <tile gid="1559"/>
   <tile gid="1560"/>
   <tile gid="1561"/>
   <tile gid="1562"/>
   <tile gid="1563"/>
   <tile gid="1564"/>
   <tile gid="1565"/>
   <tile gid="1566"/>
   <tile gid="1567"/>
   <tile gid="1568"/>
   <tile gid="1569"/>
   <tile gid="1570"/>
   <tile gid="1571"/>
   <tile gid="1572"/>
   <tile gid="1573"/>
   <tile gid="1574"/>
   <tile gid="1575"/>
   <tile gid="1576"/>
   <tile gid="1577"/>
   <tile gid="1578"/>
   <tile gid="1579"/>
   <tile gid="1580"/>
   <tile gid="1581"/>
   <tile gid="1582"/>
   <tile gid="1583"/>
   <tile gid="1584"/>
   <tile gid="1585"/>
   <tile gid="1586"/>
   <tile gid="1587"/>
   <tile gid="1588"/>
   <tile gid="1589"/>
   <tile gid="1590"/>
   <tile gid="1591"/>
   <tile gid="1592"/>
   <tile gid="1593"/>
   <tile gid="1594"/>
   <tile gid="1595"/>
   <tile gid="1596"/>
   <tile gid="1597"/>
   <tile gid="1598"/>
   <tile gid="1599"/>
   <tile gid="1600"/>
   <tile gid="1601"/>
   <tile gid="1602"/>
   <tile gid="1603"/>
   <tile gid="1604"/>
   <tile gid="1605"/>
   <tile gid="1606"/>
   <tile gid="1607"/>
   <tile gid="1608"/>
   <tile gid="1559"/>
   <tile gid="1560"/>
   <tile gid="1561"/>
   <tile gid="1562"/>
   <tile gid="1563"/>
   <tile gid="1564"/>
   <tile gid="1565"/>
   <tile gid="1566"/>
   <tile gid="1567"/>
   <tile gid="1568"/>
   <tile gid="1569"/>
   <tile gid="1570"/>
   <tile gid="1571"/>
   <tile gid="1572"/>
   <tile gid="1573"/>
   <tile gid="1574"/>
   <tile gid="1575"/>
   <tile gid="1576"/>
   <tile gid="1577"/>
   <tile gid="1578"/>
   <tile gid="1579"/>
   <tile gid="1580"/>
   <tile gid="1581"/>
   <tile gid="1582"/>
   <tile gid="1583"/>
   <tile gid="1584"/>
   <tile gid="1585"/>
   <tile gid="1586"/>
   <tile gid="1587"/>
   <tile gid="1588"/>
   <tile gid="1589"/>
   <tile gid="1590"/>
   <tile gid="1591"/>
   <tile gid="1592"/>
   <tile gid="1593"/>
   <tile gid="1594"/>
   <tile gid="1595"/>
   <tile gid="1596"/>
   <tile gid="1597"/>
   <tile gid="1598"/>
   <tile gid="1609"/>
   <tile gid="1610"/>
   <tile gid="1611"/>
   <tile gid="1612"/>
   <tile gid="1613"/>
   <tile gid="1614"/>
   <tile gid="1615"/>
   <tile gid="1616"/>
   <tile gid="1617"/>
   <tile gid="1618"/>
   <tile gid="1619"/>
   <tile gid="1620"/>
   <tile gid="1621"/>
   <tile gid="1622"/>
   <tile gid="1623"/>
   <tile gid="1624"/>
   <tile gid="1625"/>
   <tile gid="1626"/>
   <tile gid="1627"/>
   <tile gid="1628"/>
   <tile gid="1629"/>
   <tile gid="1630"/>
   <tile gid="1631"/>
   <tile gid="1632"/>
   <tile gid="1633"/>
   <tile gid="1634"/>
   <tile gid="1635"/>
   <tile gid="1636"/>
   <tile gid="1637"/>
   <tile gid="1638"/>
   <tile gid="1639"/>
   <tile gid="1640"/>
   <tile gid="1641"/>
   <tile gid="1642"/>
   <tile gid="1643"/>
   <tile gid="1644"/>
   <tile gid="1645"/>
   <tile gid="1646"/>
   <tile gid="1647"/>
   <tile gid="1648"/>
   <tile gid="1649"/>
   <tile gid="1650"/>
   <tile gid="1651"/>
   <tile gid="1652"/>
   <tile gid="1653"/>
   <tile gid="1654"/>
   <tile gid="1655"/>
   <tile gid="1656"/>
   <tile gid="1657"/>
   <tile gid="1658"/>
   <tile gid="1609"/>
   <tile gid="1610"/>
   <tile gid="1611"/>
   <tile gid="1612"/>
   <tile gid="1613"/>
   <tile gid="1614"/>
   <tile gid="1615"/>
   <tile gid="1616"/>
   <tile gid="1617"/>
   <tile gid="1618"/>
   <tile gid="1619"/>
   <tile gid="1620"/>
   <tile gid="1621"/>
   <tile gid="1622"/>
   <tile gid="1623"/>
   <tile gid="1624"/>
   <tile gid="1625"/>
   <tile gid="1626"/>
   <tile gid="1627"/>
   <tile gid="1628"/>
   <tile gid="1629"/>
   <tile gid="1630"/>
   <tile gid="1631"/>
   <tile gid="1632"/>
   <tile gid="1633"/>
   <tile gid="1634"/>
   <tile gid="1635"/>
   <tile gid="1636"/>
   <tile gid="1637"/>
   <tile gid="1638"/>
   <tile gid="1639"/>
   <tile gid="1640"/>
   <tile gid="1641"/>
   <tile gid="1642"/>
   <tile gid="1643"/>
   <tile gid="1644"/>
   <tile gid="1645"/>
   <tile gid="1646"/>
   <tile gid="1647"/>
   <tile gid="1648"/>
   <tile gid="1659"/>
   <tile gid="1660"/>
   <tile gid="1661"/>
   <tile gid="1662"/>
   <tile gid="1663"/>
   <tile gid="1664"/>
   <tile gid="1665"/>
   <tile gid="1666"/>
   <tile gid="1667"/>
   <tile gid="1668"/>
   <tile gid="1669"/>
   <tile gid="1670"/>
   <tile gid="1671"/>
   <tile gid="1672"/>
   <tile gid="1673"/>
   <tile gid="1674"/>
   <tile gid="1675"/>
   <tile gid="1676"/>
   <tile gid="1677"/>
   <tile gid="1678"/>
   <tile gid="1679"/>
   <tile gid="1680"/>
   <tile gid="1681"/>
   <tile gid="1682"/>
   <tile gid="1683"/>
   <tile gid="1684"/>
   <tile gid="1685"/>
   <tile gid="1686"/>
   <tile gid="1687"/>
   <tile gid="1688"/>
   <tile gid="1689"/>
   <tile gid="1690"/>
   <tile gid="1691"/>
   <tile gid="1692"/>
   <tile gid="1693"/>
   <tile gid="1694"/>
   <tile gid="1695"/>
   <tile gid="1696"/>
   <tile gid="1697"/>
   <tile gid="1698"/>
   <tile gid="1699"/>
   <tile gid="1700"/>
   <tile gid="1701"/>
   <tile gid="1702"/>
   <tile gid="1703"/>
   <tile gid="1704"/>
   <tile gid="1705"/>
   <tile gid="1706"/>
   <tile gid="1707"/>
   <tile gid="1708"/>
   <tile gid="1659"/>
   <tile gid="1660"/>
   <tile gid="1661"/>
   <tile gid="1662"/>
   <tile gid="1663"/>
   <tile gid="1664"/>
   <tile gid="1665"/>
   <tile gid="1666"/>
   <tile gid="1667"/>
   <tile gid="1668"/>
   <tile gid="1669"/>
   <tile gid="1670"/>
   <tile gid="1671"/>
   <tile gid="1672"/>
   <tile gid="1673"/>
   <tile gid="1674"/>
   <tile gid="1675"/>
   <tile gid="1676"/>
   <tile gid="1677"/>
   <tile gid="1678"/>
   <tile gid="1679"/>
   <tile gid="1680"/>
   <tile gid="1681"/>
   <tile gid="1682"/>
   <tile gid="1683"/>
   <tile gid="1684"/>
   <tile gid="1685"/>
   <tile gid="1686"/>
   <tile gid="1687"/>
   <tile gid="1688"/>
   <tile gid="1689"/>
   <tile gid="1690"/>
   <tile gid="1691"/>
   <tile gid="1692"/>
   <tile gid="1693"/>
   <tile gid="1694"/>
   <tile gid="1695"/>
   <tile gid="1696"/>
   <tile gid="1697"/>
   <tile gid="1698"/>
   <tile gid="1709"/>
   <tile gid="1710"/>
   <tile gid="1711"/>
   <tile gid="1712"/>
   <tile gid="1713"/>
   <tile gid="1714"/>
   <tile gid="1715"/>
   <tile gid="1716"/>
   <tile gid="1717"/>
   <tile gid="1718"/>
   <tile gid="1719"/>
   <tile gid="1720"/>
   <tile gid="1721"/>
   <tile gid="1722"/>
   <tile gid="1723"/>
   <tile gid="1724"/>
   <tile gid="1725"/>
   <tile gid="1726"/>
   <tile gid="1727"/>
   <tile gid="1728"/>
   <tile gid="1729"/>
   <tile gid="1730"/>
   <tile gid="1731"/>
   <tile gid="1732"/>
   <tile gid="1733"/>
   <tile gid="1734"/>
   <tile gid="1735"/>
   <tile gid="1736"/>
   <tile gid="1737"/>
   <tile gid="1738"/>
   <tile gid="1739"/>
   <tile gid="1740"/>
   <tile gid="1741"/>
   <tile gid="1742"/>
   <tile gid="1743"/>
   <tile gid="1744"/>
   <tile gid="1745"/>
   <tile gid="1746"/>
   <tile gid="1747"/>
   <tile gid="1748"/>
   <tile gid="1749"/>
   <tile gid="1750"/>
   <tile gid="1751"/>
   <tile gid="1752"/>
   <tile gid="1753"/>
   <tile gid="1754"/>
   <tile gid="1755"/>
   <tile gid="1756"/>
   <tile gid="1757"/>
   <tile gid="1758"/>
   <tile gid="1709"/>
   <tile gid="1710"/>
   <tile gid="1711"/>
   <tile gid="1712"/>
   <tile gid="1713"/>
   <tile gid="1714"/>
   <tile gid="1715"/>
   <tile gid="1716"/>
   <tile gid="1717"/>
   <tile gid="1718"/>
   <tile gid="1719"/>
   <tile gid="1720"/>
   <tile gid="1721"/>
   <tile gid="1722"/>
   <tile gid="1723"/>
   <tile gid="1724"/>
   <tile gid="1725"/>
   <tile gid="1726"/>
   <tile gid="1727"/>
   <tile gid="1728"/>
   <tile gid="1729"/>
   <tile gid="1730"/>
   <tile gid="1731"/>
   <tile gid="1732"/>
   <tile gid="1733"/>
   <tile gid="1734"/>
   <tile gid="1735"/>
   <tile gid="1736"/>
   <tile gid="1737"/>
   <tile gid="1738"/>
   <tile gid="1739"/>
   <tile gid="1740"/>
   <tile gid="1741"/>
   <tile gid="1742"/>
   <tile gid="1743"/>
   <tile gid="1744"/>
   <tile gid="1745"/>
   <tile gid="1746"/>
   <tile gid="1747"/>
   <tile gid="1748"/>
   <tile gid="1759"/>
   <tile gid="1760"/>
   <tile gid="1761"/>
   <tile gid="1762"/>
   <tile gid="1763"/>
   <tile gid="1764"/>
   <tile gid="1765"/>
   <tile gid="1766"/>
   <tile gid="1767"/>
   <tile gid="1768"/>
   <tile gid="1769"/>
   <tile gid="1770"/>
   <tile gid="1771"/>
   <tile gid="1772"/>
   <tile gid="1773"/>
   <tile gid="1774"/>
   <tile gid="1775"/>
   <tile gid="1776"/>
   <tile gid="1777"/>
   <tile gid="1778"/>
   <tile gid="1779"/>
   <tile gid="1780"/>
   <tile gid="1781"/>
   <tile gid="1782"/>
   <tile gid="1783"/>
   <tile gid="1784"/>
   <tile gid="1785"/>
   <tile gid="1786"/>
   <tile gid="1787"/>
   <tile gid="1788"/>
   <tile gid="1789"/>
   <tile gid="1790"/>
   <tile gid="1791"/>
   <tile gid="1792"/>
   <tile gid="1793"/>
   <tile gid="1794"/>
   <tile gid="1795"/>
   <tile gid="1796"/>
   <tile gid="1797"/>
   <tile gid="1798"/>
   <tile gid="1799"/>
   <tile gid="1800"/>
   <tile gid="1801"/>
   <tile gid="1802"/>
   <tile gid="1803"/>
   <tile gid="1804"/>
   <tile gid="1805"/>
   <tile gid="1806"/>
   <tile gid="1807"/>
   <tile gid="1808"/>
   <tile gid="1759"/>
   <tile gid="1760"/>
   <tile gid="1761"/>
   <tile gid="1762"/>
   <tile gid="1763"/>
   <tile gid="1764"/>
   <tile gid="1765"/>
   <tile gid="1766"/>
   <tile gid="1767"/>
   <tile gid="1768"/>
   <tile gid="1769"/>
   <tile gid="1770"/>
   <tile gid="1771"/>
   <tile gid="1772"/>
   <tile gid="1773"/>
   <tile gid="1774"/>
   <tile gid="1775"/>
   <tile gid="1776"/>
   <tile gid="1777"/>
   <tile gid="1778"/>
   <tile gid="1779"/>
   <tile gid="1780"/>
   <tile gid="1781"/>
   <tile gid="1782"/>
   <tile gid="1783"/>
   <tile gid="1784"/>
   <tile gid="1785"/>
   <tile gid="1786"/>
   <tile gid="1787"/>
   <tile gid="1788"/>
   <tile gid="1789"/>
   <tile gid="1790"/>
   <tile gid="1791"/>
   <tile gid="1792"/>
   <tile gid="1793"/>
   <tile gid="1794"/>
   <tile gid="1795"/>
   <tile gid="1796"/>
   <tile gid="1797"/>
   <tile gid="1798"/>
   <tile gid="1809"/>
   <tile gid="1810"/>
   <tile gid="1811"/>
   <tile gid="1812"/>
   <tile gid="1813"/>
   <tile gid="1814"/>
   <tile gid="1815"/>
   <tile gid="1816"/>
   <tile gid="1817"/>
   <tile gid="1818"/>
   <tile gid="1819"/>
   <tile gid="1820"/>
   <tile gid="1821"/>
   <tile gid="1822"/>
   <tile gid="1823"/>
   <tile gid="1824"/>
   <tile gid="1825"/>
   <tile gid="1826"/>
   <tile gid="1827"/>
   <tile gid="1828"/>
   <tile gid="1829"/>
   <tile gid="1830"/>
   <tile gid="1831"/>
   <tile gid="1832"/>
   <tile gid="1833"/>
   <tile gid="1834"/>
   <tile gid="1835"/>
   <tile gid="1836"/>
   <tile gid="1837"/>
   <tile gid="1838"/>
   <tile gid="1839"/>
   <tile gid="1840"/>
   <tile gid="1841"/>
   <tile gid="1842"/>
   <tile gid="1843"/>
   <tile gid="1844"/>
   <tile gid="1845"/>
   <tile gid="1846"/>
   <tile gid="1847"/>
   <tile gid="1848"/>
   <tile gid="1849"/>
   <tile gid="1850"/>
   <tile gid="1851"/>
   <tile gid="1852"/>
   <tile gid="1853"/>
   <tile gid="1854"/>
   <tile gid="1855"/>
   <tile gid="1856"/>
   <tile gid="1857"/>
   <tile gid="1858"/>
   <tile gid="1809"/>
   <tile gid="1810"/>
   <tile gid="1811"/>
   <tile gid="1812"/>
   <tile gid="1813"/>
   <tile gid="1814"/>
   <tile gid="1815"/>
   <tile gid="1816"/>
   <tile gid="1817"/>
   <tile gid="1818"/>
   <tile gid="1819"/>
   <tile gid="1820"/>
   <tile gid="1821"/>
   <tile gid="1822"/>
   <tile gid="1823"/>
   <tile gid="1824"/>
   <tile gid="1825"/>
   <tile gid="1826"/>
   <tile gid="1827"/>
   <tile gid="1828"/>
   <tile gid="1829"/>
   <tile gid="1830"/>
   <tile gid="1831"/>
   <tile gid="1832"/>
   <tile gid="1833"/>
   <tile gid="1834"/>
   <tile gid="1835"/>
   <tile gid="1836"/>
   <tile gid="1837"/>
   <tile gid="1838"/>
   <tile gid="1839"/>
   <tile gid="1840"/>
   <tile gid="1841"/>
   <tile gid="1842"/>
   <tile gid="1843"/>
   <tile gid="1844"/>
   <tile gid="1845"/>
   <tile gid="1846"/>
   <tile gid="1847"/>
   <tile gid="1848"/>
   <tile gid="1859"/>
   <tile gid="1860"/>
   <tile gid="1861"/>
   <tile gid="1862"/>
   <tile gid="1863"/>
   <tile gid="1864"/>
   <tile gid="1865"/>
   <tile gid="1866"/>
   <tile gid="1867"/>
   <tile gid="1868"/>
   <tile gid="1869"/>
   <tile gid="1870"/>
   <tile gid="1871"/>
   <tile gid="1872"/>
   <tile gid="1873"/>
   <tile gid="1874"/>
   <tile gid="1875"/>
   <tile gid="1876"/>
   <tile gid="1877"/>
   <tile gid="1878"/>
   <tile gid="1879"/>
   <tile gid="1880"/>
   <tile gid="1881"/>
   <tile gid="1882"/>
   <tile gid="1883"/>
   <tile gid="1884"/>
   <tile gid="1885"/>
   <tile gid="1886"/>
   <tile gid="1887"/>
   <tile gid="1888"/>
   <tile gid="1889"/>
   <tile gid="1890"/>
   <tile gid="1891"/>
   <tile gid="1892"/>
   <tile gid="1893"/>
   <tile gid="1894"/>
   <tile gid="1895"/>
   <tile gid="1896"/>
   <tile gid="1897"/>
   <tile gid="1898"/>
   <tile gid="1899"/>
   <tile gid="1900"/>
   <tile gid="1901"/>
   <tile gid="1902"/>
   <tile gid="1903"/>
   <tile gid="1904"/>
   <tile gid="1905"/>
   <tile gid="1906"/>
   <tile gid="1907"/>
   <tile gid="1908"/>
   <tile gid="1859"/>
   <tile gid="1860"/>
   <tile gid="1861"/>
   <tile gid="1862"/>
   <tile gid="1863"/>
   <tile gid="1864"/>
   <tile gid="1865"/>
   <tile gid="1866"/>
   <tile gid="1867"/>
   <tile gid="1868"/>
   <tile gid="1869"/>
   <tile gid="1870"/>
   <tile gid="1871"/>
   <tile gid="1872"/>
   <tile gid="1873"/>
   <tile gid="1874"/>
   <tile gid="1875"/>
   <tile gid="1876"/>
   <tile gid="1877"/>
   <tile gid="1878"/>
   <tile gid="1879"/>
   <tile gid="1880"/>
   <tile gid="1881"/>
   <tile gid="1882"/>
   <tile gid="1883"/>
   <tile gid="1884"/>
   <tile gid="1885"/>
   <tile gid="1886"/>
   <tile gid="1887"/>
   <tile gid="1888"/>
   <tile gid="1889"/>
   <tile gid="1890"/>
   <tile gid="1891"/>
   <tile gid="1892"/>
   <tile gid="1893"/>
   <tile gid="1894"/>
   <tile gid="1895"/>
   <tile gid="1896"/>
   <tile gid="1897"/>
   <tile gid="1898"/>
   <tile gid="1909"/>
   <tile gid="1910"/>
   <tile gid="1911"/>
   <tile gid="1912"/>
   <tile gid="1913"/>
   <tile gid="1914"/>
   <tile gid="1915"/>
   <tile gid="1916"/>
   <tile gid="1917"/>
   <tile gid="1918"/>
   <tile gid="1919"/>
   <tile gid="1920"/>
   <tile gid="1921"/>
   <tile gid="1922"/>
   <tile gid="1923"/>
   <tile gid="1924"/>
   <tile gid="1925"/>
   <tile gid="1926"/>
   <tile gid="1927"/>
   <tile gid="1928"/>
   <tile gid="1929"/>
   <tile gid="1930"/>
   <tile gid="1931"/>
   <tile gid="1932"/>
   <tile gid="1933"/>
   <tile gid="1934"/>
   <tile gid="1935"/>
   <tile gid="1936"/>
   <tile gid="1937"/>
   <tile gid="1938"/>
   <tile gid="1939"/>
   <tile gid="1940"/>
   <tile gid="1941"/>
   <tile gid="1942"/>
   <tile gid="1943"/>
   <tile gid="1944"/>
   <tile gid="1945"/>
   <tile gid="1946"/>
   <tile gid="1947"/>
   <tile gid="1948"/>
   <tile gid="1949"/>
   <tile gid="1950"/>
   <tile gid="1951"/>
   <tile gid="1952"/>
   <tile gid="1953"/>
   <tile gid="1954"/>
   <tile gid="1955"/>
   <tile gid="1956"/>
   <tile gid="1957"/>
   <tile gid="1958"/>
   <tile gid="1909"/>
   <tile gid="1910"/>
   <tile gid="1911"/>
   <tile gid="1912"/>
   <tile gid="1913"/>
   <tile gid="1914"/>
   <tile gid="1915"/>
   <tile gid="1916"/>
   <tile gid="1917"/>
   <tile gid="1918"/>
   <tile gid="1919"/>
   <tile gid="1920"/>
   <tile gid="1921"/>
   <tile gid="1922"/>
   <tile gid="1923"/>
   <tile gid="1924"/>
   <tile gid="1925"/>
   <tile gid="1926"/>
   <tile gid="1927"/>
   <tile gid="1928"/>
   <tile gid="1929"/>
   <tile gid="1930"/>
   <tile gid="1931"/>
   <tile gid="1932"/>
   <tile gid="1933"/>
   <tile gid="1934"/>
   <tile gid="1935"/>
   <tile gid="1936"/>
   <tile gid="1937"/>
   <tile gid="1938"/>
   <tile gid="1939"/>
   <tile gid="1940"/>
   <tile gid="1941"/>
   <tile gid="1942"/>
   <tile gid="1943"/>
   <tile gid="1944"/>
   <tile gid="1945"/>
   <tile gid="1946"/>
   <tile gid="1947"/>
   <tile gid="1948"/>
   <tile gid="1959"/>
   <tile gid="1960"/>
   <tile gid="1961"/>
   <tile gid="1962"/>
   <tile gid="1963"/>
   <tile gid="1964"/>
   <tile gid="1965"/>
   <tile gid="1966"/>
   <tile gid="1967"/>
   <tile gid="1968"/>
   <tile gid="1969"/>
   <tile gid="1970"/>
   <tile gid="1971"/>
   <tile gid="1972"/>
   <tile gid="1973"/>
   <tile gid="1974"/>
   <tile gid="1975"/>
   <tile gid="1976"/>
   <tile gid="1977"/>
   <tile gid="1978"/>
   <tile gid="1979"/>
   <tile gid="1980"/>
   <tile gid="1981"/>
   <tile gid="1982"/>
   <tile gid="1983"/>
   <tile gid="1984"/>
   <tile gid="1985"/>
   <tile gid="1986"/>
   <tile gid="1987"/>
   <tile gid="1988"/>
   <tile gid="1989"/>
   <tile gid="1990"/>
   <tile gid="1991"/>
   <tile gid="1992"/>
   <tile gid="1993"/>
   <tile gid="1994"/>
   <tile gid="1995"/>
   <tile gid="1996"/>
   <tile gid="1997"/>
   <tile gid="1998"/>
   <tile gid="1999"/>
   <tile gid="2000"/>
   <tile gid="2001"/>
   <tile gid="2002"/>
   <tile gid="2003"/>
   <tile gid="2004"/>
   <tile gid="2005"/>
   <tile gid="2006"/>
   <tile gid="2007"/>
   <tile gid="2008"/>
   <tile gid="1959"/>
   <tile gid="1960"/>
   <tile gid="1961"/>
   <tile gid="1962"/>
   <tile gid="1963"/>
   <tile gid="1964"/>
   <tile gid="1965"/>
   <tile gid="1966"/>
   <tile gid="1967"/>
   <tile gid="1968"/>
   <tile gid="1969"/>
   <tile gid="1970"/>
   <tile gid="1971"/>
   <tile gid="1972"/>
   <tile gid="1973"/>
   <tile gid="1974"/>
   <tile gid="1975"/>
   <tile gid="1976"/>
   <tile gid="1977"/>
   <tile gid="1978"/>
   <tile gid="1979"/>
   <tile gid="1980"/>
   <tile gid="1981"/>
   <tile gid="1982"/>
   <tile gid="1983"/>
   <tile gid="1984"/>
   <tile gid="1985"/>
   <tile gid="1986"/>
   <tile gid="1987"/>
   <tile gid="1988"/>
   <tile gid="1989"/>
   <tile gid="1990"/>
   <tile gid="1991"/>
   <tile gid="1992"/>
   <tile gid="1993"/>
   <tile gid="1994"/>
   <tile gid="1995"/>
   <tile gid="1996"/>
   <tile gid="1997"/>
   <tile gid="1998"/>
   <tile gid="2009"/>
   <tile gid="2010"/>
   <tile gid="2011"/>
   <tile gid="2012"/>
   <tile gid="2013"/>
   <tile gid="2014"/>
   <tile gid="2015"/>
   <tile gid="2016"/>
   <tile gid="2017"/>
   <tile gid="2018"/>
   <tile gid="2019"/>
   <tile gid="2020"/>
   <tile gid="2021"/>
   <tile gid="2022"/>
   <tile gid="2023"/>
   <tile gid="2024"/>
   <tile gid="2025"/>
   <tile gid="2026"/>
   <tile gid="2027"/>
   <tile gid="2028"/>
   <tile gid="2029"/>
   <tile gid="2030"/>
   <tile gid="2031"/>
   <tile gid="2032"/>
   <tile gid="2033"/>
   <tile gid="2034"/>
   <tile gid="2035"/>
   <tile gid="2036"/>
   <tile gid="2037"/>
   <tile gid="2038"/>
   <tile gid="2039"/>
   <tile gid="2040"/>
   <tile gid="2041"/>
   <tile gid="2042"/>
   <tile gid="2043"/>
   <tile gid="2044"/>
   <tile gid="2045"/>
   <tile gid="2046"/>
   <tile gid="2047"/>
   <tile gid="2048"/>
   <tile gid="2049"/>
   <tile gid="2050"/>
   <tile gid="2051"/>
   <tile gid="2052"/>
   <tile gid="2053"/>
   <tile gid="2054"/>
   <tile gid="2055"/>
   <tile gid="2056"/>
   <tile gid="2057"/>
   <tile gid="2058"/>
   <tile gid="2009"/>
   <tile gid="2010"/>
   <tile gid="2011"/>
   <tile gid="2012"/>
   <tile gid="2013"/>
   <tile gid="2014"/>
   <tile gid="2015"/>
   <tile gid="2016"/>
   <tile gid="2017"/>
   <tile gid="2018"/>
   <tile gid="2019"/>
   <tile gid="2020"/>
   <tile gid="2021"/>
   <tile gid="2022"/>
   <tile gid="2023"/>
   <tile gid="2024"/>
   <tile gid="2025"/>
   <tile gid="2026"/>
   <tile gid="2027"/>
   <tile gid="2028"/>
   <tile gid="2029"/>
   <tile gid="2030"/>
   <tile gid="2031"/>
   <tile gid="2032"/>
   <tile gid="2033"/>
   <tile gid="2034"/>
   <tile gid="2035"/>
   <tile gid="2036"/>
   <tile gid="2037"/>
   <tile gid="2038"/>
   <tile gid="2039"/>
   <tile gid="2040"/>
   <tile gid="2041"/>
   <tile gid="2042"/>
   <tile gid="2043"/>
   <tile gid="2044"/>
   <tile gid="2045"/>
   <tile gid="2046"/>
   <tile gid="2047"/>
   <tile gid="2048"/>
   <tile gid="2059"/>
   <tile gid="2060"/>
   <tile gid="2061"/>
   <tile gid="2062"/>
   <tile gid="2063"/>
   <tile gid="2064"/>
   <tile gid="2065"/>
   <tile gid="2066"/>
   <tile gid="2067"/>
   <tile gid="2068"/>
   <tile gid="2069"/>
   <tile gid="2070"/>
   <tile gid="2071"/>
   <tile gid="2072"/>
   <tile gid="2073"/>
   <tile gid="2074"/>
   <tile gid="2075"/>
   <tile gid="2076"/>
   <tile gid="2077"/>
   <tile gid="2078"/>
   <tile gid="2079"/>
   <tile gid="2080"/>
   <tile gid="2081"/>
   <tile gid="2082"/>
   <tile gid="2083"/>
   <tile gid="2084"/>
   <tile gid="2085"/>
   <tile gid="2086"/>
   <tile gid="2087"/>
   <tile gid="2088"/>
   <tile gid="2089"/>
   <tile gid="2090"/>
   <tile gid="2091"/>
   <tile gid="2092"/>
   <tile gid="2093"/>
   <tile gid="2094"/>
   <tile gid="2095"/>
   <tile gid="2096"/>
   <tile gid="2097"/>
   <tile gid="2098"/>
   <tile gid="2099"/>
   <tile gid="2100"/>
   <tile gid="2101"/>
   <tile gid="2102"/>
   <tile gid="2103"/>
   <tile gid="2104"/>
   <tile gid="2105"/>
   <tile gid="2106"/>
   <tile gid="2107"/>
   <tile gid="2108"/>
   <tile gid="2059"/>
   <tile gid="2060"/>
   <tile gid="2061"/>
   <tile gid="2062"/>
   <tile gid="2063"/>
   <tile gid="2064"/>
   <tile gid="2065"/>
   <tile gid="2066"/>
   <tile gid="2067"/>
   <tile gid="2068"/>
   <tile gid="2069"/>
   <tile gid="2070"/>
   <tile gid="2071"/>
   <tile gid="2072"/>
   <tile gid="2073"/>
   <tile gid="2074"/>
   <tile gid="2075"/>
   <tile gid="2076"/>
   <tile gid="2077"/>
   <tile gid="2078"/>
   <tile gid="2079"/>
   <tile gid="2080"/>
   <tile gid="2081"/>
   <tile gid="2082"/>
   <tile gid="2083"/>
   <tile gid="2084"/>
   <tile gid="2085"/>
   <tile gid="2086"/>
   <tile gid="2087"/>
   <tile gid="2088"/>
   <tile gid="2089"/>
   <tile gid="2090"/>
   <tile gid="2091"/>
   <tile gid="2092"/>
   <tile gid="2093"/>
   <tile gid="2094"/>
   <tile gid="2095"/>
   <tile gid="2096"/>
   <tile gid="2097"/>
   <tile gid="2098"/>
   <tile gid="2109"/>
   <tile gid="2110"/>
   <tile gid="2111"/>
   <tile gid="2112"/>
   <tile gid="2113"/>
   <tile gid="2114"/>
   <tile gid="2115"/>
   <tile gid="2116"/>
   <tile gid="2117"/>
   <tile gid="2118"/>
   <tile gid="2119"/>
   <tile gid="2120"/>
   <tile gid="2121"/>
   <tile gid="2122"/>
   <tile gid="2123"/>
   <tile gid="2124"/>
   <tile gid="2125"/>
   <tile gid="2126"/>
   <tile gid="2127"/>
   <tile gid="2128"/>
   <tile gid="2129"/>
   <tile gid="2130"/>
   <tile gid="2131"/>
   <tile gid="2132"/>
   <tile gid="2133"/>
   <tile gid="2134"/>
   <tile gid="2135"/>
   <tile gid="2136"/>
   <tile gid="2137"/>
   <tile gid="2138"/>
   <tile gid="2139"/>
   <tile gid="2140"/>
   <tile gid="2141"/>
   <tile gid="2142"/>
   <tile gid="2143"/>
   <tile gid="2144"/>
   <tile gid="2145"/>
   <tile gid="2146"/>
   <tile gid="2147"/>
   <tile gid="2148"/>
   <tile gid="2149"/>
   <tile gid="2150"/>
   <tile gid="2151"/>
   <tile gid="2152"/>
   <tile gid="2153"/>
   <tile gid="2154"/>
   <tile gid="2155"/>
   <tile gid="2156"/>
   <tile gid="2157"/>
   <tile gid="2158"/>
   <tile gid="2109"/>
   <tile gid="2110"/>
   <tile gid="2111"/>
   <tile gid="2112"/>
   <tile gid="2113"/>
   <tile gid="2114"/>
   <tile gid="2115"/>
   <tile gid="2116"/>
   <tile gid="2117"/>
   <tile gid="2118"/>
   <tile gid="2119"/>
   <tile gid="2120"/>
   <tile gid="2121"/>
   <tile gid="2122"/>
   <tile gid="2123"/>
   <tile gid="2124"/>
   <tile gid="2125"/>
   <tile gid="2126"/>
   <tile gid="2127"/>
   <tile gid="2128"/>
   <tile gid="2129"/>
   <tile gid="2130"/>
   <tile gid="2131"/>
   <tile gid="2132"/>
   <tile gid="2133"/>
   <tile gid="2134"/>
   <tile gid="2135"/>
   <tile gid="2136"/>
   <tile gid="2137"/>
   <tile gid="2138"/>
   <tile gid="2139"/>
   <tile gid="2140"/>
   <tile gid="2141"/>
   <tile gid="2142"/>
   <tile gid="2143"/>
   <tile gid="2144"/>
   <tile gid="2145"/>
   <tile gid="2146"/>
   <tile gid="2147"/>
   <tile gid="2148"/>
   <tile gid="2159"/>
   <tile gid="2160"/>
   <tile gid="2161"/>
   <tile gid="2162"/>
   <tile gid="2163"/>
   <tile gid="2164"/>
   <tile gid="2165"/>
   <tile gid="2166"/>
   <tile gid="2167"/>
   <tile gid="2168"/>
   <tile gid="2169"/>
   <tile gid="2170"/>
   <tile gid="2171"/>
   <tile gid="2172"/>
   <tile gid="2173"/>
   <tile gid="2174"/>
   <tile gid="2175"/>
   <tile gid="2176"/>
   <tile gid="2177"/>
   <tile gid="2178"/>
   <tile gid="2179"/>
   <tile gid="2180"/>
   <tile gid="2181"/>
   <tile gid="2182"/>
   <tile gid="2183"/>
   <tile gid="2184"/>
   <tile gid="2185"/>
   <tile gid="2186"/>
   <tile gid="2187"/>
   <tile gid="2188"/>
   <tile gid="2189"/>
   <tile gid="2190"/>
   <tile gid="2191"/>
   <tile gid="2192"/>
   <tile gid="2193"/>
   <tile gid="2194"/>
   <tile gid="2195"/>
   <tile gid="2196"/>
   <tile gid="2197"/>
   <tile gid="2198"/>
   <tile gid="2199"/>
   <tile gid="2200"/>
   <tile gid="2201"/>
   <tile gid="2202"/>
   <tile gid="2203"/>
   <tile gid="2204"/>
   <tile gid="2205"/>
   <tile gid="2206"/>
   <tile gid="2207"/>
   <tile gid="2208"/>
   <tile gid="2159"/>
   <tile gid="2160"/>
   <tile gid="2161"/>
   <tile gid="2162"/>
   <tile gid="2163"/>
   <tile gid="2164"/>
   <tile gid="2165"/>
   <tile gid="2166"/>
   <tile gid="2167"/>
   <tile gid="2168"/>
   <tile gid="2169"/>
   <tile gid="2170"/>
   <tile gid="2171"/>
   <tile gid="2172"/>
   <tile gid="2173"/>
   <tile gid="2174"/>
   <tile gid="2175"/>
   <tile gid="2176"/>
   <tile gid="2177"/>
   <tile gid="2178"/>
   <tile gid="2179"/>
   <tile gid="2180"/>
   <tile gid="2181"/>
   <tile gid="2182"/>
   <tile gid="2183"/>
   <tile gid="2184"/>
   <tile gid="2185"/>
   <tile gid="2186"/>
   <tile gid="2187"/>
   <tile gid="2188"/>
   <tile gid="2189"/>
   <tile gid="2190"/>
   <tile gid="2191"/>
   <tile gid="2192"/>
   <tile gid="2193"/>
   <tile gid="2194"/>
   <tile gid="2195"/>
   <tile gid="2196"/>
   <tile gid="2197"/>
   <tile gid="2198"/>
   <tile gid="2209"/>
   <tile gid="2210"/>
   <tile gid="2211"/>
   <tile gid="2212"/>
   <tile gid="2213"/>
   <tile gid="2214"/>
   <tile gid="2215"/>
   <tile gid="2216"/>
   <tile gid="2217"/>
   <tile gid="2218"/>
   <tile gid="2219"/>
   <tile gid="2220"/>
   <tile gid="2221"/>
   <tile gid="2222"/>
   <tile gid="2223"/>
   <tile gid="2224"/>
   <tile gid="2225"/>
   <tile gid="2226"/>
   <tile gid="2227"/>
   <tile gid="2228"/>
   <tile gid="2229"/>
   <tile gid="2230"/>
   <tile gid="2231"/>
   <tile gid="2232"/>
   <tile gid="2233"/>
   <tile gid="2234"/>
   <tile gid="2235"/>
   <tile gid="2236"/>
   <tile gid="2237"/>
   <tile gid="2238"/>
   <tile gid="2239"/>
   <tile gid="2240"/>
   <tile gid="2241"/>
   <tile gid="2242"/>
   <tile gid="2243"/>
   <tile gid="2244"/>
   <tile gid="2245"/>
   <tile gid="2246"/>
   <tile gid="2247"/>
   <tile gid="2248"/>
   <tile gid="2249"/>
   <tile gid="2250"/>
   <tile gid="2251"/>
   <tile gid="2252"/>
   <tile gid="2253"/>
   <tile gid="2254"/>
   <tile gid="2255"/>
   <tile gid="2256"/>
   <tile gid="2257"/>
   <tile gid="2258"/>
   <tile gid="2209"/>
   <tile gid="2210"/>
   <tile gid="2211"/>
   <tile gid="2212"/>
   <tile gid="2213"/>
   <tile gid="2214"/>
   <tile gid="2215"/>
   <tile gid="2216"/>
   <tile gid="2217"/>
   <tile gid="2218"/>
   <tile gid="2219"/>
   <tile gid="2220"/>
   <tile gid="2221"/>
   <tile gid="2222"/>
   <tile gid="2223"/>
   <tile gid="2224"/>
   <tile gid="2225"/>
   <tile gid="2226"/>
   <tile gid="2227"/>
   <tile gid="2228"/>
   <tile gid="2229"/>
   <tile gid="2230"/>
   <tile gid="2231"/>
   <tile gid="2232"/>
   <tile gid="2233"/>
   <tile gid="2234"/>
   <tile gid="2235"/>
   <tile gid="2236"/>
   <tile gid="2237"/>
   <tile gid="2238"/>
   <tile gid="2239"/>
   <tile gid="2240"/>
   <tile gid="2241"/>
   <tile gid="2242"/>
   <tile gid="2243"/>
   <tile gid="2244"/>
   <tile gid="2245"/>
   <tile gid="2246"/>
   <tile gid="2247"/>
   <tile gid="2248"/>
   <tile gid="2259"/>
   <tile gid="2260"/>
   <tile gid="2261"/>
   <tile gid="2262"/>
   <tile gid="2263"/>
   <tile gid="2264"/>
   <tile gid="2265"/>
   <tile gid="2266"/>
   <tile gid="2267"/>
   <tile gid="2268"/>
   <tile gid="2269"/>
   <tile gid="2270"/>
   <tile gid="2271"/>
   <tile gid="2272"/>
   <tile gid="2273"/>
   <tile gid="2274"/>
   <tile gid="2275"/>
   <tile gid="2276"/>
   <tile gid="2277"/>
   <tile gid="2278"/>
   <tile gid="2279"/>
   <tile gid="2280"/>
   <tile gid="2281"/>
   <tile gid="2282"/>
   <tile gid="2283"/>
   <tile gid="2284"/>
   <tile gid="2285"/>
   <tile gid="2286"/>
   <tile gid="2287"/>
   <tile gid="2288"/>
   <tile gid="2289"/>
   <tile gid="2290"/>
   <tile gid="2291"/>
   <tile gid="2292"/>
   <tile gid="2293"/>
   <tile gid="2294"/>
   <tile gid="2295"/>
   <tile gid="2296"/>
   <tile gid="2297"/>
   <tile gid="2298"/>
   <tile gid="2299"/>
   <tile gid="2300"/>
   <tile gid="2301"/>
   <tile gid="2302"/>
   <tile gid="2303"/>
   <tile gid="2304"/>
   <tile gid="2305"/>
   <tile gid="2306"/>
   <tile gid="2307"/>
   <tile gid="2308"/>
   <tile gid="2259"/>
   <tile gid="2260"/>
   <tile gid="2261"/>
   <tile gid="2262"/>
   <tile gid="2263"/>
   <tile gid="2264"/>
   <tile gid="2265"/>
   <tile gid="2266"/>
   <tile gid="2267"/>
   <tile gid="2268"/>
   <tile gid="2269"/>
   <tile gid="2270"/>
   <tile gid="2271"/>
   <tile gid="2272"/>
   <tile gid="2273"/>
   <tile gid="2274"/>
   <tile gid="2275"/>
   <tile gid="2276"/>
   <tile gid="2277"/>
   <tile gid="2278"/>
   <tile gid="2279"/>
   <tile gid="2280"/>
   <tile gid="2281"/>
   <tile gid="2282"/>
   <tile gid="2283"/>
   <tile gid="2284"/>
   <tile gid="2285"/>
   <tile gid="2286"/>
   <tile gid="2287"/>
   <tile gid="2288"/>
   <tile gid="2289"/>
   <tile gid="2290"/>
   <tile gid="2291"/>
   <tile gid="2292"/>
   <tile gid="2293"/>
   <tile gid="2294"/>
   <tile gid="2295"/>
   <tile gid="2296"/>
   <tile gid="2297"/>
   <tile gid="2298"/>
   <tile gid="2309"/>
   <tile gid="2310"/>
   <tile gid="2311"/>
   <tile gid="2312"/>
   <tile gid="2313"/>
   <tile gid="2314"/>
   <tile gid="2315"/>
   <tile gid="2316"/>
   <tile gid="2317"/>
   <tile gid="2318"/>
   <tile gid="2319"/>
   <tile gid="2320"/>
   <tile gid="2321"/>
   <tile gid="2322"/>
   <tile gid="2323"/>
   <tile gid="2324"/>
   <tile gid="2325"/>
   <tile gid="2326"/>
   <tile gid="2327"/>
   <tile gid="2328"/>
   <tile gid="2329"/>
   <tile gid="2330"/>
   <tile gid="2331"/>
   <tile gid="2332"/>
   <tile gid="2333"/>
   <tile gid="2334"/>
   <tile gid="2335"/>
   <tile gid="2336"/>
   <tile gid="2337"/>
   <tile gid="2338"/>
   <tile gid="2339"/>
   <tile gid="2340"/>
   <tile gid="2341"/>
   <tile gid="2342"/>
   <tile gid="2343"/>
   <tile gid="2344"/>
   <tile gid="2345"/>
   <tile gid="2346"/>
   <tile gid="2347"/>
   <tile gid="2348"/>
   <tile gid="2349"/>
   <tile gid="2350"/>
   <tile gid="2351"/>
   <tile gid="2352"/>
   <tile gid="2353"/>
   <tile gid="2354"/>
   <tile gid="2355"/>
   <tile gid="2356"/>
   <tile gid="2357"/>
   <tile gid="2358"/>
   <tile gid="2309"/>
   <tile gid="2310"/>
   <tile gid="2311"/>
   <tile gid="2312"/>
   <tile gid="2313"/>
   <tile gid="2314"/>
   <tile gid="2315"/>
   <tile gid="2316"/>
   <tile gid="2317"/>
   <tile gid="2318"/>
   <tile gid="2319"/>
   <tile gid="2320"/>
   <tile gid="2321"/>
   <tile gid="2322"/>
   <tile gid="2323"/>
   <tile gid="2324"/>
   <tile gid="2325"/>
   <tile gid="2326"/>
   <tile gid="2327"/>
   <tile gid="2328"/>
   <tile gid="2329"/>
   <tile gid="2330"/>
   <tile gid="2331"/>
   <tile gid="2332"/>
   <tile gid="2333"/>
   <tile gid="2334"/>
   <tile gid="2335"/>
   <tile gid="2336"/>
   <tile gid="2337"/>
   <tile gid="2338"/>
   <tile gid="2339"/>
   <tile gid="2340"/>
   <tile gid="2341"/>
   <tile gid="2342"/>
   <tile gid="2343"/>
   <tile gid="2344"/>
   <tile gid="2345"/>
   <tile gid="2346"/>
   <tile gid="2347"/>
   <tile gid="2348"/>
   <tile gid="2359"/>
   <tile gid="2360"/>
   <tile gid="2361"/>
   <tile gid="2362"/>
   <tile gid="2363"/>
   <tile gid="2364"/>
   <tile gid="2365"/>
   <tile gid="2366"/>
   <tile gid="2367"/>
   <tile gid="2368"/>
   <tile gid="2369"/>
   <tile gid="2370"/>
   <tile gid="2371"/>
   <tile gid="2372"/>
   <tile gid="2373"/>
   <tile gid="2374"/>
   <tile gid="2375"/>
   <tile gid="2376"/>
   <tile gid="2377"/>
   <tile gid="2378"/>
   <tile gid="2379"/>
   <tile gid="2380"/>
   <tile gid="2381"/>
   <tile gid="2382"/>
   <tile gid="2383"/>
   <tile gid="2384"/>
   <tile gid="2385"/>
   <tile gid="2386"/>
   <tile gid="2387"/>
   <tile gid="2388"/>
   <tile gid="2389"/>
   <tile gid="2390"/>
   <tile gid="2391"/>
   <tile gid="2392"/>
   <tile gid="2393"/>
   <tile gid="2394"/>
   <tile gid="2395"/>
   <tile gid="2396"/>
   <tile gid="2397"/>
   <tile gid="2398"/>
   <tile gid="2399"/>
   <tile gid="2400"/>
   <tile gid="2401"/>
   <tile gid="2402"/>
   <tile gid="2403"/>
   <tile gid="2404"/>
   <tile gid="2405"/>
   <tile gid="2406"/>
   <tile gid="2407"/>
   <tile gid="2408"/>
   <tile gid="2359"/>
   <tile gid="2360"/>
   <tile gid="2361"/>
   <tile gid="2362"/>
   <tile gid="2363"/>
   <tile gid="2364"/>
   <tile gid="2365"/>
   <tile gid="2366"/>
   <tile gid="2367"/>
   <tile gid="2368"/>
   <tile gid="2369"/>
   <tile gid="2370"/>
   <tile gid="2371"/>
   <tile gid="2372"/>
   <tile gid="2373"/>
   <tile gid="2374"/>
   <tile gid="2375"/>
   <tile gid="2376"/>
   <tile gid="2377"/>
   <tile gid="2378"/>
   <tile gid="2379"/>
   <tile gid="2380"/>
   <tile gid="2381"/>
   <tile gid="2382"/>
   <tile gid="2383"/>
   <tile gid="2384"/>
   <tile gid="2385"/>
   <tile gid="2386"/>
   <tile gid="2387"/>
   <tile gid="2388"/>
   <tile gid="2389"/>
   <tile gid="2390"/>
   <tile gid="2391"/>
   <tile gid="2392"/>
   <tile gid="2393"/>
   <tile gid="2394"/>
   <tile gid="2395"/>
   <tile gid="2396"/>
   <tile gid="2397"/>
   <tile gid="2398"/>
   <tile gid="2409"/>
   <tile gid="2410"/>
   <tile gid="2411"/>
   <tile gid="2412"/>
   <tile gid="2413"/>
   <tile gid="2414"/>
   <tile gid="2415"/>
   <tile gid="2416"/>
   <tile gid="2417"/>
   <tile gid="2418"/>
   <tile gid="2419"/>
   <tile gid="2420"/>
   <tile gid="2421"/>
   <tile gid="2422"/>
   <tile gid="2423"/>
   <tile gid="2424"/>
   <tile gid="2425"/>
   <tile gid="2426"/>
   <tile gid="2427"/>
   <tile gid="2428"/>
   <tile gid="2429"/>
   <tile gid="2430"/>
   <tile gid="2431"/>
   <tile gid="2432"/>
   <tile gid="2433"/>
   <tile gid="2434"/>
   <tile gid="2435"/>
   <tile gid="2436"/>
   <tile gid="2437"/>
   <tile gid="2438"/>
   <tile gid="2439"/>
   <tile gid="2440"/>
   <tile gid="2441"/>
   <tile gid="2442"/>
   <tile gid="2443"/>
   <tile gid="2444"/>
   <tile gid="2445"/>
   <tile gid="2446"/>
   <tile gid="2447"/>
   <tile gid="2448"/>
   <tile gid="2449"/>
   <tile gid="2450"/>
   <tile gid="2451"/>
   <tile gid="2452"/>
   <tile gid="2453"/>
   <tile gid="2454"/>
   <tile gid="2455"/>
   <tile gid="2456"/>
   <tile gid="2457"/>
   <tile gid="2458"/>
   <tile gid="2409"/>
   <tile gid="2410"/>
   <tile gid="2411"/>
   <tile gid="2412"/>
   <tile gid="2413"/>
   <tile gid="2414"/>
   <tile gid="2415"/>
   <tile gid="2416"/>
   <tile gid="2417"/>
   <tile gid="2418"/>
   <tile gid="2419"/>
   <tile gid="2420"/>
   <tile gid="2421"/>
   <tile gid="2422"/>
   <tile gid="2423"/>
   <tile gid="2424"/>
   <tile gid="2425"/>
   <tile gid="2426"/>
   <tile gid="2427"/>
   <tile gid="2428"/>
   <tile gid="2429"/>
   <tile gid="2430"/>
   <tile gid="2431"/>
   <tile gid="2432"/>
   <tile gid="2433"/>
   <tile gid="2434"/>
   <tile gid="2435"/>
   <tile gid="2436"/>
   <tile gid="2437"/>
   <tile gid="2438"/>
   <tile gid="2439"/>
   <tile gid="2440"/>
   <tile gid="2441"/>
   <tile gid="2442"/>
   <tile gid="2443"/>
   <tile gid="2444"/>
   <tile gid="2445"/>
   <tile gid="2446"/>
   <tile gid="2447"/>
   <tile gid="2448"/>
   <tile gid="2459"/>
   <tile gid="2460"/>
   <tile gid="2461"/>
   <tile gid="2462"/>
   <tile gid="2463"/>
   <tile gid="2464"/>
   <tile gid="2465"/>
   <tile gid="2466"/>
   <tile gid="2467"/>
   <tile gid="2468"/>
   <tile gid="2469"/>
   <tile gid="2470"/>
   <tile gid="2471"/>
   <tile gid="2472"/>
   <tile gid="2473"/>
   <tile gid="2474"/>
   <tile gid="2475"/>
   <tile gid="2476"/>
   <tile gid="2477"/>
   <tile gid="2478"/>
   <tile gid="2479"/>
   <tile gid="2480"/>
   <tile gid="2481"/>
   <tile gid="2482"/>
   <tile gid="2483"/>
   <tile gid="2484"/>
   <tile gid="2485"/>
   <tile gid="2486"/>
   <tile gid="2487"/>
   <tile gid="2488"/>
   <tile gid="2489"/>
   <tile gid="2490"/>
   <tile gid="2491"/>
   <tile gid="2492"/>
   <tile gid="2493"/>
   <tile gid="2494"/>
   <tile gid="2495"/>
   <tile gid="2496"/>
   <tile gid="2497"/>
   <tile gid="2498"/>
   <tile gid="2499"/>
   <tile gid="2500"/>
   <tile gid="2501"/>
   <tile gid="2502"/>
   <tile gid="2503"/>
   <tile gid="2504"/>
   <tile gid="2505"/>
   <tile gid="2506"/>
   <tile gid="2507"/>
   <tile gid="2508"/>
   <tile gid="2459"/>
   <tile gid="2460"/>
   <tile gid="2461"/>
   <tile gid="2462"/>
   <tile gid="2463"/>
   <tile gid="2464"/>
   <tile gid="2465"/>
   <tile gid="2466"/>
   <tile gid="2467"/>
   <tile gid="2468"/>
   <tile gid="2469"/>
   <tile gid="2470"/>
   <tile gid="2471"/>
   <tile gid="2472"/>
   <tile gid="2473"/>
   <tile gid="2474"/>
   <tile gid="2475"/>
   <tile gid="2476"/>
   <tile gid="2477"/>
   <tile gid="2478"/>
   <tile gid="2479"/>
   <tile gid="2480"/>
   <tile gid="2481"/>
   <tile gid="2482"/>
   <tile gid="2483"/>
   <tile gid="2484"/>
   <tile gid="2485"/>
   <tile gid="2486"/>
   <tile gid="2487"/>
   <tile gid="2488"/>
   <tile gid="2489"/>
   <tile gid="2490"/>
   <tile gid="2491"/>
   <tile gid="2492"/>
   <tile gid="2493"/>
   <tile gid="2494"/>
   <tile gid="2495"/>
   <tile gid="2496"/>
   <tile gid="2497"/>
   <tile gid="2498"/>
   <tile gid="2509"/>
   <tile gid="2510"/>
   <tile gid="2511"/>
   <tile gid="2512"/>
   <tile gid="2513"/>
   <tile gid="2514"/>
   <tile gid="2515"/>
   <tile gid="2516"/>
   <tile gid="2517"/>
   <tile gid="2518"/>
   <tile gid="2519"/>
   <tile gid="2520"/>
   <tile gid="2521"/>
   <tile gid="2522"/>
   <tile gid="2523"/>
   <tile gid="2524"/>
   <tile gid="2525"/>
   <tile gid="2526"/>
   <tile gid="2527"/>
   <tile gid="2528"/>
   <tile gid="2529"/>
   <tile gid="2530"/>
   <tile gid="2531"/>
   <tile gid="2532"/>
   <tile gid="2533"/>
   <tile gid="2534"/>
   <tile gid="2535"/>
   <tile gid="2536"/>
   <tile gid="2537"/>
   <tile gid="2538"/>
   <tile gid="2539"/>
   <tile gid="2540"/>
   <tile gid="2541"/>
   <tile gid="2542"/>
   <tile gid="2543"/>
   <tile gid="2544"/>
   <tile gid="2545"/>
   <tile gid="2546"/>
   <tile gid="2547"/>
   <tile gid="2548"/>
   <tile gid="2549"/>
   <tile gid="2550"/>
   <tile gid="2551"/>
   <tile gid="2552"/>
   <tile gid="2553"/>
   <tile gid="2554"/>
   <tile gid="2555"/>
   <tile gid="2556"/>
   <tile gid="2557"/>
   <tile gid="2558"/>
   <tile gid="2509"/>
   <tile gid="2510"/>
   <tile gid="2511"/>
   <tile gid="2512"/>
   <tile gid="2513"/>
   <tile gid="2514"/>
   <tile gid="2515"/>
   <tile gid="2516"/>
   <tile gid="2517"/>
   <tile gid="2518"/>
   <tile gid="2519"/>
   <tile gid="2520"/>
   <tile gid="2521"/>
   <tile gid="2522"/>
   <tile gid="2523"/>
   <tile gid="2524"/>
   <tile gid="2525"/>
   <tile gid="2526"/>
   <tile gid="2527"/>
   <tile gid="2528"/>
   <tile gid="2529"/>
   <tile gid="2530"/>
   <tile gid="2531"/>
   <tile gid="2532"/>
   <tile gid="2533"/>
   <tile gid="2534"/>
   <tile gid="2535"/>
   <tile gid="2536"/>
   <tile gid="2537"/>
   <tile gid="2538"/>
   <tile gid="2539"/>
   <tile gid="2540"/>
   <tile gid="2541"/>
   <tile gid="2542"/>
   <tile gid="2543"/>
   <tile gid="2544"/>
   <tile gid="2545"/>
   <tile gid="2546"/>
   <tile gid="2547"/>
   <tile gid="2548"/>
   <tile gid="1073744333"/>
   <tile gid="1073744334"/>
   <tile gid="1073744335"/>
   <tile gid="1073744336"/>
   <tile gid="1073744337"/>
   <tile gid="1073744338"/>
   <tile gid="1073744339"/>
   <tile gid="1073744340"/>
   <tile gid="1073744341"/>
   <tile gid="1073744342"/>
   <tile gid="1073744343"/>
   <tile gid="1073744344"/>
   <tile gid="1073744345"/>
   <tile gid="1073744346"/>
   <tile gid="1073744347"/>
   <tile gid="1073744348"/>
   <tile gid="1073744349"/>
   <tile gid="1073744350"/>
   <tile gid="1073744351"/>
   <tile gid="1073744352"/>
   <tile gid="1073744353"/>
   <tile gid="1073744354"/>
   <tile gid="1073744355"/>
   <tile gid="1073744356"/>
   <tile gid="1073744357"/>
   <tile gid="1073744358"/>
   <tile gid="1073744359"/>
   <tile gid="1073744360"/>
   <tile gid="1073744361"/>
   <tile gid="1073744362"/>
   <tile gid="1073744363"/>
   <tile gid="1073744364"/>
   <tile gid="1073744365"/>
   <tile gid="1073744366"/>
   <tile gid="1073744367"/>
   <tile gid="1073744368"/>
   <tile gid="1073744369"/>
   <tile gid="1073744370"/>
   <tile gid="1073744371"/>
   <tile gid="1073744372"/>
   <tile gid="1073744373"/>
   <tile gid="1073744374"/>
   <tile gid="1073744375"/>
   <tile gid="1073744376"/>
   <tile gid="1073744377"/>
   <tile gid="1073744378"/>
   <tile gid="1073744379"/>
   <tile gid="1073744380"/>
   <tile gid="1073744381"/>
   <tile gid="1073744382"/>
   <tile gid="1073744333"/>
   <tile gid="1073744334"/>
   <tile gid="1073744335"/>
   <tile gid="1073744336"/>
   <tile gid="1073744337"/>
   <tile gid="1073744338"/>
   <tile gid="1073744339"/>
   <tile gid="1073744340"/>
   <tile gid="1073744341"/>
   <tile gid="1073744342"/>
   <tile gid="1073744343"/>
   <tile gid="1073744344"/>
   <tile gid="1073744345"/>
   <tile gid="1073744346"/>
   <tile gid="1073744347"/>
   <tile gid="1073744348"/>
   <tile gid="1073744349"/>
   <tile gid="1073744350"/>
   <tile gid="1073744351"/>
   <tile gid="1073744352"/>
   <tile gid="1073744353"/>
   <tile gid="1073744354"/>
   <tile gid="1073744355"/>
   <tile gid="1073744356"/>
   <tile gid="1073744357"/>
   <tile gid="1073744358"/>
   <tile gid="1073744359"/>
   <tile gid="1073744360"/>
   <tile gid="1073744361"/>
   <tile gid="1073744362"/>
   <tile gid="1073744363"/>
   <tile gid="1073744364"/>
   <tile gid="1073744365"/>
   <tile gid="1073744366"/>
   <tile gid="1073744367"/>
   <tile gid="1073744368"/>
   <tile gid="1073744369"/>
   <tile gid="1073744370"/>
   <tile gid="1073744371"/>
   <tile gid="1073744372"/>
   <tile gid="1073744283"/>
   <tile gid="1073744284"/>
   <tile gid="1073744285"/>
   <tile gid="1073744286"/>
   <tile gid="1073744287"/>
   <tile gid="1073744288"/>
   <tile gid="1073744289"/>
   <tile gid="1073744290"/>
   <tile gid="1073744291"/>
   <tile gid="1073744292"/>
   <tile gid="1073744293"/>
   <tile gid="1073744294"/>
   <tile gid="1073744295"/>
   <tile gid="1073744296"/>
   <tile gid="1073744297"/>
   <tile gid="1073744298"/>
   <tile gid="1073744299"/>
   <tile gid="1073744300"/>
   <tile gid="1073744301"/>
   <tile gid="1073744302"/>
   <tile gid="1073744303"/>
   <tile gid="1073744304"/>
   <tile gid="1073744305"/>
   <tile gid="1073744306"/>
   <tile gid="1073744307"/>
   <tile gid="1073744308"/>
   <tile gid="1073744309"/>
   <tile gid="1073744310"/>
   <tile gid="1073744311"/>
   <tile gid="1073744312"/>
   <tile gid="1073744313"/>
   <tile gid="1073744314"/>
   <tile gid="1073744315"/>
   <tile gid="1073744316"/>
   <tile gid="1073744317"/>
   <tile gid="1073744318"/>
   <tile gid="1073744319"/>
   <tile gid="1073744320"/>
   <tile gid="1073744321"/>
   <tile gid="1073744322"/>
   <tile gid="1073744323"/>
   <tile gid="1073744324"/>
   <tile gid="1073744325"/>
   <tile gid="1073744326"/>
   <tile gid="1073744327"/>
   <tile gid="1073744328"/>
   <tile gid="1073744329"/>
   <tile gid="1073744330"/>
   <tile gid="1073744331"/>
   <tile gid="1073744332"/>
   <tile gid="1073744283"/>
   <tile gid="1073744284"/>
   <tile gid="1073744285"/>
   <tile gid="1073744286"/>
   <tile gid="1073744287"/>
   <tile gid="1073744288"/>
   <tile gid="1073744289"/>
   <tile gid="1073744290"/>
   <tile gid="1073744291"/>
   <tile gid="1073744292"/>
   <tile gid="1073744293"/>
   <tile gid="1073744294"/>
   <tile gid="1073744295"/>
   <tile gid="1073744296"/>
   <tile gid="1073744297"/>
   <tile gid="1073744298"/>
   <tile gid="1073744299"/>
   <tile gid="1073744300"/>
   <tile gid="1073744301"/>
   <tile gid="1073744302"/>
   <tile gid="1073744303"/>
   <tile gid="1073744304"/>
   <tile gid="1073744305"/>
   <tile gid="1073744306"/>
   <tile gid="1073744307"/>
   <tile gid="1073744308"/>
   <tile gid="1073744309"/>
   <tile gid="1073744310"/>
   <tile gid="1073744311"/>
   <tile gid="1073744312"/>
   <tile gid="1073744313"/>
   <tile gid="1073744314"/>
   <tile gid="1073744315"/>
   <tile gid="1073744316"/>
   <tile gid="1073744317"/>
   <tile gid="1073744318"/>
   <tile gid="1073744319"/>
   <tile gid="1073744320"/>
   <tile gid="1073744321"/>
   <tile gid="1073744322"/>
   <tile gid="1073744233"/>
   <tile gid="1073744234"/>
   <tile gid="1073744235"/>
   <tile gid="1073744236"/>
   <tile gid="1073744237"/>
   <tile gid="1073744238"/>
   <tile gid="1073744239"/>
   <tile gid="1073744240"/>
   <tile gid="1073744241"/>
   <tile gid="1073744242"/>
   <tile gid="1073744243"/>
   <tile gid="1073744244"/>
   <tile gid="1073744245"/>
   <tile gid="1073744246"/>
   <tile gid="1073744247"/>
   <tile gid="1073744248"/>
   <tile gid="1073744249"/>
   <tile gid="1073744250"/>
   <tile gid="1073744251"/>
   <tile gid="1073744252"/>
   <tile gid="1073744253"/>
   <tile gid="1073744254"/>
   <tile gid="1073744255"/>
   <tile gid="1073744256"/>
   <tile gid="1073744257"/>
   <tile gid="1073744258"/>
   <tile gid="1073744259"/>
   <tile gid="1073744260"/>
   <tile gid="1073744261"/>
   <tile gid="1073744262"/>
   <tile gid="1073744263"/>
   <tile gid="1073744264"/>
   <tile gid="1073744265"/>
   <tile gid="1073744266"/>
   <tile gid="1073744267"/>
   <tile gid="1073744268"/>
   <tile gid="1073744269"/>
   <tile gid="1073744270"/>
   <tile gid="1073744271"/>
   <tile gid="1073744272"/>
   <tile gid="1073744273"/>
   <tile gid="1073744274"/>
   <tile gid="1073744275"/>
   <tile gid="1073744276"/>
   <tile gid="1073744277"/>
   <tile gid="1073744278"/>
   <tile gid="1073744279"/>
   <tile gid="1073744280"/>
   <tile gid="1073744281"/>
   <tile gid="1073744282"/>
   <tile gid="1073744233"/>
   <tile gid="1073744234"/>
   <tile gid="1073744235"/>
   <tile gid="1073744236"/>
   <tile gid="1073744237"/>
   <tile gid="1073744238"/>
   <tile gid="1073744239"/>
   <tile gid="1073744240"/>
   <tile gid="1073744241"/>
   <tile gid="1073744242"/>
   <tile gid="1073744243"/>
   <tile gid="1073744244"/>
   <tile gid="1073744245"/>
   <tile gid="1073744246"/>
   <tile gid="1073744247"/>
   <tile gid="1073744248"/>
   <tile gid="1073744249"/>
   <tile gid="1073744250"/>
   <tile gid="1073744251"/>
   <tile gid="1073744252"/>
   <tile gid="1073744253"/>
   <tile gid="1073744254"/>
   <tile gid="1073744255"/>
   <tile gid="1073744256"/>
   <tile gid="1073744257"/>
   <tile gid="1073744258"/>
   <tile gid="1073744259"/>
   <tile gid="1073744260"/>
   <tile gid="1073744261"/>
   <tile gid="1073744262"/>
   <tile gid="1073744263"/>
   <tile gid="1073744264"/>
   <tile gid="1073744265"/>
   <tile gid="1073744266"/>
   <tile gid="1073744267"/>
   <tile gid="1073744268"/>
   <tile gid="1073744269"/>
   <tile gid="1073744270"/>
   <tile gid="1073744271"/>
   <tile gid="1073744272"/>
   <tile gid="1073744183"/>
   <tile gid="1073744184"/>
   <tile gid="1073744185"/>
   <tile gid="1073744186"/>
   <tile gid="1073744187"/>
   <tile gid="1073744188"/>
   <tile gid="1073744189"/>
   <tile gid="1073744190"/>
   <tile gid="1073744191"/>
   <tile gid="1073744192"/>
   <tile gid="1073744193"/>
   <tile gid="1073744194"/>
   <tile gid="1073744195"/>
   <tile gid="1073744196"/>
   <tile gid="1073744197"/>
   <tile gid="1073744198"/>
   <tile gid="1073744199"/>
   <tile gid="1073744200"/>
   <tile gid="1073744201"/>
   <tile gid="1073744202"/>
   <tile gid="1073744203"/>
   <tile gid="1073744204"/>
   <tile gid="1073744205"/>
   <tile gid="1073744206"/>
   <tile gid="1073744207"/>
   <tile gid="1073744208"/>
   <tile gid="1073744209"/>
   <tile gid="1073744210"/>
   <tile gid="1073744211"/>
   <tile gid="1073744212"/>
   <tile gid="1073744213"/>
   <tile gid="1073744214"/>
   <tile gid="1073744215"/>
   <tile gid="1073744216"/>
   <tile gid="1073744217"/>
   <tile gid="1073744218"/>
   <tile gid="1073744219"/>
   <tile gid="1073744220"/>
   <tile gid="1073744221"/>
   <tile gid="1073744222"/>
   <tile gid="1073744223"/>
   <tile gid="1073744224"/>
   <tile gid="1073744225"/>
   <tile gid="1073744226"/>
   <tile gid="1073744227"/>
   <tile gid="1073744228"/>
   <tile gid="1073744229"/>
   <tile gid="1073744230"/>
   <tile gid="1073744231"/>
   <tile gid="1073744232"/>
   <tile gid="1073744183"/>
   <tile gid="1073744184"/>
   <tile gid="1073744185"/>
   <tile gid="1073744186"/>
   <tile gid="1073744187"/>
   <tile gid="1073744188"/>
   <tile gid="1073744189"/>
   <tile gid="1073744190"/>
   <tile gid="1073744191"/>
   <tile gid="1073744192"/>
   <tile gid="1073744193"/>
   <tile gid="1073744194"/>
   <tile gid="1073744195"/>
   <tile gid="1073744196"/>
   <tile gid="1073744197"/>
   <tile gid="1073744198"/>
   <tile gid="1073744199"/>
   <tile gid="1073744200"/>
   <tile gid="1073744201"/>
   <tile gid="1073744202"/>
   <tile gid="1073744203"/>
   <tile gid="1073744204"/>
   <tile gid="1073744205"/>
   <tile gid="1073744206"/>
   <tile gid="1073744207"/>
   <tile gid="1073744208"/>
   <tile gid="1073744209"/>
   <tile gid="1073744210"/>
   <tile gid="1073744211"/>
   <tile gid="1073744212"/>
   <tile gid="1073744213"/>
   <tile gid="1073744214"/>
   <tile gid="1073744215"/>
   <tile gid="1073744216"/>
   <tile gid="1073744217"/>
   <tile gid="1073744218"/>
   <tile gid="1073744219"/>
   <tile gid="1073744220"/>
   <tile gid="1073744221"/>
   <tile gid="1073744222"/>
   <tile gid="1073744133"/>
   <tile gid="1073744134"/>
   <tile gid="1073744135"/>
   <tile gid="1073744136"/>
   <tile gid="1073744137"/>
   <tile gid="1073744138"/>
   <tile gid="1073744139"/>
   <tile gid="1073744140"/>
   <tile gid="1073744141"/>
   <tile gid="1073744142"/>
   <tile gid="1073744143"/>
   <tile gid="1073744144"/>
   <tile gid="1073744145"/>
   <tile gid="1073744146"/>
   <tile gid="1073744147"/>
   <tile gid="1073744148"/>
   <tile gid="1073744149"/>
   <tile gid="1073744150"/>
   <tile gid="1073744151"/>
   <tile gid="1073744152"/>
   <tile gid="1073744153"/>
   <tile gid="1073744154"/>
   <tile gid="1073744155"/>
   <tile gid="1073744156"/>
   <tile gid="1073744157"/>
   <tile gid="1073744158"/>
   <tile gid="1073744159"/>
   <tile gid="1073744160"/>
   <tile gid="1073744161"/>
   <tile gid="1073744162"/>
   <tile gid="1073744163"/>
   <tile gid="1073744164"/>
   <tile gid="1073744165"/>
   <tile gid="1073744166"/>
   <tile gid="1073744167"/>
   <tile gid="1073744168"/>
   <tile gid="1073744169"/>
   <tile gid="1073744170"/>
   <tile gid="1073744171"/>
   <tile gid="1073744172"/>
   <tile gid="1073744173"/>
   <tile gid="1073744174"/>
   <tile gid="1073744175"/>
   <tile gid="1073744176"/>
   <tile gid="1073744177"/>
   <tile gid="1073744178"/>
   <tile gid="1073744179"/>
   <tile gid="1073744180"/>
   <tile gid="1073744181"/>
   <tile gid="1073744182"/>
   <tile gid="1073744133"/>
   <tile gid="1073744134"/>
   <tile gid="1073744135"/>
   <tile gid="1073744136"/>
   <tile gid="1073744137"/>
   <tile gid="1073744138"/>
   <tile gid="1073744139"/>
   <tile gid="1073744140"/>
   <tile gid="1073744141"/>
   <tile gid="1073744142"/>
   <tile gid="1073744143"/>
   <tile gid="1073744144"/>
   <tile gid="1073744145"/>
   <tile gid="1073744146"/>
   <tile gid="1073744147"/>
   <tile gid="1073744148"/>
   <tile gid="1073744149"/>
   <tile gid="1073744150"/>
   <tile gid="1073744151"/>
   <tile gid="1073744152"/>
   <tile gid="1073744153"/>
   <tile gid="1073744154"/>
   <tile gid="1073744155"/>
   <tile gid="1073744156"/>
   <tile gid="1073744157"/>
   <tile gid="1073744158"/>
   <tile gid="1073744159"/>
   <tile gid="1073744160"/>
   <tile gid="1073744161"/>
   <tile gid="1073744162"/>
   <tile gid="1073744163"/>
   <tile gid="1073744164"/>
   <tile gid="1073744165"/>
   <tile gid="1073744166"/>
   <tile gid="1073744167"/>
   <tile gid="1073744168"/>
   <tile gid="1073744169"/>
   <tile gid="1073744170"/>
   <tile gid="1073744171"/>
   <tile gid="1073744172"/>
   <tile gid="1073744083"/>
   <tile gid="1073744084"/>
   <tile gid="1073744085"/>
   <tile gid="1073744086"/>
   <tile gid="1073744087"/>
   <tile gid="1073744088"/>
   <tile gid="1073744089"/>
   <tile gid="1073744090"/>
   <tile gid="1073744091"/>
   <tile gid="1073744092"/>
   <tile gid="1073744093"/>
   <tile gid="1073744094"/>
   <tile gid="1073744095"/>
   <tile gid="1073744096"/>
   <tile gid="1073744097"/>
   <tile gid="1073744098"/>
   <tile gid="1073744099"/>
   <tile gid="1073744100"/>
   <tile gid="1073744101"/>
   <tile gid="1073744102"/>
   <tile gid="1073744103"/>
   <tile gid="1073744104"/>
   <tile gid="1073744105"/>
   <tile gid="1073744106"/>
   <tile gid="1073744107"/>
   <tile gid="1073744108"/>
   <tile gid="1073744109"/>
   <tile gid="1073744110"/>
   <tile gid="1073744111"/>
   <tile gid="1073744112"/>
   <tile gid="1073744113"/>
   <tile gid="1073744114"/>
   <tile gid="1073744115"/>
   <tile gid="1073744116"/>
   <tile gid="1073744117"/>
   <tile gid="1073744118"/>
   <tile gid="1073744119"/>
   <tile gid="1073744120"/>
   <tile gid="1073744121"/>
   <tile gid="1073744122"/>
   <tile gid="1073744123"/>
   <tile gid="1073744124"/>
   <tile gid="1073744125"/>
   <tile gid="1073744126"/>
   <tile gid="1073744127"/>
   <tile gid="1073744128"/>
   <tile gid="1073744129"/>
   <tile gid="1073744130"/>
   <tile gid="1073744131"/>
   <tile gid="1073744132"/>
   <tile gid="1073744083"/>
   <tile gid="1073744084"/>
   <tile gid="1073744085"/>
   <tile gid="1073744086"/>
   <tile gid="1073744087"/>
   <tile gid="1073744088"/>
   <tile gid="1073744089"/>
   <tile gid="1073744090"/>
   <tile gid="1073744091"/>
   <tile gid="1073744092"/>
   <tile gid="1073744093"/>
   <tile gid="1073744094"/>
   <tile gid="1073744095"/>
   <tile gid="1073744096"/>
   <tile gid="1073744097"/>
   <tile gid="1073744098"/>
   <tile gid="1073744099"/>
   <tile gid="1073744100"/>
   <tile gid="1073744101"/>
   <tile gid="1073744102"/>
   <tile gid="1073744103"/>
   <tile gid="1073744104"/>
   <tile gid="1073744105"/>
   <tile gid="1073744106"/>
   <tile gid="1073744107"/>
   <tile gid="1073744108"/>
   <tile gid="1073744109"/>
   <tile gid="1073744110"/>
   <tile gid="1073744111"/>
   <tile gid="1073744112"/>
   <tile gid="1073744113"/>
   <tile gid="1073744114"/>
   <tile gid="1073744115"/>
   <tile gid="1073744116"/>
   <tile gid="1073744117"/>
   <tile gid="1073744118"/>
   <tile gid="1073744119"/>
   <tile gid="1073744120"/>
   <tile gid="1073744121"/>
   <tile gid="1073744122"/>
   <tile gid="1073744033"/>
   <tile gid="1073744034"/>
   <tile gid="1073744035"/>
   <tile gid="1073744036"/>
   <tile gid="1073744037"/>
   <tile gid="1073744038"/>
   <tile gid="1073744039"/>
   <tile gid="1073744040"/>
   <tile gid="1073744041"/>
   <tile gid="1073744042"/>
   <tile gid="1073744043"/>
   <tile gid="1073744044"/>
   <tile gid="1073744045"/>
   <tile gid="1073744046"/>
   <tile gid="1073744047"/>
   <tile gid="1073744048"/>
   <tile gid="1073744049"/>
   <tile gid="1073744050"/>
   <tile gid="1073744051"/>
   <tile gid="1073744052"/>
   <tile gid="1073744053"/>
   <tile gid="1073744054"/>
   <tile gid="1073744055"/>
   <tile gid="1073744056"/>
   <tile gid="1073744057"/>
   <tile gid="1073744058"/>
   <tile gid="1073744059"/>
   <tile gid="1073744060"/>
   <tile gid="1073744061"/>
   <tile gid="1073744062"/>
   <tile gid="1073744063"/>
   <tile gid="1073744064"/>
   <tile gid="1073744065"/>
   <tile gid="1073744066"/>
   <tile gid="1073744067"/>
   <tile gid="1073744068"/>
   <tile gid="1073744069"/>
   <tile gid="1073744070"/>
   <tile gid="1073744071"/>
   <tile gid="1073744072"/>
   <tile gid="1073744073"/>
   <tile gid="1073744074"/>
   <tile gid="1073744075"/>
   <tile gid="1073744076"/>
   <tile gid="1073744077"/>
   <tile gid="1073744078"/>
   <tile gid="1073744079"/>
   <tile gid="1073744080"/>
   <tile gid="1073744081"/>
   <tile gid="1073744082"/>
   <tile gid="1073744033"/>
   <tile gid="1073744034"/>
   <tile gid="1073744035"/>
   <tile gid="1073744036"/>
   <tile gid="1073744037"/>
   <tile gid="1073744038"/>
   <tile gid="1073744039"/>
   <tile gid="1073744040"/>
   <tile gid="1073744041"/>
   <tile gid="1073744042"/>
   <tile gid="1073744043"/>
   <tile gid="1073744044"/>
   <tile gid="1073744045"/>
   <tile gid="1073744046"/>
   <tile gid="1073744047"/>
   <tile gid="1073744048"/>
   <tile gid="1073744049"/>
   <tile gid="1073744050"/>
   <tile gid="1073744051"/>
   <tile gid="1073744052"/>
   <tile gid="1073744053"/>
   <tile gid="1073744054"/>
   <tile gid="1073744055"/>
   <tile gid="1073744056"/>
   <tile gid="1073744057"/>
   <tile gid="1073744058"/>
   <tile gid="1073744059"/>
   <tile gid="1073744060"/>
   <tile gid="1073744061"/>
   <tile gid="1073744062"/>
   <tile gid="1073744063"/>
   <tile gid="1073744064"/>
   <tile gid="1073744065"/>
   <tile gid="1073744066"/>
   <tile gid="1073744067"/>
   <tile gid="1073744068"/>
   <tile gid="1073744069"/>
   <tile gid="1073744070"/>
   <tile gid="1073744071"/>
   <tile gid="1073744072"/>
   <tile gid="1073743983"/>
   <tile gid="1073743984"/>
   <tile gid="1073743985"/>
   <tile gid="1073743986"/>
   <tile gid="1073743987"/>
   <tile gid="1073743988"/>
   <tile gid="1073743989"/>
   <tile gid="1073743990"/>
   <tile gid="1073743991"/>
   <tile gid="1073743992"/>
   <tile gid="1073743993"/>
   <tile gid="1073743994"/>
   <tile gid="1073743995"/>
   <tile gid="1073743996"/>
   <tile gid="1073743997"/>
   <tile gid="1073743998"/>
   <tile gid="1073743999"/>
   <tile gid="1073744000"/>
   <tile gid="1073744001"/>
   <tile gid="1073744002"/>
   <tile gid="1073744003"/>
   <tile gid="1073744004"/>
   <tile gid="1073744005"/>
   <tile gid="1073744006"/>
   <tile gid="1073744007"/>
   <tile gid="1073744008"/>
   <tile gid="1073744009"/>
   <tile gid="1073744010"/>
   <tile gid="1073744011"/>
   <tile gid="1073744012"/>
   <tile gid="1073744013"/>
   <tile gid="1073744014"/>
   <tile gid="1073744015"/>
   <tile gid="1073744016"/>
   <tile gid="1073744017"/>
   <tile gid="1073744018"/>
   <tile gid="1073744019"/>
   <tile gid="1073744020"/>
   <tile gid="1073744021"/>
   <tile gid="1073744022"/>
   <tile gid="1073744023"/>
   <tile gid="1073744024"/>
   <tile gid="1073744025"/>
   <tile gid="1073744026"/>
   <tile gid="1073744027"/>
   <tile gid="1073744028"/>
   <tile gid="1073744029"/>
   <tile gid="1073744030"/>
   <tile gid="1073744031"/>
   <tile gid="1073744032"/>
   <tile gid="1073743983"/>
   <tile gid="1073743984"/>
   <tile gid="1073743985"/>
   <tile gid="1073743986"/>
   <tile gid="1073743987"/>
   <tile gid="1073743988"/>
   <tile gid="1073743989"/>
   <tile gid="1073743990"/>
   <tile gid="1073743991"/>
   <tile gid="1073743992"/>
   <tile gid="1073743993"/>
   <tile gid="1073743994"/>
   <tile gid="1073743995"/>
   <tile gid="1073743996"/>
   <tile gid="1073743997"/>
   <tile gid="1073743998"/>
   <tile gid="1073743999"/>
   <tile gid="1073744000"/>
   <tile gid="1073744001"/>
   <tile gid="1073744002"/>
   <tile gid="1073744003"/>
   <tile gid="1073744004"/>
   <tile gid="1073744005"/>
   <tile gid="1073744006"/>
   <tile gid="1073744007"/>
   <tile gid="1073744008"/>
   <tile gid="1073744009"/>
   <tile gid="1073744010"/>
   <tile gid="1073744011"/>
   <tile gid="1073744012"/>
   <tile gid="1073744013"/>
   <tile gid="1073744014"/>
   <tile gid="1073744015"/>
   <tile gid="1073744016"/>
   <tile gid="1073744017"/>
   <tile gid="1073744018"/>
   <tile gid="1073744019"/>
   <tile gid="1073744020"/>
   <tile gid="1073744021"/>
   <tile gid="1073744022"/>
   <tile gid="1073743933"/>
   <tile gid="1073743934"/>
   <tile gid="1073743935"/>
   <tile gid="1073743936"/>
   <tile gid="1073743937"/>
   <tile gid="1073743938"/>
   <tile gid="1073743939"/>
   <tile gid="1073743940"/>
   <tile gid="1073743941"/>
   <tile gid="1073743942"/>
   <tile gid="1073743943"/>
   <tile gid="1073743944"/>
   <tile gid="1073743945"/>
   <tile gid="1073743946"/>
   <tile gid="1073743947"/>
   <tile gid="1073743948"/>
   <tile gid="1073743949"/>
   <tile gid="1073743950"/>
   <tile gid="1073743951"/>
   <tile gid="1073743952"/>
   <tile gid="1073743953"/>
   <tile gid="1073743954"/>
   <tile gid="1073743955"/>
   <tile gid="1073743956"/>
   <tile gid="1073743957"/>
   <tile gid="1073743958"/>
   <tile gid="1073743959"/>
   <tile gid="1073743960"/>
   <tile gid="1073743961"/>
   <tile gid="1073743962"/>
   <tile gid="1073743963"/>
   <tile gid="1073743964"/>
   <tile gid="1073743965"/>
   <tile gid="1073743966"/>
   <tile gid="1073743967"/>
   <tile gid="1073743968"/>
   <tile gid="1073743969"/>
   <tile gid="1073743970"/>
   <tile gid="1073743971"/>
   <tile gid="1073743972"/>
   <tile gid="1073743973"/>
   <tile gid="1073743974"/>
   <tile gid="1073743975"/>
   <tile gid="1073743976"/>
   <tile gid="1073743977"/>
   <tile gid="1073743978"/>
   <tile gid="1073743979"/>
   <tile gid="1073743980"/>
   <tile gid="1073743981"/>
   <tile gid="1073743982"/>
   <tile gid="1073743933"/>
   <tile gid="1073743934"/>
   <tile gid="1073743935"/>
   <tile gid="1073743936"/>
   <tile gid="1073743937"/>
   <tile gid="1073743938"/>
   <tile gid="1073743939"/>
   <tile gid="1073743940"/>
   <tile gid="1073743941"/>
   <tile gid="1073743942"/>
   <tile gid="1073743943"/>
   <tile gid="1073743944"/>
   <tile gid="1073743945"/>
   <tile gid="1073743946"/>
   <tile gid="1073743947"/>
   <tile gid="1073743948"/>
   <tile gid="1073743949"/>
   <tile gid="1073743950"/>
   <tile gid="1073743951"/>
   <tile gid="1073743952"/>
   <tile gid="1073743953"/>
   <tile gid="1073743954"/>
   <tile gid="1073743955"/>
   <tile gid="1073743956"/>
   <tile gid="1073743957"/>
   <tile gid="1073743958"/>
   <tile gid="1073743959"/>
   <tile gid="1073743960"/>
   <tile gid="1073743961"/>
   <tile gid="1073743962"/>
   <tile gid="1073743963"/>
   <tile gid="1073743964"/>
   <tile gid="1073743965"/>
   <tile gid="1073743966"/>
   <tile gid="1073743967"/>
   <tile gid="1073743968"/>
   <tile gid="1073743969"/>
   <tile gid="1073743970"/>
   <tile gid="1073743971"/>
   <tile gid="1073743972"/>
   <tile gid="1073743883"/>
   <tile gid="1073743884"/>
   <tile gid="1073743885"/>
   <tile gid="1073743886"/>
   <tile gid="1073743887"/>
   <tile gid="1073743888"/>
   <tile gid="1073743889"/>
   <tile gid="1073743890"/>
   <tile gid="1073743891"/>
   <tile gid="1073743892"/>
   <tile gid="1073743893"/>
   <tile gid="1073743894"/>
   <tile gid="1073743895"/>
   <tile gid="1073743896"/>
   <tile gid="1073743897"/>
   <tile gid="1073743898"/>
   <tile gid="1073743899"/>
   <tile gid="1073743900"/>
   <tile gid="1073743901"/>
   <tile gid="1073743902"/>
   <tile gid="1073743903"/>
   <tile gid="1073743904"/>
   <tile gid="1073743905"/>
   <tile gid="1073743906"/>
   <tile gid="1073743907"/>
   <tile gid="1073743908"/>
   <tile gid="1073743909"/>
   <tile gid="1073743910"/>
   <tile gid="1073743911"/>
   <tile gid="1073743912"/>
   <tile gid="1073743913"/>
   <tile gid="1073743914"/>
   <tile gid="1073743915"/>
   <tile gid="1073743916"/>
   <tile gid="1073743917"/>
   <tile gid="1073743918"/>
   <tile gid="1073743919"/>
   <tile gid="1073743920"/>
   <tile gid="1073743921"/>
   <tile gid="1073743922"/>
   <tile gid="1073743923"/>
   <tile gid="1073743924"/>
   <tile gid="1073743925"/>
   <tile gid="1073743926"/>
   <tile gid="1073743927"/>
   <tile gid="1073743928"/>
   <tile gid="1073743929"/>
   <tile gid="1073743930"/>
   <tile gid="1073743931"/>
   <tile gid="1073743932"/>
   <tile gid="1073743883"/>
   <tile gid="1073743884"/>
   <tile gid="1073743885"/>
   <tile gid="1073743886"/>
   <tile gid="1073743887"/>
   <tile gid="1073743888"/>
   <tile gid="1073743889"/>
   <tile gid="1073743890"/>
   <tile gid="1073743891"/>
   <tile gid="1073743892"/>
   <tile gid="1073743893"/>
   <tile gid="1073743894"/>
   <tile gid="1073743895"/>
   <tile gid="1073743896"/>
   <tile gid="1073743897"/>
   <tile gid="1073743898"/>
   <tile gid="1073743899"/>
   <tile gid="1073743900"/>
   <tile gid="1073743901"/>
   <tile gid="1073743902"/>
   <tile gid="1073743903"/>
   <tile gid="1073743904"/>
   <tile gid="1073743905"/>
   <tile gid="1073743906"/>
   <tile gid="1073743907"/>
   <tile gid="1073743908"/>
   <tile gid="1073743909"/>
   <tile gid="1073743910"/>
   <tile gid="1073743911"/>
   <tile gid="1073743912"/>
   <tile gid="1073743913"/>
   <tile gid="1073743914"/>
   <tile gid="1073743915"/>
   <tile gid="1073743916"/>
   <tile gid="1073743917"/>
   <tile gid="1073743918"/>
   <tile gid="1073743919"/>
   <tile gid="1073743920"/>
   <tile gid="1073743921"/>
   <tile gid="1073743922"/>
   <tile gid="1073743833"/>
   <tile gid="1073743834"/>
   <tile gid="1073743835"/>
   <tile gid="1073743836"/>
   <tile gid="1073743837"/>
   <tile gid="1073743838"/>
   <tile gid="1073743839"/>
   <tile gid="1073743840"/>
   <tile gid="1073743841"/>
   <tile gid="1073743842"/>
   <tile gid="1073743843"/>
   <tile gid="1073743844"/>
   <tile gid="1073743845"/>
   <tile gid="1073743846"/>
   <tile gid="1073743847"/>
   <tile gid="1073743848"/>
   <tile gid="1073743849"/>
   <tile gid="1073743850"/>
   <tile gid="1073743851"/>
   <tile gid="1073743852"/>
   <tile gid="1073743853"/>
   <tile gid="1073743854"/>
   <tile gid="1073743855"/>
   <tile gid="1073743856"/>
   <tile gid="1073743857"/>
   <tile gid="1073743858"/>
   <tile gid="1073743859"/>
   <tile gid="1073743860"/>
   <tile gid="1073743861"/>
   <tile gid="1073743862"/>
   <tile gid="1073743863"/>
   <tile gid="1073743864"/>
   <tile gid="1073743865"/>
   <tile gid="1073743866"/>
   <tile gid="1073743867"/>
   <tile gid="1073743868"/>
   <tile gid="1073743869"/>
   <tile gid="1073743870"/>
   <tile gid="1073743871"/>
   <tile gid="1073743872"/>
   <tile gid="1073743873"/>
   <tile gid="1073743874"/>
   <tile gid="1073743875"/>
   <tile gid="1073743876"/>
   <tile gid="1073743877"/>
   <tile gid="1073743878"/>
   <tile gid="1073743879"/>
   <tile gid="1073743880"/>
   <tile gid="1073743881"/>
   <tile gid="1073743882"/>
   <tile gid="1073743833"/>
   <tile gid="1073743834"/>
   <tile gid="1073743835"/>
   <tile gid="1073743836"/>
   <tile gid="1073743837"/>
   <tile gid="1073743838"/>
   <tile gid="1073743839"/>
   <tile gid="1073743840"/>
   <tile gid="1073743841"/>
   <tile gid="1073743842"/>
   <tile gid="1073743843"/>
   <tile gid="1073743844"/>
   <tile gid="1073743845"/>
   <tile gid="1073743846"/>
   <tile gid="1073743847"/>
   <tile gid="1073743848"/>
   <tile gid="1073743849"/>
   <tile gid="1073743850"/>
   <tile gid="1073743851"/>
   <tile gid="1073743852"/>
   <tile gid="1073743853"/>
   <tile gid="1073743854"/>
   <tile gid="1073743855"/>
   <tile gid="1073743856"/>
   <tile gid="1073743857"/>
   <tile gid="1073743858"/>
   <tile gid="1073743859"/>
   <tile gid="1073743860"/>
   <tile gid="1073743861"/>
   <tile gid="1073743862"/>
   <tile gid="1073743863"/>
   <tile gid="1073743864"/>
   <tile gid="1073743865"/>
   <tile gid="1073743866"/>
   <tile gid="1073743867"/>
   <tile gid="1073743868"/>
   <tile gid="1073743869"/>
   <tile gid="1073743870"/>
   <tile gid="1073743871"/>
   <tile gid="1073743872"/>
   <tile gid="1073743783"/>
   <tile gid="1073743784"/>
   <tile gid="1073743785"/>
   <tile gid="1073743786"/>
   <tile gid="1073743787"/>
   <tile gid="1073743788"/>
   <tile gid="1073743789"/>
   <tile gid="1073743790"/>
   <tile gid="1073743791"/>
   <tile gid="1073743792"/>
   <tile gid="1073743793"/>
   <tile gid="1073743794"/>
   <tile gid="1073743795"/>
   <tile gid="1073743796"/>
   <tile gid="1073743797"/>
   <tile gid="1073743798"/>
   <tile gid="1073743799"/>
   <tile gid="1073743800"/>
   <tile gid="1073743801"/>
   <tile gid="1073743802"/>
   <tile gid="1073743803"/>
   <tile gid="1073743804"/>
   <tile gid="1073743805"/>
   <tile gid="1073743806"/>
   <tile gid="1073743807"/>
   <tile gid="1073743808"/>
   <tile gid="1073743809"/>
   <tile gid="1073743810"/>
   <tile gid="1073743811"/>
   <tile gid="1073743812"/>
   <tile gid="1073743813"/>
   <tile gid="1073743814"/>
   <tile gid="1073743815"/>
   <tile gid="1073743816"/>
   <tile gid="1073743817"/>
   <tile gid="1073743818"/>
   <tile gid="1073743819"/>
   <tile gid="1073743820"/>
   <tile gid="1073743821"/>
   <tile gid="1073743822"/>
   <tile gid="1073743823"/>
   <tile gid="1073743824"/>
   <tile gid="1073743825"/>
   <tile gid="1073743826"/>
   <tile gid="1073743827"/>
   <tile gid="1073743828"/>
   <tile gid="1073743829"/>
   <tile gid="1073743830"/>
   <tile gid="1073743831"/>
   <tile gid="1073743832"/>
   <tile gid="1073743783"/>
   <tile gid="1073743784"/>
   <tile gid="1073743785"/>
   <tile gid="1073743786"/>
   <tile gid="1073743787"/>
   <tile gid="1073743788"/>
   <tile gid="1073743789"/>
   <tile gid="1073743790"/>
   <tile gid="1073743791"/>
   <tile gid="1073743792"/>
   <tile gid="1073743793"/>
   <tile gid="1073743794"/>
   <tile gid="1073743795"/>
   <tile gid="1073743796"/>
   <tile gid="1073743797"/>
   <tile gid="1073743798"/>
   <tile gid="1073743799"/>
   <tile gid="1073743800"/>
   <tile gid="1073743801"/>
   <tile gid="1073743802"/>
   <tile gid="1073743803"/>
   <tile gid="1073743804"/>
   <tile gid="1073743805"/>
   <tile gid="1073743806"/>
   <tile gid="1073743807"/>
   <tile gid="1073743808"/>
   <tile gid="1073743809"/>
   <tile gid="1073743810"/>
   <tile gid="1073743811"/>
   <tile gid="1073743812"/>
   <tile gid="1073743813"/>
   <tile gid="1073743814"/>
   <tile gid="1073743815"/>
   <tile gid="1073743816"/>
   <tile gid="1073743817"/>
   <tile gid="1073743818"/>
   <tile gid="1073743819"/>
   <tile gid="1073743820"/>
   <tile gid="1073743821"/>
   <tile gid="1073743822"/>
   <tile gid="1073743733"/>
   <tile gid="1073743734"/>
   <tile gid="1073743735"/>
   <tile gid="1073743736"/>
   <tile gid="1073743737"/>
   <tile gid="1073743738"/>
   <tile gid="1073743739"/>
   <tile gid="1073743740"/>
   <tile gid="1073743741"/>
   <tile gid="1073743742"/>
   <tile gid="1073743743"/>
   <tile gid="1073743744"/>
   <tile gid="1073743745"/>
   <tile gid="1073743746"/>
   <tile gid="1073743747"/>
   <tile gid="1073743748"/>
   <tile gid="1073743749"/>
   <tile gid="1073743750"/>
   <tile gid="1073743751"/>
   <tile gid="1073743752"/>
   <tile gid="1073743753"/>
   <tile gid="1073743754"/>
   <tile gid="1073743755"/>
   <tile gid="1073743756"/>
   <tile gid="1073743757"/>
   <tile gid="1073743758"/>
   <tile gid="1073743759"/>
   <tile gid="1073743760"/>
   <tile gid="1073743761"/>
   <tile gid="1073743762"/>
   <tile gid="1073743763"/>
   <tile gid="1073743764"/>
   <tile gid="1073743765"/>
   <tile gid="1073743766"/>
   <tile gid="1073743767"/>
   <tile gid="1073743768"/>
   <tile gid="1073743769"/>
   <tile gid="1073743770"/>
   <tile gid="1073743771"/>
   <tile gid="1073743772"/>
   <tile gid="1073743773"/>
   <tile gid="1073743774"/>
   <tile gid="1073743775"/>
   <tile gid="1073743776"/>
   <tile gid="1073743777"/>
   <tile gid="1073743778"/>
   <tile gid="1073743779"/>
   <tile gid="1073743780"/>
   <tile gid="1073743781"/>
   <tile gid="1073743782"/>
   <tile gid="1073743733"/>
   <tile gid="1073743734"/>
   <tile gid="1073743735"/>
   <tile gid="1073743736"/>
   <tile gid="1073743737"/>
   <tile gid="1073743738"/>
   <tile gid="1073743739"/>
   <tile gid="1073743740"/>
   <tile gid="1073743741"/>
   <tile gid="1073743742"/>
   <tile gid="1073743743"/>
   <tile gid="1073743744"/>
   <tile gid="1073743745"/>
   <tile gid="1073743746"/>
   <tile gid="1073743747"/>
   <tile gid="1073743748"/>
   <tile gid="1073743749"/>
   <tile gid="1073743750"/>
   <tile gid="1073743751"/>
   <tile gid="1073743752"/>
   <tile gid="1073743753"/>
   <tile gid="1073743754"/>
   <tile gid="1073743755"/>
   <tile gid="1073743756"/>
   <tile gid="1073743757"/>
   <tile gid="1073743758"/>
   <tile gid="1073743759"/>
   <tile gid="1073743760"/>
   <tile gid="1073743761"/>
   <tile gid="1073743762"/>
   <tile gid="1073743763"/>
   <tile gid="1073743764"/>
   <tile gid="1073743765"/>
   <tile gid="1073743766"/>
   <tile gid="1073743767"/>
   <tile gid="1073743768"/>
   <tile gid="1073743769"/>
   <tile gid="1073743770"/>
   <tile gid="1073743771"/>
   <tile gid="1073743772"/>
   <tile gid="1073743683"/>
   <tile gid="1073743684"/>
   <tile gid="1073743685"/>
   <tile gid="1073743686"/>
   <tile gid="1073743687"/>
   <tile gid="1073743688"/>
   <tile gid="1073743689"/>
   <tile gid="1073743690"/>
   <tile gid="1073743691"/>
   <tile gid="1073743692"/>
   <tile gid="1073743693"/>
   <tile gid="1073743694"/>
   <tile gid="1073743695"/>
   <tile gid="1073743696"/>
   <tile gid="1073743697"/>
   <tile gid="1073743698"/>
   <tile gid="1073743699"/>
   <tile gid="1073743700"/>
   <tile gid="1073743701"/>
   <tile gid="1073743702"/>
   <tile gid="1073743703"/>
   <tile gid="1073743704"/>
   <tile gid="1073743705"/>
   <tile gid="1073743706"/>
   <tile gid="1073743707"/>
   <tile gid="1073743708"/>
   <tile gid="1073743709"/>
   <tile gid="1073743710"/>
   <tile gid="1073743711"/>
   <tile gid="1073743712"/>
   <tile gid="1073743713"/>
   <tile gid="1073743714"/>
   <tile gid="1073743715"/>
   <tile gid="1073743716"/>
   <tile gid="1073743717"/>
   <tile gid="1073743718"/>
   <tile gid="1073743719"/>
   <tile gid="1073743720"/>
   <tile gid="1073743721"/>
   <tile gid="1073743722"/>
   <tile gid="1073743723"/>
   <tile gid="1073743724"/>
   <tile gid="1073743725"/>
   <tile gid="1073743726"/>
   <tile gid="1073743727"/>
   <tile gid="1073743728"/>
   <tile gid="1073743729"/>
   <tile gid="1073743730"/>
   <tile gid="1073743731"/>
   <tile gid="1073743732"/>
   <tile gid="1073743683"/>
   <tile gid="1073743684"/>
   <tile gid="1073743685"/>
   <tile gid="1073743686"/>
   <tile gid="1073743687"/>
   <tile gid="1073743688"/>
   <tile gid="1073743689"/>
   <tile gid="1073743690"/>
   <tile gid="1073743691"/>
   <tile gid="1073743692"/>
   <tile gid="1073743693"/>
   <tile gid="1073743694"/>
   <tile gid="1073743695"/>
   <tile gid="1073743696"/>
   <tile gid="1073743697"/>
   <tile gid="1073743698"/>
   <tile gid="1073743699"/>
   <tile gid="1073743700"/>
   <tile gid="1073743701"/>
   <tile gid="1073743702"/>
   <tile gid="1073743703"/>
   <tile gid="1073743704"/>
   <tile gid="1073743705"/>
   <tile gid="1073743706"/>
   <tile gid="1073743707"/>
   <tile gid="1073743708"/>
   <tile gid="1073743709"/>
   <tile gid="1073743710"/>
   <tile gid="1073743711"/>
   <tile gid="1073743712"/>
   <tile gid="1073743713"/>
   <tile gid="1073743714"/>
   <tile gid="1073743715"/>
   <tile gid="1073743716"/>
   <tile gid="1073743717"/>
   <tile gid="1073743718"/>
   <tile gid="1073743719"/>
   <tile gid="1073743720"/>
   <tile gid="1073743721"/>
   <tile gid="1073743722"/>
   <tile gid="1073743633"/>
   <tile gid="1073743634"/>
   <tile gid="1073743635"/>
   <tile gid="1073743636"/>
   <tile gid="1073743637"/>
   <tile gid="1073743638"/>
   <tile gid="1073743639"/>
   <tile gid="1073743640"/>
   <tile gid="1073743641"/>
   <tile gid="1073743642"/>
   <tile gid="1073743643"/>
   <tile gid="1073743644"/>
   <tile gid="1073743645"/>
   <tile gid="1073743646"/>
   <tile gid="1073743647"/>
   <tile gid="1073743648"/>
   <tile gid="1073743649"/>
   <tile gid="1073743650"/>
   <tile gid="1073743651"/>
   <tile gid="1073743652"/>
   <tile gid="1073743653"/>
   <tile gid="1073743654"/>
   <tile gid="1073743655"/>
   <tile gid="1073743656"/>
   <tile gid="1073743657"/>
   <tile gid="1073743658"/>
   <tile gid="1073743659"/>
   <tile gid="1073743660"/>
   <tile gid="1073743661"/>
   <tile gid="1073743662"/>
   <tile gid="1073743663"/>
   <tile gid="1073743664"/>
   <tile gid="1073743665"/>
   <tile gid="1073743666"/>
   <tile gid="1073743667"/>
   <tile gid="1073743668"/>
   <tile gid="1073743669"/>
   <tile gid="1073743670"/>
   <tile gid="1073743671"/>
   <tile gid="1073743672"/>
   <tile gid="1073743673"/>
   <tile gid="1073743674"/>
   <tile gid="1073743675"/>
   <tile gid="1073743676"/>
   <tile gid="1073743677"/>
   <tile gid="1073743678"/>
   <tile gid="1073743679"/>
   <tile gid="1073743680"/>
   <tile gid="1073743681"/>
   <tile gid="1073743682"/>
   <tile gid="1073743633"/>
   <tile gid="1073743634"/>
   <tile gid="1073743635"/>
   <tile gid="1073743636"/>
   <tile gid="1073743637"/>
   <tile gid="1073743638"/>
   <tile gid="1073743639"/>
   <tile gid="1073743640"/>
   <tile gid="1073743641"/>
   <tile gid="1073743642"/>
   <tile gid="1073743643"/>
   <tile gid="1073743644"/>
   <tile gid="1073743645"/>
   <tile gid="1073743646"/>
   <tile gid="1073743647"/>
   <tile gid="1073743648"/>
   <tile gid="1073743649"/>
   <tile gid="1073743650"/>
   <tile gid="1073743651"/>
   <tile gid="1073743652"/>
   <tile gid="1073743653"/>
   <tile gid="1073743654"/>
   <tile gid="1073743655"/>
   <tile gid="1073743656"/>
   <tile gid="1073743657"/>
   <tile gid="1073743658"/>
   <tile gid="1073743659"/>
   <tile gid="1073743660"/>
   <tile gid="1073743661"/>
   <tile gid="1073743662"/>
   <tile gid="1073743663"/>
   <tile gid="1073743664"/>
   <tile gid="1073743665"/>
   <tile gid="1073743666"/>
   <tile gid="1073743667"/>
   <tile gid="1073743668"/>
   <tile gid="1073743669"/>
   <tile gid="1073743670"/>
   <tile gid="1073743671"/>
   <tile gid="1073743672"/>
   <tile gid="1073743583"/>
   <tile gid="1073743584"/>
   <tile gid="1073743585"/>
   <tile gid="1073743586"/>
   <tile gid="1073743587"/>
   <tile gid="1073743588"/>
   <tile gid="1073743589"/>
   <tile gid="1073743590"/>
   <tile gid="1073743591"/>
   <tile gid="1073743592"/>
   <tile gid="1073743593"/>
   <tile gid="1073743594"/>
   <tile gid="1073743595"/>
   <tile gid="1073743596"/>
   <tile gid="1073743597"/>
   <tile gid="1073743598"/>
   <tile gid="1073743599"/>
   <tile gid="1073743600"/>
   <tile gid="1073743601"/>
   <tile gid="1073743602"/>
   <tile gid="1073743603"/>
   <tile gid="1073743604"/>
   <tile gid="1073743605"/>
   <tile gid="1073743606"/>
   <tile gid="1073743607"/>
   <tile gid="1073743608"/>
   <tile gid="1073743609"/>
   <tile gid="1073743610"/>
   <tile gid="1073743611"/>
   <tile gid="1073743612"/>
   <tile gid="1073743613"/>
   <tile gid="1073743614"/>
   <tile gid="1073743615"/>
   <tile gid="1073743616"/>
   <tile gid="1073743617"/>
   <tile gid="1073743618"/>
   <tile gid="1073743619"/>
   <tile gid="1073743620"/>
   <tile gid="1073743621"/>
   <tile gid="1073743622"/>
   <tile gid="1073743623"/>
   <tile gid="1073743624"/>
   <tile gid="1073743625"/>
   <tile gid="1073743626"/>
   <tile gid="1073743627"/>
   <tile gid="1073743628"/>
   <tile gid="1073743629"/>
   <tile gid="1073743630"/>
   <tile gid="1073743631"/>
   <tile gid="1073743632"/>
   <tile gid="1073743583"/>
   <tile gid="1073743584"/>
   <tile gid="1073743585"/>
   <tile gid="1073743586"/>
   <tile gid="1073743587"/>
   <tile gid="1073743588"/>
   <tile gid="1073743589"/>
   <tile gid="1073743590"/>
   <tile gid="1073743591"/>
   <tile gid="1073743592"/>
   <tile gid="1073743593"/>
   <tile gid="1073743594"/>
   <tile gid="1073743595"/>
   <tile gid="1073743596"/>
   <tile gid="1073743597"/>
   <tile gid="1073743598"/>
   <tile gid="1073743599"/>
   <tile gid="1073743600"/>
   <tile gid="1073743601"/>
   <tile gid="1073743602"/>
   <tile gid="1073743603"/>
   <tile gid="1073743604"/>
   <tile gid="1073743605"/>
   <tile gid="1073743606"/>
   <tile gid="1073743607"/>
   <tile gid="1073743608"/>
   <tile gid="1073743609"/>
   <tile gid="1073743610"/>
   <tile gid="1073743611"/>
   <tile gid="1073743612"/>
   <tile gid="1073743613"/>
   <tile gid="1073743614"/>
   <tile gid="1073743615"/>
   <tile gid="1073743616"/>
   <tile gid="1073743617"/>
   <tile gid="1073743618"/>
   <tile gid="1073743619"/>
   <tile gid="1073743620"/>
   <tile gid="1073743621"/>
   <tile gid="1073743622"/>
   <tile gid="1073743533"/>
   <tile gid="1073743534"/>
   <tile gid="1073743535"/>
   <tile gid="1073743536"/>
   <tile gid="1073743537"/>
   <tile gid="1073743538"/>
   <tile gid="1073743539"/>
   <tile gid="1073743540"/>
   <tile gid="1073743541"/>
   <tile gid="1073743542"/>
   <tile gid="1073743543"/>
   <tile gid="1073743544"/>
   <tile gid="1073743545"/>
   <tile gid="1073743546"/>
   <tile gid="1073743547"/>
   <tile gid="1073743548"/>
   <tile gid="1073743549"/>
   <tile gid="1073743550"/>
   <tile gid="1073743551"/>
   <tile gid="1073743552"/>
   <tile gid="1073743553"/>
   <tile gid="1073743554"/>
   <tile gid="1073743555"/>
   <tile gid="1073743556"/>
   <tile gid="1073743557"/>
   <tile gid="1073743558"/>
   <tile gid="1073743559"/>
   <tile gid="1073743560"/>
   <tile gid="1073743561"/>
   <tile gid="1073743562"/>
   <tile gid="1073743563"/>
   <tile gid="1073743564"/>
   <tile gid="1073743565"/>
   <tile gid="1073743566"/>
   <tile gid="1073743567"/>
   <tile gid="1073743568"/>
   <tile gid="1073743569"/>
   <tile gid="1073743570"/>
   <tile gid="1073743571"/>
   <tile gid="1073743572"/>
   <tile gid="1073743573"/>
   <tile gid="1073743574"/>
   <tile gid="1073743575"/>
   <tile gid="1073743576"/>
   <tile gid="1073743577"/>
   <tile gid="1073743578"/>
   <tile gid="1073743579"/>
   <tile gid="1073743580"/>
   <tile gid="1073743581"/>
   <tile gid="1073743582"/>
   <tile gid="1073743533"/>
   <tile gid="1073743534"/>
   <tile gid="1073743535"/>
   <tile gid="1073743536"/>
   <tile gid="1073743537"/>
   <tile gid="1073743538"/>
   <tile gid="1073743539"/>
   <tile gid="1073743540"/>
   <tile gid="1073743541"/>
   <tile gid="1073743542"/>
   <tile gid="1073743543"/>
   <tile gid="1073743544"/>
   <tile gid="1073743545"/>
   <tile gid="1073743546"/>
   <tile gid="1073743547"/>
   <tile gid="1073743548"/>
   <tile gid="1073743549"/>
   <tile gid="1073743550"/>
   <tile gid="1073743551"/>
   <tile gid="1073743552"/>
   <tile gid="1073743553"/>
   <tile gid="1073743554"/>
   <tile gid="1073743555"/>
   <tile gid="1073743556"/>
   <tile gid="1073743557"/>
   <tile gid="1073743558"/>
   <tile gid="1073743559"/>
   <tile gid="1073743560"/>
   <tile gid="1073743561"/>
   <tile gid="1073743562"/>
   <tile gid="1073743563"/>
   <tile gid="1073743564"/>
   <tile gid="1073743565"/>
   <tile gid="1073743566"/>
   <tile gid="1073743567"/>
   <tile gid="1073743568"/>
   <tile gid="1073743569"/>
   <tile gid="1073743570"/>
   <tile gid="1073743571"/>
   <tile gid="1073743572"/>
   <tile gid="1073743483"/>
   <tile gid="1073743484"/>
   <tile gid="1073743485"/>
   <tile gid="1073743486"/>
   <tile gid="1073743487"/>
   <tile gid="1073743488"/>
   <tile gid="1073743489"/>
   <tile gid="1073743490"/>
   <tile gid="1073743491"/>
   <tile gid="1073743492"/>
   <tile gid="1073743493"/>
   <tile gid="1073743494"/>
   <tile gid="1073743495"/>
   <tile gid="1073743496"/>
   <tile gid="1073743497"/>
   <tile gid="1073743498"/>
   <tile gid="1073743499"/>
   <tile gid="1073743500"/>
   <tile gid="1073743501"/>
   <tile gid="1073743502"/>
   <tile gid="1073743503"/>
   <tile gid="1073743504"/>
   <tile gid="1073743505"/>
   <tile gid="1073743506"/>
   <tile gid="1073743507"/>
   <tile gid="1073743508"/>
   <tile gid="1073743509"/>
   <tile gid="1073743510"/>
   <tile gid="1073743511"/>
   <tile gid="1073743512"/>
   <tile gid="1073743513"/>
   <tile gid="1073743514"/>
   <tile gid="1073743515"/>
   <tile gid="1073743516"/>
   <tile gid="1073743517"/>
   <tile gid="1073743518"/>
   <tile gid="1073743519"/>
   <tile gid="1073743520"/>
   <tile gid="1073743521"/>
   <tile gid="1073743522"/>
   <tile gid="1073743523"/>
   <tile gid="1073743524"/>
   <tile gid="1073743525"/>
   <tile gid="1073743526"/>
   <tile gid="1073743527"/>
   <tile gid="1073743528"/>
   <tile gid="1073743529"/>
   <tile gid="1073743530"/>
   <tile gid="1073743531"/>
   <tile gid="1073743532"/>
   <tile gid="1073743483"/>
   <tile gid="1073743484"/>
   <tile gid="1073743485"/>
   <tile gid="1073743486"/>
   <tile gid="1073743487"/>
   <tile gid="1073743488"/>
   <tile gid="1073743489"/>
   <tile gid="1073743490"/>
   <tile gid="1073743491"/>
   <tile gid="1073743492"/>
   <tile gid="1073743493"/>
   <tile gid="1073743494"/>
   <tile gid="1073743495"/>
   <tile gid="1073743496"/>
   <tile gid="1073743497"/>
   <tile gid="1073743498"/>
   <tile gid="1073743499"/>
   <tile gid="1073743500"/>
   <tile gid="1073743501"/>
   <tile gid="1073743502"/>
   <tile gid="1073743503"/>
   <tile gid="1073743504"/>
   <tile gid="1073743505"/>
   <tile gid="1073743506"/>
   <tile gid="1073743507"/>
   <tile gid="1073743508"/>
   <tile gid="1073743509"/>
   <tile gid="1073743510"/>
   <tile gid="1073743511"/>
   <tile gid="1073743512"/>
   <tile gid="1073743513"/>
   <tile gid="1073743514"/>
   <tile gid="1073743515"/>
   <tile gid="1073743516"/>
   <tile gid="1073743517"/>
   <tile gid="1073743518"/>
   <tile gid="1073743519"/>
   <tile gid="1073743520"/>
   <tile gid="1073743521"/>
   <tile gid="1073743522"/>
   <tile gid="1073743433"/>
   <tile gid="1073743434"/>
   <tile gid="1073743435"/>
   <tile gid="1073743436"/>
   <tile gid="1073743437"/>
   <tile gid="1073743438"/>
   <tile gid="1073743439"/>
   <tile gid="1073743440"/>
   <tile gid="1073743441"/>
   <tile gid="1073743442"/>
   <tile gid="1073743443"/>
   <tile gid="1073743444"/>
   <tile gid="1073743445"/>
   <tile gid="1073743446"/>
   <tile gid="1073743447"/>
   <tile gid="1073743448"/>
   <tile gid="1073743449"/>
   <tile gid="1073743450"/>
   <tile gid="1073743451"/>
   <tile gid="1073743452"/>
   <tile gid="1073743453"/>
   <tile gid="1073743454"/>
   <tile gid="1073743455"/>
   <tile gid="1073743456"/>
   <tile gid="1073743457"/>
   <tile gid="1073743458"/>
   <tile gid="1073743459"/>
   <tile gid="1073743460"/>
   <tile gid="1073743461"/>
   <tile gid="1073743462"/>
   <tile gid="1073743463"/>
   <tile gid="1073743464"/>
   <tile gid="1073743465"/>
   <tile gid="1073743466"/>
   <tile gid="1073743467"/>
   <tile gid="1073743468"/>
   <tile gid="1073743469"/>
   <tile gid="1073743470"/>
   <tile gid="1073743471"/>
   <tile gid="1073743472"/>
   <tile gid="1073743473"/>
   <tile gid="1073743474"/>
   <tile gid="1073743475"/>
   <tile gid="1073743476"/>
   <tile gid="1073743477"/>
   <tile gid="1073743478"/>
   <tile gid="1073743479"/>
   <tile gid="1073743480"/>
   <tile gid="1073743481"/>
   <tile gid="1073743482"/>
   <tile gid="1073743433"/>
   <tile gid="1073743434"/>
   <tile gid="1073743435"/>
   <tile gid="1073743436"/>
   <tile gid="1073743437"/>
   <tile gid="1073743438"/>
   <tile gid="1073743439"/>
   <tile gid="1073743440"/>
   <tile gid="1073743441"/>
   <tile gid="1073743442"/>
   <tile gid="1073743443"/>
   <tile gid="1073743444"/>
   <tile gid="1073743445"/>
   <tile gid="1073743446"/>
   <tile gid="1073743447"/>
   <tile gid="1073743448"/>
   <tile gid="1073743449"/>
   <tile gid="1073743450"/>
   <tile gid="1073743451"/>
   <tile gid="1073743452"/>
   <tile gid="1073743453"/>
   <tile gid="1073743454"/>
   <tile gid="1073743455"/>
   <tile gid="1073743456"/>
   <tile gid="1073743457"/>
   <tile gid="1073743458"/>
   <tile gid="1073743459"/>
   <tile gid="1073743460"/>
   <tile gid="1073743461"/>
   <tile gid="1073743462"/>
   <tile gid="1073743463"/>
   <tile gid="1073743464"/>
   <tile gid="1073743465"/>
   <tile gid="1073743466"/>
   <tile gid="1073743467"/>
   <tile gid="1073743468"/>
   <tile gid="1073743469"/>
   <tile gid="1073743470"/>
   <tile gid="1073743471"/>
   <tile gid="1073743472"/>
   <tile gid="1073743383"/>
   <tile gid="1073743384"/>
   <tile gid="1073743385"/>
   <tile gid="1073743386"/>
   <tile gid="1073743387"/>
   <tile gid="1073743388"/>
   <tile gid="1073743389"/>
   <tile gid="1073743390"/>
   <tile gid="1073743391"/>
   <tile gid="1073743392"/>
   <tile gid="1073743393"/>
   <tile gid="1073743394"/>
   <tile gid="1073743395"/>
   <tile gid="1073743396"/>
   <tile gid="1073743397"/>
   <tile gid="1073743398"/>
   <tile gid="1073743399"/>
   <tile gid="1073743400"/>
   <tile gid="1073743401"/>
   <tile gid="1073743402"/>
   <tile gid="1073743403"/>
   <tile gid="1073743404"/>
   <tile gid="1073743405"/>
   <tile gid="1073743406"/>
   <tile gid="1073743407"/>
   <tile gid="1073743408"/>
   <tile gid="1073743409"/>
   <tile gid="1073743410"/>
   <tile gid="1073743411"/>
   <tile gid="1073743412"/>
   <tile gid="1073743413"/>
   <tile gid="1073743414"/>
   <tile gid="1073743415"/>
   <tile gid="1073743416"/>
   <tile gid="1073743417"/>
   <tile gid="1073743418"/>
   <tile gid="1073743419"/>
   <tile gid="1073743420"/>
   <tile gid="1073743421"/>
   <tile gid="1073743422"/>
   <tile gid="1073743423"/>
   <tile gid="1073743424"/>
   <tile gid="1073743425"/>
   <tile gid="1073743426"/>
   <tile gid="1073743427"/>
   <tile gid="1073743428"/>
   <tile gid="1073743429"/>
   <tile gid="1073743430"/>
   <tile gid="1073743431"/>
   <tile gid="1073743432"/>
   <tile gid="1073743383"/>
   <tile gid="1073743384"/>
   <tile gid="1073743385"/>
   <tile gid="1073743386"/>
   <tile gid="1073743387"/>
   <tile gid="1073743388"/>
   <tile gid="1073743389"/>
   <tile gid="1073743390"/>
   <tile gid="1073743391"/>
   <tile gid="1073743392"/>
   <tile gid="1073743393"/>
   <tile gid="1073743394"/>
   <tile gid="1073743395"/>
   <tile gid="1073743396"/>
   <tile gid="1073743397"/>
   <tile gid="1073743398"/>
   <tile gid="1073743399"/>
   <tile gid="1073743400"/>
   <tile gid="1073743401"/>
   <tile gid="1073743402"/>
   <tile gid="1073743403"/>
   <tile gid="1073743404"/>
   <tile gid="1073743405"/>
   <tile gid="1073743406"/>
   <tile gid="1073743407"/>
   <tile gid="1073743408"/>
   <tile gid="1073743409"/>
   <tile gid="1073743410"/>
   <tile gid="1073743411"/>
   <tile gid="1073743412"/>
   <tile gid="1073743413"/>
   <tile gid="1073743414"/>
   <tile gid="1073743415"/>
   <tile gid="1073743416"/>
   <tile gid="1073743417"/>
   <tile gid="1073743418"/>
   <tile gid="1073743419"/>
   <tile gid="1073743420"/>
   <tile gid="1073743421"/>
   <tile gid="1073743422"/>
   <tile gid="1073743333"/>
   <tile gid="1073743334"/>
   <tile gid="1073743335"/>
   <tile gid="1073743336"/>
   <tile gid="1073743337"/>
   <tile gid="1073743338"/>
   <tile gid="1073743339"/>
   <tile gid="1073743340"/>
   <tile gid="1073743341"/>
   <tile gid="1073743342"/>
   <tile gid="1073743343"/>
   <tile gid="1073743344"/>
   <tile gid="1073743345"/>
   <tile gid="1073743346"/>
   <tile gid="1073743347"/>
   <tile gid="1073743348"/>
   <tile gid="1073743349"/>
   <tile gid="1073743350"/>
   <tile gid="1073743351"/>
   <tile gid="1073743352"/>
   <tile gid="1073743353"/>
   <tile gid="1073743354"/>
   <tile gid="1073743355"/>
   <tile gid="1073743356"/>
   <tile gid="1073743357"/>
   <tile gid="1073743358"/>
   <tile gid="1073743359"/>
   <tile gid="1073743360"/>
   <tile gid="1073743361"/>
   <tile gid="1073743362"/>
   <tile gid="1073743363"/>
   <tile gid="1073743364"/>
   <tile gid="1073743365"/>
   <tile gid="1073743366"/>
   <tile gid="1073743367"/>
   <tile gid="1073743368"/>
   <tile gid="1073743369"/>
   <tile gid="1073743370"/>
   <tile gid="1073743371"/>
   <tile gid="1073743372"/>
   <tile gid="1073743373"/>
   <tile gid="1073743374"/>
   <tile gid="1073743375"/>
   <tile gid="1073743376"/>
   <tile gid="1073743377"/>
   <tile gid="1073743378"/>
   <tile gid="1073743379"/>
   <tile gid="1073743380"/>
   <tile gid="1073743381"/>
   <tile gid="1073743382"/>
   <tile gid="1073743333"/>
   <tile gid="1073743334"/>
   <tile gid="1073743335"/>
   <tile gid="1073743336"/>
   <tile gid="1073743337"/>
   <tile gid="1073743338"/>
   <tile gid="1073743339"/>
   <tile gid="1073743340"/>
   <tile gid="1073743341"/>
   <tile gid="1073743342"/>
   <tile gid="1073743343"/>
   <tile gid="1073743344"/>
   <tile gid="1073743345"/>
   <tile gid="1073743346"/>
   <tile gid="1073743347"/>
   <tile gid="1073743348"/>
   <tile gid="1073743349"/>
   <tile gid="1073743350"/>
   <tile gid="1073743351"/>
   <tile gid="1073743352"/>
   <tile gid="1073743353"/>
   <tile gid="1073743354"/>
   <tile gid="1073743355"/>
   <tile gid="1073743356"/>
   <tile gid="1073743357"/>
   <tile gid="1073743358"/>
   <tile gid="1073743359"/>
   <tile gid="1073743360"/>
   <tile gid="1073743361"/>
   <tile gid="1073743362"/>
   <tile gid="1073743363"/>
   <tile gid="1073743364"/>
   <tile gid="1073743365"/>
   <tile gid="1073743366"/>
   <tile gid="1073743367"/>
   <tile gid="1073743368"/>
   <tile gid="1073743369"/>
   <tile gid="1073743370"/>
   <tile gid="1073743371"/>
   <tile gid="1073743372"/>
   <tile gid="1073743283"/>
   <tile gid="1073743284"/>
   <tile gid="1073743285"/>
   <tile gid="1073743286"/>
   <tile gid="1073743287"/>
   <tile gid="1073743288"/>
   <tile gid="1073743289"/>
   <tile gid="1073743290"/>
   <tile gid="1073743291"/>
   <tile gid="1073743292"/>
   <tile gid="1073743293"/>
   <tile gid="1073743294"/>
   <tile gid="1073743295"/>
   <tile gid="1073743296"/>
   <tile gid="1073743297"/>
   <tile gid="1073743298"/>
   <tile gid="1073743299"/>
   <tile gid="1073743300"/>
   <tile gid="1073743301"/>
   <tile gid="1073743302"/>
   <tile gid="1073743303"/>
   <tile gid="1073743304"/>
   <tile gid="1073743305"/>
   <tile gid="1073743306"/>
   <tile gid="1073743307"/>
   <tile gid="1073743308"/>
   <tile gid="1073743309"/>
   <tile gid="1073743310"/>
   <tile gid="1073743311"/>
   <tile gid="1073743312"/>
   <tile gid="1073743313"/>
   <tile gid="1073743314"/>
   <tile gid="1073743315"/>
   <tile gid="1073743316"/>
   <tile gid="1073743317"/>
   <tile gid="1073743318"/>
   <tile gid="1073743319"/>
   <tile gid="1073743320"/>
   <tile gid="1073743321"/>
   <tile gid="1073743322"/>
   <tile gid="1073743323"/>
   <tile gid="1073743324"/>
   <tile gid="1073743325"/>
   <tile gid="1073743326"/>
   <tile gid="1073743327"/>
   <tile gid="1073743328"/>
   <tile gid="1073743329"/>
   <tile gid="1073743330"/>
   <tile gid="1073743331"/>
   <tile gid="1073743332"/>
   <tile gid="1073743283"/>
   <tile gid="1073743284"/>
   <tile gid="1073743285"/>
   <tile gid="1073743286"/>
   <tile gid="1073743287"/>
   <tile gid="1073743288"/>
   <tile gid="1073743289"/>
   <tile gid="1073743290"/>
   <tile gid="1073743291"/>
   <tile gid="1073743292"/>
   <tile gid="1073743293"/>
   <tile gid="1073743294"/>
   <tile gid="1073743295"/>
   <tile gid="1073743296"/>
   <tile gid="1073743297"/>
   <tile gid="1073743298"/>
   <tile gid="1073743299"/>
   <tile gid="1073743300"/>
   <tile gid="1073743301"/>
   <tile gid="1073743302"/>
   <tile gid="1073743303"/>
   <tile gid="1073743304"/>
   <tile gid="1073743305"/>
   <tile gid="1073743306"/>
   <tile gid="1073743307"/>
   <tile gid="1073743308"/>
   <tile gid="1073743309"/>
   <tile gid="1073743310"/>
   <tile gid="1073743311"/>
   <tile gid="1073743312"/>
   <tile gid="1073743313"/>
   <tile gid="1073743314"/>
   <tile gid="1073743315"/>
   <tile gid="1073743316"/>
   <tile gid="1073743317"/>
   <tile gid="1073743318"/>
   <tile gid="1073743319"/>
   <tile gid="1073743320"/>
   <tile gid="1073743321"/>
   <tile gid="1073743322"/>
  </data>
 </layer>
 <layer id="8" name="Middleground" width="90" height="68">
  <properties>
   <property name="Draw" type="bool" value="true"/>
  </properties>
  <data>
   <tile/>
   <tile/>
   <tile/>
   <tile/>
   <tile/>
   <tile/>
   <tile/>
   <tile/>
   <tile/>
   <tile/>
   <tile/>
   <tile/>
   <tile/>
   <tile/>
   <tile/>
   <tile/>
   <tile/>
   <tile/>
   <tile/>
   <tile/>
   <tile/>
   <tile/>
   <tile/>
   <tile/>
   <tile/>
   <tile/>
   <tile/>
   <tile/>
   <tile/>
   <tile/>
   <tile/>
   <tile/>
   <tile/>
   <tile/>
   <tile/>
   <tile/>
   <tile/>
   <tile/>
   <tile/>
   <tile/>
   <tile/>
   <tile/>
   <tile/>
   <tile/>
   <tile/>
   <tile/>
   <tile/>
   <tile/>
   <tile/>
   <tile/>
   <tile/>
   <tile/>
   <tile/>
   <tile/>
   <tile/>
   <tile/>
   <tile/>
   <tile/>
   <tile/>
   <tile/>
   <tile/>
   <tile/>
   <tile/>
   <tile/>
   <tile/>
   <tile/>
   <tile/>
   <tile/>
   <tile/>
   <tile/>
   <tile/>
   <tile/>
   <tile/>
   <tile/>
   <tile/>
   <tile/>
   <tile/>
   <tile/>
   <tile/>
   <tile/>
   <tile/>
   <tile/>
   <tile/>
   <tile/>
   <tile/>
   <tile/>
   <tile/>
   <tile/>
   <tile/>
   <tile/>
   <tile/>
   <tile/>
   <tile/>
   <tile/>
   <tile/>
   <tile/>
   <tile/>
   <tile/>
   <tile/>
   <tile/>
   <tile/>
   <tile/>
   <tile/>
   <tile/>
   <tile/>
   <tile/>
   <tile/>
   <tile/>
   <tile/>
   <tile/>
   <tile/>
   <tile/>
   <tile/>
   <tile/>
   <tile/>
   <tile/>
   <tile/>
   <tile/>
   <tile/>
   <tile/>
   <tile/>
   <tile/>
   <tile/>
   <tile/>
   <tile/>
   <tile/>
   <tile/>
   <tile/>
   <tile/>
   <tile/>
   <tile/>
   <tile/>
   <tile/>
   <tile/>
   <tile/>
   <tile/>
   <tile/>
   <tile/>
   <tile/>
   <tile/>
   <tile/>
   <tile/>
   <tile/>
   <tile/>
   <tile/>
   <tile/>
   <tile/>
   <tile/>
   <tile/>
   <tile/>
   <tile/>
   <tile/>
   <tile/>
   <tile/>
   <tile/>
   <tile/>
   <tile/>
   <tile/>
   <tile/>
   <tile/>
   <tile/>
   <tile/>
   <tile/>
   <tile/>
   <tile/>
   <tile/>
   <tile/>
   <tile/>
   <tile/>
   <tile/>
   <tile/>
   <tile/>
   <tile/>
   <tile/>
   <tile/>
   <tile/>
   <tile/>
   <tile/>
   <tile/>
   <tile/>
   <tile/>
   <tile/>
   <tile/>
   <tile/>
   <tile/>
   <tile/>
   <tile/>
   <tile/>
   <tile/>
   <tile/>
   <tile/>
   <tile/>
   <tile/>
   <tile/>
   <tile/>
   <tile/>
   <tile/>
   <tile/>
   <tile/>
   <tile/>
   <tile/>
   <tile/>
   <tile/>
   <tile/>
   <tile/>
   <tile/>
   <tile/>
   <tile/>
   <tile/>
   <tile/>
   <tile/>
   <tile/>
   <tile/>
   <tile/>
   <tile/>
   <tile/>
   <tile/>
   <tile/>
   <tile/>
   <tile/>
   <tile/>
   <tile/>
   <tile/>
   <tile/>
   <tile/>
   <tile/>
   <tile/>
   <tile/>
   <tile/>
   <tile/>
   <tile/>
   <tile/>
   <tile/>
   <tile/>
   <tile/>
   <tile/>
   <tile/>
   <tile/>
   <tile/>
   <tile/>
   <tile/>
   <tile/>
   <tile/>
   <tile/>
   <tile/>
   <tile/>
   <tile/>
   <tile/>
   <tile/>
   <tile/>
   <tile/>
   <tile/>
   <tile/>
   <tile/>
   <tile/>
   <tile/>
   <tile/>
   <tile/>
   <tile/>
   <tile/>
   <tile/>
   <tile/>
   <tile/>
   <tile/>
   <tile/>
   <tile/>
   <tile/>
   <tile/>
   <tile/>
   <tile/>
   <tile/>
   <tile/>
   <tile/>
   <tile/>
   <tile/>
   <tile/>
   <tile/>
   <tile/>
   <tile/>
   <tile/>
   <tile/>
   <tile/>
   <tile/>
   <tile/>
   <tile/>
   <tile/>
   <tile/>
   <tile/>
   <tile/>
   <tile/>
   <tile/>
   <tile/>
   <tile/>
   <tile/>
   <tile/>
   <tile/>
   <tile/>
   <tile/>
   <tile/>
   <tile/>
   <tile/>
   <tile/>
   <tile/>
   <tile/>
   <tile/>
   <tile/>
   <tile/>
   <tile/>
   <tile/>
   <tile/>
   <tile/>
   <tile/>
   <tile/>
   <tile/>
   <tile/>
   <tile/>
   <tile/>
   <tile/>
   <tile/>
   <tile/>
   <tile/>
   <tile/>
   <tile/>
   <tile/>
   <tile/>
   <tile/>
   <tile/>
   <tile/>
   <tile/>
   <tile/>
   <tile/>
   <tile/>
   <tile/>
   <tile/>
   <tile/>
   <tile/>
   <tile/>
   <tile/>
   <tile/>
   <tile/>
   <tile/>
   <tile/>
   <tile/>
   <tile/>
   <tile/>
   <tile/>
   <tile/>
   <tile/>
   <tile/>
   <tile/>
   <tile/>
   <tile/>
   <tile/>
   <tile/>
   <tile/>
   <tile/>
   <tile/>
   <tile/>
   <tile/>
   <tile/>
   <tile/>
   <tile/>
   <tile/>
   <tile/>
   <tile/>
   <tile/>
   <tile/>
   <tile/>
   <tile/>
   <tile/>
   <tile/>
   <tile/>
   <tile/>
   <tile/>
   <tile/>
   <tile/>
   <tile/>
   <tile/>
   <tile/>
   <tile/>
   <tile/>
   <tile/>
   <tile/>
   <tile/>
   <tile/>
   <tile/>
   <tile/>
   <tile/>
   <tile/>
   <tile/>
   <tile/>
   <tile/>
   <tile/>
   <tile/>
   <tile/>
   <tile/>
   <tile/>
   <tile/>
   <tile/>
   <tile/>
   <tile/>
   <tile/>
   <tile/>
   <tile/>
   <tile/>
   <tile/>
   <tile/>
   <tile/>
   <tile/>
   <tile/>
   <tile/>
   <tile/>
   <tile/>
   <tile/>
   <tile/>
   <tile/>
   <tile/>
   <tile/>
   <tile/>
   <tile/>
   <tile/>
   <tile/>
   <tile/>
   <tile/>
   <tile/>
   <tile/>
   <tile/>
   <tile/>
   <tile/>
   <tile/>
   <tile/>
   <tile/>
   <tile/>
   <tile/>
   <tile/>
   <tile/>
   <tile/>
   <tile/>
   <tile/>
   <tile/>
   <tile/>
   <tile/>
   <tile/>
   <tile/>
   <tile/>
   <tile/>
   <tile/>
   <tile/>
   <tile/>
   <tile/>
   <tile/>
   <tile/>
   <tile/>
   <tile/>
   <tile/>
   <tile/>
   <tile/>
   <tile/>
   <tile/>
   <tile/>
   <tile/>
   <tile/>
   <tile/>
   <tile/>
   <tile/>
   <tile/>
   <tile/>
   <tile/>
   <tile/>
   <tile/>
   <tile/>
   <tile/>
   <tile/>
   <tile/>
   <tile/>
   <tile/>
   <tile/>
   <tile/>
   <tile/>
   <tile/>
   <tile/>
   <tile/>
   <tile/>
   <tile/>
   <tile/>
   <tile/>
   <tile/>
   <tile/>
   <tile/>
   <tile/>
   <tile/>
   <tile/>
   <tile/>
   <tile/>
   <tile/>
   <tile/>
   <tile/>
   <tile/>
   <tile/>
   <tile/>
   <tile/>
   <tile/>
   <tile/>
   <tile/>
   <tile/>
   <tile/>
   <tile/>
   <tile/>
   <tile/>
   <tile/>
   <tile/>
   <tile/>
   <tile/>
   <tile/>
   <tile/>
   <tile/>
   <tile/>
   <tile/>
   <tile/>
   <tile/>
   <tile/>
   <tile/>
   <tile/>
   <tile/>
   <tile/>
   <tile/>
   <tile/>
   <tile/>
   <tile/>
   <tile/>
   <tile/>
   <tile/>
   <tile/>
   <tile/>
   <tile/>
   <tile/>
   <tile/>
   <tile/>
   <tile/>
   <tile/>
   <tile/>
   <tile/>
   <tile/>
   <tile/>
   <tile/>
   <tile/>
   <tile/>
   <tile/>
   <tile/>
   <tile/>
   <tile/>
   <tile/>
   <tile/>
   <tile/>
   <tile/>
   <tile/>
   <tile/>
   <tile/>
   <tile/>
   <tile/>
   <tile/>
   <tile/>
   <tile/>
   <tile/>
   <tile/>
   <tile/>
   <tile/>
   <tile/>
   <tile/>
   <tile/>
   <tile/>
   <tile/>
   <tile/>
   <tile/>
   <tile/>
   <tile/>
   <tile/>
   <tile/>
   <tile/>
   <tile/>
   <tile/>
   <tile/>
   <tile/>
   <tile/>
   <tile/>
   <tile/>
   <tile/>
   <tile/>
   <tile/>
   <tile/>
   <tile/>
   <tile/>
   <tile/>
   <tile/>
   <tile/>
   <tile/>
   <tile/>
   <tile/>
   <tile/>
   <tile/>
   <tile/>
   <tile/>
   <tile/>
   <tile/>
   <tile/>
   <tile/>
   <tile/>
   <tile/>
   <tile/>
   <tile/>
   <tile/>
   <tile/>
   <tile/>
   <tile/>
   <tile/>
   <tile/>
   <tile/>
   <tile/>
   <tile/>
   <tile/>
   <tile/>
   <tile/>
   <tile/>
   <tile/>
   <tile/>
   <tile/>
   <tile/>
   <tile/>
   <tile/>
   <tile/>
   <tile/>
   <tile/>
   <tile/>
   <tile/>
   <tile/>
   <tile/>
   <tile/>
   <tile/>
   <tile/>
   <tile/>
   <tile/>
   <tile/>
   <tile/>
   <tile/>
   <tile/>
   <tile/>
   <tile/>
   <tile/>
   <tile/>
   <tile/>
   <tile/>
   <tile/>
   <tile/>
   <tile/>
   <tile/>
   <tile/>
   <tile/>
   <tile/>
   <tile/>
   <tile/>
   <tile/>
   <tile/>
   <tile/>
   <tile/>
   <tile/>
   <tile/>
   <tile/>
   <tile/>
   <tile/>
   <tile/>
   <tile/>
   <tile/>
   <tile/>
   <tile/>
   <tile/>
   <tile/>
   <tile/>
   <tile/>
   <tile/>
   <tile/>
   <tile/>
   <tile/>
   <tile/>
   <tile/>
   <tile/>
   <tile/>
   <tile/>
   <tile/>
   <tile/>
   <tile/>
   <tile/>
   <tile/>
   <tile/>
   <tile/>
   <tile/>
   <tile/>
   <tile/>
   <tile/>
   <tile/>
   <tile/>
   <tile/>
   <tile/>
   <tile/>
   <tile/>
   <tile/>
   <tile/>
   <tile/>
   <tile/>
   <tile/>
   <tile/>
   <tile/>
   <tile/>
   <tile/>
   <tile/>
   <tile/>
   <tile/>
   <tile/>
   <tile/>
   <tile/>
   <tile/>
   <tile/>
   <tile/>
   <tile/>
   <tile/>
   <tile/>
   <tile/>
   <tile/>
   <tile/>
   <tile/>
   <tile/>
   <tile/>
   <tile/>
   <tile/>
   <tile/>
   <tile/>
   <tile/>
   <tile/>
   <tile/>
   <tile/>
   <tile/>
   <tile/>
   <tile/>
   <tile/>
   <tile/>
   <tile/>
   <tile/>
   <tile/>
   <tile/>
   <tile/>
   <tile/>
   <tile/>
   <tile/>
   <tile/>
   <tile/>
   <tile/>
   <tile/>
   <tile/>
   <tile/>
   <tile/>
   <tile/>
   <tile/>
   <tile/>
   <tile/>
   <tile/>
   <tile/>
   <tile/>
   <tile/>
   <tile/>
   <tile/>
   <tile/>
   <tile/>
   <tile/>
   <tile/>
   <tile/>
   <tile/>
   <tile/>
   <tile/>
   <tile/>
   <tile/>
   <tile/>
   <tile/>
   <tile/>
   <tile/>
   <tile/>
   <tile/>
   <tile/>
   <tile/>
   <tile/>
   <tile/>
   <tile/>
   <tile/>
   <tile/>
   <tile/>
   <tile/>
   <tile/>
   <tile/>
   <tile/>
   <tile/>
   <tile/>
   <tile/>
   <tile/>
   <tile/>
   <tile/>
   <tile/>
   <tile/>
   <tile/>
   <tile/>
   <tile/>
   <tile/>
   <tile/>
   <tile/>
   <tile/>
   <tile/>
   <tile/>
   <tile/>
   <tile/>
   <tile/>
   <tile/>
   <tile/>
   <tile/>
   <tile/>
   <tile/>
   <tile/>
   <tile/>
   <tile/>
   <tile/>
   <tile/>
   <tile/>
   <tile/>
   <tile/>
   <tile/>
   <tile/>
   <tile/>
   <tile/>
   <tile/>
   <tile/>
   <tile/>
   <tile/>
   <tile/>
   <tile/>
   <tile/>
   <tile/>
   <tile/>
   <tile/>
   <tile/>
   <tile/>
   <tile/>
   <tile/>
   <tile/>
   <tile/>
   <tile/>
   <tile/>
   <tile/>
   <tile/>
   <tile/>
   <tile/>
   <tile/>
   <tile/>
   <tile/>
   <tile/>
   <tile/>
   <tile/>
   <tile/>
   <tile/>
   <tile/>
   <tile/>
   <tile/>
   <tile/>
   <tile/>
   <tile/>
   <tile/>
   <tile/>
   <tile/>
   <tile/>
   <tile/>
   <tile/>
   <tile/>
   <tile/>
   <tile/>
   <tile/>
   <tile/>
   <tile/>
   <tile/>
   <tile/>
   <tile/>
   <tile/>
   <tile/>
   <tile/>
   <tile/>
   <tile/>
   <tile/>
   <tile/>
   <tile/>
   <tile/>
   <tile/>
   <tile/>
   <tile/>
   <tile/>
   <tile/>
   <tile/>
   <tile/>
   <tile/>
   <tile/>
   <tile/>
   <tile/>
   <tile/>
   <tile/>
   <tile/>
   <tile/>
   <tile/>
   <tile/>
   <tile/>
   <tile/>
   <tile/>
   <tile/>
   <tile/>
   <tile/>
   <tile/>
   <tile/>
   <tile/>
   <tile/>
   <tile/>
   <tile/>
   <tile/>
   <tile/>
   <tile/>
   <tile/>
   <tile/>
   <tile/>
   <tile/>
   <tile/>
   <tile/>
   <tile/>
   <tile/>
   <tile/>
   <tile/>
   <tile/>
   <tile/>
   <tile/>
   <tile/>
   <tile/>
   <tile/>
   <tile/>
   <tile/>
   <tile/>
   <tile/>
   <tile/>
   <tile/>
   <tile/>
   <tile/>
   <tile/>
   <tile/>
   <tile/>
   <tile/>
   <tile/>
   <tile/>
   <tile/>
   <tile/>
   <tile/>
   <tile/>
   <tile/>
   <tile/>
   <tile/>
   <tile/>
   <tile/>
   <tile/>
   <tile/>
   <tile/>
   <tile/>
   <tile/>
   <tile/>
   <tile/>
   <tile/>
   <tile/>
   <tile/>
   <tile/>
   <tile/>
   <tile/>
   <tile/>
   <tile/>
   <tile/>
   <tile/>
   <tile/>
   <tile/>
   <tile/>
   <tile/>
   <tile/>
   <tile/>
   <tile/>
   <tile/>
   <tile/>
   <tile/>
   <tile/>
   <tile/>
   <tile/>
   <tile/>
   <tile/>
   <tile/>
   <tile/>
   <tile/>
   <tile/>
   <tile/>
   <tile/>
   <tile/>
   <tile/>
   <tile/>
   <tile/>
   <tile/>
   <tile/>
   <tile/>
   <tile/>
   <tile/>
   <tile/>
   <tile/>
   <tile/>
   <tile/>
   <tile/>
   <tile/>
   <tile/>
   <tile/>
   <tile/>
   <tile/>
   <tile/>
   <tile/>
   <tile/>
   <tile/>
   <tile/>
   <tile/>
   <tile/>
   <tile/>
   <tile/>
   <tile/>
   <tile/>
   <tile/>
   <tile/>
   <tile/>
   <tile/>
   <tile/>
   <tile/>
   <tile/>
   <tile/>
   <tile/>
   <tile/>
   <tile/>
   <tile/>
   <tile/>
   <tile/>
   <tile/>
   <tile/>
   <tile/>
   <tile/>
   <tile/>
   <tile/>
   <tile/>
   <tile/>
   <tile/>
   <tile/>
   <tile/>
   <tile/>
   <tile/>
   <tile/>
   <tile/>
   <tile/>
   <tile/>
   <tile/>
   <tile/>
   <tile/>
   <tile/>
   <tile/>
   <tile/>
   <tile/>
   <tile/>
   <tile/>
   <tile/>
   <tile/>
   <tile/>
   <tile/>
   <tile/>
   <tile/>
   <tile/>
   <tile/>
   <tile/>
   <tile/>
   <tile/>
   <tile/>
   <tile/>
   <tile/>
   <tile/>
   <tile/>
   <tile/>
   <tile/>
   <tile/>
   <tile/>
   <tile/>
   <tile/>
   <tile/>
   <tile/>
   <tile/>
   <tile/>
   <tile/>
   <tile/>
   <tile/>
   <tile/>
   <tile/>
   <tile/>
   <tile/>
   <tile/>
   <tile/>
   <tile/>
   <tile/>
   <tile/>
   <tile/>
   <tile/>
   <tile/>
   <tile/>
   <tile/>
   <tile/>
   <tile/>
   <tile/>
   <tile/>
   <tile/>
   <tile/>
   <tile/>
   <tile/>
   <tile/>
   <tile/>
   <tile/>
   <tile/>
   <tile/>
   <tile/>
   <tile/>
   <tile/>
   <tile/>
   <tile/>
   <tile/>
   <tile/>
   <tile/>
   <tile/>
   <tile/>
   <tile/>
   <tile/>
   <tile/>
   <tile/>
   <tile/>
   <tile/>
   <tile/>
   <tile/>
   <tile/>
   <tile/>
   <tile/>
   <tile/>
   <tile/>
   <tile/>
   <tile/>
   <tile/>
   <tile/>
   <tile/>
   <tile/>
   <tile/>
   <tile/>
   <tile/>
   <tile/>
   <tile/>
   <tile/>
   <tile/>
   <tile/>
   <tile/>
   <tile/>
   <tile/>
   <tile/>
   <tile/>
   <tile/>
   <tile/>
   <tile/>
   <tile/>
   <tile/>
   <tile/>
   <tile/>
   <tile/>
   <tile/>
   <tile/>
   <tile/>
   <tile/>
   <tile/>
   <tile/>
   <tile/>
   <tile/>
   <tile/>
   <tile/>
   <tile/>
   <tile/>
   <tile/>
   <tile/>
   <tile/>
   <tile/>
   <tile/>
   <tile/>
   <tile/>
   <tile/>
   <tile/>
   <tile/>
   <tile/>
   <tile/>
   <tile/>
   <tile/>
   <tile/>
   <tile/>
   <tile/>
   <tile/>
   <tile/>
   <tile/>
   <tile/>
   <tile/>
   <tile/>
   <tile/>
   <tile/>
   <tile/>
   <tile/>
   <tile/>
   <tile/>
   <tile/>
   <tile/>
   <tile/>
   <tile/>
   <tile/>
   <tile/>
   <tile/>
   <tile/>
   <tile/>
   <tile/>
   <tile/>
   <tile/>
   <tile/>
   <tile/>
   <tile/>
   <tile/>
   <tile/>
   <tile/>
   <tile/>
   <tile/>
   <tile/>
   <tile/>
   <tile/>
   <tile/>
   <tile/>
   <tile/>
   <tile/>
   <tile/>
   <tile/>
   <tile/>
   <tile/>
   <tile/>
   <tile/>
   <tile/>
   <tile/>
   <tile/>
   <tile/>
   <tile/>
   <tile/>
   <tile/>
   <tile/>
   <tile/>
   <tile/>
   <tile/>
   <tile/>
   <tile/>
   <tile/>
   <tile/>
   <tile/>
   <tile/>
   <tile/>
   <tile/>
   <tile/>
   <tile/>
   <tile/>
   <tile/>
   <tile/>
   <tile/>
   <tile/>
   <tile/>
   <tile/>
   <tile/>
   <tile/>
   <tile/>
   <tile/>
   <tile/>
   <tile/>
   <tile/>
   <tile/>
   <tile/>
   <tile/>
   <tile/>
   <tile/>
   <tile/>
   <tile/>
   <tile/>
   <tile/>
   <tile/>
   <tile/>
   <tile/>
   <tile/>
   <tile/>
   <tile/>
   <tile/>
   <tile/>
   <tile/>
   <tile/>
   <tile/>
   <tile/>
   <tile/>
   <tile/>
   <tile/>
   <tile/>
   <tile/>
   <tile/>
   <tile/>
   <tile/>
   <tile/>
   <tile/>
   <tile/>
   <tile/>
   <tile/>
   <tile/>
   <tile/>
   <tile/>
   <tile/>
   <tile/>
   <tile/>
   <tile/>
   <tile/>
   <tile/>
   <tile/>
   <tile/>
   <tile/>
   <tile/>
   <tile/>
   <tile/>
   <tile/>
   <tile/>
   <tile/>
   <tile/>
   <tile/>
   <tile/>
   <tile/>
   <tile/>
   <tile/>
   <tile/>
   <tile/>
   <tile/>
   <tile/>
   <tile/>
   <tile/>
   <tile/>
   <tile/>
   <tile/>
   <tile/>
   <tile/>
   <tile/>
   <tile/>
   <tile/>
   <tile/>
   <tile/>
   <tile/>
   <tile/>
   <tile/>
   <tile/>
   <tile/>
   <tile/>
   <tile/>
   <tile/>
   <tile/>
   <tile/>
   <tile/>
   <tile/>
   <tile/>
   <tile/>
   <tile/>
   <tile/>
   <tile/>
   <tile/>
   <tile/>
   <tile/>
   <tile/>
   <tile/>
   <tile/>
   <tile/>
   <tile/>
   <tile/>
   <tile/>
   <tile/>
   <tile/>
   <tile/>
   <tile/>
   <tile/>
   <tile/>
   <tile/>
   <tile/>
   <tile/>
   <tile/>
   <tile/>
   <tile/>
   <tile/>
   <tile/>
   <tile/>
   <tile/>
   <tile/>
   <tile/>
   <tile/>
   <tile/>
   <tile/>
   <tile/>
   <tile/>
   <tile/>
   <tile/>
   <tile/>
   <tile/>
   <tile/>
   <tile/>
   <tile/>
   <tile/>
   <tile/>
   <tile/>
   <tile/>
   <tile/>
   <tile/>
   <tile/>
   <tile/>
   <tile/>
   <tile/>
   <tile/>
   <tile/>
   <tile/>
   <tile/>
   <tile/>
   <tile/>
   <tile/>
   <tile/>
   <tile/>
   <tile/>
   <tile/>
   <tile/>
   <tile/>
   <tile/>
   <tile/>
   <tile/>
   <tile/>
   <tile/>
   <tile/>
   <tile/>
   <tile/>
   <tile/>
   <tile/>
   <tile/>
   <tile/>
   <tile/>
   <tile/>
   <tile/>
   <tile/>
   <tile/>
   <tile/>
   <tile/>
   <tile/>
   <tile/>
   <tile/>
   <tile/>
   <tile/>
   <tile/>
   <tile/>
   <tile/>
   <tile/>
   <tile/>
   <tile/>
   <tile/>
   <tile/>
   <tile/>
   <tile/>
   <tile/>
   <tile/>
   <tile/>
   <tile/>
   <tile/>
   <tile/>
   <tile/>
   <tile/>
   <tile/>
   <tile/>
   <tile/>
   <tile/>
   <tile/>
   <tile/>
   <tile/>
   <tile/>
   <tile/>
   <tile/>
   <tile/>
   <tile/>
   <tile/>
   <tile/>
   <tile/>
   <tile/>
   <tile/>
   <tile/>
   <tile/>
   <tile/>
   <tile/>
   <tile/>
   <tile/>
   <tile/>
   <tile/>
   <tile/>
   <tile/>
   <tile/>
   <tile/>
   <tile/>
   <tile/>
   <tile/>
   <tile/>
   <tile/>
   <tile/>
   <tile/>
   <tile/>
   <tile/>
   <tile/>
   <tile/>
   <tile/>
   <tile/>
   <tile/>
   <tile/>
   <tile/>
   <tile/>
   <tile/>
   <tile/>
   <tile/>
   <tile/>
   <tile/>
   <tile/>
   <tile/>
   <tile/>
   <tile/>
   <tile/>
   <tile/>
   <tile/>
   <tile/>
   <tile/>
   <tile/>
   <tile/>
   <tile/>
   <tile/>
   <tile/>
   <tile/>
   <tile/>
   <tile/>
   <tile/>
   <tile/>
   <tile/>
   <tile/>
   <tile/>
   <tile/>
   <tile/>
   <tile/>
   <tile/>
   <tile/>
   <tile/>
   <tile/>
   <tile/>
   <tile/>
   <tile/>
   <tile/>
   <tile/>
   <tile/>
   <tile/>
   <tile/>
   <tile/>
   <tile/>
   <tile/>
   <tile/>
   <tile/>
   <tile/>
   <tile/>
   <tile/>
   <tile/>
   <tile/>
   <tile/>
   <tile/>
   <tile/>
   <tile/>
   <tile/>
   <tile/>
   <tile/>
   <tile/>
   <tile/>
   <tile/>
   <tile/>
   <tile/>
   <tile/>
   <tile/>
   <tile/>
   <tile/>
   <tile/>
   <tile/>
   <tile/>
   <tile/>
   <tile/>
   <tile/>
   <tile/>
   <tile/>
   <tile/>
   <tile/>
   <tile/>
   <tile/>
   <tile/>
   <tile/>
   <tile/>
   <tile/>
   <tile/>
   <tile/>
   <tile/>
   <tile/>
   <tile/>
   <tile/>
   <tile/>
   <tile/>
   <tile/>
   <tile/>
   <tile/>
   <tile/>
   <tile/>
   <tile/>
   <tile/>
   <tile/>
   <tile/>
   <tile/>
   <tile/>
   <tile/>
   <tile/>
   <tile/>
   <tile/>
   <tile/>
   <tile/>
   <tile/>
   <tile/>
   <tile/>
   <tile/>
   <tile/>
   <tile/>
   <tile/>
   <tile/>
   <tile/>
   <tile/>
   <tile/>
   <tile/>
   <tile/>
   <tile/>
   <tile/>
   <tile/>
   <tile/>
   <tile/>
   <tile/>
   <tile/>
   <tile/>
   <tile/>
   <tile/>
   <tile/>
   <tile/>
   <tile/>
   <tile/>
   <tile/>
   <tile/>
   <tile/>
   <tile/>
   <tile/>
   <tile/>
   <tile/>
   <tile/>
   <tile/>
   <tile/>
   <tile/>
   <tile/>
   <tile/>
   <tile/>
   <tile/>
   <tile/>
   <tile/>
   <tile/>
   <tile/>
   <tile/>
   <tile/>
   <tile/>
   <tile/>
   <tile/>
   <tile/>
   <tile/>
   <tile/>
   <tile/>
   <tile/>
   <tile/>
   <tile/>
   <tile/>
   <tile/>
   <tile/>
   <tile/>
   <tile/>
   <tile/>
   <tile/>
   <tile/>
   <tile/>
   <tile/>
   <tile/>
   <tile/>
   <tile/>
   <tile/>
   <tile/>
   <tile/>
   <tile/>
   <tile/>
   <tile/>
   <tile/>
   <tile/>
   <tile/>
   <tile/>
   <tile/>
   <tile/>
   <tile/>
   <tile/>
   <tile/>
   <tile/>
   <tile/>
   <tile/>
   <tile/>
   <tile/>
   <tile/>
   <tile/>
   <tile/>
   <tile/>
   <tile/>
   <tile/>
   <tile/>
   <tile/>
   <tile/>
   <tile/>
   <tile/>
   <tile/>
   <tile/>
   <tile/>
   <tile/>
   <tile/>
   <tile/>
   <tile/>
   <tile/>
   <tile/>
   <tile/>
   <tile/>
   <tile/>
   <tile/>
   <tile/>
   <tile/>
   <tile/>
   <tile/>
   <tile/>
   <tile/>
   <tile/>
   <tile/>
   <tile/>
   <tile/>
   <tile/>
   <tile/>
   <tile/>
   <tile/>
   <tile/>
   <tile/>
   <tile/>
   <tile/>
   <tile/>
   <tile/>
   <tile/>
   <tile/>
   <tile/>
   <tile/>
   <tile/>
   <tile/>
   <tile/>
   <tile/>
   <tile/>
   <tile/>
   <tile/>
   <tile/>
   <tile/>
   <tile/>
   <tile/>
   <tile/>
   <tile/>
   <tile/>
   <tile/>
   <tile/>
   <tile/>
   <tile/>
   <tile/>
   <tile/>
   <tile/>
   <tile/>
   <tile/>
   <tile/>
   <tile/>
   <tile/>
   <tile/>
   <tile/>
   <tile/>
   <tile/>
   <tile/>
   <tile/>
   <tile/>
   <tile/>
   <tile/>
   <tile/>
   <tile/>
   <tile/>
   <tile/>
   <tile/>
   <tile/>
   <tile/>
   <tile/>
   <tile/>
   <tile/>
   <tile/>
   <tile/>
   <tile/>
   <tile/>
   <tile/>
   <tile/>
   <tile/>
   <tile/>
   <tile/>
   <tile/>
   <tile/>
   <tile/>
   <tile/>
   <tile/>
   <tile/>
   <tile/>
   <tile/>
   <tile/>
   <tile/>
   <tile/>
   <tile/>
   <tile/>
   <tile/>
   <tile/>
   <tile/>
   <tile/>
   <tile/>
   <tile/>
   <tile/>
   <tile/>
   <tile/>
   <tile/>
   <tile/>
   <tile/>
   <tile/>
   <tile/>
   <tile/>
   <tile/>
   <tile/>
   <tile/>
   <tile/>
   <tile/>
   <tile/>
   <tile/>
   <tile/>
   <tile/>
   <tile/>
   <tile/>
   <tile/>
   <tile/>
   <tile/>
   <tile/>
   <tile/>
   <tile/>
   <tile/>
   <tile/>
   <tile/>
   <tile/>
   <tile/>
   <tile/>
   <tile/>
   <tile/>
   <tile/>
   <tile/>
   <tile/>
   <tile/>
   <tile/>
   <tile/>
   <tile/>
   <tile/>
   <tile/>
   <tile/>
   <tile/>
   <tile/>
   <tile/>
   <tile/>
   <tile/>
   <tile/>
   <tile/>
   <tile/>
   <tile/>
   <tile/>
   <tile/>
   <tile/>
   <tile/>
   <tile/>
   <tile/>
   <tile/>
   <tile/>
   <tile/>
   <tile/>
   <tile/>
   <tile/>
   <tile/>
   <tile/>
   <tile/>
   <tile/>
   <tile/>
   <tile/>
   <tile/>
   <tile/>
   <tile/>
   <tile/>
   <tile/>
   <tile/>
   <tile/>
   <tile/>
   <tile/>
   <tile/>
   <tile/>
   <tile/>
   <tile/>
   <tile/>
   <tile/>
   <tile/>
   <tile/>
   <tile/>
   <tile/>
   <tile/>
   <tile/>
   <tile/>
   <tile/>
   <tile/>
   <tile/>
   <tile/>
   <tile/>
   <tile/>
   <tile/>
   <tile/>
   <tile/>
   <tile/>
   <tile/>
   <tile/>
   <tile/>
   <tile/>
   <tile/>
   <tile/>
   <tile/>
   <tile/>
   <tile/>
   <tile/>
   <tile/>
   <tile/>
   <tile/>
   <tile/>
   <tile/>
   <tile/>
   <tile/>
   <tile/>
   <tile/>
   <tile/>
   <tile/>
   <tile/>
   <tile/>
   <tile/>
   <tile/>
   <tile/>
   <tile/>
   <tile/>
   <tile/>
   <tile/>
   <tile/>
   <tile/>
   <tile/>
   <tile/>
   <tile/>
   <tile/>
   <tile/>
   <tile/>
   <tile/>
   <tile/>
   <tile/>
   <tile/>
   <tile/>
   <tile/>
   <tile/>
   <tile/>
   <tile/>
   <tile/>
   <tile/>
   <tile/>
   <tile/>
   <tile/>
   <tile/>
   <tile/>
   <tile/>
   <tile/>
   <tile/>
   <tile/>
   <tile/>
   <tile/>
   <tile/>
   <tile/>
   <tile/>
   <tile/>
   <tile/>
   <tile/>
   <tile/>
   <tile/>
   <tile/>
   <tile/>
   <tile/>
   <tile/>
   <tile/>
   <tile/>
   <tile/>
   <tile/>
   <tile/>
   <tile/>
   <tile/>
   <tile/>
   <tile/>
   <tile/>
   <tile/>
   <tile/>
   <tile/>
   <tile/>
   <tile/>
   <tile/>
   <tile/>
   <tile/>
   <tile/>
   <tile/>
   <tile/>
   <tile/>
   <tile/>
   <tile/>
   <tile/>
   <tile/>
   <tile/>
   <tile/>
   <tile/>
   <tile/>
   <tile/>
   <tile/>
   <tile/>
   <tile/>
   <tile/>
   <tile/>
   <tile/>
   <tile/>
   <tile/>
   <tile/>
   <tile/>
   <tile/>
   <tile/>
   <tile/>
   <tile/>
   <tile/>
   <tile/>
   <tile/>
   <tile/>
   <tile/>
   <tile/>
   <tile/>
   <tile/>
   <tile/>
   <tile/>
   <tile/>
   <tile/>
   <tile/>
   <tile/>
   <tile/>
   <tile/>
   <tile/>
   <tile/>
   <tile/>
   <tile/>
   <tile/>
   <tile/>
   <tile/>
   <tile/>
   <tile/>
   <tile/>
   <tile/>
   <tile/>
   <tile/>
   <tile/>
   <tile/>
   <tile/>
   <tile/>
   <tile/>
   <tile/>
   <tile/>
   <tile/>
   <tile/>
   <tile/>
   <tile/>
   <tile/>
   <tile/>
   <tile/>
   <tile/>
   <tile/>
   <tile/>
   <tile/>
   <tile/>
   <tile/>
   <tile/>
   <tile/>
   <tile/>
   <tile/>
   <tile/>
   <tile/>
   <tile/>
   <tile/>
   <tile/>
   <tile/>
   <tile/>
   <tile/>
   <tile/>
   <tile/>
   <tile/>
   <tile/>
   <tile/>
   <tile/>
   <tile/>
   <tile/>
   <tile/>
   <tile/>
   <tile/>
   <tile/>
   <tile/>
   <tile/>
   <tile/>
   <tile/>
   <tile/>
   <tile/>
   <tile/>
   <tile/>
   <tile/>
   <tile/>
   <tile/>
   <tile/>
   <tile/>
   <tile/>
   <tile/>
   <tile/>
   <tile/>
   <tile/>
   <tile/>
   <tile/>
   <tile/>
   <tile/>
   <tile/>
   <tile/>
   <tile/>
   <tile/>
   <tile/>
   <tile/>
   <tile/>
   <tile/>
   <tile/>
   <tile/>
   <tile/>
   <tile/>
   <tile/>
   <tile/>
   <tile/>
   <tile/>
   <tile/>
   <tile/>
   <tile/>
   <tile/>
   <tile/>
   <tile/>
   <tile/>
   <tile/>
   <tile/>
   <tile/>
   <tile/>
   <tile/>
   <tile/>
   <tile/>
   <tile/>
   <tile/>
   <tile/>
   <tile/>
   <tile/>
   <tile/>
   <tile/>
   <tile/>
   <tile/>
   <tile/>
   <tile/>
   <tile/>
   <tile/>
   <tile/>
   <tile/>
   <tile/>
   <tile/>
   <tile/>
   <tile/>
   <tile/>
   <tile/>
   <tile/>
   <tile/>
   <tile/>
   <tile/>
   <tile/>
   <tile/>
   <tile/>
   <tile/>
   <tile/>
   <tile/>
   <tile/>
   <tile/>
   <tile/>
   <tile/>
   <tile/>
   <tile/>
   <tile/>
   <tile/>
   <tile/>
   <tile/>
   <tile/>
   <tile/>
   <tile/>
   <tile/>
   <tile/>
   <tile/>
   <tile/>
   <tile/>
   <tile/>
   <tile/>
   <tile/>
   <tile/>
   <tile/>
   <tile/>
   <tile/>
   <tile/>
   <tile/>
   <tile/>
   <tile/>
   <tile/>
   <tile/>
   <tile/>
   <tile/>
   <tile/>
   <tile/>
   <tile/>
   <tile/>
   <tile/>
   <tile/>
   <tile/>
   <tile/>
   <tile/>
   <tile/>
   <tile/>
   <tile/>
   <tile/>
   <tile/>
   <tile/>
   <tile/>
   <tile/>
   <tile/>
   <tile/>
   <tile/>
   <tile/>
   <tile/>
   <tile/>
   <tile/>
   <tile/>
   <tile/>
   <tile/>
   <tile/>
   <tile/>
   <tile/>
   <tile/>
   <tile/>
   <tile/>
   <tile/>
   <tile/>
   <tile/>
   <tile/>
   <tile/>
   <tile/>
   <tile/>
   <tile/>
   <tile/>
   <tile/>
   <tile/>
   <tile/>
   <tile/>
   <tile/>
   <tile/>
   <tile/>
   <tile/>
   <tile/>
   <tile/>
   <tile/>
   <tile/>
   <tile/>
   <tile/>
   <tile/>
   <tile/>
   <tile/>
   <tile/>
   <tile/>
   <tile/>
   <tile/>
   <tile/>
   <tile/>
   <tile/>
   <tile/>
   <tile/>
   <tile/>
   <tile/>
   <tile/>
   <tile/>
   <tile/>
   <tile/>
   <tile/>
   <tile/>
   <tile/>
   <tile/>
   <tile/>
   <tile/>
   <tile/>
   <tile/>
   <tile/>
   <tile/>
   <tile/>
   <tile/>
   <tile/>
   <tile/>
   <tile/>
   <tile/>
   <tile/>
   <tile/>
   <tile/>
   <tile/>
   <tile/>
   <tile/>
   <tile/>
   <tile/>
   <tile/>
   <tile/>
   <tile/>
   <tile/>
   <tile/>
   <tile/>
   <tile/>
   <tile/>
   <tile/>
   <tile/>
   <tile/>
   <tile/>
   <tile/>
   <tile/>
   <tile/>
   <tile/>
   <tile/>
   <tile/>
   <tile/>
   <tile/>
   <tile/>
   <tile/>
   <tile/>
   <tile/>
   <tile/>
   <tile/>
   <tile/>
   <tile/>
   <tile/>
   <tile/>
   <tile/>
   <tile/>
   <tile/>
   <tile/>
   <tile/>
   <tile/>
   <tile/>
   <tile/>
   <tile/>
   <tile/>
   <tile/>
   <tile/>
   <tile/>
   <tile/>
   <tile/>
   <tile/>
   <tile/>
   <tile/>
   <tile/>
   <tile/>
   <tile/>
   <tile/>
   <tile/>
   <tile/>
   <tile/>
   <tile/>
   <tile/>
   <tile/>
   <tile/>
   <tile/>
   <tile/>
   <tile/>
   <tile/>
   <tile/>
   <tile/>
   <tile/>
   <tile/>
   <tile/>
   <tile/>
   <tile/>
   <tile/>
   <tile/>
   <tile/>
   <tile/>
   <tile/>
   <tile/>
   <tile/>
   <tile/>
   <tile/>
   <tile/>
   <tile/>
   <tile/>
   <tile/>
   <tile/>
   <tile/>
   <tile/>
   <tile/>
   <tile/>
   <tile/>
   <tile/>
   <tile/>
   <tile/>
   <tile/>
   <tile/>
   <tile/>
   <tile/>
   <tile/>
   <tile/>
   <tile/>
   <tile/>
   <tile/>
   <tile/>
   <tile/>
   <tile/>
   <tile/>
   <tile/>
   <tile/>
   <tile/>
   <tile/>
   <tile/>
   <tile/>
   <tile/>
   <tile/>
   <tile/>
   <tile/>
   <tile/>
   <tile/>
   <tile/>
   <tile/>
   <tile/>
   <tile/>
   <tile/>
   <tile/>
   <tile/>
   <tile/>
   <tile/>
   <tile/>
   <tile/>
   <tile/>
   <tile/>
   <tile/>
   <tile/>
   <tile/>
   <tile/>
   <tile/>
   <tile/>
   <tile/>
   <tile/>
   <tile/>
   <tile/>
   <tile/>
   <tile/>
   <tile/>
   <tile/>
   <tile/>
   <tile/>
   <tile/>
   <tile/>
   <tile/>
   <tile/>
   <tile/>
   <tile/>
   <tile/>
   <tile/>
   <tile/>
   <tile/>
   <tile/>
   <tile/>
   <tile/>
   <tile/>
   <tile/>
   <tile/>
   <tile/>
   <tile/>
   <tile/>
   <tile/>
   <tile/>
   <tile/>
   <tile/>
   <tile/>
   <tile/>
   <tile/>
   <tile/>
   <tile/>
   <tile/>
   <tile/>
   <tile/>
   <tile/>
   <tile/>
   <tile/>
   <tile/>
   <tile/>
   <tile/>
   <tile/>
   <tile/>
   <tile/>
   <tile/>
   <tile/>
   <tile/>
   <tile/>
   <tile/>
   <tile/>
   <tile/>
   <tile/>
   <tile/>
   <tile/>
   <tile/>
   <tile/>
   <tile/>
   <tile/>
   <tile/>
   <tile/>
   <tile/>
   <tile/>
   <tile/>
   <tile/>
   <tile/>
   <tile/>
   <tile/>
   <tile/>
   <tile/>
   <tile/>
   <tile/>
   <tile/>
   <tile/>
   <tile/>
   <tile/>
   <tile/>
   <tile/>
   <tile/>
   <tile/>
   <tile/>
   <tile/>
   <tile/>
   <tile/>
   <tile/>
   <tile/>
   <tile/>
   <tile/>
   <tile/>
   <tile/>
   <tile/>
   <tile/>
   <tile/>
   <tile/>
   <tile/>
   <tile/>
   <tile/>
   <tile/>
   <tile/>
   <tile/>
   <tile/>
   <tile/>
   <tile/>
   <tile/>
   <tile/>
   <tile/>
   <tile/>
   <tile/>
   <tile/>
   <tile/>
   <tile/>
   <tile/>
   <tile/>
   <tile/>
   <tile/>
   <tile/>
   <tile/>
   <tile/>
   <tile/>
   <tile/>
   <tile/>
   <tile/>
   <tile/>
   <tile/>
   <tile/>
   <tile/>
   <tile/>
   <tile/>
   <tile/>
   <tile/>
   <tile/>
   <tile/>
   <tile/>
   <tile/>
   <tile/>
   <tile/>
   <tile/>
   <tile/>
   <tile/>
   <tile/>
   <tile/>
   <tile/>
   <tile/>
   <tile/>
   <tile/>
   <tile/>
   <tile/>
   <tile/>
   <tile/>
   <tile/>
   <tile/>
   <tile/>
   <tile/>
   <tile/>
   <tile/>
   <tile/>
   <tile/>
   <tile/>
   <tile/>
   <tile/>
   <tile/>
   <tile/>
   <tile/>
   <tile/>
   <tile/>
   <tile/>
   <tile/>
   <tile/>
   <tile/>
   <tile/>
   <tile/>
   <tile/>
   <tile/>
   <tile/>
   <tile/>
   <tile/>
   <tile/>
   <tile/>
   <tile/>
   <tile/>
   <tile/>
   <tile/>
   <tile/>
   <tile/>
   <tile/>
   <tile/>
   <tile/>
   <tile/>
   <tile/>
   <tile/>
   <tile/>
   <tile/>
   <tile/>
   <tile/>
   <tile/>
   <tile/>
   <tile/>
   <tile/>
   <tile/>
   <tile/>
   <tile/>
   <tile/>
   <tile/>
   <tile/>
   <tile/>
   <tile/>
   <tile/>
   <tile/>
   <tile/>
   <tile/>
   <tile/>
   <tile/>
   <tile/>
   <tile/>
   <tile/>
   <tile/>
   <tile/>
   <tile/>
   <tile/>
   <tile/>
   <tile/>
   <tile/>
   <tile/>
   <tile/>
   <tile/>
   <tile/>
   <tile/>
   <tile/>
   <tile/>
   <tile/>
   <tile/>
   <tile/>
   <tile/>
   <tile/>
   <tile/>
   <tile/>
   <tile/>
   <tile/>
   <tile/>
   <tile/>
   <tile/>
   <tile/>
   <tile/>
   <tile/>
   <tile/>
   <tile/>
   <tile/>
   <tile/>
   <tile/>
   <tile/>
   <tile/>
   <tile/>
   <tile/>
   <tile/>
   <tile/>
   <tile/>
   <tile/>
   <tile/>
   <tile/>
   <tile/>
   <tile/>
   <tile/>
   <tile/>
   <tile/>
   <tile/>
   <tile/>
   <tile/>
   <tile/>
   <tile/>
   <tile/>
   <tile/>
   <tile/>
   <tile/>
   <tile/>
   <tile/>
   <tile/>
   <tile/>
   <tile/>
   <tile/>
   <tile/>
   <tile/>
   <tile/>
   <tile/>
   <tile/>
   <tile/>
   <tile/>
   <tile/>
   <tile/>
   <tile/>
   <tile/>
   <tile/>
   <tile/>
   <tile/>
   <tile/>
   <tile/>
   <tile/>
   <tile/>
   <tile/>
   <tile/>
   <tile/>
   <tile/>
   <tile/>
   <tile/>
   <tile/>
   <tile/>
   <tile/>
   <tile/>
   <tile/>
   <tile/>
   <tile/>
   <tile/>
   <tile/>
   <tile/>
   <tile/>
   <tile/>
   <tile/>
   <tile/>
   <tile/>
   <tile/>
   <tile/>
   <tile/>
   <tile/>
   <tile/>
   <tile/>
   <tile/>
   <tile/>
   <tile/>
   <tile/>
   <tile/>
   <tile/>
   <tile/>
   <tile/>
   <tile/>
   <tile/>
   <tile/>
   <tile/>
   <tile/>
   <tile/>
   <tile/>
   <tile/>
   <tile/>
   <tile/>
   <tile/>
   <tile/>
   <tile/>
   <tile/>
   <tile/>
   <tile/>
   <tile/>
   <tile/>
   <tile/>
   <tile/>
   <tile/>
   <tile/>
   <tile/>
   <tile/>
   <tile/>
   <tile/>
   <tile/>
   <tile/>
   <tile/>
   <tile/>
   <tile/>
   <tile/>
   <tile/>
   <tile/>
   <tile/>
   <tile/>
   <tile/>
   <tile/>
   <tile/>
   <tile/>
   <tile/>
   <tile/>
   <tile/>
   <tile/>
   <tile/>
   <tile/>
   <tile/>
   <tile/>
   <tile/>
   <tile/>
   <tile/>
   <tile/>
   <tile/>
   <tile/>
   <tile/>
   <tile/>
   <tile/>
   <tile/>
   <tile/>
   <tile/>
   <tile/>
   <tile/>
   <tile/>
   <tile/>
   <tile/>
   <tile/>
   <tile/>
   <tile/>
   <tile/>
   <tile/>
   <tile/>
   <tile/>
   <tile/>
   <tile/>
   <tile/>
   <tile/>
   <tile/>
   <tile/>
   <tile/>
   <tile/>
   <tile/>
   <tile/>
   <tile/>
   <tile/>
   <tile/>
   <tile/>
   <tile/>
   <tile/>
   <tile/>
   <tile/>
   <tile/>
   <tile/>
   <tile/>
   <tile/>
   <tile/>
   <tile/>
   <tile/>
   <tile/>
   <tile/>
   <tile/>
   <tile/>
   <tile/>
   <tile/>
   <tile/>
   <tile/>
   <tile/>
   <tile/>
   <tile/>
   <tile/>
   <tile/>
   <tile/>
   <tile/>
   <tile/>
   <tile/>
   <tile/>
   <tile/>
   <tile/>
   <tile/>
   <tile/>
   <tile/>
   <tile/>
   <tile/>
   <tile/>
   <tile/>
   <tile/>
   <tile/>
   <tile/>
   <tile/>
   <tile/>
   <tile/>
   <tile/>
   <tile/>
   <tile/>
   <tile/>
   <tile/>
   <tile/>
   <tile/>
   <tile/>
   <tile/>
   <tile/>
   <tile/>
   <tile/>
   <tile/>
   <tile/>
   <tile/>
   <tile/>
   <tile/>
   <tile/>
   <tile/>
   <tile/>
   <tile/>
   <tile/>
   <tile/>
   <tile/>
   <tile/>
   <tile/>
   <tile/>
   <tile/>
   <tile/>
   <tile/>
   <tile/>
   <tile/>
   <tile/>
   <tile/>
   <tile/>
   <tile/>
   <tile/>
   <tile/>
   <tile/>
   <tile/>
   <tile/>
   <tile/>
   <tile/>
   <tile/>
   <tile/>
   <tile/>
   <tile/>
   <tile/>
   <tile/>
   <tile/>
   <tile/>
   <tile/>
   <tile/>
   <tile/>
   <tile/>
   <tile/>
   <tile/>
   <tile/>
   <tile/>
   <tile/>
   <tile/>
   <tile/>
   <tile/>
   <tile/>
   <tile/>
   <tile/>
   <tile/>
   <tile/>
   <tile/>
   <tile/>
   <tile/>
   <tile/>
   <tile/>
   <tile/>
   <tile/>
   <tile/>
   <tile/>
   <tile/>
   <tile/>
   <tile/>
   <tile/>
   <tile/>
   <tile/>
   <tile/>
   <tile/>
   <tile/>
   <tile/>
   <tile/>
   <tile/>
   <tile/>
   <tile/>
   <tile/>
   <tile/>
   <tile/>
   <tile/>
   <tile/>
   <tile/>
   <tile/>
   <tile/>
   <tile/>
   <tile/>
   <tile/>
   <tile/>
   <tile/>
   <tile/>
   <tile/>
   <tile/>
   <tile/>
   <tile/>
   <tile/>
   <tile/>
   <tile/>
   <tile/>
   <tile/>
   <tile/>
   <tile/>
   <tile/>
   <tile/>
   <tile/>
   <tile/>
   <tile/>
   <tile/>
   <tile/>
   <tile/>
   <tile/>
   <tile/>
   <tile/>
   <tile/>
   <tile/>
   <tile/>
   <tile/>
   <tile/>
   <tile/>
   <tile/>
   <tile/>
   <tile/>
   <tile/>
   <tile/>
   <tile/>
   <tile/>
   <tile/>
   <tile/>
   <tile/>
   <tile/>
   <tile/>
   <tile/>
   <tile/>
   <tile/>
   <tile/>
   <tile/>
   <tile/>
   <tile/>
   <tile/>
   <tile/>
   <tile/>
   <tile/>
   <tile/>
   <tile/>
   <tile/>
   <tile/>
   <tile/>
   <tile/>
   <tile/>
   <tile/>
   <tile/>
   <tile/>
   <tile/>
   <tile/>
   <tile/>
   <tile/>
   <tile/>
   <tile/>
   <tile/>
   <tile/>
   <tile/>
   <tile/>
   <tile/>
   <tile/>
   <tile/>
   <tile/>
   <tile/>
   <tile/>
   <tile/>
   <tile/>
   <tile/>
   <tile/>
   <tile/>
   <tile/>
   <tile/>
   <tile/>
   <tile/>
   <tile/>
   <tile/>
   <tile/>
   <tile/>
   <tile/>
   <tile/>
   <tile/>
   <tile/>
   <tile/>
   <tile/>
   <tile/>
   <tile/>
   <tile/>
   <tile/>
   <tile/>
   <tile/>
   <tile/>
   <tile/>
   <tile/>
   <tile/>
   <tile/>
   <tile/>
   <tile/>
   <tile/>
   <tile/>
   <tile/>
   <tile/>
   <tile/>
   <tile/>
   <tile/>
   <tile/>
   <tile/>
   <tile/>
   <tile/>
   <tile/>
   <tile/>
   <tile/>
   <tile/>
   <tile/>
   <tile/>
   <tile/>
   <tile/>
   <tile/>
   <tile/>
   <tile/>
   <tile/>
   <tile/>
   <tile/>
   <tile/>
   <tile/>
   <tile/>
   <tile/>
   <tile/>
   <tile/>
   <tile/>
   <tile/>
   <tile/>
   <tile/>
   <tile/>
   <tile/>
   <tile/>
   <tile/>
   <tile/>
   <tile/>
   <tile/>
   <tile/>
   <tile/>
   <tile/>
   <tile/>
   <tile/>
   <tile/>
   <tile/>
   <tile/>
   <tile/>
   <tile/>
   <tile/>
   <tile/>
   <tile/>
   <tile/>
   <tile/>
   <tile/>
   <tile/>
   <tile/>
   <tile/>
   <tile/>
   <tile/>
   <tile/>
   <tile/>
   <tile/>
   <tile/>
   <tile/>
   <tile/>
   <tile/>
   <tile/>
   <tile/>
   <tile/>
   <tile/>
   <tile/>
   <tile/>
   <tile/>
   <tile/>
   <tile/>
   <tile/>
   <tile/>
   <tile/>
   <tile/>
   <tile/>
   <tile/>
   <tile/>
   <tile/>
   <tile/>
   <tile/>
   <tile/>
   <tile/>
   <tile/>
   <tile/>
   <tile/>
   <tile/>
   <tile/>
   <tile/>
   <tile/>
   <tile/>
   <tile/>
   <tile/>
   <tile/>
   <tile/>
   <tile/>
   <tile/>
   <tile/>
   <tile/>
   <tile/>
   <tile/>
   <tile/>
   <tile/>
   <tile/>
   <tile/>
   <tile/>
   <tile/>
   <tile/>
   <tile/>
   <tile/>
   <tile/>
   <tile/>
   <tile/>
   <tile/>
   <tile/>
   <tile/>
   <tile/>
   <tile/>
   <tile/>
   <tile/>
   <tile/>
   <tile/>
   <tile/>
   <tile/>
   <tile/>
   <tile/>
   <tile/>
   <tile/>
   <tile/>
   <tile/>
   <tile/>
   <tile/>
   <tile/>
   <tile/>
   <tile/>
   <tile/>
   <tile/>
   <tile/>
   <tile/>
   <tile/>
   <tile/>
   <tile/>
   <tile/>
   <tile/>
   <tile/>
   <tile/>
   <tile/>
   <tile/>
   <tile/>
   <tile/>
   <tile/>
   <tile/>
   <tile/>
   <tile/>
   <tile/>
   <tile/>
   <tile/>
   <tile/>
   <tile/>
   <tile/>
   <tile/>
   <tile/>
   <tile/>
   <tile/>
   <tile/>
   <tile/>
   <tile/>
   <tile/>
   <tile/>
   <tile/>
   <tile/>
   <tile/>
   <tile/>
   <tile/>
   <tile/>
   <tile/>
   <tile/>
   <tile/>
   <tile/>
   <tile/>
   <tile/>
   <tile/>
   <tile/>
   <tile/>
   <tile/>
   <tile/>
   <tile/>
   <tile/>
   <tile/>
   <tile/>
   <tile/>
   <tile/>
   <tile/>
   <tile/>
   <tile/>
   <tile/>
   <tile/>
   <tile/>
   <tile/>
   <tile/>
   <tile/>
   <tile/>
   <tile/>
   <tile/>
   <tile/>
   <tile/>
   <tile/>
   <tile/>
   <tile/>
   <tile/>
   <tile/>
   <tile/>
   <tile/>
   <tile/>
   <tile/>
   <tile/>
   <tile/>
   <tile/>
   <tile/>
   <tile/>
   <tile/>
   <tile/>
   <tile/>
   <tile/>
   <tile/>
   <tile/>
   <tile/>
   <tile/>
   <tile/>
   <tile/>
   <tile/>
   <tile/>
   <tile/>
   <tile/>
   <tile/>
   <tile/>
   <tile/>
   <tile/>
   <tile/>
   <tile/>
   <tile/>
   <tile/>
   <tile/>
   <tile/>
   <tile/>
   <tile/>
   <tile/>
   <tile/>
   <tile/>
   <tile/>
   <tile/>
   <tile/>
   <tile/>
   <tile/>
   <tile/>
   <tile/>
   <tile/>
   <tile/>
   <tile/>
   <tile/>
   <tile/>
   <tile/>
   <tile/>
   <tile/>
   <tile/>
   <tile/>
   <tile/>
   <tile/>
   <tile/>
   <tile/>
   <tile/>
   <tile/>
   <tile/>
   <tile/>
   <tile/>
   <tile/>
   <tile/>
   <tile/>
   <tile/>
   <tile/>
   <tile/>
   <tile/>
   <tile/>
   <tile/>
   <tile/>
   <tile/>
   <tile/>
   <tile/>
   <tile/>
   <tile/>
   <tile/>
   <tile/>
   <tile/>
   <tile/>
   <tile/>
   <tile/>
   <tile/>
   <tile/>
   <tile/>
   <tile/>
   <tile/>
   <tile/>
   <tile/>
   <tile/>
   <tile/>
   <tile/>
   <tile/>
   <tile/>
   <tile/>
   <tile/>
   <tile/>
   <tile/>
   <tile/>
   <tile/>
   <tile/>
   <tile/>
   <tile/>
   <tile/>
   <tile/>
   <tile/>
   <tile/>
   <tile/>
   <tile/>
   <tile/>
   <tile/>
   <tile/>
   <tile/>
   <tile/>
   <tile/>
   <tile/>
   <tile/>
   <tile/>
   <tile/>
   <tile/>
   <tile/>
   <tile/>
   <tile/>
   <tile/>
   <tile/>
   <tile/>
   <tile/>
   <tile/>
   <tile/>
   <tile/>
   <tile/>
   <tile/>
   <tile/>
   <tile/>
   <tile/>
   <tile/>
   <tile/>
   <tile/>
   <tile/>
   <tile/>
   <tile/>
   <tile/>
   <tile/>
   <tile/>
   <tile/>
   <tile/>
   <tile/>
   <tile/>
   <tile/>
   <tile/>
   <tile/>
   <tile/>
   <tile/>
   <tile/>
   <tile/>
   <tile/>
   <tile/>
   <tile/>
   <tile/>
   <tile/>
   <tile/>
   <tile/>
   <tile/>
   <tile/>
   <tile/>
   <tile/>
   <tile/>
   <tile/>
   <tile/>
   <tile/>
   <tile/>
   <tile/>
   <tile/>
   <tile/>
   <tile/>
   <tile/>
   <tile/>
   <tile/>
   <tile/>
   <tile/>
   <tile/>
   <tile/>
   <tile/>
   <tile/>
   <tile/>
   <tile/>
   <tile/>
   <tile/>
   <tile/>
   <tile/>
   <tile/>
   <tile/>
   <tile/>
   <tile/>
   <tile/>
   <tile/>
   <tile/>
   <tile/>
   <tile/>
   <tile/>
   <tile/>
   <tile/>
   <tile/>
   <tile/>
   <tile/>
   <tile/>
   <tile/>
   <tile/>
   <tile/>
   <tile/>
   <tile/>
   <tile/>
   <tile/>
   <tile/>
   <tile/>
   <tile/>
   <tile/>
   <tile/>
   <tile/>
   <tile/>
   <tile/>
   <tile/>
   <tile/>
   <tile/>
   <tile/>
   <tile/>
   <tile/>
   <tile/>
   <tile/>
   <tile/>
   <tile/>
   <tile/>
   <tile/>
   <tile/>
   <tile/>
   <tile/>
   <tile/>
   <tile/>
   <tile/>
   <tile/>
   <tile/>
   <tile/>
   <tile/>
   <tile/>
   <tile/>
   <tile/>
   <tile/>
   <tile/>
   <tile/>
   <tile/>
   <tile/>
   <tile/>
   <tile/>
   <tile/>
   <tile/>
   <tile/>
   <tile/>
   <tile/>
   <tile/>
   <tile/>
   <tile/>
   <tile/>
   <tile/>
   <tile/>
   <tile/>
   <tile/>
   <tile/>
   <tile/>
   <tile/>
   <tile/>
   <tile/>
   <tile/>
   <tile/>
   <tile/>
   <tile/>
   <tile/>
   <tile/>
   <tile/>
   <tile/>
   <tile/>
   <tile/>
   <tile/>
   <tile/>
   <tile/>
   <tile/>
   <tile/>
   <tile/>
   <tile/>
   <tile/>
   <tile/>
   <tile/>
   <tile/>
   <tile/>
   <tile/>
   <tile/>
   <tile/>
   <tile/>
   <tile/>
   <tile/>
   <tile/>
   <tile/>
   <tile/>
   <tile/>
   <tile/>
   <tile/>
   <tile/>
   <tile/>
   <tile/>
   <tile/>
   <tile/>
   <tile/>
   <tile/>
   <tile/>
   <tile/>
   <tile/>
   <tile/>
   <tile/>
   <tile/>
   <tile/>
   <tile/>
   <tile/>
   <tile/>
   <tile/>
   <tile/>
   <tile/>
   <tile/>
   <tile/>
   <tile/>
   <tile/>
   <tile/>
   <tile/>
   <tile/>
   <tile/>
   <tile/>
   <tile/>
   <tile/>
   <tile/>
   <tile/>
   <tile/>
   <tile/>
   <tile/>
   <tile/>
   <tile/>
   <tile/>
   <tile/>
   <tile/>
   <tile/>
   <tile/>
   <tile/>
   <tile/>
   <tile/>
   <tile/>
   <tile/>
   <tile/>
   <tile/>
   <tile/>
   <tile/>
   <tile/>
   <tile/>
   <tile/>
   <tile/>
   <tile/>
   <tile/>
   <tile/>
   <tile/>
   <tile/>
   <tile/>
   <tile/>
   <tile/>
   <tile/>
   <tile/>
   <tile/>
   <tile/>
   <tile/>
   <tile/>
   <tile/>
   <tile/>
   <tile/>
   <tile/>
   <tile/>
   <tile/>
   <tile/>
   <tile/>
   <tile/>
   <tile/>
   <tile/>
   <tile/>
   <tile/>
   <tile/>
   <tile/>
   <tile/>
   <tile/>
   <tile/>
   <tile/>
   <tile/>
   <tile/>
   <tile/>
   <tile/>
   <tile/>
   <tile/>
   <tile/>
   <tile/>
   <tile/>
   <tile/>
   <tile/>
   <tile/>
   <tile/>
   <tile/>
   <tile/>
   <tile/>
   <tile/>
   <tile/>
   <tile/>
   <tile/>
   <tile/>
   <tile/>
   <tile/>
   <tile/>
   <tile/>
   <tile/>
   <tile/>
   <tile/>
   <tile/>
   <tile/>
   <tile/>
   <tile/>
   <tile/>
   <tile/>
   <tile/>
   <tile/>
   <tile/>
   <tile/>
   <tile/>
   <tile/>
   <tile/>
   <tile/>
   <tile/>
   <tile/>
   <tile/>
   <tile/>
   <tile/>
   <tile/>
   <tile/>
   <tile/>
   <tile/>
   <tile/>
   <tile/>
   <tile/>
   <tile/>
   <tile/>
   <tile/>
   <tile/>
   <tile/>
   <tile/>
   <tile/>
   <tile/>
   <tile/>
   <tile/>
   <tile/>
   <tile/>
   <tile/>
   <tile/>
   <tile/>
   <tile/>
   <tile/>
   <tile/>
   <tile/>
   <tile/>
   <tile/>
   <tile/>
   <tile/>
   <tile/>
   <tile/>
   <tile/>
   <tile/>
   <tile/>
   <tile/>
   <tile/>
   <tile/>
   <tile/>
   <tile/>
   <tile/>
   <tile/>
   <tile/>
   <tile/>
   <tile/>
   <tile/>
   <tile/>
   <tile/>
   <tile/>
   <tile/>
   <tile/>
   <tile/>
   <tile/>
   <tile/>
   <tile/>
   <tile/>
   <tile/>
   <tile/>
   <tile/>
   <tile/>
   <tile/>
   <tile/>
   <tile/>
   <tile/>
   <tile/>
   <tile/>
   <tile/>
   <tile/>
   <tile/>
   <tile/>
   <tile/>
   <tile/>
   <tile/>
   <tile/>
   <tile/>
   <tile/>
   <tile/>
   <tile/>
   <tile/>
   <tile/>
   <tile/>
   <tile/>
   <tile/>
   <tile/>
   <tile/>
   <tile/>
   <tile/>
   <tile/>
   <tile/>
   <tile/>
   <tile/>
   <tile/>
   <tile/>
   <tile/>
   <tile/>
   <tile/>
   <tile/>
   <tile/>
   <tile/>
   <tile/>
   <tile/>
   <tile/>
   <tile/>
   <tile/>
   <tile/>
   <tile/>
   <tile/>
   <tile/>
   <tile/>
   <tile/>
   <tile/>
   <tile/>
   <tile/>
   <tile/>
   <tile/>
   <tile/>
   <tile/>
   <tile/>
   <tile/>
   <tile/>
   <tile/>
   <tile/>
   <tile/>
   <tile/>
   <tile/>
   <tile/>
   <tile/>
   <tile/>
   <tile/>
   <tile/>
   <tile/>
   <tile/>
   <tile/>
   <tile/>
   <tile/>
   <tile/>
   <tile/>
   <tile/>
   <tile/>
   <tile/>
   <tile/>
   <tile/>
   <tile/>
   <tile/>
   <tile/>
   <tile/>
   <tile/>
   <tile/>
   <tile/>
   <tile/>
   <tile/>
   <tile/>
   <tile/>
   <tile/>
   <tile/>
   <tile/>
   <tile/>
   <tile/>
   <tile/>
   <tile/>
   <tile/>
   <tile/>
   <tile/>
   <tile/>
   <tile/>
   <tile/>
   <tile/>
   <tile/>
   <tile/>
   <tile/>
   <tile/>
   <tile/>
   <tile/>
   <tile/>
   <tile/>
   <tile/>
   <tile/>
   <tile/>
   <tile/>
   <tile/>
   <tile/>
   <tile/>
   <tile/>
   <tile/>
   <tile/>
   <tile/>
   <tile/>
   <tile/>
   <tile/>
   <tile/>
   <tile/>
   <tile/>
   <tile/>
   <tile/>
   <tile/>
   <tile/>
   <tile/>
   <tile/>
   <tile/>
   <tile/>
   <tile/>
   <tile/>
   <tile/>
   <tile/>
   <tile/>
   <tile/>
   <tile/>
   <tile/>
   <tile/>
   <tile/>
   <tile/>
   <tile/>
   <tile/>
   <tile/>
   <tile/>
   <tile/>
   <tile/>
   <tile/>
   <tile/>
   <tile/>
   <tile/>
   <tile/>
   <tile/>
   <tile/>
   <tile/>
   <tile/>
   <tile/>
   <tile/>
   <tile/>
   <tile/>
   <tile/>
   <tile/>
   <tile/>
   <tile/>
   <tile/>
   <tile/>
   <tile/>
   <tile/>
   <tile/>
   <tile/>
   <tile/>
   <tile/>
   <tile/>
   <tile/>
   <tile/>
   <tile/>
   <tile/>
   <tile/>
   <tile/>
   <tile/>
   <tile/>
   <tile/>
   <tile/>
   <tile/>
   <tile/>
   <tile/>
   <tile/>
   <tile/>
   <tile/>
   <tile/>
   <tile/>
   <tile/>
   <tile/>
   <tile/>
   <tile/>
   <tile/>
   <tile/>
   <tile/>
   <tile/>
   <tile/>
   <tile/>
   <tile/>
   <tile/>
   <tile/>
   <tile/>
   <tile/>
   <tile/>
   <tile/>
   <tile/>
   <tile/>
   <tile/>
   <tile/>
   <tile/>
   <tile/>
   <tile/>
   <tile/>
   <tile/>
   <tile/>
   <tile/>
   <tile/>
   <tile/>
   <tile/>
   <tile/>
   <tile/>
   <tile/>
   <tile/>
   <tile/>
   <tile/>
   <tile/>
   <tile/>
   <tile/>
   <tile/>
   <tile/>
   <tile/>
   <tile/>
   <tile/>
   <tile/>
   <tile/>
   <tile/>
   <tile/>
   <tile/>
   <tile/>
   <tile/>
   <tile/>
   <tile/>
   <tile/>
   <tile/>
   <tile/>
   <tile/>
   <tile/>
   <tile/>
   <tile/>
   <tile/>
   <tile/>
   <tile/>
   <tile/>
   <tile/>
   <tile/>
   <tile/>
   <tile/>
   <tile/>
   <tile/>
   <tile/>
   <tile/>
   <tile/>
   <tile/>
   <tile/>
   <tile/>
   <tile/>
   <tile/>
   <tile/>
   <tile/>
   <tile/>
   <tile/>
   <tile/>
   <tile/>
   <tile/>
   <tile/>
   <tile/>
   <tile/>
   <tile/>
   <tile/>
   <tile/>
   <tile/>
   <tile/>
   <tile/>
   <tile/>
   <tile/>
   <tile/>
   <tile/>
   <tile/>
   <tile/>
   <tile/>
   <tile/>
   <tile/>
   <tile/>
   <tile/>
   <tile/>
   <tile/>
   <tile/>
   <tile/>
   <tile/>
   <tile/>
   <tile/>
   <tile/>
   <tile/>
   <tile/>
   <tile/>
   <tile/>
   <tile/>
   <tile/>
   <tile/>
   <tile/>
   <tile/>
   <tile/>
   <tile/>
   <tile/>
   <tile/>
   <tile/>
   <tile/>
   <tile/>
   <tile/>
   <tile/>
   <tile/>
   <tile/>
   <tile/>
   <tile/>
   <tile/>
   <tile/>
   <tile/>
   <tile/>
   <tile/>
   <tile/>
   <tile/>
   <tile/>
   <tile/>
   <tile/>
   <tile/>
   <tile/>
   <tile/>
   <tile/>
   <tile/>
   <tile/>
   <tile/>
   <tile/>
   <tile/>
   <tile/>
   <tile/>
   <tile/>
   <tile/>
   <tile/>
   <tile/>
   <tile/>
   <tile/>
   <tile/>
   <tile/>
   <tile/>
   <tile/>
   <tile/>
   <tile/>
   <tile/>
   <tile/>
   <tile/>
   <tile/>
   <tile/>
   <tile/>
   <tile/>
   <tile/>
   <tile/>
   <tile/>
   <tile/>
   <tile/>
   <tile/>
   <tile/>
   <tile/>
   <tile/>
   <tile/>
   <tile/>
   <tile/>
   <tile/>
   <tile/>
   <tile/>
   <tile/>
   <tile/>
   <tile/>
   <tile/>
   <tile/>
   <tile/>
   <tile/>
   <tile/>
   <tile/>
   <tile/>
   <tile/>
   <tile/>
   <tile/>
   <tile/>
   <tile/>
   <tile/>
   <tile/>
   <tile/>
   <tile/>
   <tile/>
   <tile/>
   <tile/>
   <tile/>
   <tile/>
   <tile/>
   <tile/>
   <tile/>
   <tile/>
   <tile/>
   <tile/>
   <tile/>
   <tile/>
   <tile/>
   <tile/>
   <tile/>
   <tile/>
   <tile/>
   <tile/>
   <tile/>
   <tile/>
   <tile/>
   <tile/>
   <tile/>
   <tile/>
   <tile/>
   <tile/>
   <tile/>
   <tile/>
   <tile/>
   <tile/>
   <tile/>
   <tile/>
   <tile/>
   <tile/>
   <tile/>
   <tile/>
   <tile/>
   <tile/>
   <tile/>
   <tile/>
   <tile/>
   <tile/>
   <tile/>
   <tile/>
   <tile/>
   <tile/>
   <tile/>
   <tile/>
   <tile/>
   <tile/>
   <tile/>
   <tile/>
   <tile/>
   <tile/>
   <tile/>
   <tile/>
   <tile/>
   <tile/>
   <tile/>
   <tile/>
   <tile/>
   <tile/>
   <tile/>
   <tile/>
   <tile/>
   <tile/>
   <tile/>
   <tile/>
   <tile/>
   <tile/>
   <tile/>
   <tile/>
   <tile/>
   <tile/>
   <tile/>
   <tile/>
   <tile/>
   <tile/>
   <tile/>
   <tile/>
   <tile/>
   <tile/>
   <tile/>
   <tile/>
   <tile/>
   <tile/>
   <tile/>
   <tile/>
   <tile/>
   <tile/>
   <tile/>
   <tile/>
   <tile/>
   <tile/>
   <tile/>
   <tile/>
   <tile/>
   <tile/>
   <tile/>
   <tile/>
   <tile/>
   <tile/>
   <tile/>
   <tile/>
   <tile/>
   <tile/>
   <tile/>
   <tile/>
   <tile/>
   <tile/>
   <tile/>
   <tile/>
   <tile/>
   <tile/>
   <tile/>
   <tile/>
   <tile/>
   <tile/>
   <tile/>
   <tile/>
   <tile/>
   <tile/>
   <tile/>
   <tile/>
   <tile/>
   <tile/>
   <tile/>
   <tile/>
   <tile/>
   <tile/>
   <tile/>
   <tile/>
   <tile/>
   <tile/>
   <tile/>
   <tile/>
   <tile/>
   <tile/>
   <tile/>
   <tile/>
   <tile/>
   <tile/>
   <tile/>
   <tile/>
   <tile/>
   <tile/>
   <tile/>
   <tile/>
   <tile/>
   <tile/>
   <tile/>
   <tile/>
   <tile/>
   <tile/>
   <tile/>
   <tile/>
   <tile/>
   <tile/>
   <tile/>
   <tile/>
   <tile/>
   <tile/>
   <tile/>
   <tile/>
   <tile/>
   <tile/>
   <tile/>
   <tile/>
   <tile/>
   <tile/>
   <tile/>
   <tile/>
   <tile/>
   <tile/>
   <tile/>
   <tile/>
   <tile/>
   <tile/>
   <tile/>
   <tile/>
   <tile/>
   <tile/>
   <tile/>
   <tile/>
   <tile/>
   <tile/>
   <tile/>
   <tile/>
   <tile/>
   <tile/>
   <tile/>
   <tile/>
   <tile/>
   <tile/>
   <tile/>
   <tile/>
   <tile/>
   <tile/>
   <tile/>
   <tile/>
   <tile/>
   <tile/>
   <tile/>
   <tile/>
   <tile/>
   <tile/>
   <tile/>
   <tile/>
   <tile/>
   <tile/>
   <tile/>
   <tile/>
   <tile/>
   <tile/>
   <tile/>
   <tile/>
   <tile/>
   <tile/>
   <tile/>
   <tile/>
   <tile/>
   <tile/>
   <tile/>
   <tile/>
   <tile/>
   <tile/>
   <tile/>
   <tile/>
   <tile/>
   <tile/>
   <tile/>
   <tile/>
   <tile/>
   <tile/>
   <tile/>
   <tile/>
   <tile/>
   <tile/>
   <tile/>
   <tile/>
   <tile/>
   <tile/>
   <tile/>
   <tile/>
   <tile/>
   <tile/>
   <tile/>
   <tile/>
   <tile/>
   <tile/>
   <tile/>
   <tile/>
   <tile/>
   <tile/>
   <tile/>
   <tile/>
   <tile/>
   <tile/>
   <tile/>
   <tile/>
   <tile/>
   <tile/>
   <tile/>
   <tile/>
   <tile/>
   <tile/>
   <tile/>
   <tile/>
   <tile/>
   <tile/>
   <tile/>
   <tile/>
   <tile/>
   <tile/>
   <tile/>
   <tile/>
   <tile/>
   <tile/>
   <tile/>
   <tile/>
   <tile/>
   <tile/>
   <tile/>
   <tile/>
   <tile/>
   <tile/>
   <tile/>
   <tile/>
   <tile/>
   <tile/>
   <tile/>
   <tile/>
   <tile/>
   <tile/>
   <tile/>
   <tile/>
   <tile/>
   <tile/>
   <tile/>
   <tile/>
   <tile/>
   <tile/>
   <tile/>
   <tile/>
   <tile/>
   <tile/>
   <tile/>
   <tile/>
   <tile/>
   <tile/>
   <tile/>
   <tile/>
   <tile/>
   <tile/>
   <tile/>
   <tile/>
   <tile/>
   <tile/>
   <tile/>
   <tile/>
   <tile/>
   <tile/>
   <tile/>
   <tile/>
   <tile/>
   <tile/>
   <tile/>
   <tile/>
   <tile/>
   <tile/>
   <tile/>
   <tile/>
   <tile/>
   <tile/>
   <tile/>
   <tile/>
   <tile/>
   <tile/>
   <tile/>
   <tile/>
   <tile/>
   <tile/>
   <tile/>
   <tile/>
   <tile/>
   <tile/>
   <tile/>
   <tile/>
   <tile/>
   <tile/>
   <tile/>
   <tile/>
   <tile/>
   <tile/>
   <tile/>
   <tile/>
   <tile/>
   <tile/>
   <tile/>
   <tile/>
   <tile/>
   <tile/>
   <tile/>
   <tile/>
   <tile/>
   <tile/>
   <tile/>
   <tile/>
   <tile/>
   <tile/>
   <tile/>
   <tile/>
   <tile/>
   <tile/>
   <tile/>
   <tile/>
   <tile/>
   <tile/>
   <tile/>
   <tile/>
   <tile/>
   <tile/>
   <tile/>
   <tile/>
   <tile/>
   <tile/>
   <tile/>
   <tile/>
   <tile/>
   <tile/>
   <tile/>
   <tile/>
   <tile/>
   <tile/>
   <tile/>
   <tile/>
   <tile/>
   <tile/>
   <tile/>
   <tile/>
   <tile/>
   <tile/>
   <tile/>
   <tile/>
   <tile/>
   <tile/>
   <tile/>
   <tile/>
   <tile/>
   <tile/>
   <tile/>
   <tile/>
   <tile/>
   <tile/>
   <tile/>
   <tile/>
   <tile/>
   <tile/>
   <tile/>
   <tile/>
   <tile/>
   <tile/>
   <tile/>
   <tile/>
   <tile/>
   <tile/>
   <tile/>
   <tile/>
   <tile/>
   <tile/>
   <tile/>
   <tile/>
   <tile/>
   <tile/>
   <tile/>
   <tile/>
   <tile/>
   <tile/>
   <tile/>
   <tile/>
   <tile/>
   <tile/>
   <tile/>
   <tile/>
   <tile/>
   <tile/>
   <tile/>
   <tile/>
   <tile/>
   <tile/>
   <tile/>
   <tile/>
   <tile/>
   <tile/>
   <tile/>
   <tile/>
   <tile/>
   <tile/>
   <tile/>
   <tile/>
   <tile/>
   <tile/>
   <tile/>
   <tile/>
   <tile/>
   <tile/>
   <tile/>
   <tile/>
   <tile/>
   <tile/>
   <tile/>
   <tile/>
   <tile/>
   <tile/>
   <tile/>
   <tile/>
   <tile/>
   <tile/>
   <tile/>
   <tile/>
   <tile/>
   <tile/>
   <tile/>
   <tile/>
   <tile/>
   <tile/>
   <tile/>
   <tile/>
   <tile/>
   <tile/>
   <tile/>
   <tile/>
   <tile/>
   <tile/>
   <tile/>
   <tile/>
   <tile/>
   <tile/>
   <tile/>
   <tile/>
   <tile/>
   <tile/>
   <tile/>
   <tile/>
   <tile/>
   <tile/>
   <tile/>
   <tile/>
   <tile/>
   <tile/>
   <tile/>
   <tile/>
   <tile/>
   <tile/>
   <tile/>
   <tile/>
   <tile/>
   <tile/>
   <tile/>
   <tile/>
   <tile/>
   <tile/>
   <tile/>
   <tile/>
   <tile/>
   <tile/>
   <tile/>
   <tile/>
   <tile/>
   <tile/>
   <tile/>
   <tile/>
   <tile/>
   <tile/>
   <tile/>
   <tile/>
   <tile/>
   <tile/>
   <tile/>
   <tile/>
   <tile/>
   <tile/>
   <tile/>
   <tile/>
   <tile/>
   <tile/>
   <tile/>
   <tile/>
   <tile/>
   <tile/>
   <tile/>
   <tile/>
   <tile/>
   <tile/>
   <tile/>
   <tile/>
   <tile/>
   <tile/>
   <tile/>
   <tile/>
   <tile/>
   <tile/>
   <tile/>
   <tile/>
   <tile/>
   <tile/>
   <tile/>
   <tile/>
   <tile/>
   <tile/>
   <tile/>
   <tile/>
   <tile/>
   <tile/>
   <tile/>
   <tile/>
   <tile/>
   <tile/>
   <tile/>
   <tile/>
   <tile/>
   <tile/>
   <tile/>
   <tile/>
   <tile/>
   <tile/>
   <tile/>
   <tile/>
   <tile/>
   <tile/>
   <tile/>
   <tile/>
   <tile/>
   <tile/>
   <tile/>
   <tile/>
   <tile/>
   <tile/>
   <tile/>
   <tile/>
   <tile/>
   <tile/>
   <tile/>
   <tile/>
   <tile/>
   <tile/>
   <tile/>
   <tile/>
   <tile/>
   <tile/>
   <tile/>
   <tile/>
   <tile/>
   <tile/>
   <tile/>
   <tile/>
   <tile/>
   <tile/>
   <tile/>
   <tile/>
   <tile/>
   <tile/>
   <tile/>
   <tile/>
   <tile/>
   <tile/>
   <tile/>
   <tile/>
   <tile/>
   <tile/>
   <tile/>
   <tile/>
   <tile/>
   <tile/>
   <tile/>
   <tile/>
   <tile/>
   <tile/>
   <tile/>
   <tile/>
   <tile/>
   <tile/>
   <tile/>
   <tile/>
   <tile/>
   <tile/>
   <tile/>
   <tile/>
   <tile/>
   <tile/>
   <tile/>
   <tile/>
   <tile/>
   <tile/>
   <tile/>
   <tile/>
   <tile/>
   <tile/>
   <tile/>
   <tile/>
   <tile/>
   <tile/>
   <tile/>
   <tile/>
   <tile/>
   <tile/>
   <tile/>
   <tile/>
   <tile/>
   <tile/>
   <tile/>
   <tile/>
   <tile/>
   <tile/>
   <tile/>
   <tile/>
   <tile/>
   <tile/>
   <tile/>
   <tile/>
   <tile/>
   <tile/>
   <tile/>
   <tile/>
   <tile/>
   <tile/>
   <tile/>
   <tile/>
   <tile/>
   <tile/>
   <tile/>
   <tile/>
   <tile/>
   <tile/>
   <tile/>
   <tile/>
   <tile/>
   <tile/>
   <tile/>
   <tile/>
   <tile/>
   <tile/>
   <tile/>
   <tile/>
   <tile/>
   <tile/>
   <tile/>
   <tile/>
   <tile/>
   <tile/>
   <tile/>
   <tile/>
   <tile/>
   <tile/>
   <tile/>
   <tile/>
   <tile/>
   <tile/>
   <tile/>
   <tile/>
   <tile/>
   <tile/>
   <tile/>
   <tile/>
   <tile/>
   <tile/>
   <tile/>
   <tile/>
   <tile/>
   <tile/>
   <tile/>
   <tile/>
   <tile/>
   <tile/>
   <tile/>
   <tile/>
   <tile/>
   <tile/>
   <tile/>
   <tile/>
   <tile/>
   <tile/>
   <tile/>
   <tile/>
   <tile/>
   <tile/>
   <tile/>
   <tile/>
   <tile/>
   <tile/>
   <tile/>
   <tile/>
   <tile/>
   <tile/>
   <tile/>
   <tile/>
   <tile/>
   <tile/>
   <tile/>
   <tile/>
   <tile/>
   <tile/>
   <tile/>
   <tile/>
   <tile/>
   <tile/>
   <tile/>
   <tile/>
   <tile/>
   <tile/>
   <tile/>
   <tile/>
   <tile/>
   <tile/>
   <tile/>
   <tile/>
   <tile/>
   <tile/>
   <tile/>
   <tile/>
   <tile/>
   <tile/>
   <tile/>
   <tile/>
   <tile/>
   <tile/>
   <tile/>
   <tile/>
   <tile/>
   <tile/>
   <tile/>
   <tile/>
   <tile/>
   <tile/>
   <tile/>
   <tile/>
   <tile/>
   <tile/>
   <tile/>
   <tile/>
   <tile/>
   <tile/>
   <tile/>
   <tile/>
   <tile/>
   <tile/>
   <tile/>
   <tile/>
   <tile/>
   <tile/>
   <tile/>
   <tile/>
   <tile/>
   <tile/>
   <tile/>
   <tile/>
   <tile/>
   <tile/>
   <tile/>
   <tile/>
   <tile/>
   <tile/>
   <tile/>
   <tile/>
   <tile/>
   <tile/>
   <tile/>
   <tile/>
   <tile/>
   <tile/>
   <tile/>
   <tile/>
   <tile/>
   <tile/>
   <tile/>
   <tile/>
   <tile/>
   <tile/>
   <tile/>
   <tile/>
   <tile/>
   <tile/>
   <tile/>
   <tile/>
   <tile/>
   <tile/>
   <tile/>
   <tile/>
   <tile/>
   <tile/>
   <tile/>
   <tile/>
   <tile/>
   <tile/>
   <tile/>
   <tile/>
   <tile/>
   <tile/>
   <tile/>
   <tile/>
   <tile/>
   <tile/>
   <tile/>
   <tile/>
   <tile/>
   <tile/>
   <tile/>
   <tile/>
   <tile/>
   <tile/>
   <tile/>
   <tile/>
   <tile/>
   <tile/>
   <tile/>
   <tile/>
   <tile/>
   <tile/>
   <tile/>
   <tile/>
   <tile/>
   <tile/>
   <tile/>
   <tile/>
   <tile/>
   <tile/>
   <tile/>
   <tile/>
   <tile/>
   <tile/>
   <tile/>
   <tile/>
   <tile/>
   <tile/>
   <tile/>
   <tile/>
   <tile/>
   <tile/>
   <tile/>
   <tile/>
   <tile/>
   <tile/>
   <tile/>
   <tile/>
   <tile/>
   <tile/>
   <tile/>
   <tile/>
   <tile/>
   <tile/>
   <tile/>
   <tile/>
   <tile/>
   <tile/>
   <tile/>
   <tile/>
   <tile/>
   <tile/>
   <tile/>
   <tile/>
   <tile/>
   <tile/>
   <tile/>
   <tile/>
   <tile/>
   <tile/>
   <tile/>
   <tile/>
   <tile/>
   <tile/>
   <tile/>
   <tile/>
   <tile/>
   <tile/>
   <tile/>
   <tile/>
   <tile/>
   <tile/>
   <tile/>
   <tile/>
   <tile/>
   <tile/>
   <tile/>
   <tile/>
   <tile/>
   <tile/>
   <tile/>
   <tile/>
   <tile/>
   <tile/>
   <tile/>
   <tile/>
   <tile/>
   <tile/>
   <tile/>
   <tile/>
   <tile/>
   <tile/>
   <tile/>
   <tile/>
   <tile/>
   <tile/>
   <tile/>
   <tile/>
   <tile/>
   <tile/>
   <tile/>
   <tile/>
   <tile/>
   <tile/>
   <tile/>
   <tile/>
   <tile/>
   <tile/>
   <tile/>
   <tile/>
   <tile/>
   <tile/>
   <tile/>
   <tile/>
   <tile/>
   <tile/>
   <tile/>
   <tile/>
   <tile/>
   <tile/>
   <tile/>
   <tile/>
   <tile/>
   <tile/>
   <tile/>
   <tile/>
   <tile/>
   <tile/>
   <tile/>
   <tile/>
   <tile/>
   <tile/>
   <tile/>
   <tile/>
   <tile/>
   <tile/>
   <tile/>
   <tile/>
   <tile/>
   <tile/>
   <tile/>
   <tile/>
   <tile/>
   <tile/>
   <tile/>
   <tile/>
   <tile/>
   <tile/>
   <tile/>
   <tile/>
   <tile/>
   <tile/>
   <tile/>
   <tile/>
   <tile/>
   <tile/>
   <tile/>
   <tile/>
   <tile/>
   <tile/>
   <tile/>
   <tile/>
   <tile/>
   <tile/>
   <tile/>
   <tile/>
   <tile/>
   <tile/>
   <tile/>
   <tile/>
   <tile/>
   <tile/>
   <tile/>
   <tile/>
   <tile/>
   <tile/>
   <tile/>
   <tile/>
   <tile/>
   <tile/>
   <tile/>
   <tile/>
   <tile/>
   <tile/>
   <tile/>
   <tile/>
   <tile/>
   <tile/>
   <tile/>
   <tile/>
   <tile/>
   <tile/>
   <tile/>
   <tile/>
   <tile/>
   <tile/>
   <tile/>
   <tile/>
   <tile/>
   <tile/>
   <tile/>
   <tile/>
   <tile/>
   <tile/>
   <tile/>
   <tile/>
   <tile/>
   <tile/>
   <tile/>
   <tile/>
   <tile/>
   <tile/>
   <tile/>
   <tile/>
   <tile/>
   <tile/>
   <tile/>
   <tile/>
   <tile/>
   <tile/>
   <tile/>
   <tile/>
   <tile/>
   <tile/>
   <tile/>
   <tile/>
   <tile/>
   <tile/>
   <tile/>
   <tile/>
   <tile/>
   <tile/>
   <tile/>
   <tile/>
   <tile/>
   <tile/>
   <tile/>
   <tile/>
   <tile/>
   <tile/>
   <tile/>
   <tile/>
   <tile/>
   <tile/>
   <tile/>
   <tile/>
   <tile/>
   <tile/>
   <tile/>
   <tile/>
   <tile/>
   <tile/>
   <tile/>
   <tile/>
   <tile/>
   <tile/>
   <tile/>
   <tile/>
   <tile/>
   <tile/>
   <tile/>
   <tile/>
   <tile/>
   <tile/>
   <tile/>
   <tile/>
   <tile/>
   <tile/>
   <tile/>
   <tile/>
   <tile/>
   <tile/>
   <tile/>
   <tile/>
   <tile/>
   <tile/>
   <tile/>
   <tile/>
   <tile/>
   <tile/>
   <tile/>
   <tile/>
   <tile/>
   <tile/>
   <tile/>
   <tile/>
   <tile/>
   <tile/>
   <tile/>
   <tile/>
   <tile/>
   <tile/>
   <tile/>
   <tile/>
   <tile/>
   <tile/>
   <tile/>
   <tile/>
   <tile/>
   <tile/>
   <tile/>
   <tile/>
   <tile/>
   <tile/>
   <tile/>
   <tile/>
   <tile/>
   <tile/>
   <tile/>
   <tile/>
   <tile/>
   <tile/>
   <tile/>
   <tile/>
   <tile/>
   <tile/>
   <tile/>
   <tile/>
   <tile/>
   <tile/>
   <tile/>
   <tile/>
   <tile/>
   <tile/>
   <tile/>
   <tile/>
   <tile/>
   <tile/>
   <tile/>
   <tile/>
   <tile/>
   <tile/>
   <tile/>
   <tile/>
   <tile/>
   <tile/>
   <tile/>
   <tile/>
   <tile/>
   <tile/>
   <tile/>
   <tile/>
   <tile/>
   <tile/>
   <tile/>
   <tile/>
   <tile/>
   <tile/>
   <tile/>
   <tile/>
   <tile/>
   <tile/>
   <tile/>
   <tile/>
   <tile/>
   <tile/>
   <tile/>
   <tile/>
   <tile/>
   <tile/>
   <tile/>
   <tile/>
   <tile/>
   <tile/>
   <tile/>
   <tile/>
   <tile/>
   <tile/>
   <tile/>
   <tile/>
   <tile/>
   <tile/>
   <tile/>
   <tile/>
   <tile/>
   <tile/>
   <tile/>
   <tile/>
   <tile/>
   <tile/>
   <tile/>
   <tile/>
   <tile/>
   <tile/>
   <tile/>
   <tile/>
   <tile/>
   <tile/>
   <tile/>
   <tile/>
   <tile/>
   <tile/>
   <tile/>
   <tile/>
   <tile/>
   <tile/>
   <tile/>
   <tile/>
   <tile/>
   <tile/>
   <tile/>
   <tile/>
   <tile/>
   <tile/>
   <tile/>
   <tile/>
   <tile/>
   <tile/>
   <tile/>
   <tile/>
   <tile/>
   <tile/>
   <tile/>
   <tile/>
   <tile/>
   <tile/>
   <tile/>
   <tile/>
   <tile/>
   <tile/>
   <tile/>
   <tile/>
   <tile/>
   <tile/>
   <tile/>
   <tile/>
   <tile/>
   <tile/>
   <tile/>
   <tile/>
   <tile/>
   <tile/>
   <tile/>
   <tile/>
   <tile/>
   <tile/>
   <tile/>
   <tile/>
   <tile/>
   <tile/>
   <tile/>
   <tile/>
   <tile/>
   <tile/>
   <tile/>
   <tile/>
   <tile/>
   <tile/>
   <tile/>
   <tile/>
   <tile/>
   <tile/>
   <tile/>
   <tile/>
   <tile/>
   <tile/>
   <tile/>
   <tile/>
   <tile/>
   <tile/>
   <tile/>
   <tile/>
   <tile/>
   <tile/>
   <tile/>
   <tile/>
   <tile/>
   <tile/>
   <tile/>
   <tile/>
   <tile/>
   <tile/>
   <tile/>
   <tile/>
   <tile/>
   <tile/>
   <tile/>
   <tile/>
   <tile/>
   <tile/>
   <tile/>
   <tile/>
   <tile/>
   <tile/>
   <tile/>
   <tile/>
   <tile/>
   <tile/>
   <tile/>
   <tile/>
   <tile/>
   <tile/>
   <tile/>
   <tile/>
   <tile/>
   <tile/>
   <tile/>
   <tile/>
   <tile/>
   <tile/>
   <tile/>
   <tile/>
   <tile/>
   <tile/>
   <tile/>
   <tile/>
   <tile/>
   <tile/>
   <tile/>
   <tile/>
   <tile/>
   <tile/>
   <tile/>
   <tile/>
   <tile/>
   <tile/>
   <tile/>
   <tile/>
   <tile/>
   <tile/>
   <tile/>
   <tile/>
   <tile/>
   <tile/>
   <tile/>
   <tile/>
   <tile/>
   <tile/>
   <tile/>
   <tile/>
   <tile/>
   <tile/>
   <tile/>
   <tile/>
   <tile/>
   <tile/>
   <tile/>
   <tile/>
   <tile/>
   <tile/>
   <tile/>
   <tile/>
   <tile/>
   <tile/>
   <tile/>
   <tile/>
   <tile/>
   <tile/>
   <tile/>
   <tile/>
   <tile/>
   <tile/>
   <tile/>
   <tile/>
   <tile/>
   <tile/>
   <tile/>
   <tile/>
   <tile/>
   <tile/>
   <tile/>
   <tile/>
   <tile/>
   <tile/>
   <tile/>
   <tile/>
   <tile/>
   <tile/>
   <tile/>
   <tile/>
   <tile/>
   <tile/>
   <tile/>
   <tile/>
   <tile/>
   <tile/>
   <tile/>
   <tile/>
   <tile/>
   <tile/>
   <tile/>
   <tile/>
   <tile/>
   <tile/>
   <tile/>
   <tile/>
   <tile/>
   <tile/>
   <tile/>
   <tile/>
   <tile/>
   <tile/>
   <tile/>
   <tile/>
   <tile/>
   <tile/>
   <tile/>
   <tile/>
   <tile/>
   <tile/>
   <tile/>
   <tile/>
   <tile/>
   <tile/>
   <tile/>
   <tile/>
   <tile/>
   <tile/>
   <tile/>
   <tile/>
   <tile/>
   <tile/>
   <tile/>
   <tile/>
   <tile/>
   <tile/>
   <tile/>
   <tile/>
   <tile/>
   <tile/>
   <tile/>
   <tile/>
   <tile/>
   <tile/>
   <tile/>
   <tile/>
   <tile/>
   <tile/>
   <tile/>
   <tile/>
   <tile/>
   <tile/>
   <tile/>
   <tile/>
   <tile/>
   <tile/>
   <tile/>
   <tile/>
   <tile/>
   <tile/>
   <tile/>
   <tile/>
   <tile/>
   <tile/>
   <tile/>
   <tile/>
   <tile/>
   <tile/>
   <tile/>
   <tile/>
   <tile/>
   <tile/>
   <tile/>
   <tile/>
   <tile/>
   <tile/>
   <tile/>
   <tile/>
   <tile/>
   <tile/>
   <tile/>
   <tile/>
   <tile/>
   <tile/>
   <tile/>
   <tile/>
   <tile/>
   <tile/>
   <tile/>
   <tile/>
   <tile/>
   <tile/>
   <tile/>
   <tile/>
   <tile/>
   <tile/>
   <tile/>
   <tile/>
   <tile/>
   <tile/>
   <tile/>
   <tile/>
   <tile/>
   <tile/>
   <tile/>
   <tile/>
   <tile/>
   <tile/>
   <tile/>
   <tile/>
   <tile/>
   <tile/>
   <tile/>
   <tile/>
   <tile/>
   <tile/>
   <tile/>
   <tile/>
   <tile/>
   <tile/>
   <tile/>
   <tile/>
   <tile/>
   <tile/>
   <tile/>
   <tile/>
   <tile/>
   <tile/>
   <tile/>
   <tile/>
   <tile/>
   <tile/>
   <tile/>
   <tile/>
   <tile/>
   <tile/>
   <tile/>
   <tile/>
   <tile/>
   <tile/>
   <tile/>
   <tile/>
   <tile/>
   <tile/>
   <tile/>
   <tile/>
   <tile/>
   <tile/>
   <tile/>
   <tile/>
   <tile/>
   <tile/>
   <tile/>
   <tile/>
   <tile/>
   <tile/>
   <tile/>
   <tile/>
   <tile/>
   <tile/>
   <tile/>
   <tile/>
   <tile/>
   <tile/>
   <tile/>
   <tile/>
   <tile/>
   <tile/>
   <tile/>
   <tile/>
   <tile/>
   <tile/>
   <tile/>
   <tile/>
   <tile/>
   <tile/>
   <tile/>
   <tile/>
   <tile/>
   <tile/>
   <tile/>
   <tile/>
   <tile/>
   <tile/>
   <tile/>
   <tile/>
   <tile/>
   <tile/>
   <tile/>
   <tile/>
   <tile/>
   <tile/>
   <tile/>
   <tile/>
   <tile/>
   <tile/>
   <tile/>
   <tile/>
   <tile/>
   <tile/>
   <tile/>
   <tile/>
   <tile/>
   <tile/>
   <tile/>
   <tile/>
   <tile/>
   <tile/>
   <tile/>
   <tile/>
   <tile/>
   <tile/>
   <tile/>
   <tile/>
   <tile/>
   <tile/>
   <tile/>
   <tile/>
   <tile/>
   <tile/>
   <tile/>
   <tile/>
   <tile/>
   <tile/>
   <tile/>
   <tile/>
   <tile/>
   <tile/>
   <tile/>
   <tile/>
   <tile/>
   <tile/>
   <tile/>
   <tile/>
   <tile/>
   <tile/>
   <tile/>
   <tile/>
   <tile/>
   <tile/>
   <tile/>
   <tile/>
   <tile/>
   <tile/>
   <tile/>
   <tile/>
   <tile/>
   <tile/>
   <tile/>
   <tile/>
   <tile/>
   <tile/>
   <tile/>
   <tile/>
   <tile/>
   <tile/>
   <tile/>
   <tile/>
   <tile/>
   <tile/>
   <tile/>
   <tile/>
   <tile/>
   <tile/>
   <tile/>
   <tile/>
   <tile/>
   <tile/>
   <tile/>
   <tile/>
   <tile/>
   <tile/>
   <tile/>
   <tile/>
   <tile gid="2559"/>
   <tile/>
   <tile/>
   <tile/>
   <tile/>
   <tile/>
   <tile/>
   <tile/>
   <tile/>
   <tile/>
   <tile/>
   <tile/>
   <tile/>
   <tile/>
   <tile/>
   <tile/>
   <tile/>
   <tile/>
   <tile/>
   <tile/>
   <tile/>
   <tile/>
   <tile/>
   <tile/>
   <tile/>
   <tile/>
   <tile/>
   <tile/>
   <tile/>
   <tile/>
   <tile/>
   <tile/>
   <tile/>
   <tile/>
   <tile/>
   <tile/>
   <tile/>
   <tile/>
   <tile/>
   <tile/>
   <tile/>
   <tile/>
   <tile/>
   <tile/>
   <tile/>
   <tile/>
   <tile/>
   <tile/>
   <tile/>
   <tile/>
   <tile/>
   <tile/>
   <tile/>
   <tile/>
   <tile/>
   <tile/>
   <tile/>
   <tile/>
   <tile/>
   <tile/>
   <tile/>
   <tile/>
   <tile/>
   <tile/>
   <tile/>
   <tile/>
   <tile/>
   <tile/>
   <tile/>
   <tile/>
   <tile/>
   <tile/>
   <tile/>
   <tile/>
   <tile/>
   <tile/>
   <tile/>
   <tile/>
   <tile/>
   <tile/>
   <tile/>
   <tile/>
   <tile/>
   <tile/>
   <tile/>
   <tile/>
   <tile/>
   <tile/>
   <tile/>
   <tile/>
  </data>
 </layer>
 <layer id="1" name="Solid" width="90" height="68">
  <properties>
   <property name="Draw" type="bool" value="true"/>
  </properties>
  <data>
   <tile gid="43"/>
   <tile/>
   <tile/>
   <tile/>
   <tile/>
   <tile/>
   <tile gid="41"/>
   <tile gid="78"/>
   <tile gid="59"/>
   <tile/>
   <tile/>
   <tile/>
   <tile/>
   <tile/>
   <tile/>
   <tile/>
   <tile/>
   <tile/>
   <tile gid="57"/>
   <tile gid="43"/>
   <tile/>
   <tile/>
   <tile/>
   <tile/>
   <tile/>
   <tile/>
   <tile/>
   <tile/>
   <tile/>
   <tile/>
   <tile/>
   <tile/>
   <tile/>
   <tile/>
   <tile/>
   <tile/>
   <tile/>
   <tile/>
   <tile/>
   <tile/>
   <tile/>
   <tile/>
   <tile/>
   <tile/>
   <tile/>
   <tile/>
   <tile/>
   <tile/>
   <tile/>
   <tile/>
   <tile/>
   <tile/>
   <tile/>
   <tile/>
   <tile/>
   <tile/>
   <tile/>
   <tile/>
   <tile/>
   <tile/>
   <tile/>
   <tile/>
   <tile/>
   <tile/>
   <tile/>
   <tile/>
   <tile/>
   <tile/>
   <tile/>
   <tile/>
   <tile gid="41"/>
   <tile/>
   <tile/>
   <tile/>
   <tile/>
   <tile/>
   <tile/>
   <tile/>
   <tile/>
   <tile/>
   <tile/>
   <tile/>
   <tile/>
   <tile/>
   <tile/>
   <tile/>
   <tile/>
   <tile/>
   <tile gid="57"/>
   <tile gid="77"/>
   <tile gid="43"/>
   <tile/>
   <tile/>
   <tile/>
   <tile/>
   <tile/>
   <tile gid="41"/>
   <tile gid="59"/>
   <tile/>
   <tile/>
   <tile/>
   <tile/>
   <tile/>
   <tile/>
   <tile/>
   <tile/>
   <tile/>
   <tile/>
   <tile/>
   <tile gid="57"/>
   <tile/>
   <tile/>
   <tile/>
   <tile/>
   <tile/>
   <tile/>
   <tile/>
   <tile/>
   <tile/>
   <tile/>
   <tile/>
   <tile/>
   <tile/>
   <tile/>
   <tile/>
   <tile/>
   <tile/>
   <tile/>
   <tile/>
   <tile/>
   <tile/>
   <tile/>
   <tile/>
   <tile/>
   <tile/>
   <tile/>
   <tile/>
   <tile/>
   <tile/>
   <tile/>
   <tile/>
   <tile/>
   <tile/>
   <tile/>
   <tile/>
   <tile/>
   <tile/>
   <tile/>
   <tile/>
   <tile/>
   <tile/>
   <tile/>
   <tile/>
   <tile/>
   <tile/>
   <tile/>
   <tile/>
   <tile/>
   <tile/>
   <tile/>
   <tile gid="41"/>
   <tile/>
   <tile/>
   <tile/>
   <tile/>
   <tile/>
   <tile/>
   <tile/>
   <tile/>
   <tile/>
   <tile/>
   <tile/>
   <tile/>
   <tile/>
   <tile/>
   <tile/>
   <tile/>
   <tile/>
   <tile/>
   <tile gid="41"/>
   <tile gid="43"/>
   <tile/>
   <tile/>
   <tile/>
   <tile/>
   <tile/>
   <tile gid="41"/>
   <tile/>
   <tile/>
   <tile/>
   <tile/>
   <tile/>
   <tile/>
   <tile/>
   <tile/>
   <tile/>
   <tile/>
   <tile/>
   <tile/>
   <tile/>
   <tile/>
   <tile/>
   <tile/>
   <tile/>
   <tile/>
   <tile/>
   <tile/>
   <tile/>
   <tile/>
   <tile/>
   <tile/>
   <tile/>
   <tile/>
   <tile/>
   <tile/>
   <tile/>
   <tile/>
   <tile/>
   <tile/>
   <tile/>
   <tile/>
   <tile/>
   <tile/>
   <tile/>
   <tile/>
   <tile/>
   <tile/>
   <tile/>
   <tile/>
   <tile/>
   <tile/>
   <tile/>
   <tile/>
   <tile/>
   <tile/>
   <tile/>
   <tile/>
   <tile/>
   <tile/>
   <tile/>
   <tile/>
   <tile/>
   <tile/>
   <tile/>
   <tile/>
   <tile/>
   <tile/>
   <tile/>
   <tile/>
   <tile/>
   <tile gid="41"/>
   <tile/>
   <tile/>
   <tile/>
   <tile/>
   <tile/>
   <tile/>
   <tile/>
   <tile/>
   <tile/>
   <tile/>
   <tile/>
   <tile/>
   <tile/>
   <tile/>
   <tile/>
   <tile/>
   <tile/>
   <tile/>
   <tile gid="41"/>
   <tile gid="43"/>
   <tile/>
   <tile/>
   <tile/>
   <tile/>
   <tile/>
   <tile gid="57"/>
   <tile/>
   <tile/>
   <tile/>
   <tile/>
   <tile/>
   <tile/>
   <tile/>
   <tile/>
   <tile/>
   <tile/>
   <tile/>
   <tile/>
   <tile/>
   <tile/>
   <tile/>
   <tile/>
   <tile/>
   <tile/>
   <tile/>
   <tile/>
   <tile/>
   <tile/>
   <tile/>
   <tile/>
   <tile/>
   <tile/>
   <tile/>
   <tile/>
   <tile/>
   <tile/>
   <tile/>
   <tile/>
   <tile/>
   <tile/>
   <tile/>
   <tile/>
   <tile/>
   <tile/>
   <tile/>
   <tile/>
   <tile/>
   <tile/>
   <tile/>
   <tile/>
   <tile/>
   <tile/>
   <tile/>
   <tile/>
   <tile/>
   <tile/>
   <tile/>
   <tile/>
   <tile/>
   <tile/>
   <tile/>
   <tile/>
   <tile/>
   <tile/>
   <tile/>
   <tile/>
   <tile/>
   <tile/>
   <tile/>
   <tile gid="41"/>
   <tile/>
   <tile/>
   <tile/>
   <tile/>
   <tile/>
   <tile/>
   <tile/>
   <tile/>
   <tile/>
   <tile/>
   <tile/>
   <tile/>
   <tile/>
   <tile/>
   <tile/>
   <tile/>
   <tile/>
   <tile/>
   <tile gid="41"/>
   <tile gid="43"/>
   <tile/>
   <tile/>
   <tile/>
   <tile/>
   <tile/>
   <tile/>
   <tile/>
   <tile/>
   <tile/>
   <tile/>
   <tile/>
   <tile/>
   <tile/>
   <tile/>
   <tile/>
   <tile/>
   <tile/>
   <tile/>
   <tile/>
   <tile/>
   <tile/>
   <tile/>
   <tile/>
   <tile/>
   <tile/>
   <tile/>
   <tile/>
   <tile/>
   <tile/>
   <tile/>
   <tile/>
   <tile/>
   <tile/>
   <tile/>
   <tile/>
   <tile/>
   <tile/>
   <tile/>
   <tile/>
   <tile/>
   <tile/>
   <tile/>
   <tile/>
   <tile/>
   <tile/>
   <tile/>
   <tile/>
   <tile/>
   <tile/>
   <tile/>
   <tile/>
   <tile/>
   <tile/>
   <tile/>
   <tile/>
   <tile/>
   <tile/>
   <tile/>
   <tile/>
   <tile/>
   <tile/>
   <tile/>
   <tile/>
   <tile/>
   <tile/>
   <tile/>
   <tile/>
   <tile/>
   <tile/>
   <tile gid="41"/>
   <tile/>
   <tile/>
   <tile/>
   <tile/>
   <tile/>
   <tile/>
   <tile/>
   <tile/>
   <tile/>
   <tile/>
   <tile/>
   <tile/>
   <tile/>
   <tile/>
   <tile/>
   <tile/>
   <tile/>
   <tile/>
   <tile gid="41"/>
   <tile gid="43"/>
   <tile/>
   <tile/>
   <tile/>
   <tile/>
   <tile/>
   <tile/>
   <tile/>
   <tile/>
   <tile/>
   <tile/>
   <tile/>
   <tile/>
   <tile/>
   <tile/>
   <tile/>
   <tile/>
   <tile/>
   <tile/>
   <tile/>
   <tile/>
   <tile/>
   <tile/>
   <tile/>
   <tile/>
   <tile/>
   <tile/>
   <tile/>
   <tile/>
   <tile/>
   <tile/>
   <tile/>
   <tile/>
   <tile/>
   <tile/>
   <tile/>
   <tile/>
   <tile/>
   <tile/>
   <tile/>
   <tile/>
   <tile/>
   <tile/>
   <tile/>
   <tile/>
   <tile/>
   <tile/>
   <tile/>
   <tile/>
   <tile/>
   <tile/>
   <tile/>
   <tile/>
   <tile/>
   <tile/>
   <tile/>
   <tile/>
   <tile/>
   <tile/>
   <tile/>
   <tile/>
   <tile/>
   <tile/>
   <tile/>
   <tile/>
   <tile/>
   <tile/>
   <tile/>
   <tile/>
   <tile/>
   <tile gid="41"/>
   <tile/>
   <tile/>
   <tile/>
   <tile/>
   <tile/>
   <tile/>
   <tile/>
   <tile/>
   <tile/>
   <tile/>
   <tile/>
   <tile/>
   <tile/>
   <tile/>
   <tile/>
   <tile/>
   <tile/>
   <tile/>
   <tile gid="41"/>
   <tile gid="43"/>
   <tile/>
   <tile/>
   <tile/>
   <tile/>
   <tile/>
   <tile/>
   <tile/>
   <tile/>
   <tile/>
   <tile/>
   <tile/>
   <tile/>
   <tile/>
   <tile/>
   <tile/>
   <tile/>
   <tile/>
   <tile/>
   <tile/>
   <tile/>
   <tile/>
   <tile/>
   <tile/>
   <tile/>
   <tile/>
   <tile/>
   <tile/>
   <tile/>
   <tile/>
   <tile/>
   <tile/>
   <tile/>
   <tile/>
   <tile/>
   <tile/>
   <tile/>
   <tile/>
   <tile/>
   <tile/>
   <tile/>
   <tile/>
   <tile/>
   <tile/>
   <tile/>
   <tile/>
   <tile/>
   <tile/>
   <tile/>
   <tile/>
   <tile/>
   <tile/>
   <tile/>
   <tile/>
   <tile/>
   <tile/>
   <tile/>
   <tile/>
   <tile/>
   <tile/>
   <tile/>
   <tile/>
   <tile/>
   <tile/>
   <tile/>
   <tile/>
   <tile/>
   <tile/>
   <tile/>
   <tile/>
   <tile gid="41"/>
   <tile/>
   <tile/>
   <tile/>
   <tile/>
   <tile/>
   <tile/>
   <tile/>
   <tile/>
   <tile/>
   <tile/>
   <tile/>
   <tile/>
   <tile/>
   <tile/>
   <tile/>
   <tile/>
   <tile/>
   <tile/>
   <tile gid="41"/>
   <tile gid="43"/>
   <tile/>
   <tile/>
   <tile/>
   <tile/>
   <tile/>
   <tile/>
   <tile/>
   <tile/>
   <tile/>
   <tile/>
   <tile/>
   <tile/>
   <tile/>
   <tile/>
   <tile/>
   <tile/>
   <tile/>
   <tile/>
   <tile/>
   <tile/>
   <tile/>
   <tile/>
   <tile/>
   <tile/>
   <tile/>
   <tile/>
   <tile/>
   <tile/>
   <tile/>
   <tile/>
   <tile/>
   <tile/>
   <tile/>
   <tile/>
   <tile/>
   <tile/>
   <tile/>
   <tile/>
   <tile/>
   <tile/>
   <tile/>
   <tile/>
   <tile gid="89"/>
   <tile gid="90"/>
   <tile gid="90"/>
   <tile gid="91"/>
   <tile/>
   <tile/>
   <tile/>
   <tile/>
   <tile/>
   <tile/>
   <tile/>
   <tile/>
   <tile/>
   <tile/>
   <tile/>
   <tile/>
   <tile/>
   <tile/>
   <tile/>
   <tile/>
   <tile/>
   <tile/>
   <tile/>
   <tile/>
   <tile/>
   <tile/>
   <tile/>
   <tile gid="41"/>
   <tile/>
   <tile/>
   <tile/>
   <tile/>
   <tile/>
   <tile/>
   <tile/>
   <tile/>
   <tile/>
   <tile/>
   <tile/>
   <tile/>
   <tile/>
   <tile/>
   <tile/>
   <tile/>
   <tile/>
   <tile/>
   <tile gid="41"/>
   <tile gid="62"/>
   <tile gid="26"/>
   <tile gid="26"/>
   <tile gid="26"/>
   <tile gid="26"/>
   <tile gid="26"/>
   <tile gid="26"/>
   <tile gid="26"/>
   <tile gid="26"/>
   <tile gid="27"/>
   <tile/>
   <tile/>
   <tile/>
   <tile/>
   <tile/>
   <tile gid="89"/>
   <tile gid="90"/>
   <tile gid="90"/>
   <tile gid="90"/>
   <tile gid="90"/>
   <tile gid="90"/>
   <tile gid="90"/>
   <tile gid="90"/>
   <tile gid="90"/>
   <tile gid="90"/>
   <tile gid="90"/>
   <tile gid="90"/>
   <tile gid="90"/>
   <tile gid="90"/>
   <tile gid="91"/>
   <tile/>
   <tile/>
   <tile/>
   <tile/>
   <tile/>
   <tile/>
   <tile/>
   <tile/>
   <tile/>
   <tile/>
   <tile/>
   <tile/>
   <tile/>
   <tile gid="105"/>
   <tile gid="42"/>
   <tile gid="42"/>
   <tile gid="107"/>
   <tile/>
   <tile/>
   <tile/>
   <tile/>
   <tile/>
   <tile/>
   <tile/>
   <tile/>
   <tile/>
   <tile/>
   <tile/>
   <tile/>
   <tile/>
   <tile/>
   <tile/>
   <tile/>
   <tile/>
   <tile/>
   <tile/>
   <tile/>
   <tile/>
   <tile/>
   <tile/>
   <tile gid="41"/>
   <tile/>
   <tile/>
   <tile/>
   <tile/>
   <tile/>
   <tile/>
   <tile/>
   <tile/>
   <tile/>
   <tile/>
   <tile/>
   <tile/>
   <tile/>
   <tile/>
   <tile/>
   <tile gid="25"/>
   <tile gid="26"/>
   <tile gid="26"/>
   <tile gid="61"/>
   <tile gid="42"/>
   <tile gid="42"/>
   <tile gid="42"/>
   <tile gid="42"/>
   <tile gid="42"/>
   <tile gid="42"/>
   <tile gid="42"/>
   <tile gid="42"/>
   <tile gid="42"/>
   <tile gid="43"/>
   <tile/>
   <tile/>
   <tile/>
   <tile/>
   <tile/>
   <tile/>
   <tile/>
   <tile gid="121"/>
   <tile gid="122"/>
   <tile gid="122"/>
   <tile gid="173"/>
   <tile gid="42"/>
   <tile gid="174"/>
   <tile gid="122"/>
   <tile gid="122"/>
   <tile gid="122"/>
   <tile gid="122"/>
   <tile gid="122"/>
   <tile gid="122"/>
   <tile gid="158"/>
   <tile gid="90"/>
   <tile gid="90"/>
   <tile gid="90"/>
   <tile gid="90"/>
   <tile gid="90"/>
   <tile gid="90"/>
   <tile gid="90"/>
   <tile gid="91"/>
   <tile/>
   <tile/>
   <tile/>
   <tile/>
   <tile/>
   <tile gid="105"/>
   <tile gid="42"/>
   <tile gid="42"/>
   <tile gid="107"/>
   <tile/>
   <tile/>
   <tile/>
   <tile/>
   <tile/>
   <tile/>
   <tile/>
   <tile/>
   <tile/>
   <tile/>
   <tile/>
   <tile/>
   <tile/>
   <tile/>
   <tile/>
   <tile/>
   <tile/>
   <tile/>
   <tile/>
   <tile/>
   <tile/>
   <tile/>
   <tile/>
   <tile gid="41"/>
   <tile/>
   <tile/>
   <tile/>
   <tile/>
   <tile/>
   <tile/>
   <tile/>
   <tile/>
   <tile/>
   <tile/>
   <tile/>
   <tile gid="25"/>
   <tile gid="26"/>
   <tile gid="26"/>
   <tile gid="26"/>
   <tile gid="61"/>
   <tile gid="42"/>
   <tile gid="42"/>
   <tile gid="42"/>
   <tile gid="42"/>
   <tile gid="42"/>
   <tile gid="42"/>
   <tile gid="42"/>
   <tile gid="42"/>
   <tile gid="42"/>
   <tile gid="42"/>
   <tile gid="42"/>
   <tile gid="42"/>
   <tile gid="43"/>
   <tile/>
   <tile/>
   <tile/>
   <tile/>
   <tile/>
   <tile/>
   <tile/>
   <tile/>
   <tile/>
   <tile/>
   <tile gid="105"/>
   <tile gid="174"/>
   <tile gid="123"/>
   <tile/>
   <tile/>
   <tile/>
   <tile/>
   <tile/>
   <tile/>
   <tile/>
   <tile/>
   <tile/>
   <tile/>
   <tile/>
   <tile/>
   <tile gid="121"/>
   <tile gid="122"/>
   <tile gid="122"/>
   <tile gid="90"/>
   <tile gid="90"/>
   <tile gid="90"/>
   <tile gid="90"/>
   <tile gid="90"/>
   <tile gid="157"/>
   <tile gid="42"/>
   <tile gid="42"/>
   <tile gid="158"/>
   <tile gid="90"/>
   <tile gid="90"/>
   <tile gid="90"/>
   <tile gid="90"/>
   <tile gid="91"/>
   <tile/>
   <tile/>
   <tile/>
   <tile/>
   <tile/>
   <tile/>
   <tile/>
   <tile/>
   <tile/>
   <tile/>
   <tile/>
   <tile/>
   <tile/>
   <tile/>
   <tile/>
   <tile/>
   <tile/>
   <tile/>
   <tile gid="41"/>
   <tile/>
   <tile/>
   <tile/>
   <tile/>
   <tile/>
   <tile/>
   <tile/>
   <tile/>
   <tile/>
   <tile gid="25"/>
   <tile gid="26"/>
   <tile gid="58"/>
   <tile gid="58"/>
   <tile gid="58"/>
   <tile gid="58"/>
   <tile gid="58"/>
   <tile gid="77"/>
   <tile gid="42"/>
   <tile gid="42"/>
   <tile gid="42"/>
   <tile gid="42"/>
   <tile gid="42"/>
   <tile gid="42"/>
   <tile gid="42"/>
   <tile gid="42"/>
   <tile gid="78"/>
   <tile gid="58"/>
   <tile gid="77"/>
   <tile gid="43"/>
   <tile/>
   <tile/>
   <tile/>
   <tile/>
   <tile/>
   <tile/>
   <tile/>
   <tile/>
   <tile/>
   <tile/>
   <tile gid="105"/>
   <tile gid="107"/>
   <tile/>
   <tile/>
   <tile/>
   <tile/>
   <tile/>
   <tile/>
   <tile/>
   <tile/>
   <tile/>
   <tile/>
   <tile/>
   <tile/>
   <tile/>
   <tile/>
   <tile/>
   <tile/>
   <tile/>
   <tile gid="121"/>
   <tile gid="122"/>
   <tile gid="173"/>
   <tile gid="42"/>
   <tile gid="42"/>
   <tile gid="42"/>
   <tile gid="42"/>
   <tile gid="42"/>
   <tile gid="42"/>
   <tile gid="174"/>
   <tile gid="122"/>
   <tile gid="122"/>
   <tile gid="122"/>
   <tile gid="91"/>
   <tile/>
   <tile/>
   <tile/>
   <tile gid="89"/>
   <tile gid="90"/>
   <tile gid="90"/>
   <tile gid="90"/>
   <tile gid="90"/>
   <tile gid="91"/>
   <tile/>
   <tile/>
   <tile/>
   <tile/>
   <tile/>
   <tile/>
   <tile/>
   <tile/>
   <tile gid="41"/>
   <tile/>
   <tile/>
   <tile/>
   <tile/>
   <tile/>
   <tile/>
   <tile/>
   <tile gid="25"/>
   <tile gid="26"/>
   <tile gid="59"/>
   <tile/>
   <tile/>
   <tile/>
   <tile/>
   <tile/>
   <tile/>
   <tile gid="57"/>
   <tile gid="77"/>
   <tile gid="42"/>
   <tile gid="42"/>
   <tile gid="42"/>
   <tile gid="42"/>
   <tile gid="42"/>
   <tile gid="42"/>
   <tile gid="78"/>
   <tile gid="59"/>
   <tile/>
   <tile gid="41"/>
   <tile gid="43"/>
   <tile/>
   <tile/>
   <tile/>
   <tile/>
   <tile/>
   <tile/>
   <tile/>
   <tile/>
   <tile/>
   <tile/>
   <tile gid="121"/>
   <tile gid="123"/>
   <tile/>
   <tile/>
   <tile/>
   <tile/>
   <tile/>
   <tile/>
   <tile/>
   <tile/>
   <tile/>
   <tile/>
   <tile/>
   <tile/>
   <tile/>
   <tile/>
   <tile/>
   <tile/>
   <tile/>
   <tile/>
   <tile/>
   <tile gid="105"/>
   <tile gid="42"/>
   <tile gid="42"/>
   <tile gid="42"/>
   <tile gid="42"/>
   <tile gid="42"/>
   <tile gid="42"/>
   <tile gid="107"/>
   <tile/>
   <tile/>
   <tile/>
   <tile/>
   <tile/>
   <tile/>
   <tile/>
   <tile/>
   <tile gid="121"/>
   <tile gid="122"/>
   <tile gid="122"/>
   <tile gid="123"/>
   <tile/>
   <tile/>
   <tile/>
   <tile/>
   <tile/>
   <tile/>
   <tile/>
   <tile/>
   <tile/>
   <tile gid="41"/>
   <tile gid="26"/>
   <tile gid="26"/>
   <tile gid="26"/>
   <tile gid="26"/>
   <tile gid="26"/>
   <tile gid="26"/>
   <tile gid="26"/>
   <tile gid="61"/>
   <tile gid="43"/>
   <tile/>
   <tile/>
   <tile/>
   <tile/>
   <tile/>
   <tile/>
   <tile/>
   <tile/>
   <tile gid="41"/>
   <tile gid="42"/>
   <tile gid="42"/>
   <tile gid="42"/>
   <tile gid="42"/>
   <tile gid="42"/>
   <tile gid="78"/>
   <tile gid="59"/>
   <tile/>
   <tile/>
   <tile gid="41"/>
   <tile gid="43"/>
   <tile/>
   <tile/>
   <tile/>
   <tile/>
   <tile/>
   <tile/>
   <tile/>
   <tile/>
   <tile/>
   <tile/>
   <tile/>
   <tile/>
   <tile/>
   <tile/>
   <tile/>
   <tile/>
   <tile/>
   <tile/>
   <tile/>
   <tile/>
   <tile/>
   <tile/>
   <tile/>
   <tile/>
   <tile/>
   <tile/>
   <tile/>
   <tile/>
   <tile/>
   <tile/>
   <tile/>
   <tile gid="105"/>
   <tile gid="42"/>
   <tile gid="42"/>
   <tile gid="42"/>
   <tile gid="42"/>
   <tile gid="42"/>
   <tile gid="42"/>
   <tile gid="107"/>
   <tile/>
   <tile/>
   <tile/>
   <tile/>
   <tile/>
   <tile/>
   <tile/>
   <tile/>
   <tile/>
   <tile/>
   <tile/>
   <tile/>
   <tile/>
   <tile/>
   <tile/>
   <tile/>
   <tile/>
   <tile/>
   <tile/>
   <tile/>
   <tile/>
   <tile gid="57"/>
   <tile gid="58"/>
   <tile gid="58"/>
   <tile gid="58"/>
   <tile gid="58"/>
   <tile gid="58"/>
   <tile gid="58"/>
   <tile gid="58"/>
   <tile gid="58"/>
   <tile gid="59"/>
   <tile/>
   <tile/>
   <tile/>
   <tile/>
   <tile/>
   <tile/>
   <tile/>
   <tile/>
   <tile gid="41"/>
   <tile gid="42"/>
   <tile gid="42"/>
   <tile gid="42"/>
   <tile gid="42"/>
   <tile gid="78"/>
   <tile gid="59"/>
   <tile/>
   <tile/>
   <tile/>
   <tile gid="41"/>
   <tile gid="43"/>
   <tile/>
   <tile/>
   <tile/>
   <tile/>
   <tile/>
   <tile/>
   <tile/>
   <tile/>
   <tile/>
   <tile/>
   <tile/>
   <tile/>
   <tile/>
   <tile/>
   <tile/>
   <tile/>
   <tile/>
   <tile/>
   <tile/>
   <tile/>
   <tile/>
   <tile/>
   <tile/>
   <tile/>
   <tile/>
   <tile/>
   <tile/>
   <tile/>
   <tile/>
   <tile/>
   <tile/>
   <tile gid="121"/>
   <tile gid="122"/>
   <tile gid="122"/>
   <tile gid="122"/>
   <tile gid="122"/>
   <tile gid="122"/>
   <tile gid="122"/>
   <tile gid="123"/>
   <tile/>
   <tile/>
   <tile/>
   <tile/>
   <tile/>
   <tile/>
   <tile/>
   <tile/>
   <tile/>
   <tile/>
   <tile/>
   <tile/>
   <tile/>
   <tile/>
   <tile/>
   <tile/>
   <tile/>
   <tile/>
   <tile/>
   <tile/>
   <tile/>
   <tile/>
   <tile/>
   <tile/>
   <tile/>
   <tile/>
   <tile/>
   <tile/>
   <tile/>
   <tile/>
   <tile/>
   <tile/>
   <tile/>
   <tile/>
   <tile/>
   <tile/>
   <tile/>
   <tile/>
   <tile/>
   <tile gid="41"/>
   <tile gid="42"/>
   <tile gid="42"/>
   <tile gid="42"/>
   <tile gid="78"/>
   <tile gid="59"/>
   <tile/>
   <tile/>
   <tile/>
   <tile/>
   <tile gid="41"/>
   <tile gid="43"/>
   <tile/>
   <tile/>
   <tile/>
   <tile/>
   <tile/>
   <tile/>
   <tile/>
   <tile/>
   <tile/>
   <tile/>
   <tile/>
   <tile/>
   <tile/>
   <tile/>
   <tile/>
   <tile/>
   <tile/>
   <tile/>
   <tile/>
   <tile/>
   <tile/>
   <tile/>
   <tile/>
   <tile/>
   <tile/>
   <tile/>
   <tile/>
   <tile/>
   <tile/>
   <tile/>
   <tile/>
   <tile/>
   <tile/>
   <tile/>
   <tile/>
   <tile/>
   <tile/>
   <tile/>
   <tile/>
   <tile/>
   <tile/>
   <tile/>
   <tile/>
   <tile/>
   <tile/>
   <tile/>
   <tile/>
   <tile/>
   <tile/>
   <tile/>
   <tile/>
   <tile/>
   <tile/>
   <tile/>
   <tile/>
   <tile/>
   <tile/>
   <tile/>
   <tile/>
   <tile/>
   <tile/>
   <tile/>
   <tile/>
   <tile/>
   <tile/>
   <tile/>
   <tile/>
   <tile/>
   <tile/>
   <tile/>
   <tile/>
   <tile/>
   <tile/>
   <tile/>
   <tile/>
   <tile/>
   <tile/>
   <tile/>
   <tile gid="41"/>
   <tile gid="42"/>
   <tile gid="42"/>
   <tile gid="42"/>
   <tile gid="43"/>
   <tile/>
   <tile/>
   <tile/>
   <tile/>
   <tile/>
   <tile gid="57"/>
   <tile gid="43"/>
   <tile/>
   <tile/>
   <tile/>
   <tile/>
   <tile/>
   <tile/>
   <tile/>
   <tile/>
   <tile/>
   <tile/>
   <tile/>
   <tile/>
   <tile/>
   <tile/>
   <tile/>
   <tile/>
   <tile/>
   <tile/>
   <tile/>
   <tile/>
   <tile/>
   <tile/>
   <tile/>
   <tile/>
   <tile/>
   <tile/>
   <tile/>
   <tile/>
   <tile/>
   <tile/>
   <tile/>
   <tile/>
   <tile/>
   <tile/>
   <tile/>
   <tile/>
   <tile/>
   <tile/>
   <tile/>
   <tile/>
   <tile/>
   <tile/>
   <tile/>
   <tile/>
   <tile/>
   <tile/>
   <tile/>
   <tile/>
   <tile/>
   <tile/>
   <tile/>
   <tile/>
   <tile/>
   <tile/>
   <tile/>
   <tile/>
   <tile/>
   <tile/>
   <tile/>
   <tile/>
   <tile/>
   <tile/>
   <tile/>
   <tile/>
   <tile/>
   <tile/>
   <tile/>
   <tile/>
   <tile/>
   <tile/>
   <tile/>
   <tile/>
   <tile/>
   <tile/>
   <tile/>
   <tile/>
   <tile/>
   <tile/>
   <tile gid="41"/>
   <tile gid="42"/>
   <tile gid="42"/>
   <tile gid="78"/>
   <tile gid="59"/>
   <tile/>
   <tile/>
   <tile/>
   <tile/>
   <tile/>
   <tile/>
   <tile gid="59"/>
   <tile/>
   <tile/>
   <tile/>
   <tile/>
   <tile/>
   <tile/>
   <tile/>
   <tile/>
   <tile/>
   <tile gid="89"/>
   <tile gid="90"/>
   <tile gid="90"/>
   <tile gid="90"/>
   <tile gid="90"/>
   <tile gid="90"/>
   <tile gid="90"/>
   <tile gid="90"/>
   <tile gid="90"/>
   <tile gid="90"/>
   <tile gid="90"/>
   <tile gid="90"/>
   <tile gid="90"/>
   <tile gid="90"/>
   <tile gid="90"/>
   <tile gid="90"/>
   <tile gid="90"/>
   <tile gid="90"/>
   <tile gid="90"/>
   <tile gid="90"/>
   <tile gid="90"/>
   <tile gid="90"/>
   <tile gid="90"/>
   <tile gid="90"/>
   <tile gid="90"/>
   <tile gid="90"/>
   <tile gid="90"/>
   <tile gid="90"/>
   <tile gid="90"/>
   <tile gid="90"/>
   <tile gid="90"/>
   <tile gid="90"/>
   <tile gid="90"/>
   <tile gid="91"/>
   <tile/>
   <tile/>
   <tile/>
   <tile/>
   <tile/>
   <tile/>
   <tile/>
   <tile/>
   <tile/>
   <tile/>
   <tile/>
   <tile/>
   <tile/>
   <tile/>
   <tile/>
   <tile/>
   <tile/>
   <tile/>
   <tile/>
   <tile/>
   <tile/>
   <tile/>
   <tile/>
   <tile/>
   <tile/>
   <tile/>
   <tile/>
   <tile/>
   <tile/>
   <tile/>
   <tile/>
   <tile/>
   <tile/>
   <tile/>
   <tile/>
   <tile gid="41"/>
   <tile gid="42"/>
   <tile gid="42"/>
   <tile gid="43"/>
   <tile/>
   <tile/>
   <tile/>
   <tile/>
   <tile/>
   <tile/>
   <tile/>
   <tile/>
   <tile/>
   <tile/>
   <tile/>
   <tile/>
   <tile/>
   <tile/>
   <tile/>
   <tile/>
   <tile/>
   <tile gid="105"/>
   <tile gid="174"/>
   <tile gid="122"/>
   <tile gid="122"/>
   <tile gid="122"/>
   <tile gid="122"/>
   <tile gid="173"/>
   <tile gid="174"/>
   <tile gid="123"/>
   <tile/>
   <tile/>
   <tile/>
   <tile/>
   <tile/>
   <tile/>
   <tile gid="121"/>
   <tile gid="173"/>
   <tile gid="174"/>
   <tile gid="122"/>
   <tile gid="122"/>
   <tile gid="122"/>
   <tile gid="173"/>
   <tile gid="42"/>
   <tile gid="42"/>
   <tile gid="42"/>
   <tile gid="42"/>
   <tile gid="42"/>
   <tile gid="42"/>
   <tile gid="42"/>
   <tile gid="174"/>
   <tile gid="122"/>
   <tile gid="122"/>
   <tile gid="123"/>
   <tile/>
   <tile/>
   <tile/>
   <tile/>
   <tile/>
   <tile/>
   <tile/>
   <tile/>
   <tile/>
   <tile/>
   <tile/>
   <tile/>
   <tile/>
   <tile/>
   <tile/>
   <tile/>
   <tile/>
   <tile/>
   <tile/>
   <tile/>
   <tile/>
   <tile/>
   <tile/>
   <tile/>
   <tile/>
   <tile/>
   <tile/>
   <tile/>
   <tile/>
   <tile/>
   <tile/>
   <tile/>
   <tile/>
   <tile/>
   <tile/>
   <tile/>
   <tile gid="41"/>
   <tile gid="42"/>
   <tile gid="42"/>
   <tile gid="43"/>
   <tile/>
   <tile/>
   <tile/>
   <tile/>
   <tile/>
   <tile/>
   <tile/>
   <tile/>
   <tile/>
   <tile/>
   <tile/>
   <tile/>
   <tile/>
   <tile/>
   <tile/>
   <tile/>
   <tile/>
   <tile gid="105"/>
   <tile gid="123"/>
   <tile/>
   <tile/>
   <tile/>
   <tile/>
   <tile gid="105"/>
   <tile gid="107"/>
   <tile/>
   <tile/>
   <tile/>
   <tile/>
   <tile/>
   <tile/>
   <tile/>
   <tile/>
   <tile gid="105"/>
   <tile gid="107"/>
   <tile/>
   <tile/>
   <tile/>
   <tile gid="121"/>
   <tile gid="173"/>
   <tile gid="42"/>
   <tile gid="42"/>
   <tile gid="42"/>
   <tile gid="42"/>
   <tile gid="42"/>
   <tile gid="42"/>
   <tile gid="107"/>
   <tile/>
   <tile/>
   <tile/>
   <tile/>
   <tile/>
   <tile/>
   <tile/>
   <tile/>
   <tile/>
   <tile/>
   <tile/>
   <tile/>
   <tile/>
   <tile/>
   <tile/>
   <tile/>
   <tile/>
   <tile/>
   <tile/>
   <tile/>
   <tile/>
   <tile gid="25"/>
   <tile gid="60"/>
   <tile gid="60"/>
   <tile gid="60"/>
   <tile gid="60"/>
   <tile gid="60"/>
   <tile gid="60"/>
   <tile gid="60"/>
   <tile gid="60"/>
   <tile gid="60"/>
   <tile gid="60"/>
   <tile gid="60"/>
   <tile gid="60"/>
   <tile gid="60"/>
   <tile gid="60"/>
   <tile gid="60"/>
   <tile gid="60"/>
   <tile gid="60"/>
   <tile gid="61"/>
   <tile gid="42"/>
   <tile gid="42"/>
   <tile gid="43"/>
   <tile/>
   <tile/>
   <tile/>
   <tile/>
   <tile/>
   <tile/>
   <tile/>
   <tile/>
   <tile/>
   <tile/>
   <tile/>
   <tile/>
   <tile/>
   <tile/>
   <tile/>
   <tile/>
   <tile/>
   <tile gid="105"/>
   <tile/>
   <tile/>
   <tile/>
   <tile/>
   <tile/>
   <tile gid="105"/>
   <tile gid="107"/>
   <tile/>
   <tile/>
   <tile/>
   <tile/>
   <tile/>
   <tile/>
   <tile/>
   <tile/>
   <tile gid="105"/>
   <tile gid="107"/>
   <tile/>
   <tile/>
   <tile/>
   <tile/>
   <tile gid="105"/>
   <tile gid="42"/>
   <tile gid="42"/>
   <tile gid="42"/>
   <tile gid="42"/>
   <tile gid="42"/>
   <tile gid="42"/>
   <tile gid="107"/>
   <tile/>
   <tile/>
   <tile/>
   <tile/>
   <tile/>
   <tile/>
   <tile/>
   <tile/>
   <tile/>
   <tile/>
   <tile/>
   <tile/>
   <tile/>
   <tile/>
   <tile/>
   <tile/>
   <tile/>
   <tile/>
   <tile/>
   <tile/>
   <tile/>
   <tile gid="41"/>
   <tile gid="42"/>
   <tile gid="42"/>
   <tile gid="42"/>
   <tile gid="42"/>
   <tile gid="42"/>
   <tile gid="42"/>
   <tile gid="42"/>
   <tile gid="42"/>
   <tile gid="42"/>
   <tile gid="42"/>
   <tile gid="42"/>
   <tile gid="42"/>
   <tile gid="42"/>
   <tile gid="42"/>
   <tile gid="42"/>
   <tile gid="42"/>
   <tile gid="42"/>
   <tile gid="42"/>
   <tile gid="42"/>
   <tile gid="42"/>
   <tile gid="43"/>
   <tile/>
   <tile/>
   <tile/>
   <tile/>
   <tile/>
   <tile/>
   <tile/>
   <tile/>
   <tile/>
   <tile/>
   <tile/>
   <tile/>
   <tile/>
   <tile/>
   <tile/>
   <tile/>
   <tile/>
   <tile gid="105"/>
   <tile/>
   <tile/>
   <tile/>
   <tile/>
   <tile/>
   <tile gid="105"/>
   <tile gid="107"/>
   <tile/>
   <tile/>
   <tile/>
   <tile/>
   <tile/>
   <tile/>
   <tile/>
   <tile/>
   <tile gid="105"/>
   <tile gid="107"/>
   <tile/>
   <tile/>
   <tile/>
   <tile/>
   <tile gid="105"/>
   <tile gid="42"/>
   <tile gid="42"/>
   <tile gid="42"/>
   <tile gid="42"/>
   <tile gid="42"/>
   <tile gid="42"/>
   <tile gid="107"/>
   <tile/>
   <tile/>
   <tile/>
   <tile/>
   <tile/>
   <tile/>
   <tile/>
   <tile/>
   <tile/>
   <tile/>
   <tile/>
   <tile/>
   <tile/>
   <tile/>
   <tile/>
   <tile/>
   <tile/>
   <tile/>
   <tile/>
   <tile/>
   <tile/>
   <tile gid="41"/>
   <tile gid="42"/>
   <tile gid="42"/>
   <tile gid="42"/>
   <tile gid="42"/>
   <tile gid="42"/>
   <tile gid="42"/>
   <tile gid="42"/>
   <tile gid="42"/>
   <tile gid="42"/>
   <tile gid="42"/>
   <tile gid="42"/>
   <tile gid="42"/>
   <tile gid="42"/>
   <tile gid="42"/>
   <tile gid="42"/>
   <tile gid="42"/>
   <tile gid="42"/>
   <tile gid="42"/>
   <tile gid="42"/>
   <tile gid="42"/>
   <tile gid="43"/>
   <tile/>
   <tile/>
   <tile/>
   <tile/>
   <tile/>
   <tile/>
   <tile/>
   <tile/>
   <tile/>
   <tile/>
   <tile/>
   <tile/>
   <tile/>
   <tile/>
   <tile/>
   <tile/>
   <tile/>
   <tile gid="105"/>
   <tile/>
   <tile/>
   <tile/>
   <tile/>
   <tile/>
   <tile gid="121"/>
   <tile gid="107"/>
   <tile/>
   <tile/>
   <tile/>
   <tile/>
   <tile/>
   <tile/>
   <tile/>
   <tile/>
   <tile gid="105"/>
   <tile gid="107"/>
   <tile/>
   <tile/>
   <tile/>
   <tile/>
   <tile gid="105"/>
   <tile gid="42"/>
   <tile gid="42"/>
   <tile gid="42"/>
   <tile gid="42"/>
   <tile gid="42"/>
   <tile gid="42"/>
   <tile gid="107"/>
   <tile/>
   <tile/>
   <tile/>
   <tile/>
   <tile/>
   <tile/>
   <tile/>
   <tile/>
   <tile/>
   <tile/>
   <tile/>
   <tile/>
   <tile/>
   <tile/>
   <tile/>
   <tile/>
   <tile/>
   <tile/>
   <tile/>
   <tile/>
   <tile/>
   <tile gid="41"/>
   <tile gid="42"/>
   <tile gid="42"/>
   <tile gid="42"/>
   <tile gid="42"/>
   <tile gid="42"/>
   <tile gid="42"/>
   <tile gid="42"/>
   <tile gid="42"/>
   <tile gid="42"/>
   <tile gid="42"/>
   <tile gid="42"/>
   <tile gid="42"/>
   <tile gid="42"/>
   <tile gid="42"/>
   <tile gid="42"/>
   <tile gid="42"/>
   <tile gid="42"/>
   <tile gid="42"/>
   <tile gid="42"/>
   <tile gid="42"/>
   <tile gid="43"/>
   <tile/>
   <tile/>
   <tile/>
   <tile/>
   <tile/>
   <tile/>
   <tile/>
   <tile/>
   <tile/>
   <tile/>
   <tile/>
   <tile/>
   <tile/>
   <tile/>
   <tile/>
   <tile/>
   <tile/>
   <tile gid="105"/>
   <tile/>
   <tile/>
   <tile/>
   <tile/>
   <tile/>
   <tile/>
   <tile gid="123"/>
   <tile/>
   <tile/>
   <tile/>
   <tile/>
   <tile/>
   <tile/>
   <tile/>
   <tile/>
   <tile gid="121"/>
   <tile gid="107"/>
   <tile/>
   <tile/>
   <tile/>
   <tile/>
   <tile gid="105"/>
   <tile gid="42"/>
   <tile gid="42"/>
   <tile gid="42"/>
   <tile gid="42"/>
   <tile gid="42"/>
   <tile gid="42"/>
   <tile gid="107"/>
   <tile/>
   <tile/>
   <tile/>
   <tile/>
   <tile/>
   <tile/>
   <tile/>
   <tile/>
   <tile/>
   <tile/>
   <tile/>
   <tile/>
   <tile/>
   <tile/>
   <tile/>
   <tile/>
   <tile/>
   <tile/>
   <tile/>
   <tile/>
   <tile/>
   <tile gid="41"/>
   <tile gid="42"/>
   <tile gid="42"/>
   <tile gid="78"/>
   <tile gid="58"/>
   <tile gid="58"/>
   <tile gid="58"/>
   <tile gid="58"/>
   <tile gid="58"/>
   <tile gid="77"/>
   <tile gid="42"/>
   <tile gid="42"/>
   <tile gid="42"/>
   <tile gid="42"/>
   <tile gid="42"/>
   <tile gid="42"/>
   <tile gid="42"/>
   <tile gid="42"/>
   <tile gid="42"/>
   <tile gid="42"/>
   <tile gid="42"/>
   <tile gid="43"/>
   <tile/>
   <tile/>
   <tile/>
   <tile/>
   <tile/>
   <tile/>
   <tile/>
   <tile/>
   <tile/>
   <tile/>
   <tile/>
   <tile/>
   <tile/>
   <tile/>
   <tile/>
   <tile/>
   <tile/>
   <tile gid="105"/>
   <tile/>
   <tile/>
   <tile/>
   <tile/>
   <tile/>
   <tile/>
   <tile/>
   <tile/>
   <tile/>
   <tile/>
   <tile/>
   <tile/>
   <tile/>
   <tile/>
   <tile/>
   <tile/>
   <tile gid="123"/>
   <tile/>
   <tile/>
   <tile/>
   <tile/>
   <tile gid="105"/>
   <tile gid="42"/>
   <tile gid="42"/>
   <tile gid="42"/>
   <tile gid="42"/>
   <tile gid="42"/>
   <tile gid="42"/>
   <tile gid="107"/>
   <tile/>
   <tile/>
   <tile/>
   <tile/>
   <tile/>
   <tile/>
   <tile/>
   <tile/>
   <tile/>
   <tile/>
   <tile/>
   <tile/>
   <tile/>
   <tile/>
   <tile/>
   <tile/>
   <tile/>
   <tile/>
   <tile/>
   <tile/>
   <tile/>
   <tile gid="41"/>
   <tile gid="78"/>
   <tile gid="58"/>
   <tile gid="59"/>
   <tile/>
   <tile/>
   <tile/>
   <tile/>
   <tile/>
   <tile gid="57"/>
   <tile gid="58"/>
   <tile gid="77"/>
   <tile gid="42"/>
   <tile gid="42"/>
   <tile gid="42"/>
   <tile gid="42"/>
   <tile gid="42"/>
   <tile gid="42"/>
   <tile gid="42"/>
   <tile gid="42"/>
   <tile gid="42"/>
   <tile gid="43"/>
   <tile/>
   <tile/>
   <tile/>
   <tile/>
   <tile/>
   <tile/>
   <tile/>
   <tile/>
   <tile/>
   <tile/>
   <tile/>
   <tile/>
   <tile/>
   <tile/>
   <tile/>
   <tile/>
   <tile/>
   <tile gid="105"/>
   <tile/>
   <tile/>
   <tile/>
   <tile/>
   <tile/>
   <tile/>
   <tile/>
   <tile/>
   <tile/>
   <tile/>
   <tile/>
   <tile/>
   <tile/>
   <tile/>
   <tile/>
   <tile/>
   <tile/>
   <tile/>
   <tile/>
   <tile/>
   <tile/>
   <tile gid="105"/>
   <tile gid="42"/>
   <tile gid="42"/>
   <tile gid="42"/>
   <tile gid="42"/>
   <tile gid="42"/>
   <tile gid="42"/>
   <tile gid="107"/>
   <tile/>
   <tile/>
   <tile/>
   <tile/>
   <tile/>
   <tile/>
   <tile/>
   <tile/>
   <tile gid="25"/>
   <tile gid="26"/>
   <tile gid="26"/>
   <tile gid="26"/>
   <tile gid="26"/>
   <tile gid="26"/>
   <tile gid="26"/>
   <tile gid="26"/>
   <tile gid="26"/>
   <tile gid="26"/>
   <tile gid="26"/>
   <tile gid="26"/>
   <tile gid="26"/>
   <tile gid="61"/>
   <tile gid="59"/>
   <tile/>
   <tile/>
   <tile/>
   <tile/>
   <tile/>
   <tile/>
   <tile/>
   <tile/>
   <tile/>
   <tile gid="57"/>
   <tile gid="77"/>
   <tile gid="42"/>
   <tile gid="42"/>
   <tile gid="42"/>
   <tile gid="42"/>
   <tile gid="42"/>
   <tile gid="42"/>
   <tile gid="42"/>
   <tile gid="42"/>
   <tile gid="43"/>
   <tile/>
   <tile/>
   <tile/>
   <tile/>
   <tile/>
   <tile/>
   <tile/>
   <tile/>
   <tile/>
   <tile/>
   <tile/>
   <tile/>
   <tile/>
   <tile/>
   <tile/>
   <tile/>
   <tile/>
   <tile gid="121"/>
   <tile/>
   <tile/>
   <tile/>
   <tile/>
   <tile/>
   <tile/>
   <tile/>
   <tile/>
   <tile/>
   <tile/>
   <tile/>
   <tile/>
   <tile/>
   <tile/>
   <tile/>
   <tile/>
   <tile/>
   <tile/>
   <tile/>
   <tile/>
   <tile/>
   <tile gid="105"/>
   <tile gid="42"/>
   <tile gid="42"/>
   <tile gid="42"/>
   <tile gid="42"/>
   <tile gid="42"/>
   <tile gid="42"/>
   <tile gid="107"/>
   <tile/>
   <tile/>
   <tile/>
   <tile/>
   <tile/>
   <tile/>
   <tile/>
   <tile/>
   <tile/>
   <tile gid="57"/>
   <tile gid="58"/>
   <tile gid="58"/>
   <tile gid="58"/>
   <tile gid="58"/>
   <tile gid="58"/>
   <tile gid="58"/>
   <tile gid="58"/>
   <tile gid="58"/>
   <tile gid="58"/>
   <tile gid="58"/>
   <tile gid="58"/>
   <tile gid="43"/>
   <tile/>
   <tile/>
   <tile/>
   <tile/>
   <tile/>
   <tile/>
   <tile/>
   <tile/>
   <tile/>
   <tile/>
   <tile/>
   <tile gid="57"/>
   <tile gid="58"/>
   <tile gid="77"/>
   <tile gid="42"/>
   <tile gid="42"/>
   <tile gid="42"/>
   <tile gid="42"/>
   <tile gid="42"/>
   <tile gid="42"/>
   <tile gid="43"/>
   <tile/>
   <tile/>
   <tile/>
   <tile/>
   <tile/>
   <tile/>
   <tile/>
   <tile/>
   <tile/>
   <tile/>
   <tile/>
   <tile/>
   <tile/>
   <tile/>
   <tile/>
   <tile/>
   <tile/>
   <tile/>
   <tile/>
   <tile/>
   <tile/>
   <tile/>
   <tile/>
   <tile/>
   <tile/>
   <tile/>
   <tile/>
   <tile/>
   <tile/>
   <tile/>
   <tile/>
   <tile/>
   <tile/>
   <tile/>
   <tile/>
   <tile/>
   <tile/>
   <tile/>
   <tile/>
   <tile gid="121"/>
   <tile gid="122"/>
   <tile gid="122"/>
   <tile gid="122"/>
   <tile gid="122"/>
   <tile gid="122"/>
   <tile gid="122"/>
   <tile gid="123"/>
   <tile/>
   <tile/>
   <tile/>
   <tile/>
   <tile/>
   <tile/>
   <tile/>
   <tile/>
   <tile/>
   <tile/>
   <tile/>
   <tile/>
   <tile/>
   <tile/>
   <tile/>
   <tile/>
   <tile/>
   <tile/>
   <tile/>
   <tile/>
   <tile/>
   <tile gid="43"/>
   <tile/>
   <tile/>
   <tile/>
   <tile/>
   <tile/>
   <tile/>
   <tile/>
   <tile/>
   <tile/>
   <tile/>
   <tile/>
   <tile/>
   <tile/>
   <tile gid="57"/>
   <tile gid="77"/>
   <tile gid="42"/>
   <tile gid="42"/>
   <tile gid="42"/>
   <tile gid="42"/>
   <tile gid="78"/>
   <tile gid="59"/>
   <tile/>
   <tile/>
   <tile/>
   <tile/>
   <tile/>
   <tile/>
   <tile/>
   <tile/>
   <tile/>
   <tile/>
   <tile/>
   <tile/>
   <tile/>
   <tile/>
   <tile/>
   <tile/>
   <tile/>
   <tile/>
   <tile/>
   <tile/>
   <tile/>
   <tile/>
   <tile/>
   <tile/>
   <tile/>
   <tile/>
   <tile/>
   <tile/>
   <tile/>
   <tile/>
   <tile/>
   <tile/>
   <tile/>
   <tile/>
   <tile/>
   <tile/>
   <tile/>
   <tile/>
   <tile/>
   <tile/>
   <tile/>
   <tile/>
   <tile/>
   <tile/>
   <tile/>
   <tile/>
   <tile/>
   <tile/>
   <tile/>
   <tile/>
   <tile/>
   <tile/>
   <tile/>
   <tile/>
   <tile/>
   <tile/>
   <tile/>
   <tile/>
   <tile/>
   <tile/>
   <tile/>
   <tile/>
   <tile/>
   <tile/>
   <tile/>
   <tile/>
   <tile/>
   <tile/>
   <tile gid="43"/>
   <tile/>
   <tile/>
   <tile/>
   <tile/>
   <tile/>
   <tile/>
   <tile/>
   <tile/>
   <tile/>
   <tile/>
   <tile/>
   <tile/>
   <tile/>
   <tile/>
   <tile gid="57"/>
   <tile gid="77"/>
   <tile gid="42"/>
   <tile gid="42"/>
   <tile gid="42"/>
   <tile gid="43"/>
   <tile/>
   <tile/>
   <tile/>
   <tile/>
   <tile/>
   <tile/>
   <tile/>
   <tile/>
   <tile/>
   <tile/>
   <tile/>
   <tile/>
   <tile/>
   <tile/>
   <tile/>
   <tile/>
   <tile/>
   <tile/>
   <tile/>
   <tile/>
   <tile/>
   <tile/>
   <tile/>
   <tile/>
   <tile/>
   <tile/>
   <tile/>
   <tile/>
   <tile/>
   <tile/>
   <tile/>
   <tile/>
   <tile/>
   <tile/>
   <tile/>
   <tile/>
   <tile/>
   <tile/>
   <tile/>
   <tile/>
   <tile/>
   <tile/>
   <tile/>
   <tile/>
   <tile/>
   <tile/>
   <tile/>
   <tile/>
   <tile/>
   <tile/>
   <tile/>
   <tile/>
   <tile/>
   <tile/>
   <tile/>
   <tile/>
   <tile/>
   <tile/>
   <tile/>
   <tile/>
   <tile/>
   <tile/>
   <tile/>
   <tile/>
   <tile/>
   <tile/>
   <tile/>
   <tile/>
   <tile/>
   <tile gid="43"/>
   <tile/>
   <tile/>
   <tile/>
   <tile/>
   <tile/>
   <tile/>
   <tile/>
   <tile/>
   <tile/>
   <tile/>
   <tile/>
   <tile/>
   <tile/>
   <tile/>
   <tile/>
   <tile gid="57"/>
   <tile gid="77"/>
   <tile gid="42"/>
   <tile gid="42"/>
   <tile gid="43"/>
   <tile/>
   <tile/>
   <tile/>
   <tile/>
   <tile/>
   <tile/>
   <tile/>
   <tile/>
   <tile/>
   <tile/>
   <tile/>
   <tile/>
   <tile/>
   <tile/>
   <tile/>
   <tile/>
   <tile/>
   <tile/>
   <tile/>
   <tile/>
   <tile/>
   <tile/>
   <tile/>
   <tile/>
   <tile/>
   <tile/>
   <tile/>
   <tile/>
   <tile/>
   <tile/>
   <tile/>
   <tile/>
   <tile/>
   <tile/>
   <tile/>
   <tile/>
   <tile/>
   <tile/>
   <tile/>
   <tile/>
   <tile/>
   <tile/>
   <tile/>
   <tile/>
   <tile/>
   <tile/>
   <tile/>
   <tile/>
   <tile/>
   <tile/>
   <tile/>
   <tile/>
   <tile/>
   <tile/>
   <tile/>
   <tile/>
   <tile/>
   <tile/>
   <tile/>
   <tile/>
   <tile/>
   <tile/>
   <tile/>
   <tile/>
   <tile/>
   <tile/>
   <tile/>
   <tile/>
   <tile/>
   <tile gid="43"/>
   <tile/>
   <tile/>
   <tile/>
   <tile/>
   <tile/>
   <tile/>
   <tile/>
   <tile/>
   <tile/>
   <tile/>
   <tile/>
   <tile/>
   <tile/>
   <tile/>
   <tile/>
   <tile/>
   <tile gid="57"/>
   <tile gid="77"/>
   <tile gid="42"/>
   <tile gid="43"/>
   <tile/>
   <tile/>
   <tile/>
   <tile/>
   <tile/>
   <tile/>
   <tile/>
   <tile/>
   <tile/>
   <tile/>
   <tile/>
   <tile/>
   <tile/>
   <tile/>
   <tile/>
   <tile/>
   <tile/>
   <tile/>
   <tile/>
   <tile/>
   <tile/>
   <tile/>
   <tile/>
   <tile/>
   <tile/>
   <tile/>
   <tile/>
   <tile/>
   <tile/>
   <tile/>
   <tile/>
   <tile/>
   <tile/>
   <tile/>
   <tile/>
   <tile/>
   <tile/>
   <tile/>
   <tile/>
   <tile/>
   <tile/>
   <tile/>
   <tile/>
   <tile/>
   <tile/>
   <tile/>
   <tile/>
   <tile/>
   <tile/>
   <tile/>
   <tile/>
   <tile/>
   <tile/>
   <tile/>
   <tile/>
   <tile/>
   <tile/>
   <tile/>
   <tile/>
   <tile/>
   <tile/>
   <tile/>
   <tile/>
   <tile/>
   <tile/>
   <tile/>
   <tile/>
   <tile/>
   <tile/>
   <tile gid="43"/>
   <tile/>
   <tile/>
   <tile/>
   <tile/>
   <tile/>
   <tile/>
   <tile/>
   <tile/>
   <tile/>
   <tile/>
   <tile/>
   <tile/>
   <tile/>
   <tile/>
   <tile/>
   <tile/>
   <tile/>
   <tile gid="57"/>
   <tile gid="77"/>
   <tile gid="43"/>
   <tile/>
   <tile/>
   <tile/>
   <tile/>
   <tile/>
   <tile/>
   <tile/>
   <tile/>
   <tile/>
   <tile/>
   <tile/>
   <tile/>
   <tile/>
   <tile/>
   <tile/>
   <tile/>
   <tile/>
   <tile/>
   <tile/>
   <tile gid="25"/>
   <tile gid="26"/>
   <tile gid="26"/>
   <tile gid="26"/>
   <tile gid="26"/>
   <tile gid="26"/>
   <tile gid="26"/>
   <tile gid="26"/>
   <tile gid="26"/>
   <tile gid="26"/>
   <tile gid="26"/>
   <tile gid="26"/>
   <tile gid="26"/>
   <tile gid="90"/>
   <tile gid="90"/>
   <tile gid="90"/>
   <tile gid="90"/>
   <tile gid="90"/>
   <tile gid="90"/>
   <tile gid="90"/>
   <tile gid="90"/>
   <tile gid="90"/>
   <tile gid="90"/>
   <tile gid="90"/>
   <tile gid="90"/>
   <tile gid="90"/>
   <tile gid="90"/>
   <tile gid="90"/>
   <tile gid="91"/>
   <tile/>
   <tile/>
   <tile/>
   <tile/>
   <tile/>
   <tile/>
   <tile/>
   <tile/>
   <tile/>
   <tile/>
   <tile/>
   <tile/>
   <tile/>
   <tile/>
   <tile/>
   <tile/>
   <tile/>
   <tile/>
   <tile/>
   <tile/>
   <tile/>
   <tile gid="59"/>
   <tile/>
   <tile/>
   <tile/>
   <tile/>
   <tile/>
   <tile/>
   <tile/>
   <tile/>
   <tile/>
   <tile/>
   <tile/>
   <tile/>
   <tile/>
   <tile/>
   <tile/>
   <tile/>
   <tile/>
   <tile/>
   <tile gid="93"/>
   <tile gid="43"/>
   <tile/>
   <tile/>
   <tile/>
   <tile/>
   <tile/>
   <tile/>
   <tile/>
   <tile/>
   <tile/>
   <tile/>
   <tile/>
   <tile/>
   <tile/>
   <tile/>
   <tile/>
   <tile/>
   <tile/>
   <tile/>
   <tile/>
   <tile gid="41"/>
   <tile gid="42"/>
   <tile gid="42"/>
   <tile gid="42"/>
   <tile gid="42"/>
   <tile gid="78"/>
   <tile gid="58"/>
   <tile gid="58"/>
   <tile gid="59"/>
   <tile/>
   <tile/>
   <tile/>
   <tile/>
   <tile/>
   <tile/>
   <tile/>
   <tile/>
   <tile/>
   <tile gid="121"/>
   <tile gid="122"/>
   <tile gid="122"/>
   <tile gid="173"/>
   <tile gid="106"/>
   <tile gid="106"/>
   <tile gid="106"/>
   <tile gid="106"/>
   <tile gid="106"/>
   <tile gid="106"/>
   <tile gid="107"/>
   <tile/>
   <tile/>
   <tile/>
   <tile/>
   <tile/>
   <tile/>
   <tile/>
   <tile/>
   <tile/>
   <tile/>
   <tile/>
   <tile/>
   <tile/>
   <tile/>
   <tile/>
   <tile/>
   <tile/>
   <tile/>
   <tile/>
   <tile/>
   <tile/>
   <tile/>
   <tile/>
   <tile/>
   <tile/>
   <tile/>
   <tile/>
   <tile/>
   <tile/>
   <tile/>
   <tile/>
   <tile/>
   <tile/>
   <tile/>
   <tile/>
   <tile/>
   <tile/>
   <tile/>
   <tile/>
   <tile/>
   <tile gid="93"/>
   <tile gid="43"/>
   <tile/>
   <tile/>
   <tile/>
   <tile/>
   <tile/>
   <tile/>
   <tile/>
   <tile/>
   <tile/>
   <tile/>
   <tile/>
   <tile/>
   <tile/>
   <tile/>
   <tile/>
   <tile/>
   <tile/>
   <tile/>
   <tile/>
   <tile gid="41"/>
   <tile gid="42"/>
   <tile gid="78"/>
   <tile gid="58"/>
   <tile gid="58"/>
   <tile gid="59"/>
   <tile/>
   <tile/>
   <tile/>
   <tile/>
   <tile/>
   <tile/>
   <tile/>
   <tile/>
   <tile/>
   <tile/>
   <tile/>
   <tile/>
   <tile/>
   <tile/>
   <tile/>
   <tile gid="121"/>
   <tile gid="122"/>
   <tile gid="122"/>
   <tile gid="122"/>
   <tile gid="122"/>
   <tile gid="173"/>
   <tile gid="106"/>
   <tile gid="107"/>
   <tile/>
   <tile/>
   <tile/>
   <tile/>
   <tile/>
   <tile/>
   <tile/>
   <tile/>
   <tile/>
   <tile/>
   <tile/>
   <tile/>
   <tile/>
   <tile/>
   <tile/>
   <tile/>
   <tile/>
   <tile/>
   <tile/>
   <tile/>
   <tile/>
   <tile/>
   <tile/>
   <tile/>
   <tile/>
   <tile/>
   <tile/>
   <tile/>
   <tile/>
   <tile/>
   <tile/>
   <tile/>
   <tile/>
   <tile/>
   <tile/>
   <tile/>
   <tile/>
   <tile/>
   <tile/>
   <tile/>
   <tile gid="93"/>
   <tile gid="43"/>
   <tile/>
   <tile/>
   <tile/>
   <tile/>
   <tile/>
   <tile/>
   <tile/>
   <tile/>
   <tile/>
   <tile/>
   <tile/>
   <tile/>
   <tile/>
   <tile/>
   <tile/>
   <tile/>
   <tile/>
   <tile/>
   <tile/>
   <tile gid="41"/>
   <tile gid="58"/>
   <tile gid="59"/>
   <tile/>
   <tile/>
   <tile/>
   <tile/>
   <tile/>
   <tile/>
   <tile/>
   <tile/>
   <tile/>
   <tile/>
   <tile/>
   <tile/>
   <tile/>
   <tile/>
   <tile/>
   <tile/>
   <tile/>
   <tile/>
   <tile/>
   <tile/>
   <tile/>
   <tile/>
   <tile/>
   <tile gid="121"/>
   <tile gid="173"/>
   <tile gid="158"/>
   <tile gid="90"/>
   <tile gid="90"/>
   <tile gid="90"/>
   <tile gid="90"/>
   <tile gid="90"/>
   <tile gid="90"/>
   <tile gid="91"/>
   <tile/>
   <tile/>
   <tile/>
   <tile/>
   <tile/>
   <tile/>
   <tile/>
   <tile/>
   <tile/>
   <tile/>
   <tile/>
   <tile/>
   <tile/>
   <tile/>
   <tile/>
   <tile/>
   <tile/>
   <tile/>
   <tile/>
   <tile/>
   <tile/>
   <tile/>
   <tile/>
   <tile/>
   <tile/>
   <tile/>
   <tile/>
   <tile/>
   <tile/>
   <tile/>
   <tile/>
   <tile/>
   <tile/>
   <tile gid="93"/>
   <tile gid="43"/>
   <tile/>
   <tile/>
   <tile/>
   <tile/>
   <tile/>
   <tile/>
   <tile/>
   <tile/>
   <tile/>
   <tile/>
   <tile/>
   <tile/>
   <tile/>
   <tile/>
   <tile/>
   <tile/>
   <tile/>
   <tile/>
   <tile/>
   <tile gid="43"/>
   <tile/>
   <tile/>
   <tile/>
   <tile/>
   <tile/>
   <tile/>
   <tile/>
   <tile/>
   <tile/>
   <tile/>
   <tile/>
   <tile/>
   <tile/>
   <tile/>
   <tile/>
   <tile/>
   <tile/>
   <tile/>
   <tile/>
   <tile/>
   <tile/>
   <tile/>
   <tile/>
   <tile/>
   <tile/>
   <tile/>
   <tile gid="105"/>
   <tile gid="174"/>
   <tile gid="122"/>
   <tile gid="122"/>
   <tile gid="122"/>
   <tile gid="122"/>
   <tile gid="122"/>
   <tile gid="123"/>
   <tile/>
   <tile/>
   <tile/>
   <tile/>
   <tile/>
   <tile/>
   <tile/>
   <tile/>
   <tile/>
   <tile/>
   <tile/>
   <tile/>
   <tile/>
   <tile/>
   <tile/>
   <tile/>
   <tile/>
   <tile/>
   <tile/>
   <tile/>
   <tile/>
   <tile/>
   <tile/>
   <tile/>
   <tile/>
   <tile/>
   <tile/>
   <tile/>
   <tile/>
   <tile/>
   <tile/>
   <tile/>
   <tile/>
   <tile/>
   <tile gid="93"/>
   <tile gid="43"/>
   <tile/>
   <tile/>
   <tile/>
   <tile/>
   <tile/>
   <tile/>
   <tile/>
   <tile/>
   <tile/>
   <tile/>
   <tile/>
   <tile/>
   <tile/>
   <tile/>
   <tile/>
   <tile/>
   <tile/>
   <tile/>
   <tile/>
   <tile gid="43"/>
   <tile/>
   <tile/>
   <tile/>
   <tile/>
   <tile/>
   <tile/>
   <tile/>
   <tile/>
   <tile/>
   <tile/>
   <tile/>
   <tile/>
   <tile/>
   <tile/>
   <tile/>
   <tile/>
   <tile/>
   <tile/>
   <tile/>
   <tile/>
   <tile/>
   <tile/>
   <tile/>
   <tile/>
   <tile/>
   <tile/>
   <tile gid="105"/>
   <tile gid="107"/>
   <tile/>
   <tile/>
   <tile/>
   <tile/>
   <tile/>
   <tile/>
   <tile/>
   <tile/>
   <tile/>
   <tile/>
   <tile/>
   <tile/>
   <tile gid="89"/>
   <tile gid="90"/>
   <tile gid="90"/>
   <tile gid="90"/>
   <tile gid="91"/>
   <tile/>
   <tile/>
   <tile/>
   <tile/>
   <tile/>
   <tile/>
   <tile/>
   <tile/>
   <tile/>
   <tile/>
   <tile/>
   <tile/>
   <tile/>
   <tile/>
   <tile/>
   <tile/>
   <tile/>
   <tile/>
   <tile/>
   <tile/>
   <tile/>
   <tile/>
   <tile/>
   <tile gid="93"/>
   <tile gid="43"/>
   <tile/>
   <tile/>
   <tile/>
   <tile/>
   <tile/>
   <tile/>
   <tile/>
   <tile/>
   <tile/>
   <tile/>
   <tile/>
   <tile/>
   <tile/>
   <tile/>
   <tile/>
   <tile/>
   <tile/>
   <tile/>
   <tile gid="25"/>
   <tile gid="43"/>
   <tile/>
   <tile/>
   <tile/>
   <tile/>
   <tile/>
   <tile/>
   <tile/>
   <tile/>
   <tile/>
   <tile/>
   <tile/>
   <tile/>
   <tile/>
   <tile/>
   <tile/>
   <tile/>
   <tile/>
   <tile/>
   <tile/>
   <tile/>
   <tile/>
   <tile/>
   <tile/>
   <tile/>
   <tile/>
   <tile/>
   <tile gid="105"/>
   <tile gid="107"/>
   <tile/>
   <tile/>
   <tile/>
   <tile/>
   <tile/>
   <tile/>
   <tile/>
   <tile/>
   <tile/>
   <tile/>
   <tile/>
   <tile/>
   <tile/>
   <tile gid="121"/>
   <tile gid="122"/>
   <tile gid="123"/>
   <tile/>
   <tile/>
   <tile/>
   <tile/>
   <tile/>
   <tile gid="25"/>
   <tile gid="26"/>
   <tile gid="26"/>
   <tile gid="26"/>
   <tile gid="26"/>
   <tile gid="27"/>
   <tile/>
   <tile/>
   <tile/>
   <tile/>
   <tile/>
   <tile/>
   <tile/>
   <tile/>
   <tile/>
   <tile/>
   <tile/>
   <tile/>
   <tile/>
   <tile gid="93"/>
   <tile gid="62"/>
   <tile gid="26"/>
   <tile gid="26"/>
   <tile gid="27"/>
   <tile/>
   <tile/>
   <tile/>
   <tile/>
   <tile/>
   <tile/>
   <tile/>
   <tile/>
   <tile/>
   <tile/>
   <tile/>
   <tile/>
   <tile/>
   <tile/>
   <tile/>
   <tile gid="41"/>
   <tile gid="43"/>
   <tile/>
   <tile/>
   <tile/>
   <tile/>
   <tile/>
   <tile/>
   <tile/>
   <tile/>
   <tile/>
   <tile/>
   <tile/>
   <tile/>
   <tile/>
   <tile/>
   <tile/>
   <tile/>
   <tile/>
   <tile/>
   <tile/>
   <tile/>
   <tile/>
   <tile/>
   <tile/>
   <tile/>
   <tile/>
   <tile/>
   <tile gid="105"/>
   <tile gid="107"/>
   <tile/>
   <tile/>
   <tile/>
   <tile/>
   <tile/>
   <tile/>
   <tile/>
   <tile/>
   <tile/>
   <tile/>
   <tile/>
   <tile/>
   <tile/>
   <tile/>
   <tile/>
   <tile/>
   <tile/>
   <tile/>
   <tile/>
   <tile/>
   <tile/>
   <tile gid="93"/>
   <tile gid="42"/>
   <tile gid="42"/>
   <tile gid="42"/>
   <tile gid="42"/>
   <tile gid="43"/>
   <tile/>
   <tile/>
   <tile/>
   <tile/>
   <tile/>
   <tile/>
   <tile/>
   <tile/>
   <tile/>
   <tile/>
   <tile/>
   <tile/>
   <tile/>
   <tile gid="93"/>
   <tile gid="42"/>
   <tile gid="42"/>
   <tile gid="42"/>
   <tile gid="62"/>
   <tile gid="26"/>
   <tile gid="26"/>
   <tile gid="26"/>
   <tile gid="26"/>
   <tile gid="26"/>
   <tile gid="26"/>
   <tile gid="26"/>
   <tile gid="26"/>
   <tile gid="26"/>
   <tile gid="26"/>
   <tile gid="26"/>
   <tile gid="26"/>
   <tile gid="26"/>
   <tile gid="26"/>
   <tile gid="26"/>
   <tile gid="61"/>
   <tile gid="59"/>
   <tile/>
   <tile/>
   <tile/>
   <tile/>
   <tile/>
   <tile/>
   <tile/>
   <tile/>
   <tile/>
   <tile/>
   <tile/>
   <tile/>
   <tile/>
   <tile/>
   <tile/>
   <tile/>
   <tile/>
   <tile gid="89"/>
   <tile gid="90"/>
   <tile gid="90"/>
   <tile gid="91"/>
   <tile/>
   <tile/>
   <tile/>
   <tile/>
   <tile/>
   <tile gid="121"/>
   <tile gid="123"/>
   <tile/>
   <tile/>
   <tile/>
   <tile/>
   <tile/>
   <tile/>
   <tile/>
   <tile/>
   <tile/>
   <tile/>
   <tile/>
   <tile/>
   <tile/>
   <tile/>
   <tile/>
   <tile/>
   <tile/>
   <tile/>
   <tile/>
   <tile/>
   <tile/>
   <tile gid="93"/>
   <tile gid="42"/>
   <tile gid="42"/>
   <tile gid="42"/>
   <tile gid="42"/>
   <tile gid="62"/>
   <tile gid="26"/>
   <tile gid="26"/>
   <tile gid="27"/>
   <tile/>
   <tile/>
   <tile/>
   <tile/>
   <tile/>
   <tile/>
   <tile/>
   <tile/>
   <tile/>
   <tile/>
   <tile gid="93"/>
   <tile gid="42"/>
   <tile gid="42"/>
   <tile gid="42"/>
   <tile gid="42"/>
   <tile gid="42"/>
   <tile gid="42"/>
   <tile gid="42"/>
   <tile gid="42"/>
   <tile gid="42"/>
   <tile gid="42"/>
   <tile gid="42"/>
   <tile gid="42"/>
   <tile gid="42"/>
   <tile gid="43"/>
   <tile/>
   <tile/>
   <tile/>
   <tile/>
   <tile/>
   <tile/>
   <tile/>
   <tile/>
   <tile/>
   <tile/>
   <tile/>
   <tile/>
   <tile/>
   <tile/>
   <tile/>
   <tile/>
   <tile/>
   <tile/>
   <tile/>
   <tile/>
   <tile/>
   <tile/>
   <tile/>
   <tile/>
   <tile/>
   <tile gid="121"/>
   <tile gid="122"/>
   <tile gid="107"/>
   <tile/>
   <tile/>
   <tile/>
   <tile/>
   <tile/>
   <tile/>
   <tile/>
   <tile/>
   <tile/>
   <tile/>
   <tile/>
   <tile/>
   <tile/>
   <tile/>
   <tile/>
   <tile/>
   <tile/>
   <tile/>
   <tile/>
   <tile/>
   <tile/>
   <tile/>
   <tile/>
   <tile/>
   <tile/>
   <tile/>
   <tile/>
   <tile/>
   <tile gid="93"/>
   <tile gid="42"/>
   <tile gid="42"/>
   <tile gid="42"/>
   <tile gid="42"/>
   <tile gid="42"/>
   <tile gid="42"/>
   <tile gid="42"/>
   <tile gid="43"/>
   <tile/>
   <tile/>
   <tile/>
   <tile/>
   <tile/>
   <tile/>
   <tile/>
   <tile/>
   <tile/>
   <tile/>
   <tile gid="93"/>
   <tile gid="42"/>
   <tile gid="42"/>
   <tile gid="42"/>
   <tile gid="42"/>
   <tile gid="42"/>
   <tile gid="42"/>
   <tile gid="42"/>
   <tile gid="42"/>
   <tile gid="42"/>
   <tile gid="42"/>
   <tile gid="42"/>
   <tile gid="42"/>
   <tile gid="42"/>
   <tile gid="43"/>
   <tile/>
   <tile/>
   <tile/>
   <tile/>
   <tile/>
   <tile/>
   <tile/>
   <tile/>
   <tile/>
   <tile/>
   <tile/>
   <tile/>
   <tile/>
   <tile/>
   <tile/>
   <tile gid="89"/>
   <tile gid="90"/>
   <tile gid="90"/>
   <tile gid="90"/>
   <tile gid="91"/>
   <tile/>
   <tile/>
   <tile/>
   <tile/>
   <tile/>
   <tile/>
   <tile/>
   <tile gid="107"/>
   <tile/>
   <tile/>
   <tile/>
   <tile/>
   <tile/>
   <tile/>
   <tile/>
   <tile/>
   <tile/>
   <tile/>
   <tile/>
   <tile/>
   <tile/>
   <tile/>
   <tile/>
   <tile/>
   <tile/>
   <tile/>
   <tile/>
   <tile/>
   <tile/>
   <tile/>
   <tile/>
   <tile/>
   <tile/>
   <tile/>
   <tile/>
   <tile/>
   <tile gid="93"/>
   <tile gid="42"/>
   <tile gid="42"/>
   <tile gid="42"/>
   <tile gid="42"/>
   <tile gid="42"/>
   <tile gid="42"/>
   <tile gid="42"/>
   <tile gid="62"/>
   <tile gid="26"/>
   <tile gid="26"/>
   <tile gid="26"/>
   <tile gid="26"/>
   <tile gid="26"/>
   <tile gid="27"/>
   <tile/>
   <tile/>
   <tile/>
   <tile/>
   <tile gid="93"/>
   <tile gid="42"/>
   <tile gid="42"/>
   <tile gid="42"/>
   <tile gid="42"/>
   <tile gid="42"/>
   <tile gid="42"/>
   <tile gid="42"/>
   <tile gid="42"/>
   <tile gid="42"/>
   <tile gid="42"/>
   <tile gid="42"/>
   <tile gid="42"/>
   <tile gid="42"/>
   <tile gid="43"/>
   <tile/>
   <tile/>
   <tile/>
   <tile/>
   <tile/>
   <tile/>
   <tile/>
   <tile/>
   <tile/>
   <tile/>
   <tile/>
   <tile/>
   <tile/>
   <tile/>
   <tile/>
   <tile/>
   <tile gid="121"/>
   <tile gid="122"/>
   <tile gid="123"/>
   <tile/>
   <tile/>
   <tile/>
   <tile/>
   <tile/>
   <tile/>
   <tile/>
   <tile/>
   <tile gid="107"/>
   <tile/>
   <tile/>
   <tile/>
   <tile/>
   <tile/>
   <tile/>
   <tile/>
   <tile/>
   <tile/>
   <tile/>
   <tile/>
   <tile/>
   <tile/>
   <tile/>
   <tile/>
   <tile/>
   <tile/>
   <tile/>
   <tile/>
   <tile/>
   <tile/>
   <tile/>
   <tile/>
   <tile/>
   <tile/>
   <tile/>
   <tile/>
   <tile/>
   <tile gid="93"/>
   <tile gid="42"/>
   <tile gid="42"/>
   <tile gid="42"/>
   <tile gid="42"/>
   <tile gid="42"/>
   <tile gid="42"/>
   <tile gid="42"/>
   <tile gid="42"/>
   <tile gid="42"/>
   <tile gid="42"/>
   <tile gid="42"/>
   <tile gid="42"/>
   <tile gid="42"/>
   <tile gid="43"/>
   <tile/>
   <tile/>
   <tile/>
   <tile/>
   <tile gid="93"/>
   <tile gid="42"/>
   <tile gid="42"/>
   <tile gid="42"/>
   <tile gid="42"/>
   <tile gid="42"/>
   <tile gid="42"/>
   <tile gid="42"/>
   <tile gid="42"/>
   <tile gid="42"/>
   <tile gid="42"/>
   <tile gid="42"/>
   <tile gid="42"/>
   <tile gid="42"/>
   <tile gid="43"/>
   <tile/>
   <tile/>
   <tile/>
   <tile/>
   <tile/>
   <tile/>
   <tile/>
   <tile/>
   <tile/>
   <tile/>
   <tile/>
   <tile/>
   <tile/>
   <tile/>
   <tile/>
   <tile/>
   <tile/>
   <tile/>
   <tile/>
   <tile/>
   <tile/>
   <tile/>
   <tile/>
   <tile/>
   <tile/>
   <tile/>
   <tile/>
   <tile gid="107"/>
   <tile/>
   <tile/>
   <tile/>
   <tile/>
   <tile/>
   <tile/>
   <tile/>
   <tile/>
   <tile/>
   <tile/>
   <tile/>
   <tile/>
   <tile/>
   <tile/>
   <tile/>
   <tile/>
   <tile/>
   <tile/>
   <tile/>
   <tile/>
   <tile/>
   <tile/>
   <tile/>
   <tile/>
   <tile/>
   <tile/>
   <tile/>
   <tile/>
   <tile gid="93"/>
   <tile gid="42"/>
   <tile gid="42"/>
   <tile gid="42"/>
   <tile gid="42"/>
   <tile gid="42"/>
   <tile gid="42"/>
   <tile gid="42"/>
   <tile gid="42"/>
   <tile gid="42"/>
   <tile gid="42"/>
   <tile gid="42"/>
   <tile gid="42"/>
   <tile gid="42"/>
   <tile gid="43"/>
   <tile/>
   <tile/>
   <tile/>
   <tile/>
   <tile gid="93"/>
   <tile gid="42"/>
   <tile gid="42"/>
   <tile gid="42"/>
   <tile gid="42"/>
   <tile gid="42"/>
   <tile gid="42"/>
   <tile gid="42"/>
   <tile gid="42"/>
   <tile gid="42"/>
   <tile gid="42"/>
   <tile gid="42"/>
   <tile gid="42"/>
   <tile gid="42"/>
   <tile gid="62"/>
   <tile gid="26"/>
   <tile gid="26"/>
   <tile gid="26"/>
   <tile gid="26"/>
   <tile gid="26"/>
   <tile gid="26"/>
   <tile gid="26"/>
   <tile gid="26"/>
   <tile gid="26"/>
   <tile gid="27"/>
   <tile/>
   <tile/>
   <tile/>
   <tile/>
   <tile/>
   <tile/>
   <tile/>
   <tile/>
   <tile/>
   <tile/>
   <tile/>
   <tile/>
   <tile/>
   <tile/>
   <tile/>
   <tile/>
   <tile/>
   <tile gid="107"/>
   <tile/>
   <tile/>
   <tile/>
   <tile/>
   <tile/>
   <tile/>
   <tile/>
   <tile/>
   <tile/>
   <tile/>
   <tile/>
   <tile/>
   <tile/>
   <tile/>
   <tile/>
   <tile/>
   <tile/>
   <tile/>
   <tile/>
   <tile/>
   <tile/>
   <tile/>
   <tile/>
   <tile/>
   <tile/>
   <tile/>
   <tile/>
   <tile/>
   <tile gid="93"/>
   <tile gid="42"/>
   <tile gid="42"/>
   <tile gid="42"/>
   <tile gid="42"/>
   <tile gid="42"/>
   <tile gid="42"/>
   <tile gid="42"/>
   <tile gid="42"/>
   <tile gid="42"/>
   <tile gid="42"/>
   <tile gid="42"/>
   <tile gid="42"/>
   <tile gid="42"/>
   <tile gid="43"/>
   <tile/>
   <tile/>
   <tile/>
   <tile/>
   <tile gid="93"/>
   <tile gid="42"/>
   <tile gid="42"/>
   <tile gid="42"/>
   <tile gid="42"/>
   <tile gid="42"/>
   <tile gid="42"/>
   <tile gid="42"/>
   <tile gid="42"/>
   <tile gid="42"/>
   <tile gid="42"/>
   <tile gid="42"/>
   <tile gid="42"/>
   <tile gid="42"/>
   <tile gid="42"/>
   <tile gid="42"/>
   <tile gid="42"/>
   <tile gid="42"/>
   <tile gid="42"/>
   <tile gid="42"/>
   <tile gid="42"/>
   <tile gid="78"/>
   <tile gid="58"/>
   <tile gid="59"/>
   <tile/>
   <tile/>
   <tile/>
   <tile/>
   <tile/>
   <tile/>
   <tile/>
   <tile/>
   <tile/>
   <tile/>
   <tile/>
   <tile/>
   <tile/>
   <tile/>
   <tile/>
   <tile/>
   <tile/>
   <tile/>
   <tile gid="105"/>
   <tile gid="90"/>
   <tile gid="90"/>
   <tile gid="90"/>
   <tile gid="90"/>
   <tile gid="90"/>
   <tile gid="90"/>
   <tile gid="91"/>
   <tile/>
   <tile/>
   <tile/>
   <tile/>
   <tile/>
   <tile/>
   <tile/>
   <tile/>
   <tile/>
   <tile/>
   <tile/>
   <tile/>
   <tile/>
   <tile/>
   <tile/>
   <tile/>
   <tile/>
   <tile/>
   <tile/>
   <tile/>
   <tile/>
   <tile gid="93"/>
   <tile gid="42"/>
   <tile gid="42"/>
   <tile gid="42"/>
   <tile gid="42"/>
   <tile gid="42"/>
   <tile gid="42"/>
   <tile gid="42"/>
   <tile gid="42"/>
   <tile gid="42"/>
   <tile gid="42"/>
   <tile gid="42"/>
   <tile gid="42"/>
   <tile gid="42"/>
   <tile gid="43"/>
   <tile/>
   <tile/>
   <tile/>
   <tile/>
   <tile gid="93"/>
   <tile gid="42"/>
   <tile gid="42"/>
   <tile gid="42"/>
   <tile gid="42"/>
   <tile gid="42"/>
   <tile gid="42"/>
   <tile gid="42"/>
   <tile gid="42"/>
   <tile gid="42"/>
   <tile gid="42"/>
   <tile gid="42"/>
   <tile gid="42"/>
   <tile gid="42"/>
   <tile gid="42"/>
   <tile gid="42"/>
   <tile gid="42"/>
   <tile gid="42"/>
   <tile gid="42"/>
   <tile gid="42"/>
   <tile gid="78"/>
   <tile gid="59"/>
   <tile/>
   <tile/>
   <tile/>
   <tile/>
   <tile/>
   <tile/>
   <tile/>
   <tile/>
   <tile/>
   <tile/>
   <tile/>
   <tile/>
   <tile/>
   <tile/>
   <tile/>
   <tile/>
   <tile/>
   <tile/>
   <tile/>
   <tile/>
   <tile gid="105"/>
   <tile gid="42"/>
   <tile gid="42"/>
   <tile gid="42"/>
   <tile gid="42"/>
   <tile gid="42"/>
   <tile gid="42"/>
   <tile gid="107"/>
   <tile/>
   <tile/>
   <tile/>
   <tile/>
   <tile/>
   <tile/>
   <tile/>
   <tile/>
   <tile/>
   <tile/>
   <tile/>
   <tile/>
   <tile/>
   <tile/>
   <tile/>
   <tile/>
   <tile/>
   <tile/>
   <tile/>
   <tile/>
   <tile/>
   <tile gid="93"/>
   <tile gid="42"/>
   <tile gid="42"/>
   <tile gid="42"/>
   <tile gid="42"/>
   <tile gid="42"/>
   <tile gid="42"/>
   <tile gid="42"/>
   <tile gid="42"/>
   <tile gid="42"/>
   <tile gid="42"/>
   <tile gid="42"/>
   <tile gid="42"/>
   <tile gid="42"/>
   <tile gid="43"/>
   <tile/>
   <tile/>
   <tile/>
   <tile/>
   <tile gid="93"/>
   <tile gid="42"/>
   <tile gid="42"/>
   <tile gid="42"/>
   <tile gid="42"/>
   <tile gid="42"/>
   <tile gid="42"/>
   <tile gid="42"/>
   <tile gid="42"/>
   <tile gid="42"/>
   <tile gid="42"/>
   <tile gid="42"/>
   <tile gid="42"/>
   <tile gid="42"/>
   <tile gid="42"/>
   <tile gid="42"/>
   <tile gid="42"/>
   <tile gid="42"/>
   <tile gid="42"/>
   <tile gid="42"/>
   <tile gid="43"/>
   <tile/>
   <tile/>
   <tile/>
   <tile/>
   <tile/>
   <tile/>
   <tile/>
   <tile/>
   <tile/>
   <tile/>
   <tile/>
   <tile/>
   <tile/>
   <tile/>
   <tile/>
   <tile/>
   <tile/>
   <tile/>
   <tile/>
   <tile/>
   <tile/>
   <tile gid="105"/>
   <tile gid="42"/>
   <tile gid="42"/>
   <tile gid="42"/>
   <tile gid="42"/>
   <tile gid="42"/>
   <tile gid="42"/>
   <tile gid="107"/>
   <tile/>
   <tile/>
   <tile/>
   <tile/>
   <tile/>
   <tile/>
   <tile/>
   <tile/>
   <tile/>
   <tile/>
   <tile/>
   <tile/>
   <tile/>
   <tile/>
   <tile/>
   <tile/>
   <tile/>
   <tile/>
   <tile/>
   <tile/>
   <tile/>
   <tile gid="57"/>
   <tile gid="58"/>
   <tile gid="58"/>
   <tile gid="58"/>
   <tile gid="58"/>
   <tile gid="58"/>
   <tile gid="58"/>
   <tile gid="58"/>
   <tile gid="58"/>
   <tile gid="58"/>
   <tile gid="58"/>
   <tile gid="58"/>
   <tile gid="58"/>
   <tile gid="58"/>
   <tile gid="59"/>
   <tile/>
   <tile/>
   <tile/>
   <tile/>
   <tile gid="93"/>
   <tile gid="42"/>
   <tile gid="42"/>
   <tile gid="42"/>
   <tile gid="42"/>
   <tile gid="42"/>
   <tile gid="42"/>
   <tile gid="42"/>
   <tile gid="42"/>
   <tile gid="42"/>
   <tile gid="42"/>
   <tile gid="42"/>
   <tile gid="42"/>
   <tile gid="42"/>
   <tile gid="42"/>
   <tile gid="42"/>
   <tile gid="42"/>
   <tile gid="42"/>
   <tile gid="42"/>
   <tile gid="42"/>
   <tile gid="43"/>
   <tile/>
   <tile/>
   <tile/>
   <tile/>
   <tile/>
   <tile/>
   <tile/>
   <tile/>
   <tile/>
   <tile/>
   <tile/>
   <tile/>
   <tile/>
   <tile/>
   <tile/>
   <tile/>
   <tile/>
   <tile/>
   <tile/>
   <tile/>
   <tile/>
   <tile gid="105"/>
   <tile gid="42"/>
   <tile gid="42"/>
   <tile gid="42"/>
   <tile gid="42"/>
   <tile gid="42"/>
   <tile gid="42"/>
   <tile gid="107"/>
   <tile/>
   <tile/>
   <tile/>
   <tile/>
   <tile/>
   <tile/>
   <tile/>
   <tile/>
   <tile/>
   <tile/>
   <tile/>
   <tile/>
   <tile/>
   <tile/>
   <tile/>
   <tile/>
   <tile/>
   <tile/>
   <tile/>
   <tile/>
   <tile/>
   <tile/>
   <tile/>
   <tile/>
   <tile/>
   <tile/>
   <tile/>
   <tile/>
   <tile/>
   <tile/>
   <tile/>
   <tile/>
   <tile/>
   <tile/>
   <tile/>
   <tile/>
   <tile/>
   <tile/>
   <tile/>
   <tile/>
   <tile gid="93"/>
   <tile gid="42"/>
   <tile gid="42"/>
   <tile gid="42"/>
   <tile gid="42"/>
   <tile gid="42"/>
   <tile gid="42"/>
   <tile gid="42"/>
   <tile gid="42"/>
   <tile gid="42"/>
   <tile gid="42"/>
   <tile gid="42"/>
   <tile gid="42"/>
   <tile gid="42"/>
   <tile gid="78"/>
   <tile gid="58"/>
   <tile gid="77"/>
   <tile gid="42"/>
   <tile gid="42"/>
   <tile gid="42"/>
   <tile gid="43"/>
   <tile/>
   <tile/>
   <tile/>
   <tile/>
   <tile/>
   <tile/>
   <tile/>
   <tile/>
   <tile/>
   <tile/>
   <tile/>
   <tile/>
   <tile/>
   <tile/>
   <tile/>
   <tile/>
   <tile/>
   <tile/>
   <tile/>
   <tile/>
   <tile/>
   <tile gid="105"/>
   <tile gid="42"/>
   <tile gid="42"/>
   <tile gid="42"/>
   <tile gid="42"/>
   <tile gid="42"/>
   <tile gid="42"/>
   <tile gid="107"/>
   <tile/>
   <tile/>
   <tile/>
   <tile/>
   <tile/>
   <tile/>
   <tile/>
   <tile/>
   <tile/>
   <tile/>
   <tile/>
   <tile/>
   <tile/>
   <tile/>
   <tile/>
   <tile/>
   <tile/>
   <tile/>
   <tile/>
   <tile/>
   <tile/>
   <tile/>
   <tile/>
   <tile/>
   <tile/>
   <tile/>
   <tile/>
   <tile/>
   <tile/>
   <tile/>
   <tile/>
   <tile/>
   <tile/>
   <tile/>
   <tile/>
   <tile/>
   <tile/>
   <tile/>
   <tile/>
   <tile/>
   <tile gid="93"/>
   <tile gid="42"/>
   <tile gid="42"/>
   <tile gid="42"/>
   <tile gid="42"/>
   <tile gid="42"/>
   <tile gid="42"/>
   <tile gid="42"/>
   <tile gid="42"/>
   <tile gid="42"/>
   <tile gid="42"/>
   <tile gid="42"/>
   <tile gid="42"/>
   <tile gid="42"/>
   <tile gid="43"/>
   <tile/>
   <tile gid="41"/>
   <tile gid="42"/>
   <tile gid="42"/>
   <tile gid="42"/>
   <tile gid="43"/>
   <tile/>
   <tile/>
   <tile/>
   <tile/>
   <tile/>
   <tile/>
   <tile/>
   <tile/>
   <tile/>
   <tile/>
   <tile/>
   <tile/>
   <tile/>
   <tile/>
   <tile/>
   <tile/>
   <tile/>
   <tile gid="89"/>
   <tile gid="90"/>
   <tile gid="90"/>
   <tile gid="90"/>
   <tile gid="157"/>
   <tile gid="42"/>
   <tile gid="42"/>
   <tile gid="42"/>
   <tile gid="42"/>
   <tile gid="42"/>
   <tile gid="42"/>
   <tile gid="158"/>
   <tile gid="90"/>
   <tile gid="90"/>
   <tile gid="90"/>
   <tile gid="90"/>
   <tile gid="91"/>
   <tile/>
   <tile/>
   <tile/>
   <tile/>
   <tile/>
   <tile/>
   <tile/>
   <tile/>
   <tile/>
   <tile/>
   <tile/>
   <tile/>
   <tile/>
   <tile/>
   <tile/>
   <tile/>
   <tile/>
   <tile/>
   <tile/>
   <tile/>
   <tile/>
   <tile/>
   <tile/>
   <tile/>
   <tile/>
   <tile/>
   <tile/>
   <tile/>
   <tile/>
   <tile/>
   <tile/>
   <tile/>
   <tile/>
   <tile/>
   <tile/>
   <tile gid="93"/>
   <tile gid="42"/>
   <tile gid="42"/>
   <tile gid="42"/>
   <tile gid="42"/>
   <tile gid="42"/>
   <tile gid="42"/>
   <tile gid="42"/>
   <tile gid="42"/>
   <tile gid="42"/>
   <tile gid="42"/>
   <tile gid="42"/>
   <tile gid="42"/>
   <tile gid="78"/>
   <tile gid="59"/>
   <tile/>
   <tile gid="41"/>
   <tile gid="42"/>
   <tile gid="42"/>
   <tile gid="42"/>
   <tile gid="43"/>
   <tile/>
   <tile/>
   <tile/>
   <tile/>
   <tile/>
   <tile/>
   <tile/>
   <tile/>
   <tile/>
   <tile/>
   <tile/>
   <tile/>
   <tile/>
   <tile/>
   <tile/>
   <tile/>
   <tile/>
   <tile gid="105"/>
   <tile gid="42"/>
   <tile gid="42"/>
   <tile gid="42"/>
   <tile gid="42"/>
   <tile gid="42"/>
   <tile gid="42"/>
   <tile gid="42"/>
   <tile gid="42"/>
   <tile gid="42"/>
   <tile gid="42"/>
   <tile gid="42"/>
   <tile gid="42"/>
   <tile gid="42"/>
   <tile gid="42"/>
   <tile gid="42"/>
   <tile gid="107"/>
   <tile/>
   <tile/>
   <tile/>
   <tile/>
   <tile/>
   <tile/>
   <tile/>
   <tile/>
   <tile/>
   <tile/>
   <tile/>
   <tile/>
   <tile/>
   <tile/>
   <tile/>
   <tile/>
   <tile/>
   <tile/>
   <tile/>
   <tile/>
   <tile/>
   <tile/>
   <tile/>
   <tile/>
   <tile/>
   <tile/>
   <tile/>
   <tile/>
   <tile/>
   <tile/>
   <tile/>
   <tile/>
   <tile/>
   <tile/>
   <tile/>
   <tile gid="93"/>
   <tile gid="42"/>
   <tile gid="42"/>
   <tile gid="42"/>
   <tile gid="42"/>
   <tile gid="42"/>
   <tile gid="42"/>
   <tile gid="42"/>
   <tile gid="42"/>
   <tile gid="42"/>
   <tile gid="42"/>
   <tile gid="78"/>
   <tile gid="58"/>
   <tile gid="59"/>
   <tile/>
   <tile/>
   <tile gid="57"/>
   <tile gid="77"/>
   <tile gid="42"/>
   <tile gid="42"/>
   <tile gid="43"/>
   <tile/>
   <tile/>
   <tile/>
   <tile/>
   <tile/>
   <tile/>
   <tile/>
   <tile/>
   <tile/>
   <tile/>
   <tile/>
   <tile/>
   <tile/>
   <tile/>
   <tile/>
   <tile/>
   <tile/>
   <tile gid="105"/>
   <tile gid="42"/>
   <tile gid="42"/>
   <tile gid="42"/>
   <tile gid="42"/>
   <tile gid="42"/>
   <tile gid="42"/>
   <tile gid="42"/>
   <tile gid="42"/>
   <tile gid="42"/>
   <tile gid="42"/>
   <tile gid="42"/>
   <tile gid="42"/>
   <tile gid="42"/>
   <tile gid="42"/>
   <tile gid="42"/>
   <tile gid="107"/>
   <tile/>
   <tile/>
   <tile/>
   <tile/>
   <tile/>
   <tile/>
   <tile/>
   <tile/>
   <tile/>
   <tile/>
   <tile gid="25"/>
   <tile gid="26"/>
   <tile gid="26"/>
   <tile gid="26"/>
   <tile gid="26"/>
   <tile gid="26"/>
   <tile gid="26"/>
   <tile gid="26"/>
   <tile gid="26"/>
   <tile gid="26"/>
   <tile gid="26"/>
   <tile gid="26"/>
   <tile gid="26"/>
   <tile gid="26"/>
   <tile gid="26"/>
   <tile gid="26"/>
   <tile gid="26"/>
   <tile gid="26"/>
   <tile gid="26"/>
   <tile gid="26"/>
   <tile gid="26"/>
   <tile gid="26"/>
   <tile gid="26"/>
   <tile gid="26"/>
   <tile gid="26"/>
   <tile gid="61"/>
   <tile gid="42"/>
   <tile gid="42"/>
   <tile gid="42"/>
   <tile gid="42"/>
   <tile gid="42"/>
   <tile gid="42"/>
   <tile gid="42"/>
   <tile gid="42"/>
   <tile gid="42"/>
   <tile gid="78"/>
   <tile gid="59"/>
   <tile/>
   <tile/>
   <tile/>
   <tile/>
   <tile/>
   <tile gid="41"/>
   <tile gid="42"/>
   <tile gid="42"/>
   <tile gid="43"/>
   <tile/>
   <tile/>
   <tile/>
   <tile/>
   <tile/>
   <tile/>
   <tile/>
   <tile/>
   <tile/>
   <tile gid="89"/>
   <tile gid="90"/>
   <tile gid="90"/>
   <tile gid="90"/>
   <tile gid="90"/>
   <tile gid="90"/>
   <tile gid="90"/>
   <tile gid="90"/>
   <tile gid="157"/>
   <tile gid="42"/>
   <tile gid="42"/>
   <tile gid="42"/>
   <tile gid="42"/>
   <tile gid="42"/>
   <tile gid="42"/>
   <tile gid="42"/>
   <tile gid="42"/>
   <tile gid="42"/>
   <tile gid="42"/>
   <tile gid="42"/>
   <tile gid="42"/>
   <tile gid="42"/>
   <tile gid="42"/>
   <tile gid="42"/>
   <tile gid="107"/>
   <tile/>
   <tile/>
   <tile/>
   <tile/>
   <tile gid="25"/>
   <tile gid="26"/>
   <tile gid="26"/>
   <tile gid="26"/>
   <tile gid="26"/>
   <tile gid="26"/>
   <tile gid="61"/>
   <tile gid="42"/>
   <tile gid="42"/>
   <tile gid="42"/>
   <tile gid="42"/>
   <tile gid="42"/>
   <tile gid="42"/>
   <tile gid="78"/>
   <tile gid="58"/>
   <tile gid="58"/>
   <tile gid="58"/>
   <tile gid="58"/>
   <tile gid="58"/>
   <tile gid="58"/>
   <tile gid="58"/>
   <tile gid="58"/>
   <tile gid="58"/>
   <tile gid="58"/>
   <tile gid="58"/>
   <tile gid="58"/>
   <tile gid="58"/>
   <tile gid="58"/>
   <tile gid="58"/>
   <tile gid="58"/>
   <tile gid="58"/>
   <tile gid="77"/>
   <tile gid="42"/>
   <tile gid="42"/>
   <tile gid="42"/>
   <tile gid="42"/>
   <tile gid="42"/>
   <tile gid="42"/>
   <tile gid="42"/>
   <tile gid="78"/>
   <tile gid="58"/>
   <tile gid="59"/>
   <tile/>
   <tile/>
   <tile/>
   <tile/>
   <tile/>
   <tile/>
   <tile gid="41"/>
   <tile gid="42"/>
   <tile gid="42"/>
   <tile gid="43"/>
   <tile/>
   <tile/>
   <tile/>
   <tile/>
   <tile/>
   <tile/>
   <tile/>
   <tile/>
   <tile/>
   <tile/>
   <tile gid="121"/>
   <tile gid="122"/>
   <tile gid="122"/>
   <tile gid="122"/>
   <tile gid="122"/>
   <tile gid="122"/>
   <tile gid="122"/>
   <tile gid="122"/>
   <tile gid="122"/>
   <tile gid="122"/>
   <tile gid="122"/>
   <tile gid="122"/>
   <tile gid="173"/>
   <tile gid="42"/>
   <tile gid="42"/>
   <tile gid="174"/>
   <tile gid="122"/>
   <tile gid="122"/>
   <tile gid="122"/>
   <tile gid="122"/>
   <tile gid="122"/>
   <tile gid="122"/>
   <tile gid="122"/>
   <tile gid="158"/>
   <tile gid="90"/>
   <tile gid="90"/>
   <tile gid="90"/>
   <tile gid="26"/>
   <tile gid="61"/>
   <tile gid="58"/>
   <tile gid="58"/>
   <tile gid="58"/>
   <tile gid="58"/>
   <tile gid="58"/>
   <tile gid="58"/>
   <tile gid="58"/>
   <tile gid="58"/>
   <tile gid="58"/>
   <tile gid="58"/>
   <tile gid="58"/>
   <tile gid="77"/>
   <tile gid="43"/>
   <tile/>
   <tile/>
   <tile/>
   <tile/>
   <tile/>
   <tile/>
   <tile/>
   <tile/>
   <tile/>
   <tile/>
   <tile/>
   <tile/>
   <tile/>
   <tile/>
   <tile/>
   <tile/>
   <tile/>
   <tile gid="41"/>
   <tile gid="42"/>
   <tile gid="42"/>
   <tile gid="42"/>
   <tile gid="42"/>
   <tile gid="42"/>
   <tile gid="42"/>
   <tile gid="42"/>
   <tile gid="43"/>
   <tile/>
   <tile/>
   <tile/>
   <tile/>
   <tile/>
   <tile/>
   <tile/>
   <tile/>
   <tile gid="57"/>
   <tile gid="77"/>
   <tile gid="42"/>
   <tile gid="43"/>
   <tile/>
   <tile/>
   <tile/>
   <tile/>
   <tile/>
   <tile/>
   <tile/>
   <tile/>
   <tile/>
   <tile/>
   <tile/>
   <tile/>
   <tile/>
   <tile/>
   <tile/>
   <tile/>
   <tile/>
   <tile/>
   <tile/>
   <tile/>
   <tile/>
   <tile/>
   <tile gid="121"/>
   <tile gid="122"/>
   <tile gid="122"/>
   <tile gid="123"/>
   <tile/>
   <tile/>
   <tile/>
   <tile/>
   <tile/>
   <tile/>
   <tile/>
   <tile/>
   <tile/>
   <tile/>
   <tile/>
   <tile/>
   <tile/>
   <tile/>
   <tile/>
   <tile/>
   <tile/>
   <tile/>
   <tile/>
   <tile/>
   <tile/>
   <tile/>
   <tile/>
   <tile/>
   <tile gid="57"/>
   <tile gid="59"/>
   <tile/>
   <tile/>
   <tile/>
   <tile/>
   <tile/>
   <tile/>
   <tile/>
   <tile/>
   <tile/>
   <tile/>
   <tile/>
   <tile/>
   <tile/>
   <tile/>
   <tile/>
   <tile/>
   <tile/>
   <tile gid="41"/>
   <tile gid="42"/>
   <tile gid="42"/>
   <tile gid="42"/>
   <tile gid="42"/>
   <tile gid="42"/>
   <tile gid="42"/>
   <tile gid="78"/>
   <tile gid="59"/>
   <tile/>
   <tile/>
   <tile/>
   <tile/>
   <tile/>
   <tile/>
   <tile/>
   <tile/>
   <tile/>
   <tile gid="41"/>
   <tile gid="42"/>
   <tile gid="43"/>
   <tile/>
   <tile/>
   <tile/>
   <tile/>
   <tile/>
   <tile/>
   <tile/>
   <tile/>
   <tile/>
   <tile/>
   <tile/>
   <tile/>
   <tile/>
   <tile/>
   <tile/>
   <tile/>
   <tile/>
   <tile/>
   <tile/>
   <tile/>
   <tile/>
   <tile/>
   <tile/>
   <tile/>
   <tile/>
   <tile/>
   <tile/>
   <tile/>
   <tile/>
   <tile/>
   <tile/>
   <tile/>
   <tile/>
   <tile/>
   <tile/>
   <tile/>
   <tile/>
   <tile/>
   <tile/>
   <tile/>
   <tile/>
   <tile/>
   <tile/>
   <tile/>
   <tile/>
   <tile/>
   <tile/>
   <tile/>
   <tile/>
   <tile/>
   <tile/>
   <tile/>
   <tile/>
   <tile/>
   <tile/>
   <tile/>
   <tile/>
   <tile/>
   <tile/>
   <tile/>
   <tile/>
   <tile/>
   <tile/>
   <tile/>
   <tile/>
   <tile/>
   <tile/>
   <tile/>
   <tile/>
   <tile gid="41"/>
   <tile gid="42"/>
   <tile gid="42"/>
   <tile gid="42"/>
   <tile gid="42"/>
   <tile gid="42"/>
   <tile gid="78"/>
   <tile gid="59"/>
   <tile/>
   <tile/>
   <tile/>
   <tile/>
   <tile/>
   <tile/>
   <tile/>
   <tile/>
   <tile/>
   <tile/>
   <tile gid="41"/>
   <tile gid="42"/>
   <tile gid="43"/>
   <tile/>
   <tile/>
   <tile/>
   <tile/>
   <tile/>
   <tile/>
   <tile/>
   <tile/>
   <tile/>
   <tile/>
   <tile/>
   <tile/>
   <tile/>
   <tile/>
   <tile/>
   <tile/>
   <tile/>
   <tile/>
   <tile/>
   <tile/>
   <tile/>
   <tile/>
   <tile/>
   <tile/>
   <tile/>
   <tile/>
   <tile/>
   <tile/>
   <tile/>
   <tile/>
   <tile/>
   <tile/>
   <tile/>
   <tile/>
   <tile/>
   <tile/>
   <tile/>
   <tile/>
   <tile/>
   <tile/>
   <tile/>
   <tile/>
   <tile/>
   <tile/>
   <tile/>
   <tile/>
   <tile/>
   <tile/>
   <tile/>
   <tile/>
   <tile/>
   <tile/>
   <tile/>
   <tile/>
   <tile/>
   <tile/>
   <tile/>
   <tile/>
   <tile/>
   <tile/>
   <tile/>
   <tile/>
   <tile/>
   <tile/>
   <tile/>
   <tile/>
   <tile/>
   <tile/>
   <tile/>
   <tile gid="41"/>
   <tile gid="42"/>
   <tile gid="42"/>
   <tile gid="42"/>
   <tile gid="42"/>
   <tile gid="78"/>
   <tile gid="59"/>
   <tile/>
   <tile/>
   <tile/>
   <tile/>
   <tile/>
   <tile/>
   <tile/>
   <tile/>
   <tile/>
   <tile/>
   <tile/>
   <tile gid="41"/>
   <tile gid="42"/>
   <tile gid="43"/>
   <tile/>
   <tile/>
   <tile/>
   <tile/>
   <tile/>
   <tile/>
   <tile/>
   <tile/>
   <tile/>
   <tile/>
   <tile/>
   <tile/>
   <tile/>
   <tile/>
   <tile/>
   <tile/>
   <tile/>
   <tile/>
   <tile/>
   <tile/>
   <tile/>
   <tile/>
   <tile/>
   <tile/>
   <tile/>
   <tile/>
   <tile/>
   <tile/>
   <tile/>
   <tile/>
   <tile/>
   <tile/>
   <tile/>
   <tile/>
   <tile/>
   <tile/>
   <tile/>
   <tile/>
   <tile/>
   <tile/>
   <tile/>
   <tile/>
   <tile/>
   <tile/>
   <tile/>
   <tile/>
   <tile/>
   <tile/>
   <tile/>
   <tile/>
   <tile/>
   <tile/>
   <tile/>
   <tile/>
   <tile/>
   <tile/>
   <tile/>
   <tile/>
   <tile/>
   <tile/>
   <tile/>
   <tile/>
   <tile/>
   <tile/>
   <tile/>
   <tile/>
   <tile/>
   <tile/>
   <tile/>
   <tile gid="41"/>
   <tile gid="42"/>
   <tile gid="42"/>
   <tile gid="42"/>
   <tile gid="78"/>
   <tile gid="59"/>
   <tile/>
   <tile/>
   <tile/>
   <tile/>
   <tile/>
   <tile/>
   <tile/>
   <tile/>
   <tile/>
   <tile/>
   <tile/>
   <tile/>
   <tile gid="41"/>
   <tile gid="42"/>
   <tile gid="43"/>
   <tile/>
   <tile/>
   <tile/>
   <tile/>
   <tile/>
   <tile/>
   <tile/>
   <tile/>
   <tile/>
   <tile/>
   <tile/>
   <tile/>
   <tile/>
   <tile/>
   <tile/>
   <tile/>
   <tile/>
   <tile/>
   <tile/>
   <tile/>
   <tile/>
   <tile/>
   <tile/>
   <tile/>
   <tile/>
   <tile/>
   <tile/>
   <tile/>
   <tile/>
   <tile/>
   <tile/>
   <tile/>
   <tile/>
   <tile/>
   <tile/>
   <tile/>
   <tile/>
   <tile/>
   <tile/>
   <tile/>
   <tile/>
   <tile/>
   <tile/>
   <tile/>
   <tile/>
   <tile/>
   <tile/>
   <tile/>
   <tile/>
   <tile/>
   <tile/>
   <tile/>
   <tile/>
   <tile/>
   <tile/>
   <tile/>
   <tile/>
   <tile/>
   <tile/>
   <tile/>
   <tile/>
   <tile/>
   <tile/>
   <tile/>
   <tile/>
   <tile/>
   <tile/>
   <tile/>
   <tile/>
   <tile gid="41"/>
   <tile gid="42"/>
   <tile gid="42"/>
   <tile gid="78"/>
   <tile gid="59"/>
   <tile/>
   <tile/>
   <tile/>
   <tile/>
   <tile/>
   <tile/>
   <tile/>
   <tile/>
   <tile/>
   <tile/>
   <tile/>
   <tile/>
   <tile/>
   <tile gid="41"/>
   <tile gid="42"/>
   <tile gid="43"/>
   <tile/>
   <tile/>
   <tile/>
   <tile/>
   <tile/>
   <tile/>
   <tile/>
   <tile/>
   <tile/>
   <tile/>
   <tile/>
   <tile/>
   <tile/>
   <tile/>
   <tile/>
   <tile/>
   <tile/>
   <tile/>
   <tile/>
   <tile/>
   <tile/>
   <tile/>
   <tile/>
   <tile/>
   <tile/>
   <tile/>
   <tile/>
   <tile/>
   <tile/>
   <tile/>
   <tile/>
   <tile/>
   <tile/>
   <tile/>
   <tile/>
   <tile/>
   <tile/>
   <tile/>
   <tile/>
   <tile/>
   <tile/>
   <tile/>
   <tile/>
   <tile/>
   <tile/>
   <tile/>
   <tile/>
   <tile/>
   <tile/>
   <tile/>
   <tile/>
   <tile/>
   <tile/>
   <tile/>
   <tile/>
   <tile/>
   <tile/>
   <tile/>
   <tile/>
   <tile/>
   <tile/>
   <tile/>
   <tile/>
   <tile/>
   <tile/>
   <tile/>
   <tile/>
   <tile/>
   <tile/>
   <tile gid="41"/>
   <tile gid="42"/>
   <tile gid="42"/>
   <tile gid="43"/>
   <tile/>
   <tile/>
   <tile/>
   <tile/>
   <tile/>
   <tile/>
   <tile/>
   <tile/>
   <tile/>
   <tile/>
   <tile/>
   <tile/>
   <tile/>
   <tile/>
   <tile gid="57"/>
   <tile gid="77"/>
   <tile gid="43"/>
   <tile/>
   <tile/>
   <tile/>
   <tile/>
   <tile/>
   <tile/>
   <tile/>
   <tile/>
   <tile/>
   <tile/>
   <tile/>
   <tile/>
   <tile/>
   <tile/>
   <tile/>
   <tile/>
   <tile/>
   <tile/>
   <tile/>
   <tile/>
   <tile/>
   <tile/>
   <tile/>
   <tile/>
   <tile/>
   <tile/>
   <tile/>
   <tile/>
   <tile/>
   <tile/>
   <tile/>
   <tile/>
   <tile/>
   <tile/>
   <tile/>
   <tile/>
   <tile/>
   <tile/>
   <tile/>
   <tile/>
   <tile/>
   <tile/>
   <tile/>
   <tile/>
   <tile/>
   <tile/>
   <tile/>
   <tile/>
   <tile/>
   <tile/>
   <tile gid="25"/>
   <tile gid="26"/>
   <tile gid="26"/>
   <tile gid="26"/>
   <tile gid="26"/>
   <tile gid="26"/>
   <tile gid="26"/>
   <tile gid="26"/>
   <tile gid="26"/>
   <tile gid="26"/>
   <tile gid="26"/>
   <tile gid="26"/>
   <tile gid="26"/>
   <tile gid="26"/>
   <tile gid="27"/>
   <tile/>
   <tile/>
   <tile/>
   <tile/>
   <tile gid="41"/>
   <tile gid="42"/>
   <tile gid="42"/>
   <tile gid="43"/>
   <tile/>
   <tile/>
   <tile/>
   <tile/>
   <tile/>
   <tile/>
   <tile/>
   <tile/>
   <tile/>
   <tile/>
   <tile/>
   <tile/>
   <tile/>
   <tile/>
   <tile/>
   <tile gid="41"/>
   <tile gid="43"/>
   <tile/>
   <tile/>
   <tile/>
   <tile/>
   <tile/>
   <tile/>
   <tile/>
   <tile/>
   <tile/>
   <tile/>
   <tile/>
   <tile/>
   <tile/>
   <tile/>
   <tile/>
   <tile/>
   <tile/>
   <tile/>
   <tile/>
   <tile/>
   <tile/>
   <tile/>
   <tile/>
   <tile/>
   <tile/>
   <tile/>
   <tile/>
   <tile/>
   <tile/>
   <tile/>
   <tile/>
   <tile/>
   <tile/>
   <tile/>
   <tile/>
   <tile/>
   <tile/>
   <tile/>
   <tile/>
   <tile/>
   <tile/>
   <tile/>
   <tile/>
   <tile/>
   <tile/>
   <tile/>
   <tile/>
   <tile/>
   <tile/>
   <tile/>
   <tile gid="41"/>
   <tile gid="42"/>
   <tile gid="42"/>
   <tile gid="42"/>
   <tile gid="42"/>
   <tile gid="42"/>
   <tile gid="42"/>
   <tile gid="42"/>
   <tile gid="42"/>
   <tile gid="42"/>
   <tile gid="42"/>
   <tile gid="42"/>
   <tile gid="42"/>
   <tile gid="42"/>
   <tile gid="43"/>
   <tile/>
   <tile/>
   <tile/>
   <tile/>
   <tile gid="41"/>
   <tile gid="42"/>
   <tile gid="78"/>
   <tile gid="59"/>
   <tile/>
   <tile/>
   <tile/>
   <tile/>
   <tile/>
   <tile/>
   <tile/>
   <tile/>
   <tile/>
   <tile/>
   <tile/>
   <tile/>
   <tile/>
   <tile/>
   <tile/>
   <tile gid="41"/>
   <tile gid="43"/>
   <tile/>
   <tile/>
   <tile/>
   <tile/>
   <tile/>
   <tile/>
   <tile gid="89"/>
   <tile gid="90"/>
   <tile gid="90"/>
   <tile gid="90"/>
   <tile gid="91"/>
   <tile/>
   <tile/>
   <tile/>
   <tile/>
   <tile/>
   <tile/>
   <tile/>
   <tile/>
   <tile/>
   <tile/>
   <tile/>
   <tile gid="89"/>
   <tile gid="90"/>
   <tile gid="90"/>
   <tile gid="91"/>
   <tile/>
   <tile/>
   <tile/>
   <tile/>
   <tile/>
   <tile/>
   <tile gid="89"/>
   <tile gid="90"/>
   <tile gid="90"/>
   <tile gid="90"/>
   <tile gid="91"/>
   <tile/>
   <tile/>
   <tile/>
   <tile/>
   <tile/>
   <tile/>
   <tile/>
   <tile/>
   <tile/>
   <tile/>
   <tile/>
   <tile/>
   <tile/>
   <tile gid="41"/>
   <tile gid="42"/>
   <tile gid="42"/>
   <tile gid="42"/>
   <tile gid="42"/>
   <tile gid="42"/>
   <tile gid="42"/>
   <tile gid="42"/>
   <tile gid="42"/>
   <tile gid="42"/>
   <tile gid="42"/>
   <tile gid="42"/>
   <tile gid="42"/>
   <tile gid="42"/>
   <tile gid="43"/>
   <tile/>
   <tile/>
   <tile/>
   <tile/>
   <tile gid="41"/>
   <tile gid="78"/>
   <tile gid="59"/>
   <tile/>
   <tile/>
   <tile/>
   <tile/>
   <tile/>
   <tile/>
   <tile/>
   <tile/>
   <tile/>
   <tile/>
   <tile/>
   <tile/>
   <tile/>
   <tile/>
   <tile/>
   <tile/>
   <tile gid="57"/>
   <tile gid="43"/>
   <tile/>
   <tile/>
   <tile/>
   <tile/>
   <tile/>
   <tile/>
   <tile/>
   <tile gid="121"/>
   <tile gid="122"/>
   <tile gid="123"/>
   <tile/>
   <tile/>
   <tile/>
   <tile/>
   <tile/>
   <tile/>
   <tile/>
   <tile/>
   <tile/>
   <tile/>
   <tile/>
   <tile/>
   <tile gid="105"/>
   <tile gid="106"/>
   <tile gid="106"/>
   <tile gid="107"/>
   <tile/>
   <tile/>
   <tile/>
   <tile/>
   <tile/>
   <tile/>
   <tile/>
   <tile gid="121"/>
   <tile gid="122"/>
   <tile gid="123"/>
   <tile/>
   <tile/>
   <tile/>
   <tile/>
   <tile/>
   <tile/>
   <tile/>
   <tile/>
   <tile/>
   <tile/>
   <tile/>
   <tile/>
   <tile/>
   <tile/>
   <tile gid="41"/>
   <tile gid="42"/>
   <tile gid="42"/>
   <tile gid="42"/>
   <tile gid="42"/>
   <tile gid="42"/>
   <tile gid="42"/>
   <tile gid="42"/>
   <tile gid="42"/>
   <tile gid="42"/>
   <tile gid="42"/>
   <tile gid="42"/>
   <tile gid="42"/>
   <tile gid="42"/>
   <tile gid="43"/>
   <tile/>
   <tile/>
   <tile/>
   <tile/>
   <tile gid="41"/>
   <tile gid="43"/>
   <tile/>
   <tile/>
   <tile/>
   <tile/>
   <tile/>
   <tile/>
   <tile/>
   <tile/>
   <tile/>
   <tile/>
   <tile/>
   <tile/>
   <tile/>
   <tile/>
   <tile/>
   <tile/>
   <tile/>
   <tile/>
   <tile gid="43"/>
   <tile/>
   <tile/>
   <tile/>
   <tile/>
   <tile/>
   <tile/>
   <tile/>
   <tile/>
   <tile/>
   <tile/>
   <tile/>
   <tile/>
   <tile/>
   <tile/>
   <tile/>
   <tile gid="89"/>
   <tile gid="90"/>
   <tile gid="90"/>
   <tile gid="91"/>
   <tile/>
   <tile/>
   <tile/>
   <tile gid="105"/>
   <tile gid="106"/>
   <tile gid="106"/>
   <tile gid="107"/>
   <tile/>
   <tile/>
   <tile/>
   <tile/>
   <tile/>
   <tile/>
   <tile/>
   <tile/>
   <tile/>
   <tile/>
   <tile/>
   <tile/>
   <tile/>
   <tile/>
   <tile gid="89"/>
   <tile gid="90"/>
   <tile gid="90"/>
   <tile gid="90"/>
   <tile gid="91"/>
   <tile/>
   <tile/>
   <tile/>
   <tile/>
   <tile/>
   <tile gid="41"/>
   <tile gid="42"/>
   <tile gid="42"/>
   <tile gid="42"/>
   <tile gid="42"/>
   <tile gid="42"/>
   <tile gid="42"/>
   <tile gid="42"/>
   <tile gid="42"/>
   <tile gid="42"/>
   <tile gid="42"/>
   <tile gid="42"/>
   <tile gid="42"/>
   <tile gid="42"/>
   <tile gid="43"/>
   <tile/>
   <tile/>
   <tile/>
   <tile/>
   <tile gid="41"/>
   <tile gid="43"/>
   <tile/>
   <tile/>
   <tile/>
   <tile/>
   <tile/>
   <tile/>
   <tile/>
   <tile/>
   <tile/>
   <tile/>
   <tile/>
   <tile/>
   <tile/>
   <tile/>
   <tile/>
   <tile/>
   <tile/>
   <tile/>
   <tile gid="43"/>
   <tile/>
   <tile/>
   <tile/>
   <tile/>
   <tile/>
   <tile/>
   <tile/>
   <tile/>
   <tile/>
   <tile/>
   <tile/>
   <tile/>
   <tile/>
   <tile/>
   <tile/>
   <tile gid="105"/>
   <tile gid="106"/>
   <tile gid="106"/>
   <tile gid="107"/>
   <tile/>
   <tile/>
   <tile/>
   <tile gid="105"/>
   <tile gid="106"/>
   <tile gid="106"/>
   <tile gid="107"/>
   <tile/>
   <tile/>
   <tile/>
   <tile/>
   <tile/>
   <tile/>
   <tile/>
   <tile/>
   <tile/>
   <tile/>
   <tile/>
   <tile/>
   <tile/>
   <tile/>
   <tile gid="105"/>
   <tile gid="106"/>
   <tile gid="106"/>
   <tile gid="106"/>
   <tile gid="107"/>
   <tile/>
   <tile/>
   <tile/>
   <tile/>
   <tile/>
   <tile gid="41"/>
   <tile gid="42"/>
   <tile gid="42"/>
   <tile gid="42"/>
   <tile gid="42"/>
   <tile gid="42"/>
   <tile gid="42"/>
   <tile gid="42"/>
   <tile gid="42"/>
   <tile gid="42"/>
   <tile gid="42"/>
   <tile gid="42"/>
   <tile gid="42"/>
   <tile gid="42"/>
   <tile gid="43"/>
   <tile/>
   <tile/>
   <tile/>
   <tile/>
   <tile gid="41"/>
  </data>
 </layer>
 <layer id="6" name="Navigation" width="90" height="68">
  <properties>
   <property name="Navigation" type="bool" value="true"/>
  </properties>
  <data>
   <tile/>
   <tile/>
   <tile/>
   <tile/>
   <tile/>
   <tile/>
   <tile/>
   <tile/>
   <tile/>
   <tile/>
   <tile/>
   <tile/>
   <tile/>
   <tile/>
   <tile/>
   <tile/>
   <tile/>
   <tile/>
   <tile/>
   <tile/>
   <tile gid="2684354570"/>
   <tile/>
   <tile/>
   <tile/>
   <tile/>
   <tile/>
   <tile/>
   <tile/>
   <tile/>
   <tile/>
   <tile/>
   <tile/>
   <tile/>
   <tile/>
   <tile/>
   <tile/>
   <tile/>
   <tile/>
   <tile/>
   <tile/>
   <tile/>
   <tile/>
   <tile/>
   <tile/>
   <tile/>
   <tile/>
   <tile/>
   <tile/>
   <tile/>
   <tile/>
   <tile/>
   <tile/>
   <tile/>
   <tile/>
   <tile/>
   <tile/>
   <tile/>
   <tile/>
   <tile/>
   <tile/>
   <tile/>
   <tile/>
   <tile/>
   <tile/>
   <tile/>
   <tile/>
   <tile/>
   <tile/>
   <tile/>
   <tile/>
   <tile/>
   <tile/>
   <tile/>
   <tile/>
   <tile/>
   <tile/>
   <tile/>
   <tile/>
   <tile/>
   <tile/>
   <tile/>
   <tile/>
   <tile/>
   <tile/>
   <tile/>
   <tile/>
   <tile/>
   <tile/>
   <tile/>
   <tile/>
   <tile/>
   <tile/>
   <tile/>
   <tile/>
   <tile/>
   <tile/>
   <tile/>
   <tile/>
   <tile/>
   <tile/>
   <tile/>
   <tile/>
   <tile/>
   <tile/>
   <tile/>
   <tile/>
   <tile/>
   <tile/>
   <tile/>
   <tile/>
   <tile gid="2684354571"/>
   <tile/>
   <tile/>
   <tile/>
   <tile/>
   <tile/>
   <tile/>
   <tile/>
   <tile/>
   <tile/>
   <tile/>
   <tile/>
   <tile/>
   <tile/>
   <tile/>
   <tile/>
   <tile/>
   <tile/>
   <tile/>
   <tile/>
   <tile/>
   <tile/>
   <tile/>
   <tile/>
   <tile/>
   <tile/>
   <tile/>
   <tile/>
   <tile/>
   <tile/>
   <tile/>
   <tile/>
   <tile/>
   <tile/>
   <tile/>
   <tile/>
   <tile/>
   <tile/>
   <tile/>
   <tile/>
   <tile/>
   <tile/>
   <tile/>
   <tile/>
   <tile/>
   <tile/>
   <tile/>
   <tile/>
   <tile/>
   <tile/>
   <tile/>
   <tile/>
   <tile/>
   <tile/>
   <tile/>
   <tile/>
   <tile/>
   <tile/>
   <tile/>
   <tile/>
   <tile/>
   <tile/>
   <tile/>
   <tile/>
   <tile/>
   <tile/>
   <tile/>
   <tile/>
   <tile/>
   <tile/>
   <tile/>
   <tile/>
   <tile/>
   <tile/>
   <tile/>
   <tile/>
   <tile/>
   <tile gid="2684354570"/>
   <tile/>
   <tile/>
   <tile/>
   <tile/>
   <tile/>
   <tile/>
   <tile/>
   <tile/>
   <tile/>
   <tile/>
   <tile/>
   <tile/>
   <tile/>
   <tile/>
   <tile/>
   <tile/>
   <tile/>
   <tile/>
   <tile/>
   <tile/>
   <tile/>
   <tile/>
   <tile/>
   <tile/>
   <tile/>
   <tile/>
   <tile/>
   <tile/>
   <tile/>
   <tile/>
   <tile/>
   <tile/>
   <tile/>
   <tile/>
   <tile/>
   <tile/>
   <tile/>
   <tile/>
   <tile/>
   <tile/>
   <tile/>
   <tile/>
   <tile/>
   <tile/>
   <tile/>
   <tile/>
   <tile/>
   <tile/>
   <tile/>
   <tile/>
   <tile/>
   <tile/>
   <tile/>
   <tile/>
   <tile/>
   <tile/>
   <tile/>
   <tile/>
   <tile/>
   <tile/>
   <tile/>
   <tile/>
   <tile/>
   <tile/>
   <tile/>
   <tile/>
   <tile/>
   <tile/>
   <tile/>
   <tile/>
   <tile/>
   <tile/>
   <tile/>
   <tile/>
   <tile/>
   <tile/>
   <tile/>
   <tile/>
   <tile/>
   <tile/>
   <tile/>
   <tile/>
   <tile/>
   <tile/>
   <tile/>
   <tile/>
   <tile/>
   <tile/>
   <tile/>
   <tile gid="2684354571"/>
   <tile/>
   <tile/>
   <tile/>
   <tile/>
   <tile/>
   <tile/>
   <tile/>
   <tile/>
   <tile/>
   <tile/>
   <tile/>
   <tile/>
   <tile/>
   <tile/>
   <tile/>
   <tile/>
   <tile/>
   <tile/>
   <tile/>
   <tile/>
   <tile/>
   <tile/>
   <tile/>
   <tile/>
   <tile/>
   <tile/>
   <tile/>
   <tile/>
   <tile/>
   <tile/>
   <tile/>
   <tile/>
   <tile/>
   <tile/>
   <tile/>
   <tile/>
   <tile/>
   <tile/>
   <tile/>
   <tile/>
   <tile/>
   <tile/>
   <tile/>
   <tile/>
   <tile/>
   <tile/>
   <tile/>
   <tile/>
   <tile/>
   <tile/>
   <tile/>
   <tile/>
   <tile/>
   <tile/>
   <tile/>
   <tile/>
   <tile/>
   <tile/>
   <tile/>
   <tile/>
   <tile/>
   <tile/>
   <tile/>
   <tile/>
   <tile/>
   <tile/>
   <tile/>
   <tile/>
   <tile/>
   <tile/>
   <tile/>
   <tile/>
   <tile/>
   <tile/>
   <tile/>
   <tile/>
   <tile/>
   <tile/>
   <tile/>
   <tile/>
   <tile/>
   <tile/>
   <tile/>
   <tile/>
   <tile/>
   <tile/>
   <tile/>
   <tile/>
   <tile/>
   <tile/>
   <tile/>
   <tile/>
   <tile/>
   <tile/>
   <tile/>
   <tile/>
   <tile/>
   <tile/>
   <tile/>
   <tile/>
   <tile/>
   <tile/>
   <tile/>
   <tile/>
   <tile/>
   <tile/>
   <tile/>
   <tile/>
   <tile/>
   <tile/>
   <tile/>
   <tile/>
   <tile/>
   <tile/>
   <tile/>
   <tile/>
   <tile/>
   <tile/>
   <tile/>
   <tile/>
   <tile/>
   <tile/>
   <tile/>
   <tile/>
   <tile/>
   <tile/>
   <tile/>
   <tile/>
   <tile/>
   <tile/>
   <tile/>
   <tile/>
   <tile/>
   <tile/>
   <tile/>
   <tile/>
   <tile/>
   <tile/>
   <tile/>
   <tile/>
   <tile/>
   <tile/>
   <tile/>
   <tile/>
   <tile/>
   <tile/>
   <tile/>
   <tile/>
   <tile/>
   <tile/>
   <tile/>
   <tile/>
   <tile/>
   <tile/>
   <tile/>
   <tile/>
   <tile/>
   <tile/>
   <tile/>
   <tile/>
   <tile/>
   <tile/>
   <tile/>
   <tile/>
   <tile/>
   <tile/>
   <tile/>
   <tile/>
   <tile/>
   <tile/>
   <tile/>
   <tile/>
   <tile/>
   <tile/>
   <tile/>
   <tile/>
   <tile/>
   <tile/>
   <tile/>
   <tile/>
   <tile/>
   <tile/>
   <tile/>
   <tile/>
   <tile/>
   <tile/>
   <tile/>
   <tile/>
   <tile/>
   <tile/>
   <tile/>
   <tile/>
   <tile/>
   <tile/>
   <tile/>
   <tile/>
   <tile/>
   <tile/>
   <tile/>
   <tile/>
   <tile/>
   <tile/>
   <tile/>
   <tile/>
   <tile/>
   <tile/>
   <tile/>
   <tile/>
   <tile/>
   <tile/>
   <tile/>
   <tile/>
   <tile/>
   <tile/>
   <tile/>
   <tile/>
   <tile/>
   <tile/>
   <tile/>
   <tile/>
   <tile/>
   <tile/>
   <tile/>
   <tile/>
   <tile/>
   <tile/>
   <tile/>
   <tile/>
   <tile/>
   <tile/>
   <tile/>
   <tile/>
   <tile/>
   <tile/>
   <tile/>
   <tile/>
   <tile/>
   <tile/>
   <tile/>
   <tile/>
   <tile/>
   <tile/>
   <tile/>
   <tile/>
   <tile/>
   <tile/>
   <tile/>
   <tile/>
   <tile/>
   <tile/>
   <tile/>
   <tile/>
   <tile/>
   <tile/>
   <tile/>
   <tile/>
   <tile/>
   <tile/>
   <tile/>
   <tile/>
   <tile/>
   <tile/>
   <tile/>
   <tile/>
   <tile/>
   <tile/>
   <tile/>
   <tile/>
   <tile/>
   <tile/>
   <tile/>
   <tile/>
   <tile/>
   <tile/>
   <tile/>
   <tile/>
   <tile/>
   <tile/>
   <tile/>
   <tile/>
   <tile/>
   <tile/>
   <tile/>
   <tile/>
   <tile/>
   <tile/>
   <tile/>
   <tile/>
   <tile/>
   <tile/>
   <tile/>
   <tile/>
   <tile/>
   <tile/>
   <tile/>
   <tile/>
   <tile/>
   <tile/>
   <tile/>
   <tile/>
   <tile/>
   <tile/>
   <tile/>
   <tile/>
   <tile/>
   <tile gid="73"/>
   <tile gid="74"/>
   <tile gid="74"/>
   <tile gid="75"/>
   <tile/>
   <tile/>
   <tile/>
   <tile/>
   <tile/>
   <tile/>
   <tile/>
   <tile/>
   <tile/>
   <tile/>
   <tile/>
   <tile/>
   <tile/>
   <tile/>
   <tile/>
   <tile/>
   <tile/>
   <tile/>
   <tile/>
   <tile/>
   <tile/>
   <tile/>
   <tile/>
   <tile/>
   <tile/>
   <tile/>
   <tile/>
   <tile/>
   <tile/>
   <tile/>
   <tile/>
   <tile/>
   <tile/>
   <tile/>
   <tile/>
   <tile/>
   <tile/>
   <tile/>
   <tile/>
   <tile/>
   <tile/>
   <tile/>
   <tile/>
   <tile/>
   <tile gid="10"/>
   <tile gid="10"/>
   <tile gid="10"/>
   <tile gid="10"/>
   <tile gid="10"/>
   <tile gid="10"/>
   <tile gid="10"/>
   <tile gid="10"/>
   <tile gid="11"/>
   <tile/>
   <tile/>
   <tile/>
   <tile/>
   <tile/>
   <tile gid="73"/>
   <tile gid="74"/>
   <tile gid="74"/>
   <tile gid="74"/>
   <tile gid="74"/>
   <tile gid="74"/>
   <tile gid="74"/>
   <tile gid="74"/>
   <tile gid="74"/>
   <tile gid="74"/>
   <tile gid="74"/>
   <tile gid="74"/>
   <tile gid="74"/>
   <tile gid="74"/>
   <tile gid="75"/>
   <tile/>
   <tile/>
   <tile/>
   <tile/>
   <tile/>
   <tile/>
   <tile/>
   <tile/>
   <tile/>
   <tile/>
   <tile/>
   <tile/>
   <tile/>
   <tile/>
   <tile/>
   <tile/>
   <tile/>
   <tile/>
   <tile/>
   <tile/>
   <tile/>
   <tile/>
   <tile/>
   <tile/>
   <tile/>
   <tile/>
   <tile/>
   <tile/>
   <tile/>
   <tile/>
   <tile/>
   <tile/>
   <tile/>
   <tile/>
   <tile/>
   <tile/>
   <tile/>
   <tile/>
   <tile/>
   <tile/>
   <tile/>
   <tile/>
   <tile/>
   <tile/>
   <tile/>
   <tile/>
   <tile/>
   <tile/>
   <tile/>
   <tile/>
   <tile/>
   <tile/>
   <tile/>
   <tile/>
   <tile/>
   <tile/>
   <tile gid="9"/>
   <tile gid="10"/>
   <tile gid="10"/>
   <tile/>
   <tile/>
   <tile/>
   <tile/>
   <tile/>
   <tile/>
   <tile/>
   <tile/>
   <tile/>
   <tile/>
   <tile/>
   <tile/>
   <tile/>
   <tile/>
   <tile/>
   <tile/>
   <tile/>
   <tile/>
   <tile/>
   <tile/>
   <tile/>
   <tile/>
   <tile/>
   <tile/>
   <tile/>
   <tile/>
   <tile/>
   <tile/>
   <tile/>
   <tile/>
   <tile/>
   <tile gid="74"/>
   <tile gid="74"/>
   <tile gid="74"/>
   <tile gid="74"/>
   <tile gid="74"/>
   <tile gid="74"/>
   <tile gid="74"/>
   <tile gid="75"/>
   <tile/>
   <tile/>
   <tile/>
   <tile/>
   <tile/>
   <tile/>
   <tile/>
   <tile/>
   <tile/>
   <tile/>
   <tile/>
   <tile/>
   <tile/>
   <tile/>
   <tile/>
   <tile/>
   <tile/>
   <tile/>
   <tile/>
   <tile/>
   <tile/>
   <tile/>
   <tile/>
   <tile/>
   <tile/>
   <tile/>
   <tile/>
   <tile/>
   <tile/>
   <tile/>
   <tile/>
   <tile/>
   <tile/>
   <tile/>
   <tile/>
   <tile/>
   <tile/>
   <tile/>
   <tile/>
   <tile/>
   <tile/>
   <tile/>
   <tile/>
   <tile/>
   <tile gid="9"/>
   <tile gid="10"/>
   <tile gid="10"/>
   <tile gid="10"/>
   <tile/>
   <tile/>
   <tile/>
   <tile/>
   <tile/>
   <tile/>
   <tile/>
   <tile/>
   <tile/>
   <tile/>
   <tile/>
   <tile/>
   <tile/>
   <tile/>
   <tile/>
   <tile/>
   <tile/>
   <tile/>
   <tile/>
   <tile gid="1073741897"/>
   <tile gid="1073741898"/>
   <tile/>
   <tile/>
   <tile/>
   <tile/>
   <tile/>
   <tile/>
   <tile/>
   <tile/>
   <tile/>
   <tile/>
   <tile/>
   <tile/>
   <tile/>
   <tile/>
   <tile/>
   <tile/>
   <tile/>
   <tile/>
   <tile/>
   <tile/>
   <tile/>
   <tile gid="74"/>
   <tile gid="74"/>
   <tile gid="74"/>
   <tile gid="74"/>
   <tile gid="74"/>
   <tile/>
   <tile/>
   <tile/>
   <tile/>
   <tile gid="74"/>
   <tile gid="74"/>
   <tile gid="74"/>
   <tile gid="74"/>
   <tile gid="75"/>
   <tile/>
   <tile/>
   <tile/>
   <tile/>
   <tile/>
   <tile/>
   <tile/>
   <tile/>
   <tile/>
   <tile/>
   <tile/>
   <tile/>
   <tile/>
   <tile/>
   <tile/>
   <tile/>
   <tile/>
   <tile/>
   <tile/>
   <tile/>
   <tile/>
   <tile/>
   <tile/>
   <tile/>
   <tile/>
   <tile/>
   <tile/>
   <tile/>
   <tile gid="9"/>
   <tile gid="10"/>
   <tile/>
   <tile/>
   <tile/>
   <tile/>
   <tile/>
   <tile/>
   <tile/>
   <tile/>
   <tile/>
   <tile/>
   <tile/>
   <tile/>
   <tile/>
   <tile/>
   <tile/>
   <tile/>
   <tile/>
   <tile/>
   <tile/>
   <tile/>
   <tile/>
   <tile/>
   <tile/>
   <tile/>
   <tile/>
   <tile/>
   <tile/>
   <tile/>
   <tile/>
   <tile/>
   <tile/>
   <tile/>
   <tile/>
   <tile/>
   <tile/>
   <tile/>
   <tile/>
   <tile gid="1073741897"/>
   <tile gid="1073741898"/>
   <tile gid="1073741898"/>
   <tile gid="1073741898"/>
   <tile gid="1073741898"/>
   <tile gid="1073741898"/>
   <tile/>
   <tile/>
   <tile/>
   <tile/>
   <tile/>
   <tile/>
   <tile/>
   <tile/>
   <tile/>
   <tile/>
   <tile/>
   <tile/>
   <tile/>
   <tile/>
   <tile/>
   <tile/>
   <tile/>
   <tile gid="75"/>
   <tile/>
   <tile/>
   <tile/>
   <tile gid="73"/>
   <tile gid="74"/>
   <tile gid="74"/>
   <tile gid="74"/>
   <tile gid="74"/>
   <tile gid="75"/>
   <tile/>
   <tile/>
   <tile/>
   <tile/>
   <tile/>
   <tile/>
   <tile/>
   <tile/>
   <tile/>
   <tile/>
   <tile/>
   <tile/>
   <tile/>
   <tile/>
   <tile/>
   <tile/>
   <tile gid="9"/>
   <tile gid="10"/>
   <tile/>
   <tile/>
   <tile/>
   <tile/>
   <tile/>
   <tile/>
   <tile/>
   <tile/>
   <tile/>
   <tile/>
   <tile/>
   <tile/>
   <tile/>
   <tile/>
   <tile/>
   <tile/>
   <tile/>
   <tile/>
   <tile/>
   <tile/>
   <tile/>
   <tile/>
   <tile/>
   <tile/>
   <tile/>
   <tile/>
   <tile/>
   <tile/>
   <tile/>
   <tile/>
   <tile/>
   <tile/>
   <tile/>
   <tile/>
   <tile/>
   <tile/>
   <tile/>
   <tile/>
   <tile/>
   <tile/>
   <tile/>
   <tile/>
   <tile/>
   <tile/>
   <tile/>
   <tile/>
   <tile/>
   <tile/>
   <tile/>
   <tile/>
   <tile/>
   <tile/>
   <tile/>
   <tile/>
   <tile/>
   <tile/>
   <tile/>
   <tile/>
   <tile/>
   <tile/>
   <tile/>
   <tile/>
   <tile/>
   <tile/>
   <tile/>
   <tile/>
   <tile/>
   <tile/>
   <tile/>
   <tile/>
   <tile/>
   <tile/>
   <tile/>
   <tile/>
   <tile/>
   <tile/>
   <tile/>
   <tile/>
   <tile/>
   <tile/>
   <tile/>
   <tile gid="10"/>
   <tile gid="10"/>
   <tile gid="10"/>
   <tile gid="10"/>
   <tile gid="10"/>
   <tile gid="10"/>
   <tile gid="10"/>
   <tile/>
   <tile/>
   <tile/>
   <tile gid="1073741835"/>
   <tile/>
   <tile/>
   <tile/>
   <tile/>
   <tile/>
   <tile/>
   <tile/>
   <tile/>
   <tile/>
   <tile/>
   <tile/>
   <tile/>
   <tile/>
   <tile/>
   <tile/>
   <tile/>
   <tile/>
   <tile/>
   <tile/>
   <tile/>
   <tile/>
   <tile/>
   <tile/>
   <tile/>
   <tile/>
   <tile/>
   <tile/>
   <tile/>
   <tile/>
   <tile/>
   <tile/>
   <tile/>
   <tile/>
   <tile/>
   <tile/>
   <tile/>
   <tile/>
   <tile/>
   <tile/>
   <tile/>
   <tile/>
   <tile/>
   <tile/>
   <tile/>
   <tile/>
   <tile/>
   <tile/>
   <tile/>
   <tile/>
   <tile/>
   <tile/>
   <tile/>
   <tile/>
   <tile/>
   <tile/>
   <tile/>
   <tile/>
   <tile/>
   <tile/>
   <tile/>
   <tile/>
   <tile/>
   <tile/>
   <tile/>
   <tile gid="1073741897"/>
   <tile/>
   <tile/>
   <tile/>
   <tile/>
   <tile gid="1073741899"/>
   <tile/>
   <tile/>
   <tile/>
   <tile/>
   <tile/>
   <tile/>
   <tile/>
   <tile/>
   <tile/>
   <tile/>
   <tile/>
   <tile/>
   <tile/>
   <tile/>
   <tile/>
   <tile/>
   <tile/>
   <tile/>
   <tile/>
   <tile/>
   <tile/>
   <tile/>
   <tile/>
   <tile/>
   <tile/>
   <tile/>
   <tile/>
   <tile/>
   <tile/>
   <tile/>
   <tile/>
   <tile/>
   <tile/>
   <tile/>
   <tile/>
   <tile/>
   <tile/>
   <tile/>
   <tile/>
   <tile/>
   <tile/>
   <tile/>
   <tile/>
   <tile/>
   <tile/>
   <tile/>
   <tile/>
   <tile/>
   <tile/>
   <tile/>
   <tile/>
   <tile/>
   <tile/>
   <tile/>
   <tile/>
   <tile/>
   <tile/>
   <tile/>
   <tile/>
   <tile/>
   <tile/>
   <tile/>
   <tile/>
   <tile/>
   <tile/>
   <tile/>
   <tile/>
   <tile/>
   <tile/>
   <tile/>
   <tile/>
   <tile/>
   <tile/>
   <tile/>
   <tile/>
   <tile/>
   <tile/>
   <tile/>
   <tile/>
   <tile/>
   <tile/>
   <tile/>
   <tile/>
   <tile/>
   <tile/>
   <tile/>
   <tile/>
   <tile/>
   <tile/>
   <tile/>
   <tile/>
   <tile/>
   <tile/>
   <tile/>
   <tile/>
   <tile/>
   <tile/>
   <tile/>
   <tile/>
   <tile/>
   <tile/>
   <tile/>
   <tile/>
   <tile/>
   <tile/>
   <tile/>
   <tile/>
   <tile/>
   <tile/>
   <tile/>
   <tile/>
   <tile/>
   <tile/>
   <tile/>
   <tile/>
   <tile/>
   <tile/>
   <tile/>
   <tile/>
   <tile/>
   <tile/>
   <tile/>
   <tile/>
   <tile/>
   <tile/>
   <tile/>
   <tile/>
   <tile/>
   <tile/>
   <tile/>
   <tile/>
   <tile/>
   <tile/>
   <tile/>
   <tile/>
   <tile/>
   <tile/>
   <tile/>
   <tile/>
   <tile/>
   <tile/>
   <tile/>
   <tile/>
   <tile/>
   <tile/>
   <tile/>
   <tile/>
   <tile/>
   <tile/>
   <tile/>
   <tile/>
   <tile/>
   <tile/>
   <tile/>
   <tile/>
   <tile/>
   <tile/>
   <tile/>
   <tile/>
   <tile/>
   <tile/>
   <tile/>
   <tile/>
   <tile/>
   <tile/>
   <tile/>
   <tile/>
   <tile/>
   <tile/>
   <tile/>
   <tile/>
   <tile/>
   <tile/>
   <tile/>
   <tile/>
   <tile/>
   <tile/>
   <tile/>
   <tile/>
   <tile/>
   <tile/>
   <tile/>
   <tile/>
   <tile/>
   <tile/>
   <tile/>
   <tile/>
   <tile/>
   <tile/>
   <tile/>
   <tile/>
   <tile/>
   <tile/>
   <tile/>
   <tile/>
   <tile/>
   <tile/>
   <tile/>
   <tile/>
   <tile/>
   <tile/>
   <tile/>
   <tile/>
   <tile/>
   <tile/>
   <tile/>
   <tile/>
   <tile/>
   <tile/>
   <tile/>
   <tile/>
   <tile/>
   <tile/>
   <tile/>
   <tile/>
   <tile/>
   <tile/>
   <tile/>
   <tile/>
   <tile/>
   <tile/>
   <tile/>
   <tile/>
   <tile/>
   <tile/>
   <tile/>
   <tile/>
   <tile/>
   <tile/>
   <tile/>
   <tile/>
   <tile/>
   <tile/>
   <tile/>
   <tile/>
   <tile/>
   <tile/>
   <tile/>
   <tile/>
   <tile/>
   <tile/>
   <tile/>
   <tile/>
   <tile/>
   <tile/>
   <tile/>
   <tile/>
   <tile/>
   <tile/>
   <tile/>
   <tile/>
   <tile/>
   <tile/>
   <tile/>
   <tile/>
   <tile/>
   <tile/>
   <tile/>
   <tile/>
   <tile/>
   <tile/>
   <tile/>
   <tile/>
   <tile/>
   <tile/>
   <tile/>
   <tile/>
   <tile/>
   <tile/>
   <tile/>
   <tile/>
   <tile/>
   <tile/>
   <tile/>
   <tile/>
   <tile/>
   <tile/>
   <tile/>
   <tile/>
   <tile/>
   <tile/>
   <tile/>
   <tile/>
   <tile/>
   <tile/>
   <tile/>
   <tile/>
   <tile/>
   <tile/>
   <tile/>
   <tile/>
   <tile/>
   <tile/>
   <tile/>
   <tile/>
   <tile/>
   <tile/>
   <tile/>
   <tile/>
   <tile/>
   <tile/>
   <tile/>
   <tile/>
   <tile/>
   <tile/>
   <tile/>
   <tile/>
   <tile/>
   <tile/>
   <tile/>
   <tile/>
   <tile/>
   <tile/>
   <tile/>
   <tile/>
   <tile/>
   <tile/>
   <tile gid="73"/>
   <tile gid="74"/>
   <tile gid="74"/>
   <tile gid="74"/>
   <tile gid="74"/>
   <tile gid="74"/>
   <tile gid="74"/>
   <tile gid="74"/>
   <tile gid="74"/>
   <tile gid="74"/>
   <tile gid="74"/>
   <tile gid="74"/>
   <tile gid="74"/>
   <tile gid="74"/>
   <tile gid="74"/>
   <tile gid="74"/>
   <tile gid="74"/>
   <tile gid="74"/>
   <tile gid="74"/>
   <tile gid="74"/>
   <tile gid="74"/>
   <tile gid="74"/>
   <tile gid="74"/>
   <tile gid="74"/>
   <tile gid="74"/>
   <tile gid="74"/>
   <tile gid="74"/>
   <tile gid="74"/>
   <tile gid="74"/>
   <tile gid="74"/>
   <tile gid="74"/>
   <tile gid="74"/>
   <tile gid="74"/>
   <tile gid="75"/>
   <tile/>
   <tile/>
   <tile/>
   <tile/>
   <tile/>
   <tile/>
   <tile/>
   <tile/>
   <tile/>
   <tile/>
   <tile/>
   <tile/>
   <tile/>
   <tile/>
   <tile/>
   <tile/>
   <tile/>
   <tile/>
   <tile/>
   <tile/>
   <tile/>
   <tile/>
   <tile/>
   <tile/>
   <tile/>
   <tile/>
   <tile/>
   <tile/>
   <tile/>
   <tile/>
   <tile/>
   <tile/>
   <tile/>
   <tile/>
   <tile/>
   <tile/>
   <tile/>
   <tile/>
   <tile/>
   <tile/>
   <tile/>
   <tile/>
   <tile/>
   <tile/>
   <tile/>
   <tile gid="1610612745"/>
   <tile/>
   <tile/>
   <tile/>
   <tile/>
   <tile/>
   <tile/>
   <tile/>
   <tile/>
   <tile/>
   <tile/>
   <tile/>
   <tile/>
   <tile/>
   <tile/>
   <tile/>
   <tile/>
   <tile/>
   <tile/>
   <tile/>
   <tile/>
   <tile/>
   <tile/>
   <tile/>
   <tile/>
   <tile/>
   <tile/>
   <tile/>
   <tile/>
   <tile/>
   <tile/>
   <tile/>
   <tile/>
   <tile/>
   <tile/>
   <tile/>
   <tile/>
   <tile/>
   <tile/>
   <tile/>
   <tile/>
   <tile/>
   <tile/>
   <tile/>
   <tile/>
   <tile/>
   <tile/>
   <tile/>
   <tile/>
   <tile/>
   <tile/>
   <tile/>
   <tile/>
   <tile/>
   <tile/>
   <tile/>
   <tile/>
   <tile/>
   <tile/>
   <tile/>
   <tile/>
   <tile/>
   <tile/>
   <tile/>
   <tile/>
   <tile/>
   <tile/>
   <tile/>
   <tile/>
   <tile/>
   <tile/>
   <tile/>
   <tile/>
   <tile/>
   <tile/>
   <tile/>
   <tile/>
   <tile/>
   <tile/>
   <tile/>
   <tile/>
   <tile/>
   <tile/>
   <tile/>
   <tile/>
   <tile/>
   <tile/>
   <tile/>
   <tile/>
   <tile/>
   <tile/>
   <tile/>
   <tile/>
   <tile/>
   <tile/>
   <tile/>
   <tile/>
   <tile/>
   <tile/>
   <tile/>
   <tile/>
   <tile/>
   <tile/>
   <tile/>
   <tile/>
   <tile/>
   <tile/>
   <tile/>
   <tile/>
   <tile/>
   <tile/>
   <tile/>
   <tile/>
   <tile/>
   <tile/>
   <tile/>
   <tile/>
   <tile/>
   <tile/>
   <tile/>
   <tile/>
   <tile/>
   <tile/>
   <tile/>
   <tile/>
   <tile/>
   <tile/>
   <tile/>
   <tile/>
   <tile/>
   <tile/>
   <tile/>
   <tile/>
   <tile/>
   <tile gid="1073741899"/>
   <tile/>
   <tile/>
   <tile/>
   <tile/>
   <tile/>
   <tile/>
   <tile/>
   <tile/>
   <tile/>
   <tile/>
   <tile/>
   <tile/>
   <tile/>
   <tile/>
   <tile/>
   <tile/>
   <tile/>
   <tile gid="9"/>
   <tile gid="10"/>
   <tile gid="10"/>
   <tile gid="10"/>
   <tile gid="10"/>
   <tile gid="10"/>
   <tile gid="10"/>
   <tile gid="10"/>
   <tile gid="10"/>
   <tile gid="10"/>
   <tile gid="10"/>
   <tile gid="10"/>
   <tile gid="10"/>
   <tile gid="10"/>
   <tile gid="10"/>
   <tile gid="10"/>
   <tile gid="10"/>
   <tile gid="10"/>
   <tile/>
   <tile/>
   <tile/>
   <tile/>
   <tile/>
   <tile/>
   <tile/>
   <tile/>
   <tile/>
   <tile/>
   <tile/>
   <tile/>
   <tile/>
   <tile/>
   <tile/>
   <tile/>
   <tile/>
   <tile/>
   <tile/>
   <tile/>
   <tile/>
   <tile/>
   <tile/>
   <tile/>
   <tile/>
   <tile/>
   <tile/>
   <tile/>
   <tile/>
   <tile/>
   <tile/>
   <tile/>
   <tile/>
   <tile/>
   <tile/>
   <tile/>
   <tile/>
   <tile/>
   <tile/>
   <tile/>
   <tile/>
   <tile/>
   <tile/>
   <tile/>
   <tile/>
   <tile/>
   <tile/>
   <tile/>
   <tile/>
   <tile/>
   <tile/>
   <tile/>
   <tile/>
   <tile/>
   <tile/>
   <tile/>
   <tile/>
   <tile/>
   <tile/>
   <tile/>
   <tile/>
   <tile/>
   <tile/>
   <tile/>
   <tile/>
   <tile/>
   <tile/>
   <tile/>
   <tile/>
   <tile/>
   <tile/>
   <tile/>
   <tile/>
   <tile/>
   <tile/>
   <tile/>
   <tile/>
   <tile/>
   <tile/>
   <tile/>
   <tile/>
   <tile/>
   <tile/>
   <tile/>
   <tile/>
   <tile/>
   <tile/>
   <tile/>
   <tile/>
   <tile/>
   <tile/>
   <tile/>
   <tile/>
   <tile/>
   <tile/>
   <tile/>
   <tile/>
   <tile/>
   <tile/>
   <tile/>
   <tile/>
   <tile/>
   <tile/>
   <tile/>
   <tile/>
   <tile/>
   <tile/>
   <tile/>
   <tile/>
   <tile/>
   <tile/>
   <tile/>
   <tile gid="2684354634"/>
   <tile/>
   <tile/>
   <tile/>
   <tile/>
   <tile/>
   <tile/>
   <tile/>
   <tile/>
   <tile/>
   <tile/>
   <tile/>
   <tile/>
   <tile/>
   <tile/>
   <tile/>
   <tile/>
   <tile/>
   <tile/>
   <tile/>
   <tile/>
   <tile/>
   <tile/>
   <tile/>
   <tile/>
   <tile/>
   <tile/>
   <tile/>
   <tile/>
   <tile/>
   <tile/>
   <tile/>
   <tile/>
   <tile/>
   <tile/>
   <tile/>
   <tile/>
   <tile/>
   <tile/>
   <tile/>
   <tile/>
   <tile/>
   <tile/>
   <tile/>
   <tile/>
   <tile/>
   <tile/>
   <tile/>
   <tile/>
   <tile/>
   <tile/>
   <tile/>
   <tile/>
   <tile/>
   <tile/>
   <tile/>
   <tile/>
   <tile/>
   <tile/>
   <tile/>
   <tile/>
   <tile/>
   <tile/>
   <tile/>
   <tile/>
   <tile/>
   <tile/>
   <tile/>
   <tile/>
   <tile/>
   <tile/>
   <tile/>
   <tile/>
   <tile/>
   <tile/>
   <tile/>
   <tile/>
   <tile/>
   <tile/>
   <tile/>
   <tile/>
   <tile/>
   <tile/>
   <tile/>
   <tile/>
   <tile/>
   <tile/>
   <tile/>
   <tile/>
   <tile/>
   <tile gid="2684354634"/>
   <tile/>
   <tile/>
   <tile/>
   <tile/>
   <tile/>
   <tile/>
   <tile/>
   <tile/>
   <tile/>
   <tile/>
   <tile/>
   <tile/>
   <tile/>
   <tile/>
   <tile/>
   <tile/>
   <tile/>
   <tile/>
   <tile/>
   <tile/>
   <tile/>
   <tile/>
   <tile/>
   <tile/>
   <tile/>
   <tile/>
   <tile/>
   <tile/>
   <tile/>
   <tile/>
   <tile/>
   <tile/>
   <tile/>
   <tile/>
   <tile/>
   <tile/>
   <tile/>
   <tile/>
   <tile/>
   <tile/>
   <tile/>
   <tile/>
   <tile/>
   <tile/>
   <tile/>
   <tile/>
   <tile/>
   <tile/>
   <tile/>
   <tile/>
   <tile/>
   <tile/>
   <tile/>
   <tile/>
   <tile/>
   <tile/>
   <tile/>
   <tile/>
   <tile/>
   <tile/>
   <tile/>
   <tile/>
   <tile/>
   <tile/>
   <tile/>
   <tile/>
   <tile/>
   <tile/>
   <tile/>
   <tile/>
   <tile/>
   <tile/>
   <tile/>
   <tile/>
   <tile/>
   <tile/>
   <tile/>
   <tile/>
   <tile/>
   <tile/>
   <tile/>
   <tile/>
   <tile/>
   <tile/>
   <tile/>
   <tile/>
   <tile/>
   <tile/>
   <tile/>
   <tile gid="2684354634"/>
   <tile/>
   <tile/>
   <tile/>
   <tile/>
   <tile/>
   <tile/>
   <tile/>
   <tile/>
   <tile/>
   <tile/>
   <tile/>
   <tile/>
   <tile/>
   <tile/>
   <tile/>
   <tile/>
   <tile/>
   <tile/>
   <tile/>
   <tile/>
   <tile/>
   <tile/>
   <tile/>
   <tile/>
   <tile/>
   <tile/>
   <tile/>
   <tile/>
   <tile/>
   <tile/>
   <tile/>
   <tile/>
   <tile/>
   <tile/>
   <tile/>
   <tile/>
   <tile/>
   <tile/>
   <tile/>
   <tile/>
   <tile/>
   <tile/>
   <tile/>
   <tile/>
   <tile/>
   <tile/>
   <tile/>
   <tile/>
   <tile/>
   <tile/>
   <tile/>
   <tile/>
   <tile/>
   <tile/>
   <tile/>
   <tile/>
   <tile/>
   <tile/>
   <tile/>
   <tile/>
   <tile/>
   <tile/>
   <tile/>
   <tile/>
   <tile/>
   <tile/>
   <tile/>
   <tile/>
   <tile/>
   <tile/>
   <tile/>
   <tile/>
   <tile/>
   <tile/>
   <tile/>
   <tile/>
   <tile/>
   <tile/>
   <tile/>
   <tile/>
   <tile/>
   <tile/>
   <tile/>
   <tile/>
   <tile/>
   <tile/>
   <tile/>
   <tile/>
   <tile/>
   <tile gid="2684354634"/>
   <tile/>
   <tile/>
   <tile/>
   <tile/>
   <tile gid="1610612809"/>
   <tile/>
   <tile/>
   <tile/>
   <tile/>
   <tile/>
   <tile/>
   <tile/>
   <tile/>
   <tile/>
   <tile/>
   <tile/>
   <tile/>
   <tile/>
   <tile/>
   <tile/>
   <tile/>
   <tile/>
   <tile/>
   <tile/>
   <tile/>
   <tile/>
   <tile/>
   <tile/>
   <tile/>
   <tile/>
   <tile/>
   <tile/>
   <tile/>
   <tile/>
   <tile/>
   <tile/>
   <tile/>
   <tile/>
   <tile/>
   <tile/>
   <tile/>
   <tile/>
   <tile/>
   <tile/>
   <tile/>
   <tile/>
   <tile/>
   <tile/>
   <tile/>
   <tile/>
   <tile/>
   <tile/>
   <tile/>
   <tile/>
   <tile/>
   <tile/>
   <tile/>
   <tile/>
   <tile/>
   <tile/>
   <tile/>
   <tile/>
   <tile/>
   <tile/>
   <tile/>
   <tile/>
   <tile/>
   <tile/>
   <tile/>
   <tile/>
   <tile/>
   <tile/>
   <tile/>
   <tile/>
   <tile/>
   <tile/>
   <tile/>
   <tile/>
   <tile/>
   <tile/>
   <tile/>
   <tile/>
   <tile/>
   <tile/>
   <tile/>
   <tile/>
   <tile/>
   <tile/>
   <tile/>
   <tile gid="2684354634"/>
   <tile/>
   <tile/>
   <tile/>
   <tile/>
   <tile/>
   <tile/>
   <tile/>
   <tile/>
   <tile/>
   <tile/>
   <tile/>
   <tile/>
   <tile/>
   <tile/>
   <tile gid="1610612809"/>
   <tile/>
   <tile/>
   <tile/>
   <tile/>
   <tile/>
   <tile/>
   <tile/>
   <tile/>
   <tile/>
   <tile/>
   <tile/>
   <tile/>
   <tile/>
   <tile/>
   <tile/>
   <tile/>
   <tile/>
   <tile/>
   <tile/>
   <tile/>
   <tile/>
   <tile gid="9"/>
   <tile gid="10"/>
   <tile gid="10"/>
   <tile gid="10"/>
   <tile gid="10"/>
   <tile gid="10"/>
   <tile gid="10"/>
   <tile gid="10"/>
   <tile gid="10"/>
   <tile gid="10"/>
   <tile gid="10"/>
   <tile gid="10"/>
   <tile gid="10"/>
   <tile/>
   <tile/>
   <tile/>
   <tile/>
   <tile/>
   <tile/>
   <tile/>
   <tile/>
   <tile/>
   <tile/>
   <tile/>
   <tile/>
   <tile/>
   <tile/>
   <tile/>
   <tile/>
   <tile/>
   <tile/>
   <tile/>
   <tile/>
   <tile/>
   <tile/>
   <tile/>
   <tile/>
   <tile/>
   <tile/>
   <tile/>
   <tile/>
   <tile/>
   <tile/>
   <tile/>
   <tile/>
   <tile/>
   <tile/>
   <tile/>
   <tile/>
   <tile/>
   <tile/>
   <tile/>
   <tile/>
   <tile gid="2684354634"/>
   <tile/>
   <tile/>
   <tile/>
   <tile/>
   <tile/>
   <tile/>
   <tile/>
   <tile/>
   <tile/>
   <tile/>
   <tile/>
   <tile/>
   <tile/>
   <tile/>
   <tile/>
   <tile/>
   <tile/>
   <tile/>
   <tile/>
   <tile/>
   <tile/>
   <tile/>
   <tile/>
   <tile/>
   <tile/>
   <tile/>
   <tile/>
   <tile/>
   <tile/>
   <tile/>
   <tile/>
   <tile/>
   <tile/>
   <tile/>
   <tile/>
   <tile/>
   <tile/>
   <tile/>
   <tile/>
   <tile/>
   <tile/>
   <tile/>
   <tile/>
   <tile/>
   <tile/>
   <tile/>
   <tile/>
   <tile/>
   <tile/>
   <tile/>
   <tile/>
   <tile/>
   <tile/>
   <tile/>
   <tile/>
   <tile/>
   <tile/>
   <tile/>
   <tile/>
   <tile/>
   <tile/>
   <tile/>
   <tile/>
   <tile/>
   <tile/>
   <tile/>
   <tile/>
   <tile/>
   <tile/>
   <tile/>
   <tile/>
   <tile/>
   <tile/>
   <tile/>
   <tile/>
   <tile/>
   <tile/>
   <tile/>
   <tile/>
   <tile/>
   <tile/>
   <tile/>
   <tile/>
   <tile/>
   <tile/>
   <tile/>
   <tile/>
   <tile/>
   <tile/>
   <tile gid="2684354635"/>
   <tile/>
   <tile/>
   <tile/>
   <tile/>
   <tile/>
   <tile/>
   <tile/>
   <tile/>
   <tile/>
   <tile/>
   <tile/>
   <tile/>
   <tile/>
   <tile/>
   <tile/>
   <tile/>
   <tile/>
   <tile/>
   <tile/>
   <tile/>
   <tile/>
   <tile/>
   <tile/>
   <tile/>
   <tile/>
   <tile/>
   <tile/>
   <tile/>
   <tile/>
   <tile/>
   <tile/>
   <tile/>
   <tile/>
   <tile/>
   <tile/>
   <tile/>
   <tile gid="1073741833"/>
   <tile/>
   <tile/>
   <tile/>
   <tile/>
   <tile/>
   <tile/>
   <tile/>
   <tile/>
   <tile/>
   <tile/>
   <tile/>
   <tile/>
   <tile/>
   <tile/>
   <tile/>
   <tile/>
   <tile/>
   <tile/>
   <tile/>
   <tile/>
   <tile/>
   <tile/>
   <tile/>
   <tile/>
   <tile/>
   <tile/>
   <tile/>
   <tile/>
   <tile/>
   <tile/>
   <tile/>
   <tile/>
   <tile/>
   <tile/>
   <tile/>
   <tile/>
   <tile/>
   <tile/>
   <tile/>
   <tile/>
   <tile/>
   <tile/>
   <tile/>
   <tile/>
   <tile/>
   <tile/>
   <tile/>
   <tile/>
   <tile/>
   <tile/>
   <tile/>
   <tile/>
   <tile/>
   <tile/>
   <tile/>
   <tile/>
   <tile/>
   <tile/>
   <tile/>
   <tile/>
   <tile/>
   <tile/>
   <tile/>
   <tile/>
   <tile/>
   <tile/>
   <tile/>
   <tile/>
   <tile/>
   <tile/>
   <tile/>
   <tile/>
   <tile/>
   <tile/>
   <tile/>
   <tile/>
   <tile/>
   <tile/>
   <tile/>
   <tile/>
   <tile/>
   <tile/>
   <tile/>
   <tile/>
   <tile/>
   <tile/>
   <tile/>
   <tile/>
   <tile/>
   <tile/>
   <tile/>
   <tile/>
   <tile/>
   <tile/>
   <tile/>
   <tile/>
   <tile/>
   <tile/>
   <tile/>
   <tile/>
   <tile/>
   <tile gid="1610612746"/>
   <tile/>
   <tile/>
   <tile/>
   <tile/>
   <tile/>
   <tile/>
   <tile/>
   <tile/>
   <tile/>
   <tile/>
   <tile/>
   <tile/>
   <tile/>
   <tile/>
   <tile/>
   <tile/>
   <tile/>
   <tile/>
   <tile/>
   <tile/>
   <tile/>
   <tile/>
   <tile/>
   <tile/>
   <tile/>
   <tile/>
   <tile/>
   <tile/>
   <tile/>
   <tile/>
   <tile/>
   <tile/>
   <tile/>
   <tile/>
   <tile/>
   <tile/>
   <tile/>
   <tile/>
   <tile/>
   <tile/>
   <tile/>
   <tile/>
   <tile/>
   <tile/>
   <tile/>
   <tile/>
   <tile/>
   <tile/>
   <tile/>
   <tile/>
   <tile/>
   <tile/>
   <tile/>
   <tile/>
   <tile/>
   <tile/>
   <tile/>
   <tile/>
   <tile/>
   <tile/>
   <tile/>
   <tile/>
   <tile/>
   <tile/>
   <tile/>
   <tile/>
   <tile/>
   <tile/>
   <tile/>
   <tile/>
   <tile/>
   <tile/>
   <tile/>
   <tile/>
   <tile/>
   <tile/>
   <tile/>
   <tile/>
   <tile/>
   <tile/>
   <tile/>
   <tile/>
   <tile/>
   <tile/>
   <tile/>
   <tile/>
   <tile/>
   <tile/>
   <tile/>
   <tile gid="1610612746"/>
   <tile/>
   <tile/>
   <tile/>
   <tile/>
   <tile/>
   <tile/>
   <tile/>
   <tile/>
   <tile/>
   <tile/>
   <tile/>
   <tile/>
   <tile/>
   <tile/>
   <tile/>
   <tile/>
   <tile/>
   <tile/>
   <tile/>
   <tile/>
   <tile/>
   <tile/>
   <tile/>
   <tile/>
   <tile/>
   <tile/>
   <tile/>
   <tile/>
   <tile/>
   <tile/>
   <tile/>
   <tile/>
   <tile/>
   <tile/>
   <tile/>
   <tile/>
   <tile/>
   <tile/>
   <tile/>
   <tile/>
   <tile/>
   <tile/>
   <tile/>
   <tile/>
   <tile/>
   <tile/>
   <tile/>
   <tile/>
   <tile/>
   <tile/>
   <tile/>
   <tile/>
   <tile/>
   <tile/>
   <tile/>
   <tile/>
   <tile/>
   <tile/>
   <tile/>
   <tile/>
   <tile/>
   <tile/>
   <tile/>
   <tile/>
   <tile/>
   <tile/>
   <tile/>
   <tile/>
   <tile/>
   <tile/>
   <tile/>
   <tile/>
   <tile/>
   <tile/>
   <tile/>
   <tile/>
   <tile/>
   <tile/>
   <tile/>
   <tile/>
   <tile/>
   <tile/>
   <tile/>
   <tile/>
   <tile/>
   <tile/>
   <tile/>
   <tile/>
   <tile/>
   <tile gid="1610612746"/>
   <tile/>
   <tile/>
   <tile/>
   <tile/>
   <tile/>
   <tile/>
   <tile/>
   <tile/>
   <tile/>
   <tile/>
   <tile/>
   <tile/>
   <tile/>
   <tile/>
   <tile/>
   <tile/>
   <tile/>
   <tile/>
   <tile/>
   <tile/>
   <tile/>
   <tile/>
   <tile/>
   <tile/>
   <tile/>
   <tile/>
   <tile/>
   <tile/>
   <tile/>
   <tile/>
   <tile/>
   <tile/>
   <tile/>
   <tile/>
   <tile/>
   <tile/>
   <tile/>
   <tile/>
   <tile/>
   <tile/>
   <tile/>
   <tile/>
   <tile/>
   <tile/>
   <tile/>
   <tile/>
   <tile/>
   <tile/>
   <tile/>
   <tile/>
   <tile/>
   <tile/>
   <tile/>
   <tile/>
   <tile/>
   <tile/>
   <tile/>
   <tile/>
   <tile/>
   <tile/>
   <tile/>
   <tile/>
   <tile/>
   <tile/>
   <tile/>
   <tile/>
   <tile/>
   <tile/>
   <tile/>
   <tile/>
   <tile/>
   <tile/>
   <tile/>
   <tile/>
   <tile/>
   <tile/>
   <tile/>
   <tile/>
   <tile/>
   <tile/>
   <tile/>
   <tile/>
   <tile/>
   <tile/>
   <tile/>
   <tile/>
   <tile/>
   <tile/>
   <tile/>
   <tile gid="1610612746"/>
   <tile/>
   <tile/>
   <tile/>
   <tile/>
   <tile/>
   <tile/>
   <tile/>
   <tile/>
   <tile/>
   <tile/>
   <tile/>
   <tile/>
   <tile/>
   <tile/>
   <tile/>
   <tile/>
   <tile/>
   <tile/>
   <tile/>
   <tile/>
   <tile/>
   <tile/>
   <tile/>
   <tile/>
   <tile/>
   <tile/>
   <tile/>
   <tile/>
   <tile/>
   <tile/>
   <tile/>
   <tile/>
   <tile/>
   <tile/>
   <tile/>
   <tile/>
   <tile/>
   <tile/>
   <tile/>
   <tile/>
   <tile gid="9"/>
   <tile gid="10"/>
   <tile gid="10"/>
   <tile gid="10"/>
   <tile gid="10"/>
   <tile gid="10"/>
   <tile gid="10"/>
   <tile gid="10"/>
   <tile gid="10"/>
   <tile gid="10"/>
   <tile gid="10"/>
   <tile gid="10"/>
   <tile gid="10"/>
   <tile gid="10"/>
   <tile gid="74"/>
   <tile gid="74"/>
   <tile gid="74"/>
   <tile gid="74"/>
   <tile gid="74"/>
   <tile gid="74"/>
   <tile gid="74"/>
   <tile gid="74"/>
   <tile gid="74"/>
   <tile gid="74"/>
   <tile gid="74"/>
   <tile gid="74"/>
   <tile gid="74"/>
   <tile gid="74"/>
   <tile gid="75"/>
   <tile/>
   <tile/>
   <tile/>
   <tile/>
   <tile/>
   <tile/>
   <tile/>
   <tile/>
   <tile/>
   <tile/>
   <tile/>
   <tile/>
   <tile/>
   <tile/>
   <tile/>
   <tile/>
   <tile/>
   <tile/>
   <tile/>
   <tile/>
   <tile gid="1610612746"/>
   <tile/>
   <tile/>
   <tile/>
   <tile/>
   <tile/>
   <tile/>
   <tile/>
   <tile/>
   <tile/>
   <tile/>
   <tile/>
   <tile/>
   <tile/>
   <tile/>
   <tile/>
   <tile/>
   <tile/>
   <tile/>
   <tile/>
   <tile/>
   <tile/>
   <tile/>
   <tile/>
   <tile/>
   <tile/>
   <tile/>
   <tile/>
   <tile/>
   <tile/>
   <tile/>
   <tile/>
   <tile/>
   <tile/>
   <tile/>
   <tile/>
   <tile/>
   <tile/>
   <tile/>
   <tile/>
   <tile/>
   <tile/>
   <tile/>
   <tile/>
   <tile/>
   <tile/>
   <tile/>
   <tile/>
   <tile/>
   <tile/>
   <tile/>
   <tile/>
   <tile/>
   <tile/>
   <tile/>
   <tile/>
   <tile/>
   <tile/>
   <tile/>
   <tile/>
   <tile/>
   <tile/>
   <tile/>
   <tile/>
   <tile/>
   <tile/>
   <tile/>
   <tile/>
   <tile/>
   <tile/>
   <tile/>
   <tile/>
   <tile/>
   <tile/>
   <tile/>
   <tile/>
   <tile/>
   <tile/>
   <tile/>
   <tile/>
   <tile/>
   <tile/>
   <tile/>
   <tile/>
   <tile/>
   <tile/>
   <tile/>
   <tile/>
   <tile/>
   <tile/>
   <tile gid="1610612745"/>
   <tile/>
   <tile/>
   <tile/>
   <tile/>
   <tile/>
   <tile/>
   <tile/>
   <tile/>
   <tile/>
   <tile/>
   <tile/>
   <tile/>
   <tile/>
   <tile/>
   <tile/>
   <tile/>
   <tile/>
   <tile/>
   <tile/>
   <tile/>
   <tile/>
   <tile/>
   <tile/>
   <tile/>
   <tile/>
   <tile/>
   <tile/>
   <tile/>
   <tile/>
   <tile/>
   <tile/>
   <tile/>
   <tile/>
   <tile/>
   <tile/>
   <tile/>
   <tile/>
   <tile/>
   <tile/>
   <tile/>
   <tile/>
   <tile/>
   <tile/>
   <tile/>
   <tile/>
   <tile/>
   <tile/>
   <tile/>
   <tile/>
   <tile/>
   <tile/>
   <tile/>
   <tile/>
   <tile/>
   <tile/>
   <tile/>
   <tile/>
   <tile/>
   <tile/>
   <tile/>
   <tile/>
   <tile/>
   <tile/>
   <tile/>
   <tile/>
   <tile/>
   <tile/>
   <tile/>
   <tile/>
   <tile/>
   <tile/>
   <tile/>
   <tile/>
   <tile/>
   <tile/>
   <tile/>
   <tile/>
   <tile/>
   <tile/>
   <tile/>
   <tile/>
   <tile/>
   <tile/>
   <tile/>
   <tile/>
   <tile/>
   <tile/>
   <tile/>
   <tile/>
   <tile/>
   <tile/>
   <tile/>
   <tile/>
   <tile/>
   <tile/>
   <tile/>
   <tile/>
   <tile/>
   <tile/>
   <tile/>
   <tile/>
   <tile/>
   <tile/>
   <tile/>
   <tile/>
   <tile/>
   <tile/>
   <tile/>
   <tile/>
   <tile/>
   <tile/>
   <tile/>
   <tile/>
   <tile/>
   <tile/>
   <tile/>
   <tile/>
   <tile/>
   <tile/>
   <tile/>
   <tile/>
   <tile/>
   <tile/>
   <tile/>
   <tile/>
   <tile/>
   <tile/>
   <tile/>
   <tile/>
   <tile/>
   <tile/>
   <tile/>
   <tile/>
   <tile/>
   <tile/>
   <tile/>
   <tile/>
   <tile/>
   <tile/>
   <tile/>
   <tile/>
   <tile/>
   <tile/>
   <tile/>
   <tile/>
   <tile/>
   <tile/>
   <tile/>
   <tile/>
   <tile/>
   <tile/>
   <tile/>
   <tile/>
   <tile/>
   <tile/>
   <tile/>
   <tile/>
   <tile/>
   <tile/>
   <tile gid="74"/>
   <tile gid="74"/>
   <tile gid="74"/>
   <tile gid="74"/>
   <tile gid="74"/>
   <tile gid="74"/>
   <tile gid="75"/>
   <tile/>
   <tile/>
   <tile/>
   <tile/>
   <tile/>
   <tile/>
   <tile/>
   <tile/>
   <tile/>
   <tile/>
   <tile/>
   <tile/>
   <tile/>
   <tile/>
   <tile/>
   <tile/>
   <tile/>
   <tile/>
   <tile/>
   <tile/>
   <tile/>
   <tile/>
   <tile/>
   <tile/>
   <tile/>
   <tile/>
   <tile/>
   <tile/>
   <tile/>
   <tile/>
   <tile/>
   <tile/>
   <tile/>
   <tile/>
   <tile/>
   <tile/>
   <tile/>
   <tile/>
   <tile/>
   <tile/>
   <tile/>
   <tile/>
   <tile/>
   <tile/>
   <tile/>
   <tile/>
   <tile/>
   <tile/>
   <tile/>
   <tile/>
   <tile/>
   <tile/>
   <tile/>
   <tile/>
   <tile/>
   <tile/>
   <tile/>
   <tile/>
   <tile/>
   <tile/>
   <tile/>
   <tile/>
   <tile/>
   <tile/>
   <tile/>
   <tile/>
   <tile/>
   <tile/>
   <tile/>
   <tile/>
   <tile/>
   <tile/>
   <tile/>
   <tile/>
   <tile/>
   <tile/>
   <tile/>
   <tile/>
   <tile/>
   <tile/>
   <tile/>
   <tile/>
   <tile/>
   <tile/>
   <tile/>
   <tile/>
   <tile/>
   <tile/>
   <tile/>
   <tile/>
   <tile/>
   <tile/>
   <tile/>
   <tile/>
   <tile/>
   <tile/>
   <tile/>
   <tile/>
   <tile/>
   <tile/>
   <tile/>
   <tile/>
   <tile/>
   <tile/>
   <tile/>
   <tile/>
   <tile/>
   <tile/>
   <tile/>
   <tile/>
   <tile/>
   <tile/>
   <tile/>
   <tile/>
   <tile/>
   <tile/>
   <tile/>
   <tile/>
   <tile/>
   <tile/>
   <tile/>
   <tile/>
   <tile/>
   <tile/>
   <tile/>
   <tile/>
   <tile/>
   <tile/>
   <tile/>
   <tile/>
   <tile/>
   <tile/>
   <tile/>
   <tile/>
   <tile/>
   <tile/>
   <tile/>
   <tile/>
   <tile/>
   <tile/>
   <tile/>
   <tile/>
   <tile/>
   <tile/>
   <tile/>
   <tile/>
   <tile/>
   <tile/>
   <tile/>
   <tile/>
   <tile/>
   <tile/>
   <tile/>
   <tile/>
   <tile/>
   <tile/>
   <tile/>
   <tile/>
   <tile/>
   <tile/>
   <tile/>
   <tile/>
   <tile/>
   <tile/>
   <tile/>
   <tile/>
   <tile/>
   <tile/>
   <tile/>
   <tile/>
   <tile/>
   <tile/>
   <tile/>
   <tile/>
   <tile/>
   <tile/>
   <tile/>
   <tile/>
   <tile/>
   <tile gid="1073741899"/>
   <tile/>
   <tile/>
   <tile/>
   <tile/>
   <tile/>
   <tile gid="73"/>
   <tile gid="74"/>
   <tile gid="74"/>
   <tile gid="74"/>
   <tile gid="75"/>
   <tile/>
   <tile/>
   <tile/>
   <tile/>
   <tile/>
   <tile/>
   <tile/>
   <tile/>
   <tile/>
   <tile/>
   <tile/>
   <tile/>
   <tile/>
   <tile/>
   <tile/>
   <tile/>
   <tile/>
   <tile/>
   <tile/>
   <tile/>
   <tile/>
   <tile/>
   <tile/>
   <tile/>
   <tile/>
   <tile/>
   <tile/>
   <tile/>
   <tile/>
   <tile/>
   <tile/>
   <tile/>
   <tile/>
   <tile/>
   <tile/>
   <tile/>
   <tile/>
   <tile/>
   <tile/>
   <tile/>
   <tile/>
   <tile/>
   <tile/>
   <tile gid="9"/>
   <tile/>
   <tile/>
   <tile/>
   <tile/>
   <tile/>
   <tile/>
   <tile/>
   <tile/>
   <tile/>
   <tile/>
   <tile/>
   <tile/>
   <tile/>
   <tile/>
   <tile/>
   <tile/>
   <tile/>
   <tile/>
   <tile/>
   <tile/>
   <tile/>
   <tile/>
   <tile/>
   <tile/>
   <tile/>
   <tile/>
   <tile/>
   <tile/>
   <tile/>
   <tile/>
   <tile/>
   <tile/>
   <tile/>
   <tile/>
   <tile/>
   <tile/>
   <tile/>
   <tile/>
   <tile/>
   <tile/>
   <tile/>
   <tile/>
   <tile/>
   <tile/>
   <tile/>
   <tile/>
   <tile/>
   <tile/>
   <tile/>
   <tile/>
   <tile gid="9"/>
   <tile gid="10"/>
   <tile gid="10"/>
   <tile gid="10"/>
   <tile gid="10"/>
   <tile gid="11"/>
   <tile/>
   <tile/>
   <tile/>
   <tile/>
   <tile/>
   <tile/>
   <tile/>
   <tile/>
   <tile/>
   <tile/>
   <tile/>
   <tile/>
   <tile/>
   <tile/>
   <tile/>
   <tile gid="10"/>
   <tile gid="10"/>
   <tile gid="11"/>
   <tile/>
   <tile/>
   <tile/>
   <tile/>
   <tile/>
   <tile/>
   <tile/>
   <tile/>
   <tile/>
   <tile/>
   <tile/>
   <tile/>
   <tile/>
   <tile/>
   <tile/>
   <tile/>
   <tile/>
   <tile/>
   <tile/>
   <tile/>
   <tile/>
   <tile/>
   <tile/>
   <tile/>
   <tile/>
   <tile/>
   <tile/>
   <tile/>
   <tile/>
   <tile/>
   <tile/>
   <tile/>
   <tile/>
   <tile/>
   <tile/>
   <tile/>
   <tile/>
   <tile/>
   <tile/>
   <tile/>
   <tile/>
   <tile/>
   <tile/>
   <tile/>
   <tile/>
   <tile/>
   <tile/>
   <tile/>
   <tile/>
   <tile/>
   <tile/>
   <tile/>
   <tile/>
   <tile/>
   <tile/>
   <tile/>
   <tile/>
   <tile gid="1073741897"/>
   <tile/>
   <tile/>
   <tile/>
   <tile gid="1073741899"/>
   <tile/>
   <tile/>
   <tile/>
   <tile/>
   <tile/>
   <tile/>
   <tile/>
   <tile/>
   <tile/>
   <tile/>
   <tile/>
   <tile/>
   <tile/>
   <tile/>
   <tile/>
   <tile/>
   <tile/>
   <tile/>
   <tile/>
   <tile/>
   <tile/>
   <tile/>
   <tile/>
   <tile/>
   <tile/>
   <tile/>
   <tile/>
   <tile/>
   <tile gid="10"/>
   <tile gid="10"/>
   <tile gid="10"/>
   <tile gid="10"/>
   <tile gid="10"/>
   <tile gid="10"/>
   <tile gid="10"/>
   <tile gid="10"/>
   <tile gid="10"/>
   <tile gid="10"/>
   <tile gid="10"/>
   <tile gid="10"/>
   <tile gid="10"/>
   <tile gid="10"/>
   <tile gid="10"/>
   <tile/>
   <tile/>
   <tile/>
   <tile/>
   <tile/>
   <tile/>
   <tile/>
   <tile/>
   <tile/>
   <tile/>
   <tile/>
   <tile/>
   <tile/>
   <tile/>
   <tile/>
   <tile/>
   <tile/>
   <tile/>
   <tile/>
   <tile gid="73"/>
   <tile gid="74"/>
   <tile gid="74"/>
   <tile gid="75"/>
   <tile/>
   <tile/>
   <tile/>
   <tile/>
   <tile/>
   <tile/>
   <tile/>
   <tile/>
   <tile/>
   <tile/>
   <tile/>
   <tile/>
   <tile/>
   <tile/>
   <tile/>
   <tile/>
   <tile/>
   <tile/>
   <tile/>
   <tile/>
   <tile/>
   <tile/>
   <tile/>
   <tile/>
   <tile/>
   <tile/>
   <tile/>
   <tile/>
   <tile/>
   <tile/>
   <tile/>
   <tile/>
   <tile/>
   <tile/>
   <tile gid="10"/>
   <tile gid="10"/>
   <tile gid="11"/>
   <tile/>
   <tile/>
   <tile/>
   <tile/>
   <tile/>
   <tile/>
   <tile/>
   <tile/>
   <tile/>
   <tile/>
   <tile/>
   <tile/>
   <tile/>
   <tile/>
   <tile/>
   <tile/>
   <tile/>
   <tile/>
   <tile/>
   <tile/>
   <tile/>
   <tile/>
   <tile/>
   <tile/>
   <tile/>
   <tile/>
   <tile/>
   <tile/>
   <tile/>
   <tile/>
   <tile/>
   <tile/>
   <tile/>
   <tile/>
   <tile/>
   <tile/>
   <tile/>
   <tile/>
   <tile/>
   <tile/>
   <tile/>
   <tile/>
   <tile/>
   <tile/>
   <tile/>
   <tile/>
   <tile/>
   <tile/>
   <tile/>
   <tile/>
   <tile/>
   <tile/>
   <tile/>
   <tile/>
   <tile/>
   <tile/>
   <tile/>
   <tile/>
   <tile/>
   <tile/>
   <tile/>
   <tile/>
   <tile/>
   <tile/>
   <tile/>
   <tile/>
   <tile/>
   <tile/>
   <tile/>
   <tile/>
   <tile/>
   <tile/>
   <tile/>
   <tile/>
   <tile/>
   <tile/>
   <tile/>
   <tile/>
   <tile/>
   <tile/>
   <tile/>
   <tile/>
   <tile/>
   <tile/>
   <tile/>
   <tile/>
   <tile/>
   <tile/>
   <tile/>
   <tile/>
   <tile/>
   <tile/>
   <tile/>
   <tile/>
   <tile/>
   <tile/>
   <tile/>
   <tile/>
   <tile/>
   <tile/>
   <tile/>
   <tile/>
   <tile/>
   <tile/>
   <tile/>
   <tile/>
   <tile/>
   <tile/>
   <tile/>
   <tile/>
   <tile/>
   <tile/>
   <tile/>
   <tile/>
   <tile/>
   <tile/>
   <tile/>
   <tile/>
   <tile/>
   <tile/>
   <tile/>
   <tile/>
   <tile/>
   <tile/>
   <tile/>
   <tile/>
   <tile/>
   <tile/>
   <tile/>
   <tile/>
   <tile gid="73"/>
   <tile gid="74"/>
   <tile gid="74"/>
   <tile gid="74"/>
   <tile gid="75"/>
   <tile/>
   <tile/>
   <tile/>
   <tile/>
   <tile gid="1073741897"/>
   <tile/>
   <tile/>
   <tile/>
   <tile/>
   <tile/>
   <tile/>
   <tile/>
   <tile/>
   <tile/>
   <tile/>
   <tile/>
   <tile/>
   <tile/>
   <tile/>
   <tile/>
   <tile/>
   <tile/>
   <tile/>
   <tile/>
   <tile/>
   <tile/>
   <tile/>
   <tile/>
   <tile/>
   <tile/>
   <tile/>
   <tile/>
   <tile/>
   <tile/>
   <tile/>
   <tile/>
   <tile/>
   <tile/>
   <tile/>
   <tile/>
   <tile/>
   <tile/>
   <tile/>
   <tile/>
   <tile/>
   <tile gid="10"/>
   <tile gid="10"/>
   <tile gid="10"/>
   <tile gid="10"/>
   <tile gid="10"/>
   <tile gid="11"/>
   <tile/>
   <tile/>
   <tile/>
   <tile/>
   <tile/>
   <tile/>
   <tile/>
   <tile/>
   <tile/>
   <tile/>
   <tile/>
   <tile/>
   <tile/>
   <tile/>
   <tile/>
   <tile/>
   <tile/>
   <tile/>
   <tile/>
   <tile/>
   <tile/>
   <tile/>
   <tile/>
   <tile/>
   <tile/>
   <tile/>
   <tile/>
   <tile/>
   <tile/>
   <tile/>
   <tile/>
   <tile/>
   <tile/>
   <tile/>
   <tile/>
   <tile/>
   <tile/>
   <tile/>
   <tile/>
   <tile/>
   <tile/>
   <tile/>
   <tile/>
   <tile/>
   <tile/>
   <tile/>
   <tile/>
   <tile/>
   <tile/>
   <tile/>
   <tile/>
   <tile/>
   <tile/>
   <tile/>
   <tile/>
   <tile/>
   <tile/>
   <tile/>
   <tile/>
   <tile/>
   <tile/>
   <tile/>
   <tile/>
   <tile/>
   <tile/>
   <tile/>
   <tile/>
   <tile/>
   <tile/>
   <tile/>
   <tile/>
   <tile/>
   <tile/>
   <tile/>
   <tile/>
   <tile/>
   <tile/>
   <tile/>
   <tile/>
   <tile/>
   <tile/>
   <tile/>
   <tile/>
   <tile/>
   <tile/>
   <tile/>
   <tile/>
   <tile/>
   <tile/>
   <tile/>
   <tile/>
   <tile/>
   <tile/>
   <tile/>
   <tile/>
   <tile/>
   <tile/>
   <tile/>
   <tile/>
   <tile/>
   <tile/>
   <tile/>
   <tile/>
   <tile/>
   <tile/>
   <tile/>
   <tile/>
   <tile/>
   <tile/>
   <tile/>
   <tile/>
   <tile/>
   <tile/>
   <tile/>
   <tile/>
   <tile/>
   <tile/>
   <tile/>
   <tile/>
   <tile/>
   <tile/>
   <tile/>
   <tile/>
   <tile/>
   <tile/>
   <tile/>
   <tile/>
   <tile/>
   <tile/>
   <tile/>
   <tile/>
   <tile/>
   <tile/>
   <tile/>
   <tile/>
   <tile/>
   <tile/>
   <tile/>
   <tile/>
   <tile/>
   <tile/>
   <tile/>
   <tile/>
   <tile/>
   <tile/>
   <tile/>
   <tile/>
   <tile/>
   <tile/>
   <tile/>
   <tile/>
   <tile/>
   <tile/>
   <tile/>
   <tile/>
   <tile/>
   <tile/>
   <tile/>
   <tile/>
   <tile/>
   <tile/>
   <tile/>
   <tile/>
   <tile/>
   <tile/>
   <tile/>
   <tile/>
   <tile/>
   <tile/>
   <tile/>
   <tile/>
   <tile/>
   <tile/>
   <tile/>
   <tile/>
   <tile/>
   <tile/>
   <tile/>
   <tile/>
   <tile/>
   <tile/>
   <tile/>
   <tile/>
   <tile/>
   <tile/>
   <tile/>
   <tile/>
   <tile/>
   <tile/>
   <tile/>
   <tile/>
   <tile/>
   <tile/>
   <tile/>
   <tile/>
   <tile/>
   <tile/>
   <tile/>
   <tile/>
   <tile gid="10"/>
   <tile gid="10"/>
   <tile gid="10"/>
   <tile gid="10"/>
   <tile gid="10"/>
   <tile gid="10"/>
   <tile gid="10"/>
   <tile gid="10"/>
   <tile gid="10"/>
   <tile gid="11"/>
   <tile/>
   <tile/>
   <tile/>
   <tile/>
   <tile/>
   <tile/>
   <tile/>
   <tile/>
   <tile/>
   <tile/>
   <tile/>
   <tile/>
   <tile/>
   <tile/>
   <tile/>
   <tile/>
   <tile/>
   <tile/>
   <tile/>
   <tile/>
   <tile/>
   <tile/>
   <tile/>
   <tile/>
   <tile/>
   <tile/>
   <tile/>
   <tile/>
   <tile/>
   <tile/>
   <tile/>
   <tile/>
   <tile/>
   <tile/>
   <tile/>
   <tile/>
   <tile/>
   <tile/>
   <tile/>
   <tile/>
   <tile/>
   <tile/>
   <tile/>
   <tile/>
   <tile/>
   <tile/>
   <tile/>
   <tile/>
   <tile/>
   <tile/>
   <tile/>
   <tile/>
   <tile/>
   <tile/>
   <tile/>
   <tile/>
   <tile/>
   <tile/>
   <tile/>
   <tile/>
   <tile/>
   <tile/>
   <tile/>
   <tile/>
   <tile/>
   <tile/>
   <tile/>
   <tile/>
   <tile/>
   <tile/>
   <tile/>
   <tile/>
   <tile/>
   <tile/>
   <tile/>
   <tile/>
   <tile/>
   <tile/>
   <tile/>
   <tile/>
   <tile/>
   <tile/>
   <tile/>
   <tile/>
   <tile/>
   <tile/>
   <tile/>
   <tile/>
   <tile/>
   <tile/>
   <tile/>
   <tile/>
   <tile/>
   <tile/>
   <tile/>
   <tile/>
   <tile/>
   <tile/>
   <tile/>
   <tile/>
   <tile/>
   <tile/>
   <tile/>
   <tile/>
   <tile/>
   <tile/>
   <tile/>
   <tile/>
   <tile gid="74"/>
   <tile gid="74"/>
   <tile gid="74"/>
   <tile gid="74"/>
   <tile gid="74"/>
   <tile gid="74"/>
   <tile gid="75"/>
   <tile/>
   <tile/>
   <tile/>
   <tile/>
   <tile/>
   <tile/>
   <tile/>
   <tile/>
   <tile/>
   <tile/>
   <tile/>
   <tile/>
   <tile/>
   <tile/>
   <tile/>
   <tile/>
   <tile/>
   <tile/>
   <tile/>
   <tile/>
   <tile/>
   <tile/>
   <tile/>
   <tile/>
   <tile/>
   <tile/>
   <tile/>
   <tile/>
   <tile/>
   <tile/>
   <tile/>
   <tile/>
   <tile/>
   <tile/>
   <tile/>
   <tile/>
   <tile/>
   <tile/>
   <tile/>
   <tile/>
   <tile/>
   <tile/>
   <tile/>
   <tile/>
   <tile/>
   <tile/>
   <tile/>
   <tile/>
   <tile/>
   <tile/>
   <tile/>
   <tile/>
   <tile/>
   <tile/>
   <tile/>
   <tile/>
   <tile/>
   <tile/>
   <tile/>
   <tile/>
   <tile/>
   <tile/>
   <tile/>
   <tile/>
   <tile/>
   <tile/>
   <tile/>
   <tile/>
   <tile/>
   <tile/>
   <tile/>
   <tile/>
   <tile/>
   <tile/>
   <tile/>
   <tile/>
   <tile/>
   <tile/>
   <tile/>
   <tile/>
   <tile/>
   <tile/>
   <tile/>
   <tile/>
   <tile/>
   <tile/>
   <tile/>
   <tile/>
   <tile/>
   <tile/>
   <tile/>
   <tile/>
   <tile/>
   <tile/>
   <tile/>
   <tile/>
   <tile/>
   <tile/>
   <tile/>
   <tile/>
   <tile/>
   <tile/>
   <tile/>
   <tile/>
   <tile/>
   <tile/>
   <tile/>
   <tile/>
   <tile/>
   <tile/>
   <tile/>
   <tile/>
   <tile/>
   <tile/>
   <tile/>
   <tile/>
   <tile/>
   <tile/>
   <tile/>
   <tile/>
   <tile/>
   <tile/>
   <tile/>
   <tile/>
   <tile/>
   <tile/>
   <tile/>
   <tile/>
   <tile/>
   <tile/>
   <tile/>
   <tile/>
   <tile/>
   <tile/>
   <tile/>
   <tile/>
   <tile/>
   <tile/>
   <tile/>
   <tile/>
   <tile/>
   <tile/>
   <tile/>
   <tile/>
   <tile/>
   <tile/>
   <tile/>
   <tile/>
   <tile/>
   <tile/>
   <tile/>
   <tile/>
   <tile/>
   <tile/>
   <tile/>
   <tile/>
   <tile/>
   <tile/>
   <tile/>
   <tile/>
   <tile/>
   <tile/>
   <tile/>
   <tile/>
   <tile/>
   <tile/>
   <tile/>
   <tile/>
   <tile/>
   <tile/>
   <tile/>
   <tile/>
   <tile/>
   <tile/>
   <tile/>
   <tile/>
   <tile/>
   <tile/>
   <tile/>
   <tile/>
   <tile/>
   <tile/>
   <tile/>
   <tile/>
   <tile/>
   <tile/>
   <tile/>
   <tile/>
   <tile/>
   <tile/>
   <tile/>
   <tile/>
   <tile/>
   <tile/>
   <tile/>
   <tile/>
   <tile/>
   <tile/>
   <tile/>
   <tile/>
   <tile/>
   <tile/>
   <tile/>
   <tile/>
   <tile/>
   <tile/>
   <tile/>
   <tile/>
   <tile/>
   <tile/>
   <tile/>
   <tile/>
   <tile/>
   <tile/>
   <tile/>
   <tile/>
   <tile/>
   <tile/>
   <tile/>
   <tile/>
   <tile/>
   <tile/>
   <tile/>
   <tile/>
   <tile/>
   <tile/>
   <tile/>
   <tile/>
   <tile/>
   <tile/>
   <tile/>
   <tile/>
   <tile/>
   <tile/>
   <tile/>
   <tile/>
   <tile/>
   <tile/>
   <tile/>
   <tile/>
   <tile/>
   <tile/>
   <tile/>
   <tile/>
   <tile/>
   <tile/>
   <tile/>
   <tile/>
   <tile/>
   <tile/>
   <tile/>
   <tile/>
   <tile/>
   <tile/>
   <tile/>
   <tile/>
   <tile/>
   <tile/>
   <tile/>
   <tile/>
   <tile/>
   <tile/>
   <tile/>
   <tile/>
   <tile/>
   <tile/>
   <tile/>
   <tile/>
   <tile/>
   <tile/>
   <tile/>
   <tile/>
   <tile/>
   <tile/>
   <tile/>
   <tile/>
   <tile/>
   <tile/>
   <tile/>
   <tile/>
   <tile/>
   <tile/>
   <tile/>
   <tile/>
   <tile/>
   <tile/>
   <tile/>
   <tile/>
   <tile/>
   <tile/>
   <tile/>
   <tile/>
   <tile/>
   <tile/>
   <tile/>
   <tile/>
   <tile/>
   <tile/>
   <tile/>
   <tile/>
   <tile/>
   <tile/>
   <tile/>
   <tile/>
   <tile/>
   <tile/>
   <tile/>
   <tile/>
   <tile/>
   <tile/>
   <tile/>
   <tile/>
   <tile/>
   <tile/>
   <tile/>
   <tile/>
   <tile/>
   <tile/>
   <tile/>
   <tile/>
   <tile/>
   <tile/>
   <tile/>
   <tile/>
   <tile/>
   <tile/>
   <tile/>
   <tile/>
   <tile/>
   <tile/>
   <tile/>
   <tile/>
   <tile/>
   <tile/>
   <tile/>
   <tile/>
   <tile/>
   <tile/>
   <tile/>
   <tile/>
   <tile/>
   <tile/>
   <tile/>
   <tile/>
   <tile/>
   <tile/>
   <tile/>
   <tile/>
   <tile/>
   <tile/>
   <tile/>
   <tile/>
   <tile/>
   <tile/>
   <tile/>
   <tile/>
   <tile/>
   <tile/>
   <tile/>
   <tile/>
   <tile/>
   <tile/>
   <tile/>
   <tile/>
   <tile/>
   <tile/>
   <tile/>
   <tile/>
   <tile/>
   <tile/>
   <tile/>
   <tile/>
   <tile/>
   <tile/>
   <tile/>
   <tile/>
   <tile/>
   <tile/>
   <tile/>
   <tile/>
   <tile/>
   <tile/>
   <tile/>
   <tile/>
   <tile/>
   <tile/>
   <tile/>
   <tile/>
   <tile/>
   <tile/>
   <tile/>
   <tile/>
   <tile/>
   <tile/>
   <tile/>
   <tile/>
   <tile/>
   <tile/>
   <tile/>
   <tile/>
   <tile/>
   <tile/>
   <tile/>
   <tile/>
   <tile/>
   <tile/>
   <tile/>
   <tile/>
   <tile/>
   <tile/>
   <tile/>
   <tile/>
   <tile/>
   <tile/>
   <tile/>
   <tile/>
   <tile/>
   <tile/>
   <tile/>
   <tile/>
   <tile/>
   <tile/>
   <tile/>
   <tile/>
   <tile/>
   <tile/>
   <tile/>
   <tile/>
   <tile/>
   <tile/>
   <tile/>
   <tile/>
   <tile/>
   <tile/>
   <tile/>
   <tile/>
   <tile/>
   <tile/>
   <tile gid="73"/>
   <tile gid="74"/>
   <tile gid="74"/>
   <tile gid="74"/>
   <tile/>
   <tile/>
   <tile/>
   <tile/>
   <tile/>
   <tile/>
   <tile/>
   <tile/>
   <tile gid="74"/>
   <tile gid="74"/>
   <tile gid="74"/>
   <tile gid="74"/>
   <tile gid="75"/>
   <tile/>
   <tile/>
   <tile/>
   <tile/>
   <tile/>
   <tile/>
   <tile/>
   <tile/>
   <tile/>
   <tile/>
   <tile/>
   <tile/>
   <tile/>
   <tile/>
   <tile/>
   <tile/>
   <tile/>
   <tile/>
   <tile/>
   <tile/>
   <tile/>
   <tile/>
   <tile/>
   <tile/>
   <tile/>
   <tile/>
   <tile/>
   <tile/>
   <tile/>
   <tile/>
   <tile/>
   <tile/>
   <tile/>
   <tile/>
   <tile/>
   <tile/>
   <tile/>
   <tile/>
   <tile/>
   <tile/>
   <tile/>
   <tile/>
   <tile/>
   <tile/>
   <tile/>
   <tile/>
   <tile/>
   <tile/>
   <tile/>
   <tile/>
   <tile/>
   <tile/>
   <tile/>
   <tile/>
   <tile/>
   <tile/>
   <tile/>
   <tile/>
   <tile/>
   <tile/>
   <tile/>
   <tile/>
   <tile/>
   <tile/>
   <tile/>
   <tile/>
   <tile/>
   <tile/>
   <tile/>
   <tile/>
   <tile/>
   <tile/>
   <tile/>
   <tile/>
   <tile/>
   <tile/>
   <tile/>
   <tile/>
   <tile/>
   <tile/>
   <tile/>
   <tile/>
   <tile/>
   <tile/>
   <tile/>
   <tile/>
   <tile/>
   <tile/>
   <tile/>
   <tile/>
   <tile/>
   <tile/>
   <tile/>
   <tile/>
   <tile/>
   <tile/>
   <tile/>
   <tile/>
   <tile/>
   <tile/>
   <tile/>
   <tile/>
   <tile/>
   <tile/>
   <tile/>
   <tile/>
   <tile/>
   <tile/>
   <tile/>
   <tile/>
   <tile/>
   <tile/>
   <tile/>
   <tile/>
   <tile/>
   <tile/>
   <tile/>
   <tile/>
   <tile/>
   <tile/>
   <tile/>
   <tile/>
   <tile/>
   <tile/>
   <tile/>
   <tile/>
   <tile/>
   <tile/>
   <tile/>
   <tile/>
   <tile/>
   <tile/>
   <tile/>
   <tile/>
   <tile/>
   <tile/>
   <tile/>
   <tile/>
   <tile/>
   <tile/>
   <tile/>
   <tile/>
   <tile/>
   <tile/>
   <tile/>
   <tile/>
   <tile/>
   <tile/>
   <tile/>
   <tile/>
   <tile/>
   <tile/>
   <tile/>
   <tile/>
   <tile/>
   <tile/>
   <tile/>
   <tile/>
   <tile/>
   <tile/>
   <tile/>
   <tile/>
   <tile/>
   <tile/>
   <tile/>
   <tile/>
   <tile/>
   <tile/>
   <tile/>
   <tile/>
   <tile/>
   <tile/>
   <tile/>
   <tile/>
   <tile/>
   <tile/>
   <tile/>
   <tile/>
   <tile/>
   <tile/>
   <tile/>
   <tile/>
   <tile/>
   <tile/>
   <tile/>
   <tile/>
   <tile/>
   <tile/>
   <tile/>
   <tile/>
   <tile gid="9"/>
   <tile gid="10"/>
   <tile gid="10"/>
   <tile gid="10"/>
   <tile gid="10"/>
   <tile gid="10"/>
   <tile gid="10"/>
   <tile gid="10"/>
   <tile gid="10"/>
   <tile gid="10"/>
   <tile gid="10"/>
   <tile gid="10"/>
   <tile gid="10"/>
   <tile gid="10"/>
   <tile gid="10"/>
   <tile gid="10"/>
   <tile gid="10"/>
   <tile gid="10"/>
   <tile gid="10"/>
   <tile gid="10"/>
   <tile gid="10"/>
   <tile gid="10"/>
   <tile gid="10"/>
   <tile gid="10"/>
   <tile gid="10"/>
   <tile/>
   <tile/>
   <tile/>
   <tile/>
   <tile/>
   <tile/>
   <tile/>
   <tile/>
   <tile/>
   <tile/>
   <tile/>
   <tile/>
   <tile/>
   <tile/>
   <tile/>
   <tile/>
   <tile/>
   <tile/>
   <tile/>
   <tile/>
   <tile/>
   <tile/>
   <tile/>
   <tile/>
   <tile/>
   <tile/>
   <tile/>
   <tile/>
   <tile/>
   <tile/>
   <tile gid="73"/>
   <tile gid="74"/>
   <tile gid="74"/>
   <tile gid="74"/>
   <tile gid="74"/>
   <tile gid="74"/>
   <tile gid="74"/>
   <tile gid="74"/>
   <tile/>
   <tile/>
   <tile/>
   <tile/>
   <tile/>
   <tile/>
   <tile/>
   <tile/>
   <tile/>
   <tile/>
   <tile/>
   <tile/>
   <tile/>
   <tile/>
   <tile/>
   <tile/>
   <tile/>
   <tile/>
   <tile/>
   <tile/>
   <tile/>
   <tile gid="9"/>
   <tile gid="10"/>
   <tile gid="10"/>
   <tile gid="10"/>
   <tile gid="10"/>
   <tile gid="10"/>
   <tile/>
   <tile/>
   <tile/>
   <tile/>
   <tile/>
   <tile/>
   <tile/>
   <tile/>
   <tile/>
   <tile/>
   <tile/>
   <tile/>
   <tile/>
   <tile/>
   <tile/>
   <tile/>
   <tile/>
   <tile/>
   <tile/>
   <tile/>
   <tile/>
   <tile/>
   <tile/>
   <tile/>
   <tile/>
   <tile/>
   <tile/>
   <tile/>
   <tile/>
   <tile/>
   <tile/>
   <tile/>
   <tile/>
   <tile/>
   <tile/>
   <tile/>
   <tile/>
   <tile/>
   <tile/>
   <tile/>
   <tile/>
   <tile/>
   <tile/>
   <tile/>
   <tile/>
   <tile/>
   <tile/>
   <tile/>
   <tile/>
   <tile/>
   <tile/>
   <tile/>
   <tile/>
   <tile/>
   <tile/>
   <tile/>
   <tile/>
   <tile/>
   <tile/>
   <tile/>
   <tile/>
   <tile/>
   <tile/>
   <tile/>
   <tile/>
   <tile/>
   <tile/>
   <tile/>
   <tile/>
   <tile/>
   <tile/>
   <tile/>
   <tile/>
   <tile/>
   <tile/>
   <tile/>
   <tile/>
   <tile/>
   <tile/>
   <tile/>
   <tile gid="74"/>
   <tile gid="74"/>
   <tile gid="10"/>
   <tile gid="10"/>
   <tile/>
   <tile/>
   <tile/>
   <tile/>
   <tile/>
   <tile/>
   <tile/>
   <tile/>
   <tile/>
   <tile/>
   <tile/>
   <tile/>
   <tile/>
   <tile/>
   <tile/>
   <tile/>
   <tile/>
   <tile/>
   <tile/>
   <tile/>
   <tile/>
   <tile/>
   <tile/>
   <tile/>
   <tile/>
   <tile/>
   <tile/>
   <tile/>
   <tile/>
   <tile/>
   <tile/>
   <tile/>
   <tile/>
   <tile/>
   <tile/>
   <tile/>
   <tile/>
   <tile/>
   <tile/>
   <tile/>
   <tile/>
   <tile/>
   <tile/>
   <tile/>
   <tile/>
   <tile/>
   <tile/>
   <tile/>
   <tile/>
   <tile/>
   <tile/>
   <tile/>
   <tile/>
   <tile/>
   <tile/>
   <tile/>
   <tile/>
   <tile/>
   <tile/>
   <tile/>
   <tile/>
   <tile gid="1073741897"/>
   <tile/>
   <tile/>
   <tile/>
   <tile/>
   <tile/>
   <tile/>
   <tile/>
   <tile/>
   <tile/>
   <tile/>
   <tile/>
   <tile/>
   <tile/>
   <tile/>
   <tile/>
   <tile/>
   <tile/>
   <tile/>
   <tile/>
   <tile/>
   <tile/>
   <tile/>
   <tile/>
   <tile/>
   <tile/>
   <tile/>
   <tile/>
   <tile/>
   <tile/>
   <tile/>
   <tile/>
   <tile/>
   <tile/>
   <tile/>
   <tile/>
   <tile/>
   <tile/>
   <tile/>
   <tile/>
   <tile/>
   <tile/>
   <tile/>
   <tile/>
   <tile/>
   <tile/>
   <tile/>
   <tile/>
   <tile/>
   <tile/>
   <tile/>
   <tile/>
   <tile/>
   <tile/>
   <tile/>
   <tile/>
   <tile/>
   <tile/>
   <tile/>
   <tile/>
   <tile/>
   <tile/>
   <tile/>
   <tile/>
   <tile/>
   <tile/>
   <tile/>
   <tile/>
   <tile/>
   <tile/>
   <tile/>
   <tile/>
   <tile/>
   <tile/>
   <tile/>
   <tile/>
   <tile/>
   <tile/>
   <tile/>
   <tile/>
   <tile/>
   <tile/>
   <tile/>
   <tile/>
   <tile/>
   <tile/>
   <tile/>
   <tile/>
   <tile/>
   <tile/>
   <tile/>
   <tile/>
   <tile/>
   <tile/>
   <tile/>
   <tile/>
   <tile/>
   <tile/>
   <tile/>
   <tile/>
   <tile/>
   <tile/>
   <tile/>
   <tile/>
   <tile/>
   <tile/>
   <tile/>
   <tile gid="1073741898"/>
   <tile gid="1073741898"/>
   <tile gid="1073741898"/>
   <tile gid="1073741898"/>
   <tile gid="1073741898"/>
   <tile gid="1073741898"/>
   <tile gid="1073741898"/>
   <tile gid="1073741899"/>
   <tile/>
   <tile/>
   <tile/>
   <tile/>
   <tile/>
   <tile/>
   <tile/>
   <tile/>
   <tile/>
   <tile/>
   <tile/>
   <tile/>
   <tile/>
   <tile/>
   <tile/>
   <tile/>
   <tile/>
   <tile/>
   <tile/>
   <tile/>
   <tile/>
   <tile/>
   <tile/>
   <tile/>
   <tile/>
   <tile/>
   <tile/>
   <tile/>
   <tile/>
   <tile/>
   <tile/>
   <tile/>
   <tile/>
   <tile/>
   <tile/>
   <tile/>
   <tile/>
   <tile/>
   <tile/>
   <tile/>
   <tile/>
   <tile/>
   <tile/>
   <tile/>
   <tile/>
   <tile/>
   <tile/>
   <tile/>
   <tile/>
   <tile/>
   <tile/>
   <tile/>
   <tile/>
   <tile/>
   <tile/>
   <tile/>
   <tile/>
   <tile/>
   <tile/>
   <tile/>
   <tile/>
   <tile/>
   <tile/>
   <tile/>
   <tile/>
   <tile/>
   <tile/>
   <tile/>
   <tile/>
   <tile/>
   <tile/>
   <tile/>
   <tile/>
   <tile/>
   <tile/>
   <tile/>
   <tile/>
   <tile/>
   <tile/>
   <tile/>
   <tile/>
   <tile/>
   <tile/>
   <tile/>
   <tile/>
   <tile/>
   <tile/>
   <tile/>
   <tile/>
   <tile/>
   <tile/>
   <tile/>
   <tile/>
   <tile/>
   <tile/>
   <tile/>
   <tile/>
   <tile/>
   <tile/>
   <tile/>
   <tile/>
   <tile/>
   <tile/>
   <tile/>
   <tile/>
   <tile/>
   <tile/>
   <tile/>
   <tile/>
   <tile/>
   <tile/>
   <tile/>
   <tile/>
   <tile/>
   <tile/>
   <tile/>
   <tile/>
   <tile/>
   <tile/>
   <tile/>
   <tile/>
   <tile/>
   <tile/>
   <tile/>
   <tile/>
   <tile/>
   <tile/>
   <tile/>
   <tile/>
   <tile/>
   <tile/>
   <tile/>
   <tile/>
   <tile/>
   <tile/>
   <tile/>
   <tile/>
   <tile/>
   <tile/>
   <tile/>
   <tile/>
   <tile/>
   <tile/>
   <tile/>
   <tile/>
   <tile/>
   <tile/>
   <tile/>
   <tile/>
   <tile/>
   <tile/>
   <tile/>
   <tile/>
   <tile/>
   <tile/>
   <tile/>
   <tile/>
   <tile/>
   <tile/>
   <tile/>
   <tile/>
   <tile/>
   <tile/>
   <tile/>
   <tile/>
   <tile/>
   <tile/>
   <tile/>
   <tile/>
   <tile/>
   <tile/>
   <tile/>
   <tile/>
   <tile/>
   <tile/>
   <tile/>
   <tile/>
   <tile/>
   <tile/>
   <tile/>
   <tile/>
   <tile/>
   <tile/>
   <tile/>
   <tile/>
   <tile/>
   <tile/>
   <tile/>
   <tile/>
   <tile/>
   <tile/>
   <tile/>
   <tile/>
   <tile/>
   <tile/>
   <tile/>
   <tile/>
   <tile/>
   <tile/>
   <tile/>
   <tile/>
   <tile/>
   <tile/>
   <tile/>
   <tile/>
   <tile/>
   <tile/>
   <tile/>
   <tile/>
   <tile/>
   <tile/>
   <tile/>
   <tile/>
   <tile/>
   <tile/>
   <tile/>
   <tile/>
   <tile/>
   <tile/>
   <tile/>
   <tile/>
   <tile/>
   <tile/>
   <tile/>
   <tile/>
   <tile/>
   <tile/>
   <tile/>
   <tile/>
   <tile/>
   <tile/>
   <tile/>
   <tile/>
   <tile/>
   <tile/>
   <tile/>
   <tile/>
   <tile/>
   <tile/>
   <tile/>
   <tile/>
   <tile/>
   <tile/>
   <tile/>
   <tile/>
   <tile/>
   <tile/>
   <tile/>
   <tile/>
   <tile/>
   <tile/>
   <tile/>
   <tile/>
   <tile/>
   <tile/>
   <tile/>
   <tile/>
   <tile/>
   <tile/>
   <tile/>
   <tile/>
   <tile/>
   <tile/>
   <tile/>
   <tile/>
   <tile/>
   <tile/>
   <tile/>
   <tile/>
   <tile/>
   <tile/>
   <tile/>
   <tile/>
   <tile/>
   <tile/>
   <tile/>
   <tile/>
   <tile/>
   <tile/>
   <tile/>
   <tile/>
   <tile/>
   <tile/>
   <tile/>
   <tile/>
   <tile/>
   <tile/>
   <tile/>
   <tile/>
   <tile/>
   <tile/>
   <tile/>
   <tile/>
   <tile/>
   <tile/>
   <tile/>
   <tile/>
   <tile/>
   <tile/>
   <tile/>
   <tile/>
   <tile/>
   <tile/>
   <tile/>
   <tile/>
   <tile/>
   <tile/>
   <tile/>
   <tile/>
   <tile/>
   <tile/>
   <tile/>
   <tile/>
   <tile/>
   <tile/>
   <tile/>
   <tile/>
   <tile/>
   <tile/>
   <tile/>
   <tile/>
   <tile/>
   <tile/>
   <tile/>
   <tile/>
   <tile/>
   <tile/>
   <tile/>
   <tile/>
   <tile/>
   <tile/>
   <tile/>
   <tile/>
   <tile/>
   <tile/>
   <tile/>
   <tile/>
   <tile/>
   <tile/>
   <tile/>
   <tile/>
   <tile/>
   <tile/>
   <tile/>
   <tile/>
   <tile/>
   <tile/>
   <tile/>
   <tile/>
   <tile/>
   <tile/>
   <tile/>
   <tile/>
   <tile/>
   <tile/>
   <tile/>
   <tile/>
   <tile/>
   <tile/>
   <tile/>
   <tile/>
   <tile/>
   <tile/>
   <tile/>
   <tile/>
   <tile/>
   <tile/>
   <tile/>
   <tile/>
   <tile/>
   <tile/>
   <tile/>
   <tile/>
   <tile/>
   <tile/>
   <tile/>
   <tile/>
   <tile/>
   <tile/>
   <tile/>
   <tile/>
   <tile/>
   <tile/>
   <tile/>
   <tile/>
   <tile/>
   <tile/>
   <tile/>
   <tile/>
   <tile/>
   <tile/>
   <tile/>
   <tile/>
   <tile/>
   <tile/>
   <tile/>
   <tile/>
   <tile/>
   <tile/>
   <tile/>
   <tile/>
   <tile/>
   <tile/>
   <tile/>
   <tile/>
   <tile/>
   <tile/>
   <tile/>
   <tile/>
   <tile/>
   <tile/>
   <tile/>
   <tile/>
   <tile/>
   <tile/>
   <tile/>
   <tile/>
   <tile/>
   <tile/>
   <tile/>
   <tile/>
   <tile/>
   <tile/>
   <tile/>
   <tile/>
   <tile/>
   <tile/>
   <tile/>
   <tile/>
   <tile/>
   <tile/>
   <tile/>
   <tile/>
   <tile/>
   <tile/>
   <tile/>
   <tile/>
   <tile/>
   <tile/>
   <tile/>
   <tile/>
   <tile/>
   <tile/>
   <tile/>
   <tile/>
   <tile/>
   <tile/>
   <tile/>
   <tile/>
   <tile/>
   <tile/>
   <tile/>
   <tile/>
   <tile/>
   <tile/>
   <tile/>
   <tile/>
   <tile/>
   <tile/>
   <tile/>
   <tile/>
   <tile/>
   <tile/>
   <tile/>
   <tile/>
   <tile/>
   <tile gid="9"/>
   <tile gid="10"/>
   <tile gid="10"/>
   <tile gid="10"/>
   <tile gid="10"/>
   <tile gid="10"/>
   <tile gid="10"/>
   <tile gid="10"/>
   <tile gid="10"/>
   <tile gid="10"/>
   <tile gid="10"/>
   <tile gid="10"/>
   <tile gid="10"/>
   <tile gid="10"/>
   <tile gid="11"/>
   <tile/>
   <tile/>
   <tile/>
   <tile/>
   <tile/>
   <tile/>
   <tile/>
   <tile/>
   <tile/>
   <tile/>
   <tile/>
   <tile/>
   <tile/>
   <tile/>
   <tile/>
   <tile/>
   <tile/>
   <tile/>
   <tile/>
   <tile/>
   <tile/>
   <tile/>
   <tile/>
   <tile/>
   <tile/>
   <tile/>
   <tile/>
   <tile/>
   <tile/>
   <tile/>
   <tile/>
   <tile/>
   <tile/>
   <tile/>
   <tile/>
   <tile/>
   <tile/>
   <tile/>
   <tile/>
   <tile/>
   <tile/>
   <tile/>
   <tile/>
   <tile/>
   <tile/>
   <tile/>
   <tile/>
   <tile/>
   <tile/>
   <tile/>
   <tile/>
   <tile/>
   <tile/>
   <tile/>
   <tile/>
   <tile/>
   <tile/>
   <tile/>
   <tile/>
   <tile/>
   <tile/>
   <tile/>
   <tile/>
   <tile/>
   <tile/>
   <tile/>
   <tile/>
   <tile/>
   <tile/>
   <tile/>
   <tile/>
   <tile/>
   <tile/>
   <tile/>
   <tile/>
   <tile/>
   <tile/>
   <tile/>
   <tile/>
   <tile/>
   <tile/>
   <tile/>
   <tile/>
   <tile/>
   <tile/>
   <tile/>
   <tile/>
   <tile/>
   <tile/>
   <tile/>
   <tile/>
   <tile/>
   <tile/>
   <tile/>
   <tile/>
   <tile/>
   <tile/>
   <tile/>
   <tile/>
   <tile/>
   <tile/>
   <tile/>
   <tile/>
   <tile/>
   <tile/>
   <tile/>
   <tile/>
   <tile/>
   <tile/>
   <tile/>
   <tile/>
   <tile/>
   <tile/>
   <tile/>
   <tile/>
   <tile/>
   <tile/>
   <tile/>
   <tile/>
   <tile/>
   <tile/>
   <tile gid="73"/>
   <tile gid="74"/>
   <tile gid="74"/>
   <tile gid="74"/>
   <tile gid="75"/>
   <tile/>
   <tile/>
   <tile/>
   <tile/>
   <tile/>
   <tile/>
   <tile/>
   <tile/>
   <tile/>
   <tile/>
   <tile/>
   <tile gid="73"/>
   <tile gid="74"/>
   <tile gid="74"/>
   <tile gid="75"/>
   <tile/>
   <tile/>
   <tile/>
   <tile/>
   <tile/>
   <tile/>
   <tile gid="73"/>
   <tile gid="74"/>
   <tile gid="74"/>
   <tile gid="74"/>
   <tile gid="75"/>
   <tile/>
   <tile/>
   <tile/>
   <tile/>
   <tile/>
   <tile/>
   <tile/>
   <tile/>
   <tile/>
   <tile/>
   <tile/>
   <tile/>
   <tile/>
   <tile/>
   <tile/>
   <tile/>
   <tile/>
   <tile/>
   <tile/>
   <tile/>
   <tile/>
   <tile/>
   <tile/>
   <tile/>
   <tile/>
   <tile/>
   <tile/>
   <tile/>
   <tile/>
   <tile/>
   <tile/>
   <tile/>
   <tile/>
   <tile/>
   <tile/>
   <tile/>
   <tile/>
   <tile/>
   <tile/>
   <tile/>
   <tile/>
   <tile/>
   <tile/>
   <tile/>
   <tile/>
   <tile/>
   <tile/>
   <tile/>
   <tile/>
   <tile/>
   <tile/>
   <tile/>
   <tile/>
   <tile/>
   <tile/>
   <tile/>
   <tile/>
   <tile/>
   <tile/>
   <tile/>
   <tile/>
   <tile/>
   <tile/>
   <tile/>
   <tile/>
   <tile/>
   <tile/>
   <tile/>
   <tile/>
   <tile/>
   <tile/>
   <tile/>
   <tile/>
   <tile/>
   <tile/>
   <tile/>
   <tile/>
   <tile/>
   <tile/>
   <tile/>
   <tile/>
   <tile/>
   <tile/>
   <tile/>
   <tile/>
   <tile/>
   <tile/>
   <tile/>
   <tile/>
   <tile/>
   <tile/>
   <tile/>
   <tile/>
   <tile/>
   <tile/>
   <tile/>
   <tile/>
   <tile/>
   <tile/>
   <tile/>
   <tile/>
   <tile/>
   <tile/>
   <tile/>
   <tile/>
   <tile/>
   <tile/>
   <tile/>
   <tile/>
   <tile/>
   <tile/>
   <tile/>
   <tile/>
   <tile/>
   <tile/>
   <tile/>
   <tile/>
   <tile/>
   <tile/>
   <tile/>
   <tile/>
   <tile/>
   <tile/>
   <tile/>
   <tile/>
   <tile/>
   <tile/>
   <tile/>
   <tile/>
   <tile/>
   <tile/>
   <tile/>
   <tile/>
   <tile/>
   <tile/>
   <tile/>
   <tile/>
   <tile/>
   <tile/>
   <tile/>
   <tile/>
   <tile/>
   <tile/>
   <tile/>
   <tile/>
   <tile/>
   <tile/>
   <tile/>
   <tile/>
   <tile/>
   <tile/>
   <tile/>
   <tile/>
   <tile/>
   <tile/>
   <tile/>
   <tile/>
   <tile/>
   <tile gid="73"/>
   <tile gid="74"/>
   <tile gid="74"/>
   <tile gid="75"/>
   <tile/>
   <tile/>
   <tile/>
   <tile/>
   <tile/>
   <tile/>
   <tile/>
   <tile/>
   <tile/>
   <tile/>
   <tile/>
   <tile/>
   <tile/>
   <tile/>
   <tile/>
   <tile/>
   <tile/>
   <tile/>
   <tile/>
   <tile/>
   <tile/>
   <tile gid="73"/>
   <tile gid="74"/>
   <tile gid="74"/>
   <tile gid="74"/>
   <tile gid="75"/>
   <tile/>
   <tile/>
   <tile/>
   <tile/>
   <tile/>
   <tile/>
   <tile/>
   <tile/>
   <tile/>
   <tile/>
   <tile/>
   <tile/>
   <tile/>
   <tile/>
   <tile/>
   <tile/>
   <tile/>
   <tile/>
   <tile/>
   <tile/>
   <tile/>
   <tile/>
   <tile/>
   <tile/>
   <tile/>
   <tile/>
   <tile/>
   <tile/>
   <tile/>
   <tile/>
   <tile/>
   <tile/>
   <tile/>
   <tile/>
   <tile/>
   <tile/>
   <tile/>
   <tile/>
   <tile/>
   <tile/>
   <tile/>
   <tile/>
   <tile/>
   <tile gid="1610612746"/>
   <tile/>
   <tile/>
   <tile/>
   <tile/>
   <tile/>
   <tile/>
   <tile/>
   <tile/>
   <tile/>
   <tile/>
   <tile/>
   <tile/>
   <tile/>
   <tile/>
   <tile/>
   <tile/>
   <tile/>
   <tile/>
   <tile/>
   <tile/>
   <tile/>
   <tile/>
   <tile/>
   <tile/>
   <tile/>
   <tile/>
   <tile/>
   <tile/>
   <tile/>
   <tile/>
   <tile/>
   <tile/>
   <tile/>
   <tile/>
   <tile/>
   <tile/>
   <tile/>
   <tile/>
   <tile/>
   <tile/>
   <tile/>
   <tile/>
   <tile/>
   <tile/>
   <tile/>
   <tile/>
   <tile/>
   <tile/>
   <tile/>
   <tile/>
   <tile/>
   <tile/>
   <tile/>
   <tile/>
   <tile/>
   <tile/>
   <tile/>
   <tile/>
   <tile/>
   <tile/>
   <tile/>
   <tile/>
   <tile/>
   <tile/>
   <tile/>
   <tile/>
   <tile/>
   <tile/>
   <tile/>
   <tile/>
   <tile/>
   <tile/>
   <tile/>
   <tile/>
   <tile/>
   <tile/>
   <tile/>
   <tile/>
   <tile/>
   <tile/>
   <tile/>
   <tile/>
   <tile/>
   <tile/>
   <tile/>
   <tile/>
   <tile/>
   <tile/>
   <tile/>
   <tile gid="1610612746"/>
   <tile/>
   <tile/>
   <tile/>
   <tile/>
   <tile/>
   <tile/>
   <tile/>
   <tile/>
   <tile/>
   <tile/>
   <tile/>
   <tile/>
   <tile/>
   <tile/>
   <tile/>
   <tile/>
   <tile/>
   <tile/>
   <tile/>
   <tile/>
   <tile/>
   <tile/>
   <tile/>
   <tile/>
   <tile/>
   <tile/>
   <tile/>
   <tile/>
   <tile/>
   <tile/>
   <tile/>
   <tile/>
   <tile/>
   <tile/>
   <tile/>
   <tile/>
   <tile/>
   <tile/>
   <tile/>
   <tile/>
   <tile/>
   <tile/>
   <tile/>
   <tile/>
   <tile/>
   <tile/>
   <tile/>
   <tile/>
   <tile/>
   <tile/>
   <tile/>
   <tile/>
   <tile/>
   <tile/>
   <tile/>
   <tile/>
   <tile/>
   <tile/>
   <tile/>
   <tile/>
   <tile/>
   <tile/>
   <tile/>
   <tile/>
   <tile/>
   <tile/>
   <tile/>
   <tile/>
   <tile/>
   <tile/>
   <tile/>
  </data>
 </layer>
 <layer id="2" name="Map" width="90" height="68">
  <properties>
   <property name="Draw" type="bool" value="true"/>
  </properties>
  <data>
   <tile/>
   <tile/>
   <tile/>
   <tile/>
   <tile/>
   <tile/>
   <tile/>
   <tile/>
   <tile/>
   <tile/>
   <tile/>
   <tile/>
   <tile/>
   <tile/>
   <tile/>
   <tile/>
   <tile/>
   <tile/>
   <tile/>
   <tile/>
   <tile/>
   <tile/>
   <tile/>
   <tile/>
   <tile/>
   <tile/>
   <tile/>
   <tile/>
   <tile/>
   <tile/>
   <tile/>
   <tile/>
   <tile/>
   <tile/>
   <tile/>
   <tile/>
   <tile/>
   <tile/>
   <tile/>
   <tile/>
   <tile/>
   <tile/>
   <tile/>
   <tile/>
   <tile/>
   <tile/>
   <tile/>
   <tile/>
   <tile/>
   <tile/>
   <tile/>
   <tile/>
   <tile/>
   <tile/>
   <tile/>
   <tile/>
   <tile/>
   <tile/>
   <tile/>
   <tile/>
   <tile/>
   <tile/>
   <tile/>
   <tile/>
   <tile/>
   <tile/>
   <tile/>
   <tile/>
   <tile/>
   <tile/>
   <tile/>
   <tile/>
   <tile/>
   <tile/>
   <tile/>
   <tile/>
   <tile/>
   <tile/>
   <tile/>
   <tile/>
   <tile/>
   <tile/>
   <tile/>
   <tile/>
   <tile/>
   <tile/>
   <tile/>
   <tile/>
   <tile/>
   <tile/>
   <tile/>
   <tile/>
   <tile/>
   <tile/>
   <tile/>
   <tile/>
   <tile/>
   <tile/>
   <tile/>
   <tile/>
   <tile/>
   <tile/>
   <tile/>
   <tile/>
   <tile/>
   <tile/>
   <tile/>
   <tile/>
   <tile/>
   <tile/>
   <tile/>
   <tile/>
   <tile/>
   <tile/>
   <tile/>
   <tile/>
   <tile/>
   <tile/>
   <tile/>
   <tile/>
   <tile/>
   <tile/>
   <tile/>
   <tile/>
   <tile/>
   <tile/>
   <tile/>
   <tile/>
   <tile/>
   <tile/>
   <tile/>
   <tile/>
   <tile/>
   <tile/>
   <tile/>
   <tile/>
   <tile/>
   <tile/>
   <tile/>
   <tile/>
   <tile/>
   <tile/>
   <tile/>
   <tile/>
   <tile/>
   <tile/>
   <tile/>
   <tile/>
   <tile/>
   <tile/>
   <tile/>
   <tile/>
   <tile/>
   <tile/>
   <tile/>
   <tile/>
   <tile/>
   <tile/>
   <tile/>
   <tile/>
   <tile/>
   <tile/>
   <tile/>
   <tile/>
   <tile/>
   <tile/>
   <tile/>
   <tile/>
   <tile/>
   <tile/>
   <tile/>
   <tile/>
   <tile/>
   <tile/>
   <tile/>
   <tile/>
   <tile/>
   <tile/>
   <tile/>
   <tile/>
   <tile/>
   <tile/>
   <tile/>
   <tile/>
   <tile/>
   <tile/>
   <tile/>
   <tile/>
   <tile/>
   <tile/>
   <tile/>
   <tile/>
   <tile/>
   <tile/>
   <tile/>
   <tile/>
   <tile/>
   <tile/>
   <tile/>
   <tile/>
   <tile/>
   <tile/>
   <tile/>
   <tile/>
   <tile/>
   <tile/>
   <tile/>
   <tile/>
   <tile/>
   <tile/>
   <tile/>
   <tile/>
   <tile/>
   <tile/>
   <tile/>
   <tile/>
   <tile/>
   <tile/>
   <tile/>
   <tile/>
   <tile/>
   <tile/>
   <tile/>
   <tile/>
   <tile/>
   <tile/>
   <tile/>
   <tile/>
   <tile/>
   <tile/>
   <tile/>
   <tile/>
   <tile/>
   <tile/>
   <tile/>
   <tile/>
   <tile/>
   <tile/>
   <tile/>
   <tile/>
   <tile/>
   <tile/>
   <tile/>
   <tile/>
   <tile/>
   <tile/>
   <tile/>
   <tile/>
   <tile/>
   <tile/>
   <tile/>
   <tile/>
   <tile/>
   <tile/>
   <tile/>
   <tile/>
   <tile/>
   <tile/>
   <tile/>
   <tile/>
   <tile/>
   <tile/>
   <tile/>
   <tile/>
   <tile/>
   <tile/>
   <tile/>
   <tile/>
   <tile/>
   <tile/>
   <tile/>
   <tile/>
   <tile/>
   <tile/>
   <tile/>
   <tile/>
   <tile/>
   <tile/>
   <tile/>
   <tile/>
   <tile/>
   <tile/>
   <tile/>
   <tile/>
   <tile/>
   <tile/>
   <tile/>
   <tile/>
   <tile/>
   <tile/>
   <tile/>
   <tile/>
   <tile/>
   <tile/>
   <tile/>
   <tile/>
   <tile/>
   <tile/>
   <tile/>
   <tile/>
   <tile/>
   <tile/>
   <tile/>
   <tile/>
   <tile/>
   <tile/>
   <tile/>
   <tile/>
   <tile/>
   <tile/>
   <tile/>
   <tile/>
   <tile/>
   <tile/>
   <tile/>
   <tile/>
   <tile/>
   <tile/>
   <tile/>
   <tile/>
   <tile/>
   <tile/>
   <tile/>
   <tile/>
   <tile/>
   <tile/>
   <tile/>
   <tile/>
   <tile/>
   <tile/>
   <tile/>
   <tile/>
   <tile/>
   <tile/>
   <tile/>
   <tile/>
   <tile/>
   <tile/>
   <tile/>
   <tile/>
   <tile/>
   <tile/>
   <tile/>
   <tile/>
   <tile/>
   <tile/>
   <tile/>
   <tile/>
   <tile/>
   <tile/>
   <tile/>
   <tile/>
   <tile/>
   <tile/>
   <tile/>
   <tile/>
   <tile/>
   <tile/>
   <tile/>
   <tile/>
   <tile/>
   <tile/>
   <tile/>
   <tile/>
   <tile/>
   <tile/>
   <tile/>
   <tile/>
   <tile/>
   <tile/>
   <tile/>
   <tile/>
   <tile/>
   <tile/>
   <tile/>
   <tile/>
   <tile/>
   <tile/>
   <tile/>
   <tile/>
   <tile/>
   <tile/>
   <tile/>
   <tile/>
   <tile/>
   <tile/>
   <tile/>
   <tile/>
   <tile/>
   <tile/>
   <tile/>
   <tile/>
   <tile/>
   <tile/>
   <tile/>
   <tile/>
   <tile/>
   <tile/>
   <tile/>
   <tile/>
   <tile/>
   <tile/>
   <tile/>
   <tile/>
   <tile/>
   <tile/>
   <tile/>
   <tile/>
   <tile/>
   <tile/>
   <tile/>
   <tile/>
   <tile/>
   <tile/>
   <tile/>
   <tile/>
   <tile/>
   <tile/>
   <tile/>
   <tile/>
   <tile/>
   <tile/>
   <tile/>
   <tile/>
   <tile/>
   <tile/>
   <tile/>
   <tile/>
   <tile/>
   <tile/>
   <tile/>
   <tile/>
   <tile/>
   <tile/>
   <tile/>
   <tile/>
   <tile/>
   <tile/>
   <tile/>
   <tile/>
   <tile/>
   <tile/>
   <tile/>
   <tile/>
   <tile/>
   <tile/>
   <tile/>
   <tile/>
   <tile/>
   <tile/>
   <tile/>
   <tile/>
   <tile/>
   <tile/>
   <tile/>
   <tile/>
   <tile/>
   <tile/>
   <tile/>
   <tile/>
   <tile/>
   <tile/>
   <tile/>
   <tile/>
   <tile/>
   <tile/>
   <tile/>
   <tile/>
   <tile/>
   <tile/>
   <tile/>
   <tile/>
   <tile/>
   <tile/>
   <tile/>
   <tile/>
   <tile/>
   <tile/>
   <tile/>
   <tile/>
   <tile/>
   <tile/>
   <tile/>
   <tile/>
   <tile/>
   <tile/>
   <tile/>
   <tile/>
   <tile/>
   <tile/>
   <tile/>
   <tile/>
   <tile/>
   <tile/>
   <tile/>
   <tile/>
   <tile/>
   <tile/>
   <tile/>
   <tile/>
   <tile/>
   <tile/>
   <tile/>
   <tile/>
   <tile/>
   <tile/>
   <tile/>
   <tile/>
   <tile/>
   <tile/>
   <tile/>
   <tile/>
   <tile/>
   <tile/>
   <tile/>
   <tile/>
   <tile/>
   <tile/>
   <tile/>
   <tile/>
   <tile/>
   <tile/>
   <tile/>
   <tile/>
   <tile/>
   <tile/>
   <tile/>
   <tile/>
   <tile/>
   <tile/>
   <tile/>
   <tile/>
   <tile/>
   <tile/>
   <tile/>
   <tile/>
   <tile/>
   <tile/>
   <tile/>
   <tile/>
   <tile/>
   <tile/>
   <tile/>
   <tile/>
   <tile/>
   <tile/>
   <tile/>
   <tile/>
   <tile/>
   <tile/>
   <tile/>
   <tile/>
   <tile/>
   <tile/>
   <tile/>
   <tile/>
   <tile/>
   <tile/>
   <tile/>
   <tile/>
   <tile/>
   <tile/>
   <tile/>
   <tile/>
   <tile/>
   <tile/>
   <tile/>
   <tile/>
   <tile/>
   <tile/>
   <tile/>
   <tile/>
   <tile/>
   <tile/>
   <tile/>
   <tile/>
   <tile/>
   <tile/>
   <tile/>
   <tile/>
   <tile/>
   <tile/>
   <tile/>
   <tile/>
   <tile/>
   <tile/>
   <tile/>
   <tile/>
   <tile/>
   <tile/>
   <tile/>
   <tile/>
   <tile/>
   <tile/>
   <tile/>
   <tile/>
   <tile/>
   <tile/>
   <tile/>
   <tile/>
   <tile/>
   <tile/>
   <tile/>
   <tile/>
   <tile/>
   <tile/>
   <tile/>
   <tile/>
   <tile/>
   <tile/>
   <tile/>
   <tile/>
   <tile/>
   <tile/>
   <tile/>
   <tile/>
   <tile/>
   <tile/>
   <tile/>
   <tile/>
   <tile/>
   <tile/>
   <tile/>
   <tile/>
   <tile/>
   <tile/>
   <tile/>
   <tile/>
   <tile/>
   <tile/>
   <tile/>
   <tile/>
   <tile/>
   <tile/>
   <tile/>
   <tile/>
   <tile/>
   <tile/>
   <tile/>
   <tile/>
   <tile/>
   <tile/>
   <tile/>
   <tile/>
   <tile/>
   <tile/>
   <tile/>
   <tile/>
   <tile/>
   <tile/>
   <tile/>
   <tile/>
   <tile/>
   <tile/>
   <tile/>
   <tile/>
   <tile/>
   <tile/>
   <tile/>
   <tile/>
   <tile/>
   <tile/>
   <tile/>
   <tile/>
   <tile/>
   <tile/>
   <tile/>
   <tile/>
   <tile/>
   <tile/>
   <tile/>
   <tile/>
   <tile/>
   <tile/>
   <tile/>
   <tile/>
   <tile/>
   <tile/>
   <tile/>
   <tile/>
   <tile/>
   <tile/>
   <tile/>
   <tile/>
   <tile/>
   <tile/>
   <tile/>
   <tile/>
   <tile/>
   <tile/>
   <tile/>
   <tile/>
   <tile/>
   <tile/>
   <tile/>
   <tile/>
   <tile/>
   <tile/>
   <tile/>
   <tile/>
   <tile/>
   <tile/>
   <tile/>
   <tile/>
   <tile/>
   <tile/>
   <tile/>
   <tile/>
   <tile/>
   <tile/>
   <tile/>
   <tile/>
   <tile/>
   <tile/>
   <tile/>
   <tile/>
   <tile/>
   <tile/>
   <tile/>
   <tile/>
   <tile/>
   <tile/>
   <tile/>
   <tile/>
   <tile/>
   <tile/>
   <tile/>
   <tile/>
   <tile/>
   <tile/>
   <tile/>
   <tile/>
   <tile/>
   <tile/>
   <tile/>
   <tile/>
   <tile/>
   <tile/>
   <tile/>
   <tile/>
   <tile/>
   <tile/>
   <tile/>
   <tile/>
   <tile/>
   <tile/>
   <tile/>
   <tile/>
   <tile/>
   <tile/>
   <tile/>
   <tile/>
   <tile/>
   <tile/>
   <tile/>
   <tile/>
   <tile/>
   <tile/>
   <tile/>
   <tile/>
   <tile/>
   <tile/>
   <tile/>
   <tile/>
   <tile/>
   <tile/>
   <tile/>
   <tile/>
   <tile/>
   <tile/>
   <tile/>
   <tile/>
   <tile/>
   <tile/>
   <tile/>
   <tile/>
   <tile/>
   <tile/>
   <tile/>
   <tile/>
   <tile/>
   <tile/>
   <tile/>
   <tile/>
   <tile/>
   <tile/>
   <tile/>
   <tile/>
   <tile/>
   <tile/>
   <tile/>
   <tile/>
   <tile/>
   <tile/>
   <tile/>
   <tile/>
   <tile/>
   <tile/>
   <tile/>
   <tile/>
   <tile/>
   <tile/>
   <tile/>
   <tile/>
   <tile/>
   <tile/>
   <tile/>
   <tile/>
   <tile/>
   <tile/>
   <tile/>
   <tile/>
   <tile/>
   <tile/>
   <tile/>
   <tile/>
   <tile/>
   <tile/>
   <tile/>
   <tile/>
   <tile/>
   <tile/>
   <tile/>
   <tile/>
   <tile/>
   <tile/>
   <tile/>
   <tile/>
   <tile/>
   <tile/>
   <tile/>
   <tile/>
   <tile/>
   <tile/>
   <tile/>
   <tile/>
   <tile/>
   <tile/>
   <tile/>
   <tile/>
   <tile/>
   <tile/>
   <tile/>
   <tile/>
   <tile/>
   <tile/>
   <tile/>
   <tile/>
   <tile/>
   <tile/>
   <tile/>
   <tile/>
   <tile/>
   <tile/>
   <tile/>
   <tile/>
   <tile/>
   <tile/>
   <tile/>
   <tile/>
   <tile/>
   <tile/>
   <tile/>
   <tile/>
   <tile/>
   <tile/>
   <tile/>
   <tile/>
   <tile/>
   <tile/>
   <tile/>
   <tile/>
   <tile/>
   <tile/>
   <tile/>
   <tile/>
   <tile/>
   <tile/>
   <tile/>
   <tile/>
   <tile/>
   <tile/>
   <tile/>
   <tile/>
   <tile/>
   <tile/>
   <tile/>
   <tile/>
   <tile/>
   <tile/>
   <tile/>
   <tile/>
   <tile/>
   <tile/>
   <tile/>
   <tile/>
   <tile/>
   <tile/>
   <tile/>
   <tile/>
   <tile/>
   <tile/>
   <tile/>
   <tile/>
   <tile/>
   <tile/>
   <tile/>
   <tile/>
   <tile/>
   <tile/>
   <tile/>
   <tile/>
   <tile/>
   <tile/>
   <tile/>
   <tile/>
   <tile/>
   <tile/>
   <tile/>
   <tile/>
   <tile/>
   <tile/>
   <tile/>
   <tile/>
   <tile/>
   <tile/>
   <tile/>
   <tile/>
   <tile/>
   <tile/>
   <tile/>
   <tile/>
   <tile/>
   <tile/>
   <tile/>
   <tile/>
   <tile/>
   <tile/>
   <tile/>
   <tile/>
   <tile/>
   <tile/>
   <tile/>
   <tile/>
   <tile/>
   <tile/>
   <tile/>
   <tile/>
   <tile/>
   <tile/>
   <tile/>
   <tile/>
   <tile/>
   <tile/>
   <tile/>
   <tile/>
   <tile/>
   <tile/>
   <tile/>
   <tile/>
   <tile/>
   <tile/>
   <tile/>
   <tile/>
   <tile/>
   <tile/>
   <tile/>
   <tile/>
   <tile/>
   <tile/>
   <tile/>
   <tile/>
   <tile/>
   <tile/>
   <tile/>
   <tile/>
   <tile/>
   <tile/>
   <tile/>
   <tile/>
   <tile/>
   <tile/>
   <tile/>
   <tile/>
   <tile/>
   <tile/>
   <tile/>
   <tile/>
   <tile/>
   <tile/>
   <tile/>
   <tile/>
   <tile/>
   <tile/>
   <tile/>
   <tile/>
   <tile/>
   <tile/>
   <tile/>
   <tile/>
   <tile/>
   <tile/>
   <tile/>
   <tile/>
   <tile/>
   <tile/>
   <tile/>
   <tile/>
   <tile/>
   <tile/>
   <tile/>
   <tile/>
   <tile/>
   <tile/>
   <tile/>
   <tile/>
   <tile/>
   <tile/>
   <tile/>
   <tile/>
   <tile/>
   <tile/>
   <tile/>
   <tile/>
   <tile/>
   <tile/>
   <tile/>
   <tile/>
   <tile/>
   <tile/>
   <tile/>
   <tile/>
   <tile/>
   <tile/>
   <tile/>
   <tile/>
   <tile/>
   <tile/>
   <tile/>
   <tile/>
   <tile/>
   <tile/>
   <tile/>
   <tile/>
   <tile/>
   <tile/>
   <tile/>
   <tile/>
   <tile/>
   <tile/>
   <tile/>
   <tile/>
   <tile/>
   <tile/>
   <tile/>
   <tile/>
   <tile/>
   <tile/>
   <tile/>
   <tile/>
   <tile/>
   <tile/>
   <tile/>
   <tile/>
   <tile/>
   <tile/>
   <tile/>
   <tile/>
   <tile/>
   <tile/>
   <tile/>
   <tile/>
   <tile/>
   <tile/>
   <tile/>
   <tile/>
   <tile/>
   <tile/>
   <tile/>
   <tile/>
   <tile/>
   <tile/>
   <tile/>
   <tile/>
   <tile/>
   <tile/>
   <tile/>
   <tile/>
   <tile/>
   <tile/>
   <tile/>
   <tile/>
   <tile/>
   <tile/>
   <tile/>
   <tile/>
   <tile/>
   <tile/>
   <tile/>
   <tile/>
   <tile/>
   <tile/>
   <tile/>
   <tile/>
   <tile/>
   <tile/>
   <tile/>
   <tile/>
   <tile/>
   <tile/>
   <tile/>
   <tile/>
   <tile/>
   <tile/>
   <tile/>
   <tile/>
   <tile/>
   <tile/>
   <tile/>
   <tile/>
   <tile/>
   <tile/>
   <tile/>
   <tile/>
   <tile/>
   <tile/>
   <tile/>
   <tile/>
   <tile/>
   <tile/>
   <tile/>
   <tile/>
   <tile/>
   <tile/>
   <tile/>
   <tile/>
   <tile/>
   <tile/>
   <tile/>
   <tile/>
   <tile/>
   <tile/>
   <tile/>
   <tile/>
   <tile/>
   <tile/>
   <tile/>
   <tile/>
   <tile/>
   <tile/>
   <tile/>
   <tile/>
   <tile/>
   <tile/>
   <tile/>
   <tile/>
   <tile/>
   <tile/>
   <tile/>
   <tile/>
   <tile/>
   <tile/>
   <tile/>
   <tile/>
   <tile/>
   <tile/>
   <tile/>
   <tile/>
   <tile/>
   <tile/>
   <tile/>
   <tile/>
   <tile/>
   <tile/>
   <tile/>
   <tile/>
   <tile/>
   <tile/>
   <tile/>
   <tile/>
   <tile/>
   <tile/>
   <tile/>
   <tile/>
   <tile/>
   <tile/>
   <tile/>
   <tile/>
   <tile/>
   <tile/>
   <tile/>
   <tile/>
   <tile/>
   <tile/>
   <tile/>
   <tile/>
   <tile/>
   <tile/>
   <tile/>
   <tile/>
   <tile/>
   <tile/>
   <tile/>
   <tile/>
   <tile/>
   <tile/>
   <tile/>
   <tile/>
   <tile/>
   <tile/>
   <tile/>
   <tile/>
   <tile/>
   <tile/>
   <tile/>
   <tile/>
   <tile/>
   <tile/>
   <tile/>
   <tile/>
   <tile/>
   <tile/>
   <tile/>
   <tile/>
   <tile/>
   <tile/>
   <tile/>
   <tile/>
   <tile/>
   <tile/>
   <tile/>
   <tile/>
   <tile/>
   <tile/>
   <tile/>
   <tile/>
   <tile/>
   <tile/>
   <tile/>
   <tile/>
   <tile/>
   <tile/>
   <tile/>
   <tile/>
   <tile/>
   <tile/>
   <tile/>
   <tile/>
   <tile/>
   <tile/>
   <tile/>
   <tile/>
   <tile/>
   <tile/>
   <tile/>
   <tile/>
   <tile/>
   <tile/>
   <tile/>
   <tile/>
   <tile/>
   <tile/>
   <tile/>
   <tile/>
   <tile/>
   <tile/>
   <tile/>
   <tile/>
   <tile/>
   <tile/>
   <tile/>
   <tile/>
   <tile/>
   <tile/>
   <tile/>
   <tile/>
   <tile/>
   <tile/>
   <tile/>
   <tile/>
   <tile/>
   <tile/>
   <tile/>
   <tile/>
   <tile/>
   <tile/>
   <tile/>
   <tile/>
   <tile/>
   <tile/>
   <tile/>
   <tile/>
   <tile/>
   <tile/>
   <tile/>
   <tile/>
   <tile/>
   <tile/>
   <tile/>
   <tile/>
   <tile/>
   <tile/>
   <tile/>
   <tile/>
   <tile/>
   <tile/>
   <tile/>
   <tile/>
   <tile/>
   <tile/>
   <tile/>
   <tile/>
   <tile/>
   <tile/>
   <tile/>
   <tile/>
   <tile/>
   <tile/>
   <tile/>
   <tile/>
   <tile/>
   <tile/>
   <tile/>
   <tile/>
   <tile/>
   <tile/>
   <tile/>
   <tile/>
   <tile/>
   <tile/>
   <tile/>
   <tile/>
   <tile/>
   <tile/>
   <tile/>
   <tile/>
   <tile/>
   <tile/>
   <tile/>
   <tile/>
   <tile/>
   <tile/>
   <tile/>
   <tile/>
   <tile/>
   <tile/>
   <tile/>
   <tile/>
   <tile/>
   <tile/>
   <tile/>
   <tile/>
   <tile/>
   <tile/>
   <tile/>
   <tile/>
   <tile/>
   <tile/>
   <tile/>
   <tile/>
   <tile/>
   <tile/>
   <tile/>
   <tile/>
   <tile/>
   <tile/>
   <tile/>
   <tile/>
   <tile/>
   <tile/>
   <tile/>
   <tile/>
   <tile/>
   <tile/>
   <tile/>
   <tile/>
   <tile/>
   <tile/>
   <tile/>
   <tile/>
   <tile/>
   <tile/>
   <tile/>
   <tile/>
   <tile/>
   <tile/>
   <tile/>
   <tile/>
   <tile/>
   <tile/>
   <tile/>
   <tile/>
   <tile/>
   <tile/>
   <tile/>
   <tile/>
   <tile/>
   <tile/>
   <tile/>
   <tile/>
   <tile/>
   <tile/>
   <tile/>
   <tile/>
   <tile/>
   <tile/>
   <tile/>
   <tile/>
   <tile/>
   <tile/>
   <tile/>
   <tile/>
   <tile/>
   <tile/>
   <tile/>
   <tile/>
   <tile/>
   <tile/>
   <tile/>
   <tile/>
   <tile/>
   <tile/>
   <tile/>
   <tile/>
   <tile/>
   <tile/>
   <tile/>
   <tile/>
   <tile/>
   <tile/>
   <tile/>
   <tile/>
   <tile/>
   <tile/>
   <tile/>
   <tile/>
   <tile/>
   <tile/>
   <tile/>
   <tile/>
   <tile/>
   <tile/>
   <tile/>
   <tile/>
   <tile/>
   <tile/>
   <tile/>
   <tile/>
   <tile/>
   <tile/>
   <tile/>
   <tile/>
   <tile/>
   <tile/>
   <tile/>
   <tile/>
   <tile/>
   <tile/>
   <tile/>
   <tile/>
   <tile/>
   <tile/>
   <tile/>
   <tile/>
   <tile/>
   <tile/>
   <tile/>
   <tile/>
   <tile/>
   <tile/>
   <tile/>
   <tile/>
   <tile/>
   <tile/>
   <tile/>
   <tile/>
   <tile/>
   <tile/>
   <tile/>
   <tile/>
   <tile/>
   <tile/>
   <tile/>
   <tile/>
   <tile/>
   <tile/>
   <tile/>
   <tile/>
   <tile/>
   <tile/>
   <tile/>
   <tile/>
   <tile/>
   <tile/>
   <tile/>
   <tile/>
   <tile/>
   <tile/>
   <tile/>
   <tile/>
   <tile/>
   <tile/>
   <tile/>
   <tile/>
   <tile/>
   <tile/>
   <tile/>
   <tile/>
   <tile/>
   <tile/>
   <tile/>
   <tile/>
   <tile/>
   <tile/>
   <tile/>
   <tile/>
   <tile/>
   <tile/>
   <tile/>
   <tile/>
   <tile/>
   <tile/>
   <tile/>
   <tile/>
   <tile/>
   <tile/>
   <tile/>
   <tile/>
   <tile/>
   <tile/>
   <tile/>
   <tile/>
   <tile/>
   <tile/>
   <tile/>
   <tile/>
   <tile/>
   <tile/>
   <tile/>
   <tile/>
   <tile/>
   <tile/>
   <tile/>
   <tile/>
   <tile/>
   <tile/>
   <tile/>
   <tile/>
   <tile/>
   <tile/>
   <tile/>
   <tile/>
   <tile/>
   <tile/>
   <tile/>
   <tile/>
   <tile/>
   <tile/>
   <tile/>
   <tile/>
   <tile/>
   <tile/>
   <tile/>
   <tile/>
   <tile/>
   <tile/>
   <tile/>
   <tile/>
   <tile/>
   <tile/>
   <tile/>
   <tile/>
   <tile/>
   <tile/>
   <tile/>
   <tile/>
   <tile/>
   <tile/>
   <tile/>
   <tile/>
   <tile/>
   <tile/>
   <tile/>
   <tile/>
   <tile/>
   <tile/>
   <tile/>
   <tile/>
   <tile/>
   <tile/>
   <tile/>
   <tile/>
   <tile/>
   <tile/>
   <tile/>
   <tile/>
   <tile/>
   <tile/>
   <tile/>
   <tile/>
   <tile/>
   <tile/>
   <tile/>
   <tile/>
   <tile/>
   <tile/>
   <tile/>
   <tile/>
   <tile/>
   <tile/>
   <tile/>
   <tile/>
   <tile/>
   <tile/>
   <tile/>
   <tile/>
   <tile/>
   <tile/>
   <tile/>
   <tile/>
   <tile/>
   <tile/>
   <tile/>
   <tile/>
   <tile/>
   <tile/>
   <tile/>
   <tile/>
   <tile/>
   <tile/>
   <tile/>
   <tile/>
   <tile/>
   <tile/>
   <tile/>
   <tile/>
   <tile/>
   <tile/>
   <tile/>
   <tile/>
   <tile/>
   <tile/>
   <tile/>
   <tile/>
   <tile/>
   <tile/>
   <tile/>
   <tile/>
   <tile/>
   <tile/>
   <tile/>
   <tile/>
   <tile/>
   <tile/>
   <tile/>
   <tile/>
   <tile/>
   <tile/>
   <tile/>
   <tile/>
   <tile/>
   <tile/>
   <tile/>
   <tile/>
   <tile/>
   <tile/>
   <tile/>
   <tile/>
   <tile/>
   <tile/>
   <tile/>
   <tile/>
   <tile/>
   <tile/>
   <tile/>
   <tile/>
   <tile/>
   <tile/>
   <tile/>
   <tile/>
   <tile/>
   <tile/>
   <tile/>
   <tile/>
   <tile/>
   <tile/>
   <tile/>
   <tile/>
   <tile/>
   <tile/>
   <tile/>
   <tile/>
   <tile/>
   <tile/>
   <tile/>
   <tile/>
   <tile/>
   <tile/>
   <tile/>
   <tile/>
   <tile/>
   <tile/>
   <tile/>
   <tile/>
   <tile/>
   <tile/>
   <tile/>
   <tile/>
   <tile/>
   <tile/>
   <tile/>
   <tile/>
   <tile/>
   <tile/>
   <tile/>
   <tile/>
   <tile/>
   <tile/>
   <tile/>
   <tile/>
   <tile/>
   <tile/>
   <tile/>
   <tile/>
   <tile/>
   <tile/>
   <tile/>
   <tile/>
   <tile/>
   <tile/>
   <tile/>
   <tile/>
   <tile/>
   <tile/>
   <tile/>
   <tile/>
   <tile/>
   <tile/>
   <tile/>
   <tile/>
   <tile/>
   <tile/>
   <tile/>
   <tile/>
   <tile/>
   <tile/>
   <tile/>
   <tile/>
   <tile/>
   <tile/>
   <tile/>
   <tile/>
   <tile/>
   <tile/>
   <tile/>
   <tile/>
   <tile/>
   <tile/>
   <tile/>
   <tile/>
   <tile/>
   <tile/>
   <tile/>
   <tile/>
   <tile/>
   <tile/>
   <tile/>
   <tile/>
   <tile/>
   <tile/>
   <tile/>
   <tile/>
   <tile/>
   <tile/>
   <tile/>
   <tile/>
   <tile/>
   <tile/>
   <tile/>
   <tile/>
   <tile/>
   <tile/>
   <tile/>
   <tile/>
   <tile/>
   <tile/>
   <tile/>
   <tile/>
   <tile/>
   <tile/>
   <tile/>
   <tile/>
   <tile/>
   <tile/>
   <tile/>
   <tile/>
   <tile/>
   <tile/>
   <tile/>
   <tile/>
   <tile/>
   <tile/>
   <tile/>
   <tile/>
   <tile/>
   <tile/>
   <tile/>
   <tile/>
   <tile/>
   <tile/>
   <tile/>
   <tile/>
   <tile/>
   <tile/>
   <tile/>
   <tile/>
   <tile/>
   <tile/>
   <tile/>
   <tile/>
   <tile/>
   <tile/>
   <tile/>
   <tile/>
   <tile/>
   <tile/>
   <tile/>
   <tile/>
   <tile/>
   <tile/>
   <tile/>
   <tile/>
   <tile/>
   <tile/>
   <tile/>
   <tile/>
   <tile/>
   <tile/>
   <tile/>
   <tile/>
   <tile/>
   <tile/>
   <tile/>
   <tile/>
   <tile/>
   <tile/>
   <tile/>
   <tile/>
   <tile/>
   <tile/>
   <tile/>
   <tile/>
   <tile/>
   <tile/>
   <tile/>
   <tile/>
   <tile/>
   <tile/>
   <tile/>
   <tile/>
   <tile/>
   <tile/>
   <tile/>
   <tile/>
   <tile/>
   <tile/>
   <tile/>
   <tile/>
   <tile/>
   <tile/>
   <tile/>
   <tile/>
   <tile/>
   <tile/>
   <tile/>
   <tile/>
   <tile/>
   <tile/>
   <tile/>
   <tile/>
   <tile/>
   <tile/>
   <tile/>
   <tile/>
   <tile/>
   <tile/>
   <tile/>
   <tile/>
   <tile/>
   <tile/>
   <tile/>
   <tile/>
   <tile/>
   <tile/>
   <tile/>
   <tile/>
   <tile/>
   <tile/>
   <tile/>
   <tile/>
   <tile/>
   <tile/>
   <tile/>
   <tile/>
   <tile/>
   <tile/>
   <tile/>
   <tile/>
   <tile/>
   <tile/>
   <tile/>
   <tile/>
   <tile/>
   <tile/>
   <tile/>
   <tile/>
   <tile/>
   <tile/>
   <tile/>
   <tile/>
   <tile/>
   <tile/>
   <tile/>
   <tile/>
   <tile/>
   <tile/>
   <tile/>
   <tile/>
   <tile/>
   <tile/>
   <tile/>
   <tile/>
   <tile/>
   <tile/>
   <tile/>
   <tile/>
   <tile/>
   <tile/>
   <tile/>
   <tile/>
   <tile/>
   <tile/>
   <tile/>
   <tile/>
   <tile/>
   <tile/>
   <tile/>
   <tile/>
   <tile/>
   <tile/>
   <tile/>
   <tile/>
   <tile/>
   <tile/>
   <tile/>
   <tile/>
   <tile/>
   <tile/>
   <tile/>
   <tile/>
   <tile/>
   <tile/>
   <tile/>
   <tile/>
   <tile/>
   <tile/>
   <tile/>
   <tile/>
   <tile/>
   <tile/>
   <tile/>
   <tile/>
   <tile/>
   <tile/>
   <tile/>
   <tile/>
   <tile/>
   <tile/>
   <tile/>
   <tile/>
   <tile/>
   <tile/>
   <tile/>
   <tile/>
   <tile/>
   <tile/>
   <tile/>
   <tile/>
   <tile/>
   <tile/>
   <tile/>
   <tile/>
   <tile/>
   <tile/>
   <tile/>
   <tile/>
   <tile/>
   <tile/>
   <tile/>
   <tile/>
   <tile/>
   <tile/>
   <tile/>
   <tile/>
   <tile/>
   <tile/>
   <tile/>
   <tile/>
   <tile/>
   <tile/>
   <tile/>
   <tile/>
   <tile/>
   <tile/>
   <tile/>
   <tile/>
   <tile/>
   <tile/>
   <tile/>
   <tile/>
   <tile/>
   <tile/>
   <tile/>
   <tile/>
   <tile/>
   <tile/>
   <tile/>
   <tile/>
   <tile/>
   <tile/>
   <tile/>
   <tile/>
   <tile/>
   <tile/>
   <tile/>
   <tile/>
   <tile/>
   <tile/>
   <tile/>
   <tile/>
   <tile/>
   <tile/>
   <tile/>
   <tile/>
   <tile/>
   <tile/>
   <tile/>
   <tile/>
   <tile/>
   <tile/>
   <tile/>
   <tile/>
   <tile/>
   <tile/>
   <tile/>
   <tile/>
   <tile/>
   <tile/>
   <tile/>
   <tile/>
   <tile/>
   <tile/>
   <tile/>
   <tile/>
   <tile/>
   <tile/>
   <tile/>
   <tile/>
   <tile/>
   <tile/>
   <tile/>
   <tile/>
   <tile/>
   <tile/>
   <tile/>
   <tile/>
   <tile/>
   <tile/>
   <tile/>
   <tile/>
   <tile/>
   <tile/>
   <tile/>
   <tile/>
   <tile/>
   <tile/>
   <tile/>
   <tile/>
   <tile/>
   <tile/>
   <tile/>
   <tile/>
   <tile/>
   <tile/>
   <tile/>
   <tile/>
   <tile/>
   <tile/>
   <tile/>
   <tile/>
   <tile/>
   <tile/>
   <tile/>
   <tile/>
   <tile/>
   <tile/>
   <tile/>
   <tile/>
   <tile/>
   <tile/>
   <tile/>
   <tile/>
   <tile/>
   <tile/>
   <tile/>
   <tile/>
   <tile/>
   <tile/>
   <tile/>
   <tile/>
   <tile/>
   <tile/>
   <tile/>
   <tile/>
   <tile/>
   <tile/>
   <tile/>
   <tile/>
   <tile/>
   <tile/>
   <tile/>
   <tile/>
   <tile/>
   <tile/>
   <tile/>
   <tile/>
   <tile/>
   <tile/>
   <tile/>
   <tile/>
   <tile/>
   <tile/>
   <tile/>
   <tile/>
   <tile/>
   <tile/>
   <tile/>
   <tile/>
   <tile/>
   <tile/>
   <tile/>
   <tile/>
   <tile/>
   <tile/>
   <tile/>
   <tile/>
   <tile/>
   <tile/>
   <tile/>
   <tile/>
   <tile/>
   <tile/>
   <tile/>
   <tile/>
   <tile/>
   <tile/>
   <tile/>
   <tile/>
   <tile/>
   <tile/>
   <tile/>
   <tile/>
   <tile/>
   <tile/>
   <tile/>
   <tile/>
   <tile/>
   <tile/>
   <tile/>
   <tile/>
   <tile/>
   <tile/>
   <tile/>
   <tile/>
   <tile/>
   <tile/>
   <tile/>
   <tile/>
   <tile/>
   <tile/>
   <tile/>
   <tile/>
   <tile/>
   <tile/>
   <tile/>
   <tile/>
   <tile/>
   <tile/>
   <tile/>
   <tile/>
   <tile/>
   <tile/>
   <tile/>
   <tile/>
   <tile/>
   <tile/>
   <tile/>
   <tile/>
   <tile/>
   <tile/>
   <tile/>
   <tile/>
   <tile/>
   <tile/>
   <tile/>
   <tile/>
   <tile/>
   <tile/>
   <tile/>
   <tile/>
   <tile/>
   <tile/>
   <tile/>
   <tile/>
   <tile/>
   <tile/>
   <tile/>
   <tile/>
   <tile/>
   <tile/>
   <tile/>
   <tile/>
   <tile/>
   <tile/>
   <tile/>
   <tile/>
   <tile/>
   <tile/>
   <tile/>
   <tile/>
   <tile/>
   <tile/>
   <tile/>
   <tile/>
   <tile/>
   <tile/>
   <tile/>
   <tile/>
   <tile/>
   <tile/>
   <tile/>
   <tile/>
   <tile/>
   <tile/>
   <tile/>
   <tile/>
   <tile/>
   <tile/>
   <tile/>
   <tile/>
   <tile/>
   <tile/>
   <tile/>
   <tile/>
   <tile/>
   <tile/>
   <tile/>
   <tile/>
   <tile/>
   <tile/>
   <tile/>
   <tile/>
   <tile/>
   <tile/>
   <tile/>
   <tile/>
   <tile/>
   <tile/>
   <tile/>
   <tile/>
   <tile/>
   <tile/>
   <tile/>
   <tile/>
   <tile/>
   <tile/>
   <tile/>
   <tile/>
   <tile/>
   <tile/>
   <tile/>
   <tile/>
   <tile/>
   <tile/>
   <tile/>
   <tile/>
   <tile/>
   <tile/>
   <tile/>
   <tile/>
   <tile/>
   <tile/>
   <tile/>
   <tile/>
   <tile/>
   <tile/>
   <tile/>
   <tile/>
   <tile/>
   <tile/>
   <tile/>
   <tile/>
   <tile/>
   <tile/>
   <tile/>
   <tile/>
   <tile/>
   <tile/>
   <tile/>
   <tile/>
   <tile/>
   <tile/>
   <tile/>
   <tile/>
   <tile/>
   <tile/>
   <tile/>
   <tile/>
   <tile/>
   <tile/>
   <tile/>
   <tile/>
   <tile/>
   <tile/>
   <tile/>
   <tile/>
   <tile/>
   <tile/>
   <tile/>
   <tile/>
   <tile/>
   <tile/>
   <tile/>
   <tile/>
   <tile/>
   <tile/>
   <tile/>
   <tile/>
   <tile/>
   <tile/>
   <tile/>
   <tile/>
   <tile/>
   <tile/>
   <tile/>
   <tile/>
   <tile/>
   <tile/>
   <tile/>
   <tile/>
   <tile/>
   <tile/>
   <tile/>
   <tile/>
   <tile/>
   <tile/>
   <tile/>
   <tile/>
   <tile/>
   <tile/>
   <tile/>
   <tile/>
   <tile/>
   <tile/>
   <tile/>
   <tile/>
   <tile/>
   <tile/>
   <tile/>
   <tile/>
   <tile/>
   <tile/>
   <tile/>
   <tile/>
   <tile/>
   <tile/>
   <tile/>
   <tile/>
   <tile/>
   <tile/>
   <tile/>
   <tile/>
   <tile/>
   <tile/>
   <tile/>
   <tile/>
   <tile/>
   <tile/>
   <tile/>
   <tile/>
   <tile/>
   <tile/>
   <tile/>
   <tile/>
   <tile/>
   <tile/>
   <tile/>
   <tile/>
   <tile/>
   <tile/>
   <tile/>
   <tile/>
   <tile/>
   <tile/>
   <tile/>
   <tile/>
   <tile/>
   <tile/>
   <tile/>
   <tile/>
   <tile/>
   <tile/>
   <tile/>
   <tile/>
   <tile/>
   <tile/>
   <tile/>
   <tile/>
   <tile/>
   <tile/>
   <tile/>
   <tile/>
   <tile/>
   <tile/>
   <tile/>
   <tile/>
   <tile/>
   <tile/>
   <tile/>
   <tile/>
   <tile/>
   <tile/>
   <tile/>
   <tile/>
   <tile/>
   <tile/>
   <tile/>
   <tile/>
   <tile/>
   <tile/>
   <tile/>
   <tile/>
   <tile/>
   <tile/>
   <tile/>
   <tile/>
   <tile/>
   <tile/>
   <tile/>
   <tile/>
   <tile/>
   <tile/>
   <tile/>
   <tile/>
   <tile/>
   <tile/>
   <tile/>
   <tile/>
   <tile/>
   <tile/>
   <tile/>
   <tile/>
   <tile/>
   <tile/>
   <tile/>
   <tile/>
   <tile/>
   <tile/>
   <tile/>
   <tile/>
   <tile/>
   <tile/>
   <tile/>
   <tile/>
   <tile/>
   <tile/>
   <tile/>
   <tile/>
   <tile/>
   <tile/>
   <tile/>
   <tile/>
   <tile/>
   <tile/>
   <tile/>
   <tile/>
   <tile/>
   <tile/>
   <tile/>
   <tile/>
   <tile/>
   <tile/>
   <tile/>
   <tile/>
   <tile/>
   <tile/>
   <tile/>
   <tile/>
   <tile/>
   <tile/>
   <tile/>
   <tile/>
   <tile/>
   <tile/>
   <tile/>
   <tile/>
   <tile/>
   <tile/>
   <tile/>
   <tile/>
   <tile/>
   <tile/>
   <tile/>
   <tile/>
   <tile/>
   <tile/>
   <tile/>
   <tile/>
   <tile/>
   <tile/>
   <tile/>
   <tile/>
   <tile/>
   <tile/>
   <tile/>
   <tile/>
   <tile/>
   <tile/>
   <tile/>
   <tile/>
   <tile/>
   <tile/>
   <tile/>
   <tile/>
   <tile/>
   <tile/>
   <tile/>
   <tile/>
   <tile/>
   <tile/>
   <tile/>
   <tile/>
   <tile/>
   <tile/>
   <tile/>
   <tile/>
   <tile/>
   <tile/>
   <tile/>
   <tile/>
   <tile/>
   <tile/>
   <tile/>
   <tile/>
   <tile/>
   <tile/>
   <tile/>
   <tile/>
   <tile/>
   <tile/>
   <tile/>
   <tile/>
   <tile/>
   <tile/>
   <tile/>
   <tile/>
   <tile/>
   <tile/>
   <tile/>
   <tile/>
   <tile/>
   <tile/>
   <tile/>
   <tile/>
   <tile/>
   <tile/>
   <tile/>
   <tile/>
   <tile/>
   <tile/>
   <tile/>
   <tile/>
   <tile/>
   <tile/>
   <tile/>
   <tile/>
   <tile/>
   <tile/>
   <tile/>
   <tile/>
   <tile/>
   <tile/>
   <tile/>
   <tile/>
   <tile/>
   <tile/>
   <tile/>
   <tile/>
   <tile/>
   <tile/>
   <tile/>
   <tile/>
   <tile/>
   <tile/>
   <tile/>
   <tile/>
   <tile/>
   <tile/>
   <tile/>
   <tile/>
   <tile/>
   <tile/>
   <tile/>
   <tile/>
   <tile/>
   <tile/>
   <tile/>
   <tile/>
   <tile/>
   <tile/>
   <tile/>
   <tile/>
   <tile/>
   <tile/>
   <tile/>
   <tile/>
   <tile/>
   <tile/>
   <tile/>
   <tile/>
   <tile/>
   <tile/>
   <tile/>
   <tile/>
   <tile/>
   <tile/>
   <tile/>
   <tile/>
   <tile/>
   <tile/>
   <tile/>
   <tile/>
   <tile/>
   <tile/>
   <tile/>
   <tile/>
   <tile/>
   <tile/>
   <tile/>
   <tile/>
   <tile/>
   <tile/>
   <tile/>
   <tile/>
   <tile/>
   <tile/>
   <tile/>
   <tile/>
   <tile/>
   <tile/>
   <tile/>
   <tile/>
   <tile/>
   <tile/>
   <tile/>
   <tile/>
   <tile/>
   <tile/>
   <tile/>
   <tile/>
   <tile/>
   <tile/>
   <tile/>
   <tile/>
   <tile/>
   <tile/>
   <tile/>
   <tile/>
   <tile/>
   <tile/>
   <tile/>
   <tile/>
   <tile/>
   <tile/>
   <tile/>
   <tile/>
   <tile/>
   <tile/>
   <tile/>
   <tile/>
   <tile/>
   <tile/>
   <tile/>
   <tile/>
   <tile/>
   <tile/>
   <tile/>
   <tile/>
   <tile/>
   <tile/>
   <tile/>
   <tile/>
   <tile/>
   <tile/>
   <tile/>
   <tile/>
   <tile/>
   <tile/>
   <tile/>
   <tile/>
   <tile/>
   <tile/>
   <tile/>
   <tile/>
   <tile/>
   <tile/>
   <tile/>
   <tile/>
   <tile/>
   <tile/>
   <tile/>
   <tile/>
   <tile/>
   <tile/>
   <tile/>
   <tile/>
   <tile/>
   <tile/>
   <tile/>
   <tile/>
   <tile/>
   <tile/>
   <tile/>
   <tile/>
   <tile/>
   <tile/>
   <tile/>
   <tile/>
   <tile/>
   <tile/>
   <tile/>
   <tile/>
   <tile/>
   <tile/>
   <tile/>
   <tile/>
   <tile/>
   <tile/>
   <tile/>
   <tile/>
   <tile/>
   <tile/>
   <tile/>
   <tile/>
   <tile/>
   <tile/>
   <tile/>
   <tile/>
   <tile/>
   <tile/>
   <tile/>
   <tile/>
   <tile/>
   <tile/>
   <tile/>
   <tile/>
   <tile/>
   <tile/>
   <tile/>
   <tile/>
   <tile/>
   <tile/>
   <tile/>
   <tile/>
   <tile/>
   <tile/>
   <tile/>
   <tile/>
   <tile/>
   <tile/>
   <tile/>
   <tile/>
   <tile/>
   <tile/>
   <tile/>
   <tile/>
   <tile/>
   <tile/>
   <tile/>
   <tile/>
   <tile/>
   <tile/>
   <tile/>
   <tile/>
   <tile/>
   <tile/>
   <tile/>
   <tile/>
   <tile/>
   <tile/>
   <tile/>
   <tile/>
   <tile/>
   <tile/>
   <tile/>
   <tile/>
   <tile/>
   <tile/>
   <tile/>
   <tile/>
   <tile/>
   <tile/>
   <tile/>
   <tile/>
   <tile/>
   <tile/>
   <tile/>
   <tile/>
   <tile/>
   <tile/>
   <tile/>
   <tile/>
   <tile/>
   <tile/>
   <tile/>
   <tile/>
   <tile/>
   <tile/>
   <tile/>
   <tile/>
   <tile/>
   <tile/>
   <tile/>
   <tile/>
   <tile/>
   <tile/>
   <tile/>
   <tile/>
   <tile/>
   <tile/>
   <tile/>
   <tile/>
   <tile/>
   <tile/>
   <tile/>
   <tile/>
   <tile/>
   <tile/>
   <tile/>
   <tile/>
   <tile/>
   <tile/>
   <tile/>
   <tile/>
   <tile/>
   <tile/>
   <tile/>
   <tile/>
   <tile/>
   <tile/>
   <tile/>
   <tile/>
   <tile/>
   <tile/>
   <tile/>
   <tile/>
   <tile/>
   <tile/>
   <tile/>
   <tile/>
   <tile/>
   <tile/>
   <tile/>
   <tile/>
   <tile/>
   <tile/>
   <tile/>
   <tile/>
   <tile/>
   <tile/>
   <tile/>
   <tile/>
   <tile/>
   <tile/>
   <tile/>
   <tile/>
   <tile/>
   <tile/>
   <tile/>
   <tile/>
   <tile/>
   <tile/>
   <tile/>
   <tile/>
   <tile/>
   <tile/>
   <tile/>
   <tile/>
   <tile/>
   <tile/>
   <tile/>
   <tile/>
   <tile/>
   <tile/>
   <tile/>
   <tile/>
   <tile/>
   <tile/>
   <tile/>
   <tile/>
   <tile/>
   <tile/>
   <tile/>
   <tile/>
   <tile/>
   <tile/>
   <tile/>
   <tile/>
   <tile/>
   <tile/>
   <tile/>
   <tile/>
   <tile/>
   <tile/>
   <tile/>
   <tile/>
   <tile/>
   <tile/>
   <tile/>
   <tile/>
   <tile/>
   <tile/>
   <tile/>
   <tile/>
   <tile/>
   <tile/>
   <tile/>
   <tile/>
   <tile/>
   <tile/>
   <tile/>
   <tile/>
   <tile/>
   <tile/>
   <tile/>
   <tile/>
   <tile/>
   <tile/>
   <tile/>
   <tile/>
   <tile/>
   <tile/>
   <tile/>
   <tile/>
   <tile/>
   <tile/>
   <tile/>
   <tile/>
   <tile/>
   <tile/>
   <tile/>
   <tile/>
   <tile/>
   <tile/>
   <tile/>
   <tile/>
   <tile/>
   <tile/>
   <tile/>
   <tile/>
   <tile/>
   <tile/>
   <tile/>
   <tile/>
   <tile/>
   <tile/>
   <tile/>
   <tile/>
   <tile/>
   <tile/>
   <tile/>
   <tile/>
   <tile/>
   <tile/>
   <tile/>
   <tile/>
   <tile/>
   <tile/>
   <tile/>
   <tile/>
   <tile/>
   <tile/>
   <tile/>
   <tile/>
   <tile/>
   <tile/>
   <tile/>
   <tile/>
   <tile/>
   <tile/>
   <tile/>
   <tile/>
   <tile/>
   <tile/>
   <tile/>
   <tile/>
   <tile/>
   <tile/>
   <tile/>
   <tile/>
   <tile/>
   <tile/>
   <tile/>
   <tile/>
   <tile/>
   <tile/>
   <tile/>
   <tile/>
   <tile/>
   <tile/>
   <tile/>
   <tile/>
   <tile/>
   <tile/>
   <tile/>
   <tile/>
   <tile/>
   <tile/>
   <tile/>
   <tile/>
   <tile/>
   <tile/>
   <tile/>
   <tile/>
   <tile/>
   <tile/>
   <tile/>
   <tile/>
   <tile/>
   <tile/>
   <tile/>
   <tile/>
   <tile/>
   <tile/>
   <tile/>
   <tile/>
   <tile/>
   <tile/>
   <tile/>
   <tile/>
   <tile/>
   <tile/>
   <tile/>
   <tile/>
   <tile/>
   <tile/>
   <tile/>
   <tile/>
   <tile/>
   <tile/>
   <tile/>
   <tile/>
   <tile/>
   <tile/>
   <tile/>
   <tile/>
   <tile/>
   <tile/>
   <tile/>
   <tile/>
   <tile/>
   <tile/>
   <tile/>
   <tile/>
   <tile/>
   <tile/>
   <tile/>
   <tile/>
   <tile/>
   <tile/>
   <tile/>
   <tile/>
   <tile/>
   <tile/>
   <tile/>
   <tile/>
   <tile/>
   <tile/>
   <tile/>
   <tile/>
   <tile/>
   <tile/>
   <tile/>
   <tile/>
   <tile/>
   <tile/>
   <tile/>
   <tile/>
   <tile/>
   <tile/>
   <tile/>
   <tile/>
   <tile/>
   <tile/>
   <tile/>
   <tile/>
   <tile/>
   <tile/>
   <tile/>
   <tile/>
   <tile/>
   <tile/>
   <tile/>
   <tile/>
   <tile/>
   <tile/>
   <tile/>
   <tile/>
   <tile/>
   <tile/>
   <tile/>
   <tile/>
   <tile/>
   <tile/>
   <tile/>
   <tile/>
   <tile/>
   <tile/>
   <tile/>
   <tile/>
   <tile/>
   <tile/>
   <tile/>
   <tile/>
   <tile/>
   <tile/>
   <tile/>
   <tile/>
   <tile/>
   <tile/>
   <tile/>
   <tile/>
   <tile/>
   <tile/>
   <tile/>
   <tile/>
   <tile/>
   <tile/>
   <tile/>
   <tile/>
   <tile/>
   <tile/>
   <tile/>
   <tile/>
   <tile/>
   <tile/>
   <tile/>
   <tile/>
   <tile/>
   <tile/>
   <tile/>
   <tile/>
   <tile/>
   <tile/>
   <tile/>
   <tile/>
   <tile/>
   <tile/>
   <tile/>
   <tile/>
   <tile/>
   <tile/>
   <tile/>
   <tile/>
   <tile/>
   <tile/>
   <tile/>
   <tile/>
   <tile/>
   <tile/>
   <tile/>
   <tile/>
   <tile/>
   <tile/>
   <tile/>
   <tile/>
   <tile/>
   <tile/>
   <tile/>
   <tile/>
   <tile/>
   <tile/>
   <tile/>
   <tile/>
   <tile/>
   <tile/>
   <tile/>
   <tile/>
   <tile/>
   <tile/>
   <tile/>
   <tile/>
   <tile/>
   <tile/>
   <tile/>
   <tile/>
   <tile/>
   <tile/>
   <tile/>
   <tile/>
   <tile/>
   <tile/>
   <tile/>
   <tile/>
   <tile/>
   <tile/>
   <tile/>
   <tile/>
   <tile/>
   <tile/>
   <tile/>
   <tile/>
   <tile/>
   <tile/>
   <tile/>
   <tile/>
   <tile/>
   <tile/>
   <tile/>
   <tile/>
   <tile/>
   <tile/>
   <tile/>
   <tile/>
   <tile/>
   <tile/>
   <tile/>
   <tile/>
   <tile/>
   <tile/>
   <tile/>
   <tile/>
   <tile/>
   <tile/>
   <tile/>
   <tile/>
   <tile/>
   <tile/>
   <tile/>
   <tile/>
   <tile/>
   <tile/>
   <tile/>
   <tile/>
   <tile/>
   <tile/>
   <tile/>
   <tile/>
   <tile/>
   <tile/>
   <tile/>
   <tile/>
   <tile/>
   <tile/>
   <tile/>
   <tile/>
   <tile/>
   <tile/>
   <tile/>
   <tile/>
   <tile/>
   <tile/>
   <tile/>
   <tile/>
   <tile/>
   <tile/>
   <tile/>
   <tile/>
   <tile/>
   <tile/>
   <tile/>
   <tile/>
   <tile/>
   <tile/>
   <tile/>
   <tile/>
   <tile/>
   <tile/>
   <tile/>
   <tile/>
   <tile/>
   <tile/>
   <tile/>
   <tile/>
   <tile/>
   <tile/>
   <tile/>
   <tile/>
   <tile/>
   <tile/>
   <tile/>
   <tile/>
   <tile/>
   <tile/>
   <tile/>
   <tile/>
   <tile/>
   <tile/>
   <tile/>
   <tile/>
   <tile/>
   <tile/>
   <tile/>
   <tile/>
   <tile/>
   <tile/>
   <tile/>
   <tile/>
   <tile/>
   <tile/>
   <tile/>
   <tile/>
   <tile/>
   <tile/>
   <tile/>
   <tile/>
   <tile/>
   <tile/>
   <tile/>
   <tile/>
   <tile/>
   <tile/>
   <tile/>
   <tile/>
   <tile/>
   <tile/>
   <tile/>
   <tile/>
   <tile/>
   <tile/>
   <tile/>
   <tile/>
   <tile/>
   <tile/>
   <tile/>
   <tile/>
   <tile/>
   <tile/>
   <tile/>
   <tile/>
   <tile/>
   <tile/>
   <tile/>
   <tile/>
   <tile/>
   <tile/>
   <tile/>
   <tile/>
   <tile/>
   <tile/>
   <tile/>
   <tile/>
   <tile/>
   <tile/>
   <tile/>
   <tile/>
   <tile/>
   <tile/>
   <tile/>
   <tile/>
   <tile/>
   <tile/>
   <tile/>
   <tile/>
   <tile/>
   <tile/>
   <tile/>
   <tile/>
   <tile/>
   <tile/>
   <tile/>
   <tile/>
   <tile/>
   <tile/>
   <tile/>
   <tile/>
   <tile/>
   <tile/>
   <tile/>
   <tile/>
   <tile/>
   <tile/>
   <tile/>
   <tile/>
   <tile/>
   <tile/>
   <tile/>
   <tile/>
   <tile/>
   <tile/>
   <tile/>
   <tile/>
   <tile/>
   <tile/>
   <tile/>
   <tile/>
   <tile/>
   <tile/>
   <tile/>
   <tile/>
   <tile/>
   <tile/>
   <tile/>
   <tile/>
   <tile/>
   <tile/>
   <tile/>
   <tile/>
   <tile/>
   <tile/>
   <tile/>
   <tile/>
   <tile/>
   <tile/>
   <tile/>
   <tile/>
   <tile/>
   <tile/>
   <tile/>
   <tile/>
   <tile/>
   <tile/>
   <tile/>
   <tile/>
   <tile/>
   <tile/>
   <tile/>
   <tile/>
   <tile/>
   <tile/>
   <tile/>
   <tile/>
   <tile/>
   <tile/>
   <tile/>
   <tile/>
   <tile/>
   <tile/>
   <tile/>
   <tile/>
   <tile/>
   <tile/>
   <tile/>
   <tile/>
   <tile/>
   <tile/>
   <tile/>
   <tile/>
   <tile/>
   <tile/>
   <tile/>
   <tile/>
   <tile/>
   <tile/>
   <tile/>
   <tile/>
   <tile/>
   <tile/>
   <tile/>
   <tile/>
   <tile/>
   <tile/>
   <tile/>
   <tile/>
   <tile/>
   <tile/>
   <tile/>
   <tile/>
   <tile/>
   <tile/>
   <tile/>
   <tile/>
   <tile/>
   <tile/>
   <tile/>
   <tile/>
   <tile/>
   <tile/>
   <tile/>
   <tile/>
   <tile/>
   <tile/>
   <tile/>
   <tile/>
   <tile/>
   <tile/>
   <tile/>
   <tile/>
   <tile/>
   <tile/>
   <tile/>
   <tile/>
   <tile/>
   <tile/>
   <tile/>
   <tile/>
   <tile/>
   <tile/>
   <tile/>
   <tile/>
   <tile/>
   <tile/>
   <tile/>
   <tile/>
   <tile/>
   <tile/>
   <tile/>
   <tile/>
   <tile/>
   <tile/>
   <tile/>
   <tile/>
   <tile/>
   <tile/>
   <tile/>
   <tile/>
   <tile/>
   <tile/>
   <tile/>
   <tile/>
   <tile/>
   <tile/>
   <tile/>
   <tile/>
   <tile/>
   <tile/>
   <tile/>
   <tile/>
   <tile/>
   <tile/>
   <tile/>
   <tile/>
   <tile/>
   <tile/>
   <tile/>
   <tile/>
   <tile/>
   <tile/>
   <tile/>
   <tile/>
   <tile/>
   <tile/>
   <tile/>
   <tile/>
   <tile/>
   <tile/>
   <tile/>
   <tile/>
   <tile/>
   <tile/>
   <tile/>
   <tile/>
   <tile/>
   <tile/>
   <tile/>
   <tile/>
   <tile/>
   <tile/>
   <tile/>
   <tile/>
   <tile/>
   <tile/>
   <tile/>
   <tile/>
   <tile/>
   <tile/>
   <tile/>
   <tile/>
   <tile/>
   <tile/>
   <tile/>
   <tile/>
   <tile/>
   <tile/>
   <tile/>
   <tile/>
   <tile/>
   <tile/>
   <tile/>
   <tile/>
   <tile/>
   <tile/>
   <tile/>
   <tile/>
   <tile/>
   <tile/>
   <tile/>
   <tile/>
   <tile/>
   <tile/>
   <tile/>
   <tile/>
   <tile/>
   <tile/>
   <tile/>
   <tile/>
   <tile/>
   <tile/>
   <tile/>
   <tile/>
   <tile/>
   <tile/>
   <tile/>
   <tile/>
   <tile/>
   <tile/>
   <tile/>
   <tile/>
   <tile/>
   <tile/>
   <tile/>
   <tile/>
   <tile/>
   <tile/>
   <tile/>
   <tile/>
   <tile/>
   <tile/>
   <tile/>
   <tile/>
   <tile/>
   <tile/>
   <tile/>
   <tile/>
   <tile/>
   <tile/>
   <tile/>
   <tile/>
   <tile/>
   <tile/>
   <tile/>
   <tile/>
   <tile/>
   <tile/>
   <tile/>
   <tile/>
   <tile/>
   <tile/>
   <tile/>
   <tile/>
   <tile/>
   <tile/>
   <tile/>
   <tile/>
   <tile/>
   <tile/>
   <tile/>
   <tile/>
   <tile/>
   <tile/>
   <tile/>
   <tile/>
   <tile/>
   <tile/>
   <tile/>
   <tile/>
   <tile/>
   <tile/>
   <tile/>
   <tile/>
   <tile/>
   <tile/>
   <tile/>
   <tile/>
   <tile/>
   <tile/>
   <tile/>
   <tile/>
   <tile/>
   <tile/>
   <tile/>
   <tile/>
   <tile/>
   <tile/>
   <tile/>
   <tile/>
   <tile/>
   <tile/>
   <tile/>
   <tile/>
   <tile/>
   <tile/>
   <tile/>
   <tile/>
   <tile/>
   <tile/>
   <tile/>
   <tile/>
   <tile/>
   <tile/>
   <tile/>
   <tile/>
   <tile/>
   <tile/>
   <tile/>
   <tile/>
   <tile/>
   <tile/>
   <tile/>
   <tile/>
   <tile/>
   <tile/>
   <tile/>
   <tile/>
   <tile/>
   <tile/>
   <tile/>
   <tile/>
   <tile/>
   <tile/>
   <tile/>
   <tile/>
   <tile/>
   <tile/>
   <tile/>
   <tile/>
   <tile/>
   <tile/>
   <tile/>
   <tile/>
   <tile/>
   <tile/>
   <tile/>
   <tile/>
   <tile/>
   <tile/>
   <tile/>
   <tile/>
   <tile/>
   <tile/>
   <tile/>
   <tile/>
   <tile/>
   <tile/>
   <tile/>
   <tile/>
   <tile/>
   <tile/>
   <tile/>
   <tile/>
   <tile/>
   <tile/>
   <tile/>
   <tile/>
   <tile/>
   <tile/>
   <tile/>
   <tile/>
   <tile/>
   <tile/>
   <tile/>
   <tile/>
   <tile/>
   <tile/>
   <tile/>
   <tile/>
   <tile/>
   <tile/>
   <tile/>
   <tile/>
   <tile/>
   <tile/>
   <tile/>
   <tile/>
   <tile/>
   <tile/>
   <tile/>
   <tile/>
   <tile/>
   <tile/>
   <tile/>
   <tile/>
   <tile/>
   <tile/>
   <tile/>
   <tile/>
   <tile/>
   <tile/>
   <tile/>
   <tile/>
   <tile/>
   <tile/>
   <tile/>
   <tile/>
   <tile/>
   <tile/>
   <tile/>
   <tile/>
   <tile/>
   <tile/>
   <tile/>
   <tile/>
   <tile/>
   <tile/>
   <tile/>
   <tile/>
   <tile/>
   <tile/>
   <tile/>
   <tile/>
   <tile/>
   <tile/>
   <tile/>
   <tile/>
   <tile/>
   <tile/>
   <tile/>
   <tile/>
   <tile/>
   <tile/>
   <tile/>
   <tile/>
   <tile/>
   <tile/>
   <tile/>
   <tile/>
   <tile/>
   <tile/>
   <tile/>
   <tile/>
   <tile/>
   <tile/>
   <tile/>
   <tile/>
   <tile/>
   <tile/>
   <tile/>
   <tile/>
   <tile/>
   <tile/>
   <tile/>
   <tile/>
   <tile/>
   <tile/>
   <tile/>
   <tile/>
   <tile/>
   <tile/>
   <tile/>
   <tile/>
   <tile/>
   <tile/>
   <tile/>
   <tile/>
   <tile/>
   <tile/>
   <tile/>
   <tile/>
   <tile/>
   <tile/>
   <tile/>
   <tile/>
   <tile/>
   <tile/>
   <tile/>
   <tile/>
   <tile/>
   <tile/>
   <tile/>
   <tile/>
   <tile/>
   <tile/>
   <tile/>
   <tile/>
   <tile/>
   <tile/>
   <tile/>
   <tile/>
   <tile/>
   <tile/>
   <tile/>
   <tile/>
   <tile/>
   <tile/>
   <tile/>
   <tile/>
   <tile/>
   <tile/>
   <tile/>
   <tile/>
   <tile/>
   <tile/>
   <tile/>
   <tile/>
   <tile/>
   <tile/>
   <tile/>
   <tile/>
   <tile/>
   <tile/>
   <tile/>
   <tile/>
   <tile/>
   <tile/>
   <tile/>
   <tile/>
   <tile/>
   <tile/>
   <tile/>
   <tile/>
   <tile/>
   <tile/>
   <tile/>
   <tile/>
   <tile/>
   <tile/>
   <tile/>
   <tile/>
   <tile/>
   <tile/>
   <tile/>
   <tile/>
   <tile/>
   <tile/>
   <tile/>
   <tile/>
   <tile/>
   <tile/>
   <tile/>
   <tile/>
   <tile/>
   <tile/>
   <tile/>
   <tile/>
   <tile/>
   <tile/>
   <tile/>
   <tile/>
   <tile/>
   <tile/>
   <tile/>
   <tile/>
   <tile/>
   <tile/>
   <tile/>
   <tile/>
   <tile/>
   <tile/>
   <tile/>
   <tile/>
   <tile/>
   <tile/>
   <tile/>
   <tile/>
   <tile/>
   <tile/>
   <tile/>
   <tile/>
   <tile/>
   <tile/>
   <tile/>
   <tile/>
   <tile/>
   <tile/>
   <tile/>
   <tile/>
   <tile/>
   <tile/>
   <tile/>
   <tile/>
   <tile/>
   <tile/>
   <tile/>
   <tile/>
   <tile/>
   <tile/>
   <tile/>
   <tile/>
   <tile/>
   <tile/>
   <tile/>
   <tile/>
   <tile/>
   <tile/>
   <tile/>
   <tile/>
   <tile/>
   <tile/>
   <tile/>
   <tile/>
   <tile/>
   <tile/>
   <tile/>
   <tile/>
   <tile/>
   <tile/>
   <tile/>
   <tile/>
   <tile/>
   <tile/>
   <tile/>
   <tile/>
   <tile/>
   <tile/>
   <tile/>
   <tile/>
   <tile/>
   <tile/>
   <tile/>
   <tile/>
   <tile/>
   <tile/>
   <tile/>
   <tile/>
   <tile/>
   <tile/>
   <tile/>
   <tile/>
   <tile/>
   <tile/>
   <tile/>
   <tile/>
   <tile/>
   <tile/>
   <tile/>
   <tile/>
   <tile/>
   <tile/>
   <tile/>
   <tile/>
   <tile/>
   <tile/>
   <tile/>
   <tile/>
   <tile/>
   <tile/>
   <tile/>
   <tile/>
   <tile/>
   <tile/>
   <tile/>
   <tile/>
   <tile/>
   <tile/>
   <tile/>
   <tile/>
   <tile/>
   <tile/>
   <tile/>
   <tile/>
   <tile/>
   <tile/>
   <tile/>
   <tile/>
   <tile/>
   <tile/>
   <tile/>
   <tile/>
   <tile/>
   <tile/>
   <tile/>
   <tile/>
   <tile/>
   <tile/>
   <tile/>
   <tile/>
   <tile/>
   <tile/>
   <tile/>
   <tile/>
   <tile/>
   <tile/>
   <tile/>
   <tile/>
   <tile/>
   <tile/>
   <tile/>
   <tile/>
   <tile/>
   <tile/>
   <tile/>
   <tile/>
   <tile/>
   <tile/>
   <tile/>
   <tile/>
   <tile/>
   <tile/>
   <tile/>
   <tile/>
   <tile/>
   <tile/>
   <tile/>
   <tile/>
   <tile/>
   <tile/>
   <tile/>
   <tile/>
   <tile/>
   <tile/>
   <tile/>
   <tile/>
   <tile/>
   <tile/>
   <tile/>
   <tile/>
   <tile/>
   <tile/>
   <tile/>
   <tile/>
   <tile/>
   <tile/>
   <tile/>
   <tile/>
   <tile/>
   <tile/>
   <tile/>
   <tile/>
   <tile/>
   <tile/>
   <tile/>
   <tile/>
   <tile/>
   <tile/>
   <tile/>
   <tile/>
   <tile/>
   <tile/>
   <tile/>
   <tile/>
   <tile/>
   <tile/>
   <tile/>
   <tile/>
   <tile/>
   <tile/>
   <tile/>
   <tile/>
   <tile/>
   <tile/>
   <tile/>
   <tile/>
   <tile/>
   <tile/>
   <tile/>
   <tile/>
   <tile/>
   <tile/>
   <tile/>
   <tile/>
   <tile/>
   <tile/>
   <tile/>
   <tile/>
   <tile/>
   <tile/>
   <tile/>
   <tile/>
   <tile/>
   <tile/>
   <tile/>
   <tile/>
   <tile/>
   <tile/>
   <tile/>
   <tile/>
   <tile/>
   <tile/>
   <tile/>
   <tile/>
   <tile/>
   <tile/>
   <tile/>
   <tile/>
   <tile/>
   <tile/>
   <tile/>
   <tile/>
   <tile/>
   <tile/>
   <tile/>
   <tile/>
   <tile/>
   <tile/>
   <tile/>
   <tile/>
   <tile/>
   <tile/>
   <tile/>
   <tile/>
   <tile/>
   <tile/>
   <tile/>
   <tile/>
   <tile/>
   <tile/>
   <tile/>
   <tile/>
   <tile/>
   <tile/>
   <tile/>
   <tile/>
   <tile/>
   <tile/>
   <tile/>
   <tile/>
   <tile/>
   <tile/>
   <tile/>
   <tile/>
   <tile/>
   <tile/>
   <tile/>
   <tile/>
   <tile/>
   <tile/>
   <tile/>
   <tile/>
   <tile/>
   <tile/>
   <tile/>
   <tile/>
   <tile/>
   <tile/>
   <tile/>
   <tile/>
   <tile/>
   <tile/>
   <tile/>
   <tile/>
   <tile/>
   <tile/>
   <tile/>
   <tile/>
   <tile/>
   <tile/>
   <tile/>
   <tile/>
   <tile/>
   <tile/>
   <tile/>
   <tile/>
   <tile/>
   <tile/>
   <tile/>
   <tile/>
   <tile/>
   <tile/>
   <tile/>
   <tile/>
   <tile/>
   <tile/>
   <tile/>
   <tile/>
   <tile/>
   <tile/>
   <tile/>
   <tile/>
   <tile/>
   <tile/>
   <tile/>
   <tile/>
   <tile/>
   <tile/>
   <tile/>
   <tile/>
   <tile/>
   <tile/>
   <tile/>
   <tile/>
   <tile/>
   <tile/>
   <tile/>
   <tile/>
   <tile/>
   <tile/>
   <tile/>
   <tile/>
   <tile/>
   <tile/>
   <tile/>
   <tile/>
   <tile/>
   <tile/>
   <tile/>
   <tile/>
   <tile/>
   <tile/>
   <tile/>
   <tile/>
   <tile/>
   <tile/>
   <tile/>
   <tile/>
   <tile/>
   <tile/>
   <tile/>
   <tile/>
   <tile/>
   <tile/>
   <tile/>
   <tile/>
   <tile/>
   <tile/>
   <tile/>
   <tile/>
   <tile/>
   <tile/>
   <tile/>
   <tile/>
   <tile/>
   <tile/>
   <tile/>
   <tile/>
   <tile/>
   <tile/>
   <tile/>
   <tile/>
   <tile/>
   <tile/>
   <tile/>
   <tile/>
   <tile/>
   <tile/>
   <tile/>
   <tile/>
   <tile/>
   <tile/>
   <tile/>
   <tile/>
   <tile/>
   <tile/>
   <tile/>
   <tile/>
   <tile/>
   <tile/>
   <tile/>
   <tile/>
   <tile/>
   <tile/>
   <tile/>
   <tile/>
   <tile/>
   <tile/>
   <tile/>
   <tile/>
   <tile/>
   <tile/>
   <tile/>
   <tile/>
   <tile/>
   <tile/>
   <tile/>
   <tile/>
   <tile/>
   <tile/>
   <tile/>
   <tile/>
   <tile/>
   <tile/>
   <tile/>
   <tile/>
   <tile/>
   <tile/>
   <tile/>
   <tile/>
   <tile/>
   <tile/>
   <tile/>
   <tile/>
   <tile/>
   <tile/>
   <tile/>
   <tile/>
   <tile/>
   <tile/>
   <tile/>
   <tile/>
   <tile/>
   <tile/>
   <tile/>
   <tile/>
   <tile/>
   <tile/>
   <tile/>
   <tile/>
   <tile/>
   <tile/>
   <tile/>
   <tile/>
   <tile/>
   <tile/>
   <tile/>
   <tile/>
   <tile/>
   <tile/>
   <tile/>
   <tile/>
   <tile/>
   <tile/>
   <tile/>
   <tile/>
   <tile/>
   <tile/>
   <tile/>
   <tile/>
   <tile/>
   <tile/>
   <tile/>
   <tile/>
   <tile/>
   <tile/>
   <tile/>
   <tile/>
   <tile/>
   <tile/>
   <tile/>
   <tile/>
   <tile/>
   <tile/>
   <tile/>
   <tile/>
   <tile/>
   <tile/>
   <tile/>
   <tile/>
   <tile/>
   <tile/>
   <tile/>
   <tile/>
   <tile/>
   <tile/>
   <tile/>
   <tile/>
   <tile/>
   <tile/>
   <tile/>
   <tile/>
   <tile/>
   <tile/>
   <tile/>
   <tile/>
   <tile/>
   <tile/>
   <tile/>
   <tile/>
   <tile/>
   <tile/>
   <tile/>
   <tile/>
   <tile/>
   <tile/>
   <tile/>
   <tile/>
   <tile/>
   <tile/>
   <tile/>
   <tile/>
   <tile/>
   <tile/>
   <tile/>
   <tile/>
   <tile/>
   <tile/>
   <tile/>
   <tile/>
   <tile/>
   <tile/>
   <tile/>
   <tile/>
   <tile/>
   <tile/>
   <tile/>
   <tile/>
   <tile/>
   <tile/>
   <tile/>
   <tile/>
   <tile/>
   <tile/>
   <tile/>
   <tile/>
   <tile/>
   <tile/>
   <tile/>
   <tile/>
   <tile/>
   <tile/>
   <tile/>
   <tile/>
   <tile/>
   <tile/>
   <tile/>
   <tile/>
   <tile/>
   <tile/>
   <tile/>
   <tile/>
   <tile/>
   <tile/>
   <tile/>
   <tile/>
   <tile/>
   <tile/>
   <tile/>
   <tile/>
   <tile/>
   <tile/>
   <tile/>
   <tile/>
   <tile/>
   <tile/>
   <tile/>
   <tile/>
   <tile/>
   <tile/>
   <tile/>
   <tile/>
   <tile/>
   <tile/>
   <tile/>
   <tile/>
   <tile/>
   <tile/>
   <tile/>
   <tile/>
   <tile/>
   <tile/>
   <tile/>
   <tile/>
   <tile/>
   <tile/>
   <tile/>
   <tile/>
   <tile/>
   <tile/>
   <tile/>
   <tile/>
   <tile/>
   <tile/>
   <tile/>
   <tile/>
   <tile/>
   <tile/>
   <tile/>
   <tile/>
   <tile/>
   <tile/>
   <tile/>
   <tile/>
   <tile/>
   <tile/>
   <tile/>
   <tile/>
   <tile/>
   <tile/>
   <tile/>
   <tile/>
   <tile/>
   <tile/>
   <tile/>
   <tile/>
   <tile/>
   <tile/>
   <tile/>
   <tile/>
   <tile/>
   <tile/>
   <tile/>
   <tile/>
   <tile/>
   <tile/>
   <tile/>
   <tile/>
   <tile/>
   <tile/>
   <tile/>
   <tile/>
   <tile/>
   <tile/>
   <tile/>
   <tile/>
   <tile/>
   <tile/>
   <tile/>
   <tile/>
   <tile/>
   <tile/>
   <tile/>
   <tile/>
   <tile/>
   <tile/>
   <tile/>
   <tile/>
   <tile/>
   <tile/>
   <tile/>
   <tile/>
   <tile/>
   <tile/>
   <tile/>
   <tile/>
   <tile/>
   <tile/>
   <tile/>
   <tile/>
   <tile/>
   <tile/>
   <tile/>
   <tile/>
   <tile/>
   <tile/>
   <tile/>
   <tile/>
   <tile/>
   <tile/>
   <tile/>
   <tile/>
   <tile/>
   <tile/>
   <tile/>
   <tile/>
   <tile/>
   <tile/>
   <tile/>
   <tile/>
   <tile/>
   <tile/>
   <tile/>
   <tile/>
   <tile/>
   <tile/>
   <tile/>
   <tile/>
   <tile/>
   <tile/>
   <tile/>
   <tile/>
   <tile/>
   <tile/>
   <tile/>
   <tile/>
   <tile/>
   <tile/>
   <tile/>
   <tile/>
   <tile/>
   <tile/>
   <tile/>
   <tile/>
   <tile/>
   <tile/>
   <tile/>
   <tile/>
   <tile/>
   <tile/>
   <tile/>
   <tile/>
   <tile/>
   <tile/>
   <tile/>
   <tile/>
   <tile/>
   <tile/>
   <tile/>
   <tile/>
   <tile/>
   <tile/>
   <tile/>
   <tile/>
   <tile/>
   <tile/>
   <tile/>
   <tile/>
   <tile/>
   <tile/>
   <tile/>
   <tile/>
   <tile/>
   <tile/>
   <tile/>
   <tile/>
   <tile/>
   <tile/>
   <tile/>
   <tile/>
   <tile/>
   <tile/>
   <tile/>
   <tile/>
   <tile/>
   <tile/>
   <tile/>
   <tile/>
   <tile/>
   <tile/>
   <tile/>
   <tile/>
   <tile/>
   <tile/>
   <tile/>
   <tile/>
   <tile/>
   <tile/>
   <tile/>
   <tile/>
   <tile/>
   <tile/>
   <tile/>
   <tile/>
   <tile/>
   <tile/>
   <tile/>
   <tile/>
   <tile/>
   <tile/>
   <tile/>
   <tile/>
   <tile/>
   <tile/>
   <tile/>
   <tile/>
   <tile/>
   <tile/>
   <tile/>
   <tile/>
   <tile/>
   <tile/>
   <tile/>
   <tile/>
   <tile/>
   <tile/>
   <tile/>
   <tile/>
   <tile/>
   <tile/>
   <tile/>
   <tile/>
   <tile/>
   <tile/>
   <tile/>
   <tile/>
   <tile/>
   <tile/>
   <tile/>
   <tile/>
   <tile/>
   <tile/>
   <tile/>
   <tile/>
   <tile/>
   <tile/>
   <tile/>
   <tile/>
   <tile/>
   <tile/>
   <tile/>
   <tile/>
   <tile/>
   <tile/>
   <tile/>
   <tile/>
   <tile/>
   <tile/>
   <tile/>
   <tile/>
   <tile/>
   <tile/>
   <tile/>
   <tile/>
   <tile/>
   <tile/>
   <tile/>
   <tile/>
   <tile/>
   <tile/>
   <tile/>
   <tile/>
   <tile/>
   <tile/>
   <tile/>
   <tile/>
   <tile/>
   <tile/>
   <tile/>
   <tile/>
   <tile/>
   <tile/>
   <tile/>
   <tile/>
   <tile/>
   <tile/>
   <tile/>
   <tile/>
   <tile/>
   <tile/>
   <tile/>
   <tile/>
   <tile/>
   <tile/>
   <tile/>
   <tile/>
   <tile/>
   <tile/>
   <tile/>
   <tile/>
   <tile/>
   <tile/>
   <tile/>
   <tile/>
   <tile/>
   <tile/>
   <tile/>
   <tile/>
   <tile/>
   <tile/>
   <tile/>
   <tile/>
   <tile/>
   <tile/>
   <tile/>
   <tile/>
   <tile/>
   <tile/>
   <tile/>
   <tile/>
   <tile/>
   <tile/>
   <tile/>
   <tile/>
   <tile/>
   <tile/>
   <tile/>
   <tile/>
   <tile/>
   <tile/>
   <tile/>
   <tile/>
   <tile/>
   <tile/>
   <tile/>
   <tile/>
   <tile/>
   <tile/>
   <tile/>
   <tile/>
   <tile/>
   <tile/>
   <tile/>
   <tile/>
   <tile/>
   <tile/>
   <tile/>
   <tile/>
   <tile/>
   <tile/>
   <tile/>
   <tile/>
   <tile/>
   <tile/>
   <tile/>
   <tile/>
   <tile/>
   <tile/>
   <tile/>
   <tile/>
   <tile/>
   <tile/>
   <tile/>
   <tile/>
   <tile/>
   <tile/>
   <tile/>
   <tile/>
   <tile/>
   <tile/>
   <tile/>
   <tile/>
   <tile/>
   <tile/>
   <tile/>
   <tile/>
   <tile/>
   <tile/>
   <tile/>
   <tile/>
   <tile/>
   <tile/>
   <tile/>
   <tile/>
   <tile/>
   <tile/>
   <tile/>
   <tile/>
   <tile/>
   <tile/>
   <tile/>
   <tile/>
   <tile/>
   <tile/>
   <tile/>
   <tile/>
   <tile/>
   <tile/>
   <tile/>
   <tile/>
   <tile/>
   <tile/>
   <tile/>
   <tile/>
   <tile/>
   <tile/>
   <tile/>
   <tile/>
   <tile/>
   <tile/>
   <tile/>
   <tile/>
   <tile/>
   <tile/>
   <tile/>
   <tile/>
   <tile/>
   <tile/>
   <tile/>
   <tile/>
   <tile/>
   <tile/>
   <tile/>
   <tile/>
   <tile/>
   <tile/>
   <tile/>
   <tile/>
   <tile/>
   <tile/>
   <tile/>
   <tile/>
   <tile/>
   <tile/>
   <tile/>
   <tile/>
   <tile/>
   <tile/>
   <tile/>
   <tile/>
   <tile/>
   <tile/>
   <tile/>
   <tile/>
   <tile/>
   <tile/>
   <tile/>
   <tile/>
   <tile/>
   <tile/>
   <tile/>
   <tile/>
   <tile/>
   <tile/>
   <tile/>
   <tile/>
   <tile/>
   <tile/>
   <tile/>
   <tile/>
   <tile/>
   <tile/>
   <tile/>
   <tile/>
   <tile/>
   <tile/>
   <tile/>
   <tile/>
   <tile/>
   <tile/>
   <tile/>
   <tile/>
   <tile/>
   <tile/>
   <tile/>
   <tile/>
   <tile/>
   <tile/>
   <tile/>
   <tile/>
   <tile/>
   <tile/>
   <tile/>
   <tile/>
   <tile/>
   <tile/>
   <tile/>
   <tile/>
   <tile/>
   <tile/>
   <tile/>
   <tile/>
   <tile/>
   <tile/>
   <tile/>
   <tile/>
   <tile/>
   <tile/>
   <tile/>
   <tile/>
   <tile/>
   <tile/>
   <tile/>
   <tile/>
   <tile/>
   <tile/>
   <tile/>
   <tile/>
   <tile/>
   <tile/>
   <tile/>
   <tile/>
   <tile/>
   <tile/>
   <tile/>
   <tile/>
   <tile/>
   <tile/>
   <tile/>
   <tile/>
   <tile/>
   <tile/>
   <tile/>
   <tile/>
   <tile/>
   <tile/>
   <tile/>
   <tile/>
   <tile/>
   <tile/>
   <tile/>
   <tile/>
   <tile/>
   <tile/>
   <tile/>
   <tile/>
   <tile/>
   <tile/>
   <tile/>
   <tile/>
   <tile/>
   <tile/>
   <tile/>
   <tile/>
   <tile/>
   <tile/>
   <tile/>
   <tile/>
   <tile/>
   <tile/>
   <tile/>
   <tile/>
   <tile/>
   <tile/>
   <tile/>
   <tile/>
   <tile/>
   <tile/>
   <tile/>
   <tile/>
   <tile/>
   <tile/>
   <tile/>
   <tile/>
   <tile/>
   <tile/>
   <tile/>
   <tile/>
   <tile/>
   <tile/>
   <tile/>
   <tile/>
   <tile/>
   <tile/>
   <tile/>
   <tile/>
   <tile/>
   <tile/>
   <tile/>
   <tile/>
   <tile/>
   <tile/>
   <tile/>
   <tile/>
   <tile/>
   <tile/>
   <tile/>
   <tile/>
   <tile/>
   <tile/>
   <tile/>
   <tile/>
   <tile/>
   <tile/>
   <tile/>
   <tile/>
   <tile/>
   <tile/>
   <tile/>
   <tile/>
   <tile/>
   <tile/>
   <tile/>
   <tile/>
   <tile/>
   <tile/>
   <tile/>
   <tile/>
   <tile/>
   <tile/>
   <tile/>
   <tile/>
   <tile/>
   <tile/>
   <tile/>
   <tile/>
   <tile/>
   <tile/>
   <tile/>
   <tile/>
   <tile/>
   <tile/>
   <tile/>
   <tile/>
   <tile/>
   <tile/>
   <tile/>
   <tile/>
   <tile/>
   <tile/>
   <tile/>
   <tile/>
   <tile/>
   <tile/>
   <tile/>
   <tile/>
   <tile/>
   <tile/>
   <tile/>
   <tile/>
   <tile/>
   <tile/>
   <tile/>
   <tile/>
   <tile/>
   <tile/>
   <tile/>
   <tile/>
   <tile/>
   <tile/>
   <tile/>
   <tile/>
   <tile/>
   <tile/>
   <tile/>
   <tile/>
   <tile/>
   <tile/>
   <tile/>
   <tile/>
   <tile/>
   <tile/>
   <tile/>
   <tile/>
   <tile/>
   <tile/>
   <tile/>
   <tile/>
   <tile/>
   <tile/>
   <tile/>
   <tile/>
   <tile/>
   <tile/>
   <tile/>
   <tile/>
   <tile/>
   <tile/>
   <tile/>
   <tile/>
   <tile/>
   <tile/>
   <tile/>
   <tile/>
   <tile/>
   <tile/>
   <tile/>
   <tile/>
   <tile/>
   <tile/>
   <tile/>
   <tile/>
   <tile/>
   <tile/>
   <tile/>
   <tile/>
   <tile/>
   <tile/>
   <tile/>
   <tile/>
   <tile/>
   <tile/>
   <tile/>
   <tile/>
   <tile/>
   <tile/>
   <tile/>
   <tile/>
   <tile/>
   <tile/>
   <tile/>
   <tile/>
   <tile/>
   <tile/>
   <tile/>
   <tile/>
   <tile/>
   <tile/>
   <tile/>
   <tile/>
   <tile/>
   <tile/>
   <tile/>
   <tile/>
   <tile/>
   <tile/>
   <tile/>
   <tile/>
   <tile/>
   <tile/>
   <tile/>
   <tile/>
   <tile/>
   <tile/>
   <tile/>
   <tile/>
   <tile/>
   <tile/>
   <tile/>
   <tile/>
   <tile/>
   <tile/>
   <tile/>
   <tile/>
   <tile/>
   <tile/>
   <tile/>
   <tile/>
   <tile/>
   <tile/>
   <tile/>
   <tile/>
   <tile/>
   <tile/>
   <tile/>
   <tile/>
   <tile/>
   <tile/>
   <tile/>
   <tile/>
   <tile/>
   <tile/>
   <tile/>
   <tile/>
   <tile/>
   <tile/>
   <tile/>
   <tile/>
   <tile/>
   <tile/>
   <tile/>
   <tile/>
   <tile/>
   <tile/>
   <tile/>
   <tile/>
   <tile/>
   <tile/>
   <tile/>
   <tile/>
   <tile/>
   <tile/>
   <tile/>
   <tile/>
   <tile/>
   <tile/>
   <tile/>
   <tile/>
   <tile/>
   <tile/>
   <tile/>
   <tile/>
   <tile/>
   <tile/>
   <tile/>
   <tile/>
   <tile/>
   <tile/>
   <tile/>
   <tile/>
   <tile/>
   <tile/>
   <tile/>
   <tile/>
   <tile/>
   <tile/>
   <tile/>
   <tile/>
   <tile/>
   <tile/>
   <tile/>
   <tile/>
   <tile/>
   <tile/>
   <tile/>
   <tile/>
   <tile/>
   <tile/>
   <tile/>
   <tile/>
   <tile/>
   <tile/>
   <tile/>
   <tile/>
   <tile/>
   <tile/>
   <tile/>
   <tile/>
   <tile/>
   <tile/>
   <tile/>
   <tile/>
   <tile/>
   <tile/>
   <tile/>
   <tile/>
   <tile/>
   <tile/>
   <tile/>
   <tile/>
   <tile/>
   <tile/>
   <tile/>
   <tile/>
   <tile/>
   <tile/>
   <tile/>
   <tile/>
   <tile/>
   <tile/>
   <tile/>
   <tile/>
   <tile/>
   <tile/>
   <tile/>
   <tile/>
   <tile/>
   <tile/>
   <tile/>
   <tile/>
   <tile/>
   <tile/>
   <tile/>
   <tile/>
   <tile/>
   <tile/>
   <tile/>
   <tile/>
   <tile/>
   <tile/>
   <tile/>
   <tile/>
   <tile/>
   <tile/>
   <tile/>
   <tile/>
   <tile/>
   <tile/>
   <tile/>
   <tile/>
   <tile/>
   <tile/>
   <tile/>
   <tile/>
   <tile/>
   <tile/>
   <tile/>
   <tile/>
   <tile/>
   <tile/>
   <tile/>
   <tile/>
   <tile/>
   <tile/>
   <tile/>
   <tile/>
   <tile/>
   <tile/>
   <tile/>
   <tile/>
   <tile/>
   <tile/>
   <tile/>
   <tile/>
   <tile/>
   <tile/>
   <tile/>
   <tile/>
   <tile/>
   <tile/>
   <tile/>
   <tile/>
   <tile/>
   <tile/>
   <tile/>
   <tile/>
   <tile/>
   <tile/>
   <tile/>
   <tile/>
   <tile/>
   <tile/>
   <tile/>
   <tile/>
   <tile/>
   <tile/>
   <tile/>
   <tile/>
   <tile/>
   <tile/>
   <tile/>
   <tile/>
   <tile/>
   <tile/>
   <tile/>
   <tile/>
   <tile/>
   <tile/>
   <tile/>
   <tile/>
   <tile/>
   <tile/>
   <tile/>
   <tile/>
   <tile/>
   <tile/>
   <tile/>
   <tile/>
   <tile/>
   <tile/>
   <tile/>
   <tile/>
   <tile/>
   <tile/>
   <tile/>
   <tile/>
   <tile/>
   <tile/>
   <tile/>
   <tile/>
   <tile/>
   <tile/>
   <tile/>
   <tile/>
   <tile/>
   <tile/>
   <tile/>
   <tile/>
   <tile/>
   <tile/>
   <tile/>
   <tile/>
   <tile/>
   <tile/>
   <tile/>
   <tile/>
   <tile/>
   <tile/>
   <tile/>
   <tile/>
   <tile/>
   <tile/>
   <tile/>
   <tile/>
   <tile/>
   <tile/>
   <tile/>
   <tile/>
   <tile/>
   <tile/>
   <tile/>
   <tile/>
   <tile/>
   <tile/>
   <tile/>
   <tile/>
   <tile/>
   <tile/>
   <tile/>
   <tile/>
   <tile/>
   <tile/>
   <tile/>
   <tile/>
   <tile/>
   <tile/>
   <tile/>
   <tile/>
   <tile/>
   <tile/>
   <tile/>
   <tile/>
   <tile/>
   <tile/>
   <tile/>
   <tile/>
   <tile/>
   <tile/>
   <tile/>
   <tile/>
   <tile/>
   <tile/>
   <tile/>
   <tile/>
   <tile/>
   <tile/>
   <tile/>
   <tile/>
   <tile/>
   <tile/>
   <tile/>
   <tile/>
   <tile/>
   <tile/>
   <tile/>
   <tile/>
   <tile/>
   <tile/>
   <tile/>
   <tile/>
   <tile/>
   <tile/>
   <tile/>
   <tile/>
   <tile/>
   <tile/>
   <tile/>
   <tile/>
   <tile/>
   <tile/>
   <tile/>
   <tile/>
   <tile/>
   <tile/>
   <tile/>
   <tile/>
   <tile/>
   <tile/>
   <tile/>
   <tile/>
   <tile/>
   <tile/>
   <tile/>
   <tile/>
   <tile/>
   <tile/>
   <tile/>
   <tile/>
   <tile/>
   <tile/>
   <tile/>
   <tile/>
   <tile/>
   <tile/>
   <tile/>
   <tile/>
   <tile/>
   <tile/>
   <tile/>
   <tile/>
   <tile/>
   <tile/>
   <tile/>
   <tile/>
   <tile/>
   <tile/>
   <tile/>
   <tile/>
   <tile/>
   <tile/>
   <tile/>
   <tile/>
   <tile/>
   <tile/>
   <tile/>
   <tile/>
   <tile/>
   <tile/>
   <tile/>
   <tile/>
   <tile/>
   <tile/>
   <tile/>
   <tile/>
   <tile/>
   <tile/>
   <tile/>
   <tile/>
   <tile/>
   <tile/>
   <tile/>
   <tile/>
   <tile/>
   <tile/>
   <tile/>
   <tile/>
   <tile/>
   <tile/>
   <tile/>
   <tile/>
   <tile/>
   <tile/>
   <tile/>
   <tile/>
   <tile/>
   <tile/>
   <tile/>
   <tile/>
   <tile/>
   <tile/>
   <tile/>
   <tile/>
   <tile/>
   <tile/>
   <tile/>
   <tile/>
   <tile/>
   <tile/>
   <tile/>
   <tile/>
   <tile/>
   <tile/>
   <tile/>
   <tile/>
   <tile/>
   <tile/>
   <tile/>
   <tile/>
   <tile/>
   <tile/>
   <tile/>
   <tile/>
   <tile/>
   <tile/>
   <tile/>
   <tile/>
   <tile/>
   <tile/>
   <tile/>
   <tile/>
   <tile/>
   <tile/>
   <tile/>
   <tile/>
   <tile/>
   <tile/>
   <tile/>
   <tile/>
   <tile/>
   <tile/>
   <tile/>
   <tile/>
   <tile/>
   <tile/>
   <tile/>
   <tile/>
   <tile/>
   <tile/>
   <tile/>
   <tile/>
   <tile/>
   <tile/>
   <tile/>
   <tile/>
   <tile/>
   <tile/>
   <tile/>
   <tile/>
   <tile/>
   <tile/>
   <tile/>
   <tile/>
   <tile/>
   <tile/>
   <tile/>
   <tile/>
   <tile/>
   <tile/>
   <tile/>
   <tile/>
   <tile/>
   <tile/>
   <tile/>
   <tile/>
   <tile/>
   <tile/>
   <tile/>
   <tile/>
   <tile/>
   <tile/>
   <tile/>
   <tile/>
   <tile/>
   <tile/>
   <tile/>
   <tile/>
   <tile/>
   <tile/>
   <tile/>
   <tile/>
   <tile/>
   <tile/>
   <tile/>
   <tile/>
   <tile/>
   <tile/>
   <tile/>
   <tile/>
   <tile/>
   <tile/>
   <tile/>
   <tile/>
   <tile/>
   <tile/>
   <tile/>
   <tile/>
   <tile/>
   <tile/>
   <tile/>
   <tile/>
   <tile/>
   <tile/>
   <tile/>
   <tile/>
   <tile/>
   <tile/>
   <tile/>
   <tile/>
   <tile/>
   <tile/>
   <tile/>
   <tile/>
   <tile/>
   <tile/>
   <tile/>
   <tile/>
   <tile/>
   <tile/>
   <tile/>
   <tile/>
   <tile/>
   <tile/>
   <tile/>
   <tile/>
   <tile/>
   <tile/>
   <tile/>
   <tile/>
   <tile/>
   <tile/>
   <tile/>
   <tile/>
   <tile/>
   <tile/>
   <tile/>
   <tile/>
   <tile/>
   <tile/>
   <tile/>
   <tile/>
   <tile/>
   <tile/>
   <tile/>
   <tile/>
   <tile/>
   <tile/>
   <tile/>
   <tile/>
   <tile/>
   <tile/>
   <tile/>
   <tile/>
   <tile/>
   <tile/>
   <tile/>
   <tile/>
   <tile/>
   <tile/>
   <tile/>
   <tile/>
   <tile/>
   <tile/>
   <tile/>
   <tile/>
   <tile/>
   <tile/>
   <tile/>
   <tile/>
   <tile/>
   <tile/>
   <tile/>
   <tile/>
   <tile/>
   <tile/>
   <tile/>
   <tile/>
   <tile/>
   <tile/>
   <tile/>
   <tile/>
   <tile/>
   <tile/>
   <tile/>
   <tile/>
   <tile/>
   <tile/>
   <tile/>
   <tile/>
   <tile/>
   <tile/>
   <tile/>
   <tile/>
   <tile/>
   <tile/>
   <tile/>
   <tile/>
   <tile/>
   <tile/>
   <tile/>
   <tile/>
   <tile/>
   <tile/>
   <tile/>
   <tile/>
   <tile/>
   <tile/>
   <tile/>
   <tile/>
   <tile/>
   <tile/>
   <tile/>
   <tile/>
   <tile/>
   <tile/>
   <tile/>
   <tile/>
   <tile/>
   <tile/>
   <tile/>
   <tile/>
   <tile/>
   <tile/>
   <tile/>
   <tile/>
   <tile/>
   <tile/>
   <tile/>
   <tile/>
   <tile/>
   <tile/>
   <tile/>
   <tile/>
   <tile/>
   <tile/>
   <tile/>
   <tile/>
   <tile/>
   <tile/>
   <tile/>
   <tile/>
   <tile/>
   <tile/>
   <tile/>
   <tile/>
   <tile/>
   <tile/>
   <tile/>
   <tile/>
   <tile/>
   <tile/>
   <tile/>
   <tile/>
   <tile/>
   <tile/>
   <tile/>
   <tile/>
   <tile/>
   <tile/>
   <tile/>
   <tile/>
   <tile/>
   <tile/>
   <tile/>
   <tile/>
   <tile/>
   <tile/>
   <tile/>
   <tile/>
   <tile/>
   <tile/>
   <tile/>
   <tile/>
   <tile/>
   <tile/>
   <tile/>
   <tile/>
   <tile/>
   <tile/>
   <tile/>
   <tile/>
   <tile/>
   <tile/>
   <tile/>
   <tile/>
   <tile/>
   <tile/>
   <tile/>
   <tile/>
   <tile/>
   <tile/>
   <tile/>
   <tile/>
   <tile/>
   <tile/>
   <tile/>
   <tile/>
   <tile/>
   <tile/>
   <tile/>
   <tile/>
   <tile/>
   <tile/>
   <tile/>
   <tile/>
   <tile/>
   <tile/>
   <tile/>
   <tile/>
   <tile/>
   <tile/>
   <tile/>
   <tile/>
   <tile/>
   <tile/>
   <tile/>
   <tile/>
   <tile/>
   <tile/>
   <tile/>
   <tile/>
   <tile/>
   <tile/>
   <tile/>
   <tile/>
   <tile/>
   <tile/>
   <tile/>
   <tile/>
   <tile/>
   <tile/>
   <tile/>
   <tile/>
   <tile/>
   <tile/>
   <tile/>
   <tile/>
   <tile/>
   <tile/>
   <tile/>
   <tile/>
   <tile/>
   <tile/>
   <tile/>
   <tile/>
   <tile/>
   <tile/>
   <tile/>
   <tile/>
   <tile/>
   <tile/>
   <tile/>
   <tile/>
   <tile/>
   <tile/>
   <tile/>
   <tile/>
   <tile/>
   <tile/>
   <tile/>
   <tile/>
   <tile/>
   <tile/>
   <tile/>
   <tile/>
   <tile/>
   <tile/>
   <tile/>
   <tile/>
   <tile/>
   <tile/>
   <tile/>
   <tile/>
   <tile/>
   <tile/>
   <tile/>
   <tile/>
   <tile/>
   <tile/>
   <tile/>
   <tile/>
   <tile/>
   <tile/>
   <tile/>
   <tile/>
   <tile/>
   <tile/>
   <tile/>
   <tile/>
   <tile/>
   <tile/>
   <tile/>
   <tile/>
   <tile/>
   <tile/>
   <tile/>
   <tile/>
   <tile/>
   <tile/>
   <tile/>
   <tile/>
   <tile/>
   <tile/>
   <tile/>
   <tile/>
   <tile/>
   <tile/>
   <tile/>
   <tile/>
   <tile/>
   <tile/>
   <tile/>
   <tile/>
   <tile/>
   <tile/>
   <tile/>
   <tile/>
   <tile/>
   <tile/>
   <tile/>
   <tile/>
   <tile/>
   <tile/>
   <tile/>
   <tile/>
   <tile/>
   <tile/>
   <tile/>
   <tile/>
   <tile/>
   <tile/>
   <tile/>
   <tile/>
   <tile/>
   <tile/>
   <tile/>
   <tile/>
   <tile/>
   <tile/>
   <tile/>
   <tile/>
   <tile/>
   <tile/>
   <tile/>
   <tile/>
   <tile/>
   <tile/>
   <tile/>
   <tile/>
   <tile/>
   <tile/>
   <tile/>
   <tile/>
   <tile/>
   <tile/>
   <tile/>
   <tile/>
   <tile/>
   <tile/>
   <tile/>
   <tile/>
   <tile/>
   <tile/>
   <tile/>
   <tile/>
  </data>
 </layer>
 <layer id="3" name="Collisions" width="90" height="68" visible="0">
  <data>
   <tile gid="258"/>
   <tile/>
   <tile/>
   <tile/>
   <tile/>
   <tile/>
   <tile gid="258"/>
   <tile gid="258"/>
   <tile gid="258"/>
   <tile/>
   <tile/>
   <tile/>
   <tile/>
   <tile/>
   <tile/>
   <tile/>
   <tile/>
   <tile/>
   <tile gid="258"/>
   <tile gid="258"/>
   <tile/>
   <tile/>
   <tile/>
   <tile/>
   <tile/>
   <tile/>
   <tile/>
   <tile/>
   <tile/>
   <tile/>
   <tile/>
   <tile/>
   <tile/>
   <tile/>
   <tile/>
   <tile/>
   <tile/>
   <tile/>
   <tile/>
   <tile/>
   <tile/>
   <tile/>
   <tile/>
   <tile/>
   <tile/>
   <tile/>
   <tile/>
   <tile/>
   <tile/>
   <tile/>
   <tile/>
   <tile/>
   <tile/>
   <tile/>
   <tile/>
   <tile/>
   <tile/>
   <tile/>
   <tile/>
   <tile/>
   <tile/>
   <tile/>
   <tile/>
   <tile/>
   <tile/>
   <tile/>
   <tile/>
   <tile/>
   <tile/>
   <tile/>
   <tile gid="258"/>
   <tile/>
   <tile/>
   <tile/>
   <tile/>
   <tile/>
   <tile/>
   <tile/>
   <tile/>
   <tile/>
   <tile/>
   <tile/>
   <tile/>
   <tile/>
   <tile/>
   <tile/>
   <tile/>
   <tile/>
   <tile gid="258"/>
   <tile/>
   <tile gid="258"/>
   <tile/>
   <tile/>
   <tile/>
   <tile/>
   <tile/>
   <tile gid="258"/>
   <tile gid="258"/>
   <tile/>
   <tile/>
   <tile/>
   <tile/>
   <tile/>
   <tile/>
   <tile/>
   <tile/>
   <tile/>
   <tile/>
   <tile/>
   <tile gid="258"/>
   <tile/>
   <tile/>
   <tile/>
   <tile/>
   <tile/>
   <tile/>
   <tile/>
   <tile/>
   <tile/>
   <tile/>
   <tile/>
   <tile/>
   <tile/>
   <tile/>
   <tile/>
   <tile/>
   <tile/>
   <tile/>
   <tile/>
   <tile/>
   <tile/>
   <tile/>
   <tile/>
   <tile/>
   <tile/>
   <tile/>
   <tile/>
   <tile/>
   <tile/>
   <tile/>
   <tile/>
   <tile/>
   <tile/>
   <tile/>
   <tile/>
   <tile/>
   <tile/>
   <tile/>
   <tile/>
   <tile/>
   <tile/>
   <tile/>
   <tile/>
   <tile/>
   <tile/>
   <tile/>
   <tile/>
   <tile/>
   <tile/>
   <tile/>
   <tile gid="258"/>
   <tile/>
   <tile/>
   <tile/>
   <tile/>
   <tile/>
   <tile/>
   <tile/>
   <tile/>
   <tile/>
   <tile/>
   <tile/>
   <tile/>
   <tile/>
   <tile/>
   <tile/>
   <tile/>
   <tile/>
   <tile/>
   <tile gid="258"/>
   <tile gid="258"/>
   <tile/>
   <tile/>
   <tile/>
   <tile/>
   <tile/>
   <tile gid="258"/>
   <tile/>
   <tile/>
   <tile/>
   <tile/>
   <tile/>
   <tile/>
   <tile/>
   <tile/>
   <tile/>
   <tile/>
   <tile/>
   <tile/>
   <tile/>
   <tile/>
   <tile/>
   <tile/>
   <tile/>
   <tile/>
   <tile/>
   <tile/>
   <tile/>
   <tile/>
   <tile/>
   <tile/>
   <tile/>
   <tile/>
   <tile/>
   <tile/>
   <tile/>
   <tile/>
   <tile/>
   <tile/>
   <tile/>
   <tile/>
   <tile/>
   <tile/>
   <tile/>
   <tile/>
   <tile/>
   <tile/>
   <tile/>
   <tile/>
   <tile/>
   <tile/>
   <tile/>
   <tile/>
   <tile/>
   <tile/>
   <tile/>
   <tile/>
   <tile/>
   <tile/>
   <tile/>
   <tile/>
   <tile/>
   <tile/>
   <tile/>
   <tile/>
   <tile/>
   <tile/>
   <tile/>
   <tile/>
   <tile/>
   <tile gid="258"/>
   <tile/>
   <tile/>
   <tile/>
   <tile/>
   <tile/>
   <tile/>
   <tile/>
   <tile/>
   <tile/>
   <tile/>
   <tile/>
   <tile/>
   <tile/>
   <tile/>
   <tile/>
   <tile/>
   <tile/>
   <tile/>
   <tile gid="258"/>
   <tile gid="258"/>
   <tile/>
   <tile/>
   <tile/>
   <tile/>
   <tile/>
   <tile gid="258"/>
   <tile/>
   <tile/>
   <tile/>
   <tile/>
   <tile/>
   <tile/>
   <tile/>
   <tile/>
   <tile/>
   <tile/>
   <tile/>
   <tile/>
   <tile/>
   <tile/>
   <tile/>
   <tile/>
   <tile/>
   <tile/>
   <tile/>
   <tile/>
   <tile/>
   <tile/>
   <tile/>
   <tile/>
   <tile/>
   <tile/>
   <tile/>
   <tile/>
   <tile/>
   <tile/>
   <tile/>
   <tile/>
   <tile/>
   <tile/>
   <tile/>
   <tile/>
   <tile/>
   <tile/>
   <tile/>
   <tile/>
   <tile/>
   <tile/>
   <tile/>
   <tile/>
   <tile/>
   <tile/>
   <tile/>
   <tile/>
   <tile/>
   <tile/>
   <tile/>
   <tile/>
   <tile/>
   <tile/>
   <tile/>
   <tile/>
   <tile/>
   <tile/>
   <tile/>
   <tile/>
   <tile/>
   <tile/>
   <tile/>
   <tile gid="258"/>
   <tile/>
   <tile/>
   <tile/>
   <tile/>
   <tile/>
   <tile/>
   <tile/>
   <tile/>
   <tile/>
   <tile/>
   <tile/>
   <tile/>
   <tile/>
   <tile/>
   <tile/>
   <tile/>
   <tile/>
   <tile/>
   <tile gid="258"/>
   <tile gid="258"/>
   <tile/>
   <tile/>
   <tile/>
   <tile/>
   <tile/>
   <tile/>
   <tile/>
   <tile/>
   <tile/>
   <tile/>
   <tile/>
   <tile/>
   <tile/>
   <tile/>
   <tile/>
   <tile/>
   <tile/>
   <tile/>
   <tile/>
   <tile/>
   <tile/>
   <tile/>
   <tile/>
   <tile/>
   <tile/>
   <tile/>
   <tile/>
   <tile/>
   <tile/>
   <tile/>
   <tile/>
   <tile/>
   <tile/>
   <tile/>
   <tile/>
   <tile/>
   <tile/>
   <tile/>
   <tile/>
   <tile/>
   <tile/>
   <tile/>
   <tile/>
   <tile/>
   <tile/>
   <tile/>
   <tile/>
   <tile/>
   <tile/>
   <tile/>
   <tile/>
   <tile/>
   <tile/>
   <tile/>
   <tile/>
   <tile/>
   <tile/>
   <tile/>
   <tile/>
   <tile/>
   <tile/>
   <tile/>
   <tile/>
   <tile/>
   <tile/>
   <tile/>
   <tile/>
   <tile/>
   <tile/>
   <tile gid="258"/>
   <tile/>
   <tile/>
   <tile/>
   <tile/>
   <tile/>
   <tile/>
   <tile/>
   <tile/>
   <tile/>
   <tile/>
   <tile/>
   <tile/>
   <tile/>
   <tile/>
   <tile/>
   <tile/>
   <tile/>
   <tile/>
   <tile gid="258"/>
   <tile gid="258"/>
   <tile/>
   <tile/>
   <tile/>
   <tile/>
   <tile/>
   <tile/>
   <tile/>
   <tile/>
   <tile/>
   <tile/>
   <tile/>
   <tile/>
   <tile/>
   <tile/>
   <tile/>
   <tile/>
   <tile/>
   <tile/>
   <tile/>
   <tile/>
   <tile/>
   <tile/>
   <tile/>
   <tile/>
   <tile/>
   <tile/>
   <tile/>
   <tile/>
   <tile/>
   <tile/>
   <tile/>
   <tile/>
   <tile/>
   <tile/>
   <tile/>
   <tile/>
   <tile/>
   <tile/>
   <tile/>
   <tile/>
   <tile/>
   <tile/>
   <tile/>
   <tile/>
   <tile/>
   <tile/>
   <tile/>
   <tile/>
   <tile/>
   <tile/>
   <tile/>
   <tile/>
   <tile/>
   <tile/>
   <tile/>
   <tile/>
   <tile/>
   <tile/>
   <tile/>
   <tile/>
   <tile/>
   <tile/>
   <tile/>
   <tile/>
   <tile/>
   <tile/>
   <tile/>
   <tile/>
   <tile/>
   <tile gid="258"/>
   <tile/>
   <tile/>
   <tile/>
   <tile/>
   <tile/>
   <tile/>
   <tile/>
   <tile/>
   <tile/>
   <tile/>
   <tile/>
   <tile/>
   <tile/>
   <tile/>
   <tile/>
   <tile/>
   <tile/>
   <tile/>
   <tile gid="258"/>
   <tile gid="258"/>
   <tile/>
   <tile/>
   <tile/>
   <tile/>
   <tile/>
   <tile/>
   <tile/>
   <tile/>
   <tile/>
   <tile/>
   <tile/>
   <tile/>
   <tile/>
   <tile/>
   <tile/>
   <tile/>
   <tile/>
   <tile/>
   <tile/>
   <tile/>
   <tile/>
   <tile/>
   <tile/>
   <tile/>
   <tile/>
   <tile/>
   <tile/>
   <tile/>
   <tile/>
   <tile/>
   <tile/>
   <tile/>
   <tile/>
   <tile/>
   <tile/>
   <tile/>
   <tile/>
   <tile/>
   <tile/>
   <tile/>
   <tile/>
   <tile/>
   <tile/>
   <tile/>
   <tile/>
   <tile/>
   <tile/>
   <tile/>
   <tile/>
   <tile/>
   <tile/>
   <tile/>
   <tile/>
   <tile/>
   <tile/>
   <tile/>
   <tile/>
   <tile/>
   <tile/>
   <tile/>
   <tile/>
   <tile/>
   <tile/>
   <tile/>
   <tile/>
   <tile/>
   <tile/>
   <tile/>
   <tile/>
   <tile gid="258"/>
   <tile/>
   <tile/>
   <tile/>
   <tile/>
   <tile/>
   <tile/>
   <tile/>
   <tile/>
   <tile/>
   <tile/>
   <tile/>
   <tile/>
   <tile/>
   <tile/>
   <tile/>
   <tile/>
   <tile/>
   <tile/>
   <tile gid="258"/>
   <tile gid="258"/>
   <tile/>
   <tile/>
   <tile/>
   <tile/>
   <tile/>
   <tile/>
   <tile/>
   <tile/>
   <tile/>
   <tile/>
   <tile/>
   <tile/>
   <tile/>
   <tile/>
   <tile/>
   <tile/>
   <tile/>
   <tile/>
   <tile/>
   <tile/>
   <tile/>
   <tile/>
   <tile/>
   <tile/>
   <tile/>
   <tile/>
   <tile/>
   <tile/>
   <tile/>
   <tile/>
   <tile/>
   <tile/>
   <tile/>
   <tile/>
   <tile/>
   <tile/>
   <tile/>
   <tile/>
   <tile/>
   <tile/>
   <tile/>
   <tile/>
   <tile gid="258"/>
   <tile gid="258"/>
   <tile gid="258"/>
   <tile gid="258"/>
   <tile/>
   <tile/>
   <tile/>
   <tile/>
   <tile/>
   <tile/>
   <tile/>
   <tile/>
   <tile/>
   <tile/>
   <tile/>
   <tile/>
   <tile/>
   <tile/>
   <tile/>
   <tile/>
   <tile/>
   <tile/>
   <tile/>
   <tile/>
   <tile/>
   <tile/>
   <tile/>
   <tile gid="258"/>
   <tile/>
   <tile/>
   <tile/>
   <tile/>
   <tile/>
   <tile/>
   <tile/>
   <tile/>
   <tile/>
   <tile/>
   <tile/>
   <tile/>
   <tile/>
   <tile/>
   <tile/>
   <tile/>
   <tile/>
   <tile/>
   <tile gid="258"/>
   <tile/>
   <tile gid="258"/>
   <tile gid="258"/>
   <tile gid="258"/>
   <tile gid="258"/>
   <tile gid="258"/>
   <tile gid="258"/>
   <tile gid="258"/>
   <tile gid="258"/>
   <tile gid="258"/>
   <tile/>
   <tile/>
   <tile/>
   <tile/>
   <tile/>
   <tile gid="258"/>
   <tile gid="258"/>
   <tile gid="258"/>
   <tile gid="258"/>
   <tile gid="258"/>
   <tile gid="258"/>
   <tile gid="258"/>
   <tile gid="258"/>
   <tile gid="258"/>
   <tile gid="258"/>
   <tile gid="258"/>
   <tile gid="258"/>
   <tile gid="258"/>
   <tile gid="258"/>
   <tile gid="258"/>
   <tile/>
   <tile/>
   <tile/>
   <tile/>
   <tile/>
   <tile/>
   <tile/>
   <tile/>
   <tile/>
   <tile/>
   <tile/>
   <tile/>
   <tile/>
   <tile gid="258"/>
   <tile/>
   <tile/>
   <tile gid="258"/>
   <tile/>
   <tile/>
   <tile/>
   <tile/>
   <tile/>
   <tile/>
   <tile/>
   <tile/>
   <tile/>
   <tile/>
   <tile/>
   <tile/>
   <tile/>
   <tile/>
   <tile/>
   <tile/>
   <tile/>
   <tile/>
   <tile/>
   <tile/>
   <tile/>
   <tile/>
   <tile/>
   <tile gid="258"/>
   <tile/>
   <tile/>
   <tile/>
   <tile/>
   <tile/>
   <tile/>
   <tile/>
   <tile/>
   <tile/>
   <tile/>
   <tile/>
   <tile/>
   <tile/>
   <tile/>
   <tile/>
   <tile gid="258"/>
   <tile gid="258"/>
   <tile gid="258"/>
   <tile/>
   <tile/>
   <tile/>
   <tile/>
   <tile/>
   <tile/>
   <tile/>
   <tile/>
   <tile/>
   <tile/>
   <tile gid="258"/>
   <tile/>
   <tile/>
   <tile/>
   <tile/>
   <tile/>
   <tile/>
   <tile/>
   <tile gid="258"/>
   <tile gid="258"/>
   <tile gid="258"/>
   <tile/>
   <tile/>
   <tile/>
   <tile gid="258"/>
   <tile gid="258"/>
   <tile gid="258"/>
   <tile gid="258"/>
   <tile gid="258"/>
   <tile gid="258"/>
   <tile/>
   <tile gid="258"/>
   <tile gid="258"/>
   <tile gid="258"/>
   <tile gid="258"/>
   <tile gid="258"/>
   <tile gid="258"/>
   <tile gid="258"/>
   <tile gid="258"/>
   <tile/>
   <tile/>
   <tile/>
   <tile/>
   <tile/>
   <tile gid="258"/>
   <tile/>
   <tile/>
   <tile gid="258"/>
   <tile/>
   <tile/>
   <tile/>
   <tile/>
   <tile/>
   <tile/>
   <tile/>
   <tile/>
   <tile/>
   <tile/>
   <tile/>
   <tile/>
   <tile/>
   <tile/>
   <tile/>
   <tile/>
   <tile/>
   <tile/>
   <tile/>
   <tile/>
   <tile/>
   <tile/>
   <tile/>
   <tile gid="258"/>
   <tile/>
   <tile/>
   <tile/>
   <tile/>
   <tile/>
   <tile/>
   <tile/>
   <tile/>
   <tile/>
   <tile/>
   <tile/>
   <tile gid="258"/>
   <tile gid="258"/>
   <tile gid="258"/>
   <tile gid="258"/>
   <tile/>
   <tile/>
   <tile/>
   <tile/>
   <tile/>
   <tile/>
   <tile/>
   <tile/>
   <tile/>
   <tile/>
   <tile/>
   <tile/>
   <tile/>
   <tile gid="258"/>
   <tile/>
   <tile/>
   <tile/>
   <tile/>
   <tile/>
   <tile/>
   <tile/>
   <tile/>
   <tile/>
   <tile/>
   <tile gid="258"/>
   <tile/>
   <tile gid="258"/>
   <tile/>
   <tile/>
   <tile/>
   <tile/>
   <tile/>
   <tile/>
   <tile/>
   <tile/>
   <tile/>
   <tile/>
   <tile/>
   <tile/>
   <tile gid="258"/>
   <tile gid="258"/>
   <tile gid="258"/>
   <tile gid="258"/>
   <tile gid="258"/>
   <tile gid="258"/>
   <tile gid="258"/>
   <tile gid="258"/>
   <tile/>
   <tile/>
   <tile/>
   <tile/>
   <tile gid="258"/>
   <tile gid="258"/>
   <tile gid="258"/>
   <tile gid="258"/>
   <tile/>
   <tile/>
   <tile/>
   <tile/>
   <tile/>
   <tile/>
   <tile/>
   <tile/>
   <tile/>
   <tile/>
   <tile/>
   <tile/>
   <tile/>
   <tile/>
   <tile/>
   <tile/>
   <tile/>
   <tile/>
   <tile/>
   <tile gid="258"/>
   <tile/>
   <tile/>
   <tile/>
   <tile/>
   <tile/>
   <tile/>
   <tile/>
   <tile/>
   <tile/>
   <tile gid="258"/>
   <tile gid="258"/>
   <tile gid="258"/>
   <tile gid="258"/>
   <tile gid="258"/>
   <tile gid="258"/>
   <tile gid="258"/>
   <tile/>
   <tile/>
   <tile/>
   <tile/>
   <tile/>
   <tile/>
   <tile/>
   <tile/>
   <tile/>
   <tile/>
   <tile gid="258"/>
   <tile/>
   <tile gid="258"/>
   <tile/>
   <tile/>
   <tile/>
   <tile/>
   <tile/>
   <tile/>
   <tile/>
   <tile/>
   <tile/>
   <tile/>
   <tile gid="258"/>
   <tile gid="258"/>
   <tile/>
   <tile/>
   <tile/>
   <tile/>
   <tile/>
   <tile/>
   <tile/>
   <tile/>
   <tile/>
   <tile/>
   <tile/>
   <tile/>
   <tile/>
   <tile/>
   <tile/>
   <tile/>
   <tile/>
   <tile gid="258"/>
   <tile gid="258"/>
   <tile/>
   <tile/>
   <tile/>
   <tile/>
   <tile/>
   <tile/>
   <tile/>
   <tile/>
   <tile gid="258"/>
   <tile gid="258"/>
   <tile gid="258"/>
   <tile gid="258"/>
   <tile/>
   <tile/>
   <tile/>
   <tile gid="258"/>
   <tile gid="258"/>
   <tile gid="258"/>
   <tile gid="258"/>
   <tile gid="258"/>
   <tile gid="258"/>
   <tile/>
   <tile/>
   <tile/>
   <tile/>
   <tile/>
   <tile/>
   <tile/>
   <tile/>
   <tile gid="258"/>
   <tile/>
   <tile/>
   <tile/>
   <tile/>
   <tile/>
   <tile/>
   <tile/>
   <tile gid="258"/>
   <tile gid="258"/>
   <tile gid="258"/>
   <tile/>
   <tile/>
   <tile/>
   <tile/>
   <tile/>
   <tile/>
   <tile gid="258"/>
   <tile/>
   <tile/>
   <tile/>
   <tile/>
   <tile/>
   <tile/>
   <tile/>
   <tile/>
   <tile gid="258"/>
   <tile/>
   <tile gid="258"/>
   <tile gid="258"/>
   <tile/>
   <tile/>
   <tile/>
   <tile/>
   <tile/>
   <tile/>
   <tile/>
   <tile/>
   <tile/>
   <tile/>
   <tile gid="258"/>
   <tile gid="258"/>
   <tile/>
   <tile/>
   <tile/>
   <tile/>
   <tile/>
   <tile/>
   <tile/>
   <tile/>
   <tile/>
   <tile/>
   <tile/>
   <tile/>
   <tile/>
   <tile/>
   <tile/>
   <tile/>
   <tile/>
   <tile/>
   <tile/>
   <tile gid="258"/>
   <tile/>
   <tile/>
   <tile/>
   <tile/>
   <tile/>
   <tile/>
   <tile gid="258"/>
   <tile/>
   <tile/>
   <tile/>
   <tile/>
   <tile/>
   <tile/>
   <tile/>
   <tile/>
   <tile gid="258"/>
   <tile gid="258"/>
   <tile gid="258"/>
   <tile gid="258"/>
   <tile/>
   <tile/>
   <tile/>
   <tile/>
   <tile/>
   <tile/>
   <tile/>
   <tile/>
   <tile/>
   <tile gid="258"/>
   <tile gid="258"/>
   <tile gid="258"/>
   <tile gid="258"/>
   <tile gid="258"/>
   <tile gid="258"/>
   <tile gid="258"/>
   <tile gid="258"/>
   <tile gid="258"/>
   <tile gid="258"/>
   <tile/>
   <tile/>
   <tile/>
   <tile/>
   <tile/>
   <tile/>
   <tile/>
   <tile/>
   <tile gid="258"/>
   <tile/>
   <tile/>
   <tile/>
   <tile/>
   <tile/>
   <tile/>
   <tile gid="258"/>
   <tile/>
   <tile/>
   <tile gid="258"/>
   <tile gid="258"/>
   <tile/>
   <tile/>
   <tile/>
   <tile/>
   <tile/>
   <tile/>
   <tile/>
   <tile/>
   <tile/>
   <tile/>
   <tile/>
   <tile/>
   <tile/>
   <tile/>
   <tile/>
   <tile/>
   <tile/>
   <tile/>
   <tile/>
   <tile/>
   <tile/>
   <tile/>
   <tile/>
   <tile/>
   <tile/>
   <tile/>
   <tile/>
   <tile/>
   <tile/>
   <tile/>
   <tile/>
   <tile gid="258"/>
   <tile/>
   <tile/>
   <tile/>
   <tile/>
   <tile/>
   <tile/>
   <tile gid="258"/>
   <tile/>
   <tile/>
   <tile/>
   <tile/>
   <tile/>
   <tile/>
   <tile/>
   <tile/>
   <tile/>
   <tile/>
   <tile/>
   <tile/>
   <tile/>
   <tile/>
   <tile/>
   <tile/>
   <tile/>
   <tile/>
   <tile/>
   <tile/>
   <tile/>
   <tile gid="258"/>
   <tile gid="258"/>
   <tile gid="258"/>
   <tile gid="258"/>
   <tile gid="258"/>
   <tile gid="258"/>
   <tile gid="258"/>
   <tile gid="258"/>
   <tile gid="258"/>
   <tile gid="258"/>
   <tile/>
   <tile/>
   <tile/>
   <tile/>
   <tile/>
   <tile/>
   <tile/>
   <tile/>
   <tile gid="258"/>
   <tile/>
   <tile/>
   <tile/>
   <tile/>
   <tile/>
   <tile gid="258"/>
   <tile/>
   <tile/>
   <tile/>
   <tile gid="258"/>
   <tile gid="258"/>
   <tile/>
   <tile/>
   <tile/>
   <tile/>
   <tile/>
   <tile/>
   <tile/>
   <tile/>
   <tile/>
   <tile/>
   <tile/>
   <tile/>
   <tile/>
   <tile/>
   <tile/>
   <tile/>
   <tile/>
   <tile/>
   <tile/>
   <tile/>
   <tile/>
   <tile/>
   <tile/>
   <tile/>
   <tile/>
   <tile/>
   <tile/>
   <tile/>
   <tile/>
   <tile/>
   <tile/>
   <tile gid="258"/>
   <tile gid="258"/>
   <tile gid="258"/>
   <tile gid="258"/>
   <tile gid="258"/>
   <tile gid="258"/>
   <tile gid="258"/>
   <tile gid="258"/>
   <tile/>
   <tile/>
   <tile/>
   <tile/>
   <tile/>
   <tile/>
   <tile/>
   <tile/>
   <tile/>
   <tile/>
   <tile/>
   <tile/>
   <tile/>
   <tile/>
   <tile/>
   <tile/>
   <tile/>
   <tile/>
   <tile/>
   <tile/>
   <tile/>
   <tile/>
   <tile/>
   <tile/>
   <tile/>
   <tile/>
   <tile/>
   <tile/>
   <tile/>
   <tile/>
   <tile/>
   <tile/>
   <tile/>
   <tile/>
   <tile/>
   <tile/>
   <tile/>
   <tile/>
   <tile/>
   <tile gid="258"/>
   <tile/>
   <tile/>
   <tile/>
   <tile/>
   <tile gid="258"/>
   <tile/>
   <tile/>
   <tile/>
   <tile/>
   <tile gid="258"/>
   <tile gid="258"/>
   <tile/>
   <tile/>
   <tile/>
   <tile/>
   <tile/>
   <tile/>
   <tile/>
   <tile/>
   <tile/>
   <tile/>
   <tile/>
   <tile/>
   <tile/>
   <tile/>
   <tile/>
   <tile/>
   <tile/>
   <tile/>
   <tile/>
   <tile/>
   <tile/>
   <tile/>
   <tile/>
   <tile/>
   <tile/>
   <tile/>
   <tile/>
   <tile/>
   <tile/>
   <tile/>
   <tile/>
   <tile/>
   <tile/>
   <tile/>
   <tile/>
   <tile/>
   <tile/>
   <tile/>
   <tile/>
   <tile/>
   <tile/>
   <tile/>
   <tile/>
   <tile/>
   <tile/>
   <tile/>
   <tile/>
   <tile/>
   <tile/>
   <tile/>
   <tile/>
   <tile/>
   <tile/>
   <tile/>
   <tile/>
   <tile/>
   <tile/>
   <tile/>
   <tile/>
   <tile/>
   <tile/>
   <tile/>
   <tile/>
   <tile/>
   <tile/>
   <tile/>
   <tile/>
   <tile/>
   <tile/>
   <tile/>
   <tile/>
   <tile/>
   <tile/>
   <tile/>
   <tile/>
   <tile/>
   <tile/>
   <tile/>
   <tile gid="258"/>
   <tile/>
   <tile/>
   <tile/>
   <tile gid="258"/>
   <tile/>
   <tile/>
   <tile/>
   <tile/>
   <tile/>
   <tile gid="258"/>
   <tile gid="258"/>
   <tile/>
   <tile/>
   <tile/>
   <tile/>
   <tile/>
   <tile/>
   <tile/>
   <tile/>
   <tile/>
   <tile/>
   <tile/>
   <tile/>
   <tile/>
   <tile/>
   <tile/>
   <tile/>
   <tile/>
   <tile/>
   <tile/>
   <tile/>
   <tile/>
   <tile/>
   <tile/>
   <tile/>
   <tile/>
   <tile/>
   <tile/>
   <tile/>
   <tile/>
   <tile/>
   <tile/>
   <tile/>
   <tile/>
   <tile/>
   <tile/>
   <tile/>
   <tile/>
   <tile/>
   <tile/>
   <tile/>
   <tile/>
   <tile/>
   <tile/>
   <tile/>
   <tile/>
   <tile/>
   <tile/>
   <tile/>
   <tile/>
   <tile/>
   <tile/>
   <tile/>
   <tile/>
   <tile/>
   <tile/>
   <tile/>
   <tile/>
   <tile/>
   <tile/>
   <tile/>
   <tile/>
   <tile/>
   <tile/>
   <tile/>
   <tile/>
   <tile/>
   <tile/>
   <tile/>
   <tile/>
   <tile/>
   <tile/>
   <tile/>
   <tile/>
   <tile/>
   <tile/>
   <tile/>
   <tile/>
   <tile/>
   <tile gid="258"/>
   <tile/>
   <tile/>
   <tile/>
   <tile gid="258"/>
   <tile/>
   <tile/>
   <tile/>
   <tile/>
   <tile/>
   <tile/>
   <tile gid="258"/>
   <tile/>
   <tile/>
   <tile/>
   <tile/>
   <tile/>
   <tile/>
   <tile/>
   <tile/>
   <tile/>
   <tile gid="258"/>
   <tile gid="258"/>
   <tile gid="258"/>
   <tile gid="258"/>
   <tile gid="258"/>
   <tile gid="258"/>
   <tile gid="258"/>
   <tile gid="258"/>
   <tile gid="258"/>
   <tile gid="258"/>
   <tile gid="258"/>
   <tile gid="258"/>
   <tile gid="258"/>
   <tile gid="258"/>
   <tile gid="258"/>
   <tile gid="258"/>
   <tile gid="258"/>
   <tile gid="258"/>
   <tile gid="258"/>
   <tile gid="258"/>
   <tile gid="258"/>
   <tile gid="258"/>
   <tile gid="258"/>
   <tile gid="258"/>
   <tile gid="258"/>
   <tile gid="258"/>
   <tile gid="258"/>
   <tile gid="258"/>
   <tile gid="258"/>
   <tile gid="258"/>
   <tile gid="258"/>
   <tile gid="258"/>
   <tile gid="258"/>
   <tile gid="258"/>
   <tile/>
   <tile/>
   <tile/>
   <tile/>
   <tile/>
   <tile/>
   <tile/>
   <tile/>
   <tile/>
   <tile/>
   <tile/>
   <tile/>
   <tile/>
   <tile/>
   <tile/>
   <tile/>
   <tile/>
   <tile/>
   <tile/>
   <tile/>
   <tile/>
   <tile/>
   <tile/>
   <tile/>
   <tile/>
   <tile/>
   <tile/>
   <tile/>
   <tile/>
   <tile/>
   <tile/>
   <tile/>
   <tile/>
   <tile/>
   <tile/>
   <tile gid="258"/>
   <tile/>
   <tile/>
   <tile gid="258"/>
   <tile/>
   <tile/>
   <tile/>
   <tile/>
   <tile/>
   <tile/>
   <tile/>
   <tile/>
   <tile/>
   <tile/>
   <tile/>
   <tile/>
   <tile/>
   <tile/>
   <tile/>
   <tile/>
   <tile/>
   <tile gid="258"/>
   <tile gid="258"/>
   <tile gid="258"/>
   <tile gid="258"/>
   <tile gid="258"/>
   <tile gid="258"/>
   <tile/>
   <tile/>
   <tile gid="258"/>
   <tile/>
   <tile/>
   <tile/>
   <tile/>
   <tile/>
   <tile/>
   <tile gid="258"/>
   <tile/>
   <tile/>
   <tile gid="258"/>
   <tile gid="258"/>
   <tile gid="258"/>
   <tile/>
   <tile/>
   <tile/>
   <tile/>
   <tile/>
   <tile/>
   <tile/>
   <tile/>
   <tile/>
   <tile gid="258"/>
   <tile gid="258"/>
   <tile gid="258"/>
   <tile/>
   <tile/>
   <tile/>
   <tile/>
   <tile/>
   <tile/>
   <tile/>
   <tile/>
   <tile/>
   <tile/>
   <tile/>
   <tile/>
   <tile/>
   <tile/>
   <tile/>
   <tile/>
   <tile/>
   <tile/>
   <tile/>
   <tile/>
   <tile/>
   <tile/>
   <tile/>
   <tile/>
   <tile/>
   <tile/>
   <tile/>
   <tile/>
   <tile/>
   <tile/>
   <tile/>
   <tile/>
   <tile/>
   <tile/>
   <tile/>
   <tile/>
   <tile gid="258"/>
   <tile/>
   <tile/>
   <tile gid="258"/>
   <tile/>
   <tile/>
   <tile/>
   <tile/>
   <tile/>
   <tile/>
   <tile/>
   <tile/>
   <tile/>
   <tile/>
   <tile/>
   <tile/>
   <tile/>
   <tile/>
   <tile/>
   <tile/>
   <tile/>
   <tile gid="258"/>
   <tile gid="258"/>
   <tile/>
   <tile/>
   <tile/>
   <tile/>
   <tile gid="258"/>
   <tile gid="258"/>
   <tile/>
   <tile/>
   <tile/>
   <tile/>
   <tile/>
   <tile/>
   <tile/>
   <tile/>
   <tile gid="258"/>
   <tile gid="258"/>
   <tile/>
   <tile/>
   <tile/>
   <tile gid="258"/>
   <tile/>
   <tile/>
   <tile/>
   <tile/>
   <tile/>
   <tile/>
   <tile/>
   <tile gid="258"/>
   <tile/>
   <tile/>
   <tile/>
   <tile/>
   <tile/>
   <tile/>
   <tile/>
   <tile/>
   <tile/>
   <tile/>
   <tile/>
   <tile/>
   <tile/>
   <tile/>
   <tile/>
   <tile/>
   <tile/>
   <tile/>
   <tile/>
   <tile/>
   <tile/>
   <tile gid="258"/>
   <tile gid="258"/>
   <tile gid="258"/>
   <tile gid="258"/>
   <tile gid="258"/>
   <tile gid="258"/>
   <tile gid="258"/>
   <tile gid="258"/>
   <tile gid="258"/>
   <tile gid="258"/>
   <tile gid="258"/>
   <tile gid="258"/>
   <tile gid="258"/>
   <tile gid="258"/>
   <tile gid="258"/>
   <tile gid="258"/>
   <tile gid="258"/>
   <tile gid="258"/>
   <tile/>
   <tile/>
   <tile/>
   <tile gid="258"/>
   <tile/>
   <tile/>
   <tile/>
   <tile/>
   <tile/>
   <tile/>
   <tile/>
   <tile/>
   <tile/>
   <tile/>
   <tile/>
   <tile/>
   <tile/>
   <tile/>
   <tile/>
   <tile/>
   <tile/>
   <tile gid="258"/>
   <tile/>
   <tile/>
   <tile/>
   <tile/>
   <tile/>
   <tile gid="258"/>
   <tile gid="258"/>
   <tile/>
   <tile/>
   <tile/>
   <tile/>
   <tile/>
   <tile/>
   <tile/>
   <tile/>
   <tile gid="258"/>
   <tile gid="258"/>
   <tile/>
   <tile/>
   <tile/>
   <tile/>
   <tile gid="258"/>
   <tile/>
   <tile/>
   <tile/>
   <tile/>
   <tile/>
   <tile/>
   <tile gid="258"/>
   <tile/>
   <tile/>
   <tile/>
   <tile/>
   <tile/>
   <tile/>
   <tile/>
   <tile/>
   <tile/>
   <tile/>
   <tile/>
   <tile/>
   <tile/>
   <tile/>
   <tile/>
   <tile/>
   <tile/>
   <tile/>
   <tile/>
   <tile/>
   <tile/>
   <tile gid="258"/>
   <tile/>
   <tile/>
   <tile/>
   <tile/>
   <tile/>
   <tile/>
   <tile/>
   <tile/>
   <tile/>
   <tile/>
   <tile/>
   <tile/>
   <tile/>
   <tile/>
   <tile/>
   <tile/>
   <tile/>
   <tile/>
   <tile/>
   <tile/>
   <tile gid="258"/>
   <tile/>
   <tile/>
   <tile/>
   <tile/>
   <tile/>
   <tile/>
   <tile/>
   <tile/>
   <tile/>
   <tile/>
   <tile/>
   <tile/>
   <tile/>
   <tile/>
   <tile/>
   <tile/>
   <tile/>
   <tile gid="258"/>
   <tile/>
   <tile/>
   <tile/>
   <tile/>
   <tile/>
   <tile gid="258"/>
   <tile gid="258"/>
   <tile/>
   <tile/>
   <tile/>
   <tile/>
   <tile/>
   <tile/>
   <tile/>
   <tile/>
   <tile gid="258"/>
   <tile gid="258"/>
   <tile/>
   <tile/>
   <tile/>
   <tile/>
   <tile gid="258"/>
   <tile/>
   <tile/>
   <tile/>
   <tile/>
   <tile/>
   <tile/>
   <tile gid="258"/>
   <tile/>
   <tile/>
   <tile/>
   <tile/>
   <tile/>
   <tile/>
   <tile/>
   <tile/>
   <tile/>
   <tile/>
   <tile/>
   <tile/>
   <tile/>
   <tile/>
   <tile/>
   <tile/>
   <tile/>
   <tile/>
   <tile/>
   <tile/>
   <tile/>
   <tile gid="258"/>
   <tile/>
   <tile/>
   <tile/>
   <tile/>
   <tile/>
   <tile/>
   <tile/>
   <tile/>
   <tile/>
   <tile/>
   <tile/>
   <tile/>
   <tile/>
   <tile/>
   <tile/>
   <tile/>
   <tile/>
   <tile/>
   <tile/>
   <tile/>
   <tile gid="258"/>
   <tile/>
   <tile/>
   <tile/>
   <tile/>
   <tile/>
   <tile/>
   <tile/>
   <tile/>
   <tile/>
   <tile/>
   <tile/>
   <tile/>
   <tile/>
   <tile/>
   <tile/>
   <tile/>
   <tile/>
   <tile gid="258"/>
   <tile/>
   <tile/>
   <tile/>
   <tile/>
   <tile/>
   <tile gid="258"/>
   <tile gid="258"/>
   <tile/>
   <tile/>
   <tile/>
   <tile/>
   <tile/>
   <tile/>
   <tile/>
   <tile/>
   <tile gid="258"/>
   <tile gid="258"/>
   <tile/>
   <tile/>
   <tile/>
   <tile/>
   <tile gid="258"/>
   <tile/>
   <tile/>
   <tile/>
   <tile/>
   <tile/>
   <tile/>
   <tile gid="258"/>
   <tile/>
   <tile/>
   <tile/>
   <tile/>
   <tile/>
   <tile/>
   <tile/>
   <tile/>
   <tile/>
   <tile/>
   <tile/>
   <tile/>
   <tile/>
   <tile/>
   <tile/>
   <tile/>
   <tile/>
   <tile/>
   <tile/>
   <tile/>
   <tile/>
   <tile gid="258"/>
   <tile/>
   <tile/>
   <tile/>
   <tile/>
   <tile/>
   <tile/>
   <tile/>
   <tile/>
   <tile/>
   <tile/>
   <tile/>
   <tile/>
   <tile/>
   <tile/>
   <tile/>
   <tile/>
   <tile/>
   <tile/>
   <tile/>
   <tile/>
   <tile gid="258"/>
   <tile/>
   <tile/>
   <tile/>
   <tile/>
   <tile/>
   <tile/>
   <tile/>
   <tile/>
   <tile/>
   <tile/>
   <tile/>
   <tile/>
   <tile/>
   <tile/>
   <tile/>
   <tile/>
   <tile/>
   <tile gid="258"/>
   <tile/>
   <tile/>
   <tile/>
   <tile/>
   <tile/>
   <tile/>
   <tile gid="258"/>
   <tile/>
   <tile/>
   <tile/>
   <tile/>
   <tile/>
   <tile/>
   <tile/>
   <tile/>
   <tile gid="258"/>
   <tile gid="258"/>
   <tile/>
   <tile/>
   <tile/>
   <tile/>
   <tile gid="258"/>
   <tile/>
   <tile/>
   <tile/>
   <tile/>
   <tile/>
   <tile/>
   <tile gid="258"/>
   <tile/>
   <tile/>
   <tile/>
   <tile/>
   <tile/>
   <tile/>
   <tile/>
   <tile/>
   <tile/>
   <tile/>
   <tile/>
   <tile/>
   <tile/>
   <tile/>
   <tile/>
   <tile/>
   <tile/>
   <tile/>
   <tile/>
   <tile/>
   <tile/>
   <tile gid="258"/>
   <tile/>
   <tile/>
   <tile/>
   <tile gid="258"/>
   <tile gid="258"/>
   <tile gid="258"/>
   <tile gid="258"/>
   <tile gid="258"/>
   <tile/>
   <tile/>
   <tile/>
   <tile/>
   <tile/>
   <tile/>
   <tile/>
   <tile/>
   <tile/>
   <tile/>
   <tile/>
   <tile/>
   <tile gid="258"/>
   <tile/>
   <tile/>
   <tile/>
   <tile/>
   <tile/>
   <tile/>
   <tile/>
   <tile/>
   <tile/>
   <tile/>
   <tile/>
   <tile/>
   <tile/>
   <tile/>
   <tile/>
   <tile/>
   <tile/>
   <tile gid="258"/>
   <tile/>
   <tile/>
   <tile/>
   <tile/>
   <tile/>
   <tile/>
   <tile/>
   <tile/>
   <tile/>
   <tile/>
   <tile/>
   <tile/>
   <tile/>
   <tile/>
   <tile/>
   <tile/>
   <tile gid="258"/>
   <tile/>
   <tile/>
   <tile/>
   <tile/>
   <tile gid="258"/>
   <tile/>
   <tile/>
   <tile/>
   <tile/>
   <tile/>
   <tile/>
   <tile gid="258"/>
   <tile/>
   <tile/>
   <tile/>
   <tile/>
   <tile/>
   <tile/>
   <tile/>
   <tile/>
   <tile/>
   <tile/>
   <tile/>
   <tile/>
   <tile/>
   <tile/>
   <tile/>
   <tile/>
   <tile/>
   <tile/>
   <tile/>
   <tile/>
   <tile/>
   <tile gid="258"/>
   <tile/>
   <tile gid="258"/>
   <tile gid="258"/>
   <tile/>
   <tile/>
   <tile/>
   <tile/>
   <tile/>
   <tile gid="258"/>
   <tile gid="258"/>
   <tile/>
   <tile/>
   <tile/>
   <tile/>
   <tile/>
   <tile/>
   <tile/>
   <tile/>
   <tile/>
   <tile/>
   <tile gid="258"/>
   <tile/>
   <tile/>
   <tile/>
   <tile/>
   <tile/>
   <tile/>
   <tile/>
   <tile/>
   <tile/>
   <tile/>
   <tile/>
   <tile/>
   <tile/>
   <tile/>
   <tile/>
   <tile/>
   <tile/>
   <tile gid="258"/>
   <tile/>
   <tile/>
   <tile/>
   <tile/>
   <tile/>
   <tile/>
   <tile/>
   <tile/>
   <tile/>
   <tile/>
   <tile/>
   <tile/>
   <tile/>
   <tile/>
   <tile/>
   <tile/>
   <tile/>
   <tile/>
   <tile/>
   <tile/>
   <tile/>
   <tile gid="258"/>
   <tile/>
   <tile/>
   <tile/>
   <tile/>
   <tile/>
   <tile/>
   <tile gid="258"/>
   <tile/>
   <tile/>
   <tile/>
   <tile/>
   <tile/>
   <tile/>
   <tile/>
   <tile/>
   <tile gid="258"/>
   <tile gid="258"/>
   <tile gid="258"/>
   <tile gid="258"/>
   <tile gid="258"/>
   <tile gid="258"/>
   <tile gid="258"/>
   <tile gid="258"/>
   <tile gid="258"/>
   <tile gid="258"/>
   <tile gid="258"/>
   <tile gid="258"/>
   <tile gid="258"/>
   <tile gid="258"/>
   <tile gid="258"/>
   <tile/>
   <tile/>
   <tile/>
   <tile/>
   <tile/>
   <tile/>
   <tile/>
   <tile/>
   <tile/>
   <tile gid="258"/>
   <tile/>
   <tile/>
   <tile/>
   <tile/>
   <tile/>
   <tile/>
   <tile/>
   <tile/>
   <tile/>
   <tile gid="258"/>
   <tile/>
   <tile/>
   <tile/>
   <tile/>
   <tile/>
   <tile/>
   <tile/>
   <tile/>
   <tile/>
   <tile/>
   <tile/>
   <tile/>
   <tile/>
   <tile/>
   <tile/>
   <tile/>
   <tile/>
   <tile gid="258"/>
   <tile/>
   <tile/>
   <tile/>
   <tile/>
   <tile/>
   <tile/>
   <tile/>
   <tile/>
   <tile/>
   <tile/>
   <tile/>
   <tile/>
   <tile/>
   <tile/>
   <tile/>
   <tile/>
   <tile/>
   <tile/>
   <tile/>
   <tile/>
   <tile/>
   <tile gid="258"/>
   <tile/>
   <tile/>
   <tile/>
   <tile/>
   <tile/>
   <tile/>
   <tile gid="258"/>
   <tile/>
   <tile/>
   <tile/>
   <tile/>
   <tile/>
   <tile/>
   <tile/>
   <tile/>
   <tile/>
   <tile gid="258"/>
   <tile gid="258"/>
   <tile gid="258"/>
   <tile gid="258"/>
   <tile gid="258"/>
   <tile gid="258"/>
   <tile gid="258"/>
   <tile gid="258"/>
   <tile gid="258"/>
   <tile gid="258"/>
   <tile gid="258"/>
   <tile gid="258"/>
   <tile gid="258"/>
   <tile/>
   <tile/>
   <tile/>
   <tile/>
   <tile/>
   <tile/>
   <tile/>
   <tile/>
   <tile/>
   <tile/>
   <tile/>
   <tile gid="258"/>
   <tile gid="258"/>
   <tile/>
   <tile/>
   <tile/>
   <tile/>
   <tile/>
   <tile/>
   <tile/>
   <tile gid="258"/>
   <tile/>
   <tile/>
   <tile/>
   <tile/>
   <tile/>
   <tile/>
   <tile/>
   <tile/>
   <tile/>
   <tile/>
   <tile/>
   <tile/>
   <tile/>
   <tile/>
   <tile/>
   <tile/>
   <tile/>
   <tile/>
   <tile/>
   <tile/>
   <tile/>
   <tile/>
   <tile/>
   <tile/>
   <tile/>
   <tile/>
   <tile/>
   <tile/>
   <tile/>
   <tile/>
   <tile/>
   <tile/>
   <tile/>
   <tile/>
   <tile/>
   <tile/>
   <tile/>
   <tile/>
   <tile/>
   <tile gid="258"/>
   <tile gid="258"/>
   <tile gid="258"/>
   <tile gid="258"/>
   <tile gid="258"/>
   <tile gid="258"/>
   <tile gid="258"/>
   <tile gid="258"/>
   <tile/>
   <tile/>
   <tile/>
   <tile/>
   <tile/>
   <tile/>
   <tile/>
   <tile/>
   <tile/>
   <tile/>
   <tile/>
   <tile/>
   <tile/>
   <tile/>
   <tile/>
   <tile/>
   <tile/>
   <tile/>
   <tile/>
   <tile/>
   <tile/>
   <tile gid="258"/>
   <tile/>
   <tile/>
   <tile/>
   <tile/>
   <tile/>
   <tile/>
   <tile/>
   <tile/>
   <tile/>
   <tile/>
   <tile/>
   <tile/>
   <tile/>
   <tile gid="258"/>
   <tile/>
   <tile/>
   <tile/>
   <tile/>
   <tile/>
   <tile/>
   <tile gid="258"/>
   <tile/>
   <tile/>
   <tile/>
   <tile/>
   <tile/>
   <tile/>
   <tile/>
   <tile/>
   <tile/>
   <tile/>
   <tile/>
   <tile/>
   <tile/>
   <tile/>
   <tile/>
   <tile/>
   <tile/>
   <tile/>
   <tile/>
   <tile/>
   <tile/>
   <tile/>
   <tile/>
   <tile/>
   <tile/>
   <tile/>
   <tile/>
   <tile/>
   <tile/>
   <tile/>
   <tile/>
   <tile/>
   <tile/>
   <tile/>
   <tile/>
   <tile/>
   <tile/>
   <tile/>
   <tile/>
   <tile/>
   <tile/>
   <tile/>
   <tile/>
   <tile/>
   <tile/>
   <tile/>
   <tile/>
   <tile/>
   <tile/>
   <tile/>
   <tile/>
   <tile/>
   <tile/>
   <tile/>
   <tile/>
   <tile/>
   <tile/>
   <tile/>
   <tile/>
   <tile/>
   <tile/>
   <tile/>
   <tile/>
   <tile/>
   <tile/>
   <tile/>
   <tile/>
   <tile/>
   <tile gid="258"/>
   <tile/>
   <tile/>
   <tile/>
   <tile/>
   <tile/>
   <tile/>
   <tile/>
   <tile/>
   <tile/>
   <tile/>
   <tile/>
   <tile/>
   <tile/>
   <tile/>
   <tile gid="258"/>
   <tile/>
   <tile/>
   <tile/>
   <tile/>
   <tile gid="258"/>
   <tile/>
   <tile/>
   <tile/>
   <tile/>
   <tile/>
   <tile/>
   <tile/>
   <tile/>
   <tile/>
   <tile/>
   <tile/>
   <tile/>
   <tile/>
   <tile/>
   <tile/>
   <tile/>
   <tile/>
   <tile/>
   <tile/>
   <tile/>
   <tile/>
   <tile/>
   <tile/>
   <tile/>
   <tile/>
   <tile/>
   <tile/>
   <tile/>
   <tile/>
   <tile/>
   <tile/>
   <tile/>
   <tile/>
   <tile/>
   <tile/>
   <tile/>
   <tile/>
   <tile/>
   <tile/>
   <tile/>
   <tile/>
   <tile/>
   <tile/>
   <tile/>
   <tile/>
   <tile/>
   <tile/>
   <tile/>
   <tile/>
   <tile/>
   <tile/>
   <tile/>
   <tile/>
   <tile/>
   <tile/>
   <tile/>
   <tile/>
   <tile/>
   <tile/>
   <tile/>
   <tile/>
   <tile/>
   <tile/>
   <tile/>
   <tile/>
   <tile/>
   <tile/>
   <tile/>
   <tile/>
   <tile gid="258"/>
   <tile/>
   <tile/>
   <tile/>
   <tile/>
   <tile/>
   <tile/>
   <tile/>
   <tile/>
   <tile/>
   <tile/>
   <tile/>
   <tile/>
   <tile/>
   <tile/>
   <tile/>
   <tile gid="258"/>
   <tile/>
   <tile/>
   <tile/>
   <tile gid="258"/>
   <tile/>
   <tile/>
   <tile/>
   <tile/>
   <tile/>
   <tile/>
   <tile/>
   <tile/>
   <tile/>
   <tile/>
   <tile/>
   <tile/>
   <tile/>
   <tile/>
   <tile/>
   <tile/>
   <tile/>
   <tile/>
   <tile/>
   <tile/>
   <tile/>
   <tile/>
   <tile/>
   <tile/>
   <tile/>
   <tile/>
   <tile/>
   <tile/>
   <tile/>
   <tile/>
   <tile/>
   <tile/>
   <tile/>
   <tile/>
   <tile/>
   <tile/>
   <tile/>
   <tile/>
   <tile/>
   <tile/>
   <tile/>
   <tile/>
   <tile/>
   <tile/>
   <tile/>
   <tile/>
   <tile/>
   <tile/>
   <tile/>
   <tile/>
   <tile/>
   <tile/>
   <tile/>
   <tile/>
   <tile/>
   <tile/>
   <tile/>
   <tile/>
   <tile/>
   <tile/>
   <tile/>
   <tile/>
   <tile/>
   <tile/>
   <tile/>
   <tile/>
   <tile/>
   <tile/>
   <tile/>
   <tile gid="258"/>
   <tile/>
   <tile/>
   <tile/>
   <tile/>
   <tile/>
   <tile/>
   <tile/>
   <tile/>
   <tile/>
   <tile/>
   <tile/>
   <tile/>
   <tile/>
   <tile/>
   <tile/>
   <tile/>
   <tile gid="258"/>
   <tile/>
   <tile/>
   <tile gid="258"/>
   <tile/>
   <tile/>
   <tile/>
   <tile/>
   <tile/>
   <tile/>
   <tile/>
   <tile/>
   <tile/>
   <tile/>
   <tile/>
   <tile/>
   <tile/>
   <tile/>
   <tile/>
   <tile/>
   <tile/>
   <tile/>
   <tile/>
   <tile/>
   <tile/>
   <tile/>
   <tile/>
   <tile/>
   <tile/>
   <tile/>
   <tile/>
   <tile/>
   <tile/>
   <tile/>
   <tile/>
   <tile/>
   <tile/>
   <tile/>
   <tile/>
   <tile/>
   <tile/>
   <tile/>
   <tile/>
   <tile/>
   <tile/>
   <tile/>
   <tile/>
   <tile/>
   <tile/>
   <tile/>
   <tile/>
   <tile/>
   <tile/>
   <tile/>
   <tile/>
   <tile/>
   <tile/>
   <tile/>
   <tile/>
   <tile/>
   <tile/>
   <tile/>
   <tile/>
   <tile/>
   <tile/>
   <tile/>
   <tile/>
   <tile/>
   <tile/>
   <tile/>
   <tile/>
   <tile/>
   <tile/>
   <tile gid="258"/>
   <tile/>
   <tile/>
   <tile/>
   <tile/>
   <tile/>
   <tile/>
   <tile/>
   <tile/>
   <tile/>
   <tile/>
   <tile/>
   <tile/>
   <tile/>
   <tile/>
   <tile/>
   <tile/>
   <tile/>
   <tile gid="258"/>
   <tile/>
   <tile gid="258"/>
   <tile/>
   <tile/>
   <tile/>
   <tile/>
   <tile/>
   <tile/>
   <tile/>
   <tile/>
   <tile/>
   <tile/>
   <tile/>
   <tile/>
   <tile/>
   <tile/>
   <tile/>
   <tile/>
   <tile/>
   <tile/>
   <tile/>
   <tile gid="258"/>
   <tile gid="258"/>
   <tile gid="258"/>
   <tile gid="258"/>
   <tile gid="258"/>
   <tile gid="258"/>
   <tile gid="258"/>
   <tile gid="258"/>
   <tile gid="258"/>
   <tile gid="258"/>
   <tile gid="258"/>
   <tile gid="258"/>
   <tile gid="258"/>
   <tile gid="258"/>
   <tile gid="258"/>
   <tile gid="258"/>
   <tile gid="258"/>
   <tile gid="258"/>
   <tile gid="258"/>
   <tile gid="258"/>
   <tile gid="258"/>
   <tile gid="258"/>
   <tile gid="258"/>
   <tile gid="258"/>
   <tile gid="258"/>
   <tile gid="258"/>
   <tile gid="258"/>
   <tile gid="258"/>
   <tile gid="258"/>
   <tile/>
   <tile/>
   <tile/>
   <tile/>
   <tile/>
   <tile/>
   <tile/>
   <tile/>
   <tile/>
   <tile/>
   <tile/>
   <tile/>
   <tile/>
   <tile/>
   <tile/>
   <tile/>
   <tile/>
   <tile/>
   <tile/>
   <tile/>
   <tile/>
   <tile gid="258"/>
   <tile/>
   <tile/>
   <tile/>
   <tile/>
   <tile/>
   <tile/>
   <tile/>
   <tile/>
   <tile/>
   <tile/>
   <tile/>
   <tile/>
   <tile/>
   <tile/>
   <tile/>
   <tile/>
   <tile/>
   <tile/>
   <tile gid="258"/>
   <tile gid="258"/>
   <tile/>
   <tile/>
   <tile/>
   <tile/>
   <tile/>
   <tile/>
   <tile/>
   <tile/>
   <tile/>
   <tile/>
   <tile/>
   <tile/>
   <tile/>
   <tile/>
   <tile/>
   <tile/>
   <tile/>
   <tile/>
   <tile/>
   <tile gid="258"/>
   <tile/>
   <tile/>
   <tile/>
   <tile/>
   <tile/>
   <tile gid="258"/>
   <tile gid="258"/>
   <tile gid="258"/>
   <tile/>
   <tile/>
   <tile/>
   <tile/>
   <tile/>
   <tile/>
   <tile/>
   <tile/>
   <tile/>
   <tile gid="258"/>
   <tile gid="258"/>
   <tile gid="258"/>
   <tile gid="258"/>
   <tile/>
   <tile/>
   <tile/>
   <tile/>
   <tile/>
   <tile/>
   <tile gid="258"/>
   <tile/>
   <tile/>
   <tile/>
   <tile/>
   <tile/>
   <tile/>
   <tile/>
   <tile/>
   <tile/>
   <tile/>
   <tile/>
   <tile/>
   <tile/>
   <tile/>
   <tile/>
   <tile/>
   <tile/>
   <tile/>
   <tile/>
   <tile/>
   <tile/>
   <tile/>
   <tile/>
   <tile/>
   <tile/>
   <tile/>
   <tile/>
   <tile/>
   <tile/>
   <tile/>
   <tile/>
   <tile/>
   <tile/>
   <tile/>
   <tile/>
   <tile/>
   <tile/>
   <tile/>
   <tile/>
   <tile/>
   <tile gid="258"/>
   <tile gid="258"/>
   <tile/>
   <tile/>
   <tile/>
   <tile/>
   <tile/>
   <tile/>
   <tile/>
   <tile/>
   <tile/>
   <tile/>
   <tile/>
   <tile/>
   <tile/>
   <tile/>
   <tile/>
   <tile/>
   <tile/>
   <tile/>
   <tile/>
   <tile gid="258"/>
   <tile/>
   <tile/>
   <tile gid="258"/>
   <tile gid="258"/>
   <tile gid="258"/>
   <tile/>
   <tile/>
   <tile/>
   <tile/>
   <tile/>
   <tile/>
   <tile/>
   <tile/>
   <tile/>
   <tile/>
   <tile/>
   <tile/>
   <tile/>
   <tile/>
   <tile/>
   <tile gid="258"/>
   <tile gid="258"/>
   <tile gid="258"/>
   <tile gid="258"/>
   <tile gid="258"/>
   <tile gid="258"/>
   <tile/>
   <tile gid="258"/>
   <tile/>
   <tile/>
   <tile/>
   <tile/>
   <tile/>
   <tile/>
   <tile/>
   <tile/>
   <tile/>
   <tile/>
   <tile/>
   <tile/>
   <tile/>
   <tile/>
   <tile/>
   <tile/>
   <tile/>
   <tile/>
   <tile/>
   <tile/>
   <tile/>
   <tile/>
   <tile/>
   <tile/>
   <tile/>
   <tile/>
   <tile/>
   <tile/>
   <tile/>
   <tile/>
   <tile/>
   <tile/>
   <tile/>
   <tile/>
   <tile/>
   <tile/>
   <tile/>
   <tile/>
   <tile/>
   <tile/>
   <tile gid="258"/>
   <tile gid="258"/>
   <tile/>
   <tile/>
   <tile/>
   <tile/>
   <tile/>
   <tile/>
   <tile/>
   <tile/>
   <tile/>
   <tile/>
   <tile/>
   <tile/>
   <tile/>
   <tile/>
   <tile/>
   <tile/>
   <tile/>
   <tile/>
   <tile/>
   <tile gid="258"/>
   <tile gid="258"/>
   <tile gid="258"/>
   <tile/>
   <tile/>
   <tile/>
   <tile/>
   <tile/>
   <tile/>
   <tile/>
   <tile/>
   <tile/>
   <tile/>
   <tile/>
   <tile/>
   <tile/>
   <tile/>
   <tile/>
   <tile/>
   <tile/>
   <tile/>
   <tile/>
   <tile/>
   <tile/>
   <tile/>
   <tile/>
   <tile gid="258"/>
   <tile gid="258"/>
   <tile gid="258"/>
   <tile gid="258"/>
   <tile gid="258"/>
   <tile gid="258"/>
   <tile gid="258"/>
   <tile gid="258"/>
   <tile gid="258"/>
   <tile gid="258"/>
   <tile/>
   <tile/>
   <tile/>
   <tile/>
   <tile/>
   <tile/>
   <tile/>
   <tile/>
   <tile/>
   <tile/>
   <tile/>
   <tile/>
   <tile/>
   <tile/>
   <tile/>
   <tile/>
   <tile/>
   <tile/>
   <tile/>
   <tile/>
   <tile/>
   <tile/>
   <tile/>
   <tile/>
   <tile/>
   <tile/>
   <tile/>
   <tile/>
   <tile/>
   <tile/>
   <tile/>
   <tile/>
   <tile/>
   <tile gid="258"/>
   <tile gid="258"/>
   <tile/>
   <tile/>
   <tile/>
   <tile/>
   <tile/>
   <tile/>
   <tile/>
   <tile/>
   <tile/>
   <tile/>
   <tile/>
   <tile/>
   <tile/>
   <tile/>
   <tile/>
   <tile/>
   <tile/>
   <tile/>
   <tile/>
   <tile gid="258"/>
   <tile/>
   <tile/>
   <tile/>
   <tile/>
   <tile/>
   <tile/>
   <tile/>
   <tile/>
   <tile/>
   <tile/>
   <tile/>
   <tile/>
   <tile/>
   <tile/>
   <tile/>
   <tile/>
   <tile/>
   <tile/>
   <tile/>
   <tile/>
   <tile/>
   <tile/>
   <tile/>
   <tile/>
   <tile/>
   <tile/>
   <tile gid="258"/>
   <tile/>
   <tile gid="258"/>
   <tile gid="258"/>
   <tile gid="258"/>
   <tile gid="258"/>
   <tile gid="258"/>
   <tile gid="258"/>
   <tile/>
   <tile/>
   <tile/>
   <tile/>
   <tile/>
   <tile/>
   <tile/>
   <tile/>
   <tile/>
   <tile/>
   <tile/>
   <tile/>
   <tile/>
   <tile/>
   <tile/>
   <tile/>
   <tile/>
   <tile/>
   <tile/>
   <tile/>
   <tile/>
   <tile/>
   <tile/>
   <tile/>
   <tile/>
   <tile/>
   <tile/>
   <tile/>
   <tile/>
   <tile/>
   <tile/>
   <tile/>
   <tile/>
   <tile/>
   <tile gid="258"/>
   <tile gid="258"/>
   <tile/>
   <tile/>
   <tile/>
   <tile/>
   <tile/>
   <tile/>
   <tile/>
   <tile/>
   <tile/>
   <tile/>
   <tile/>
   <tile/>
   <tile/>
   <tile/>
   <tile/>
   <tile/>
   <tile/>
   <tile/>
   <tile/>
   <tile gid="258"/>
   <tile/>
   <tile/>
   <tile/>
   <tile/>
   <tile/>
   <tile/>
   <tile/>
   <tile/>
   <tile/>
   <tile/>
   <tile/>
   <tile/>
   <tile/>
   <tile/>
   <tile/>
   <tile/>
   <tile/>
   <tile/>
   <tile/>
   <tile/>
   <tile/>
   <tile/>
   <tile/>
   <tile/>
   <tile/>
   <tile/>
   <tile gid="258"/>
   <tile gid="258"/>
   <tile/>
   <tile/>
   <tile/>
   <tile/>
   <tile/>
   <tile/>
   <tile/>
   <tile/>
   <tile/>
   <tile/>
   <tile/>
   <tile/>
   <tile gid="258"/>
   <tile gid="258"/>
   <tile gid="258"/>
   <tile gid="258"/>
   <tile gid="258"/>
   <tile/>
   <tile/>
   <tile/>
   <tile/>
   <tile/>
   <tile/>
   <tile/>
   <tile/>
   <tile/>
   <tile/>
   <tile/>
   <tile/>
   <tile/>
   <tile/>
   <tile/>
   <tile/>
   <tile/>
   <tile/>
   <tile/>
   <tile/>
   <tile/>
   <tile/>
   <tile/>
   <tile gid="258"/>
   <tile gid="258"/>
   <tile/>
   <tile/>
   <tile/>
   <tile/>
   <tile/>
   <tile/>
   <tile/>
   <tile/>
   <tile/>
   <tile/>
   <tile/>
   <tile/>
   <tile/>
   <tile/>
   <tile/>
   <tile/>
   <tile/>
   <tile/>
   <tile gid="258"/>
   <tile gid="258"/>
   <tile/>
   <tile/>
   <tile/>
   <tile/>
   <tile/>
   <tile/>
   <tile/>
   <tile/>
   <tile/>
   <tile/>
   <tile/>
   <tile/>
   <tile/>
   <tile/>
   <tile/>
   <tile/>
   <tile/>
   <tile/>
   <tile/>
   <tile/>
   <tile/>
   <tile/>
   <tile/>
   <tile/>
   <tile/>
   <tile/>
   <tile gid="258"/>
   <tile gid="258"/>
   <tile/>
   <tile/>
   <tile/>
   <tile/>
   <tile/>
   <tile/>
   <tile/>
   <tile/>
   <tile/>
   <tile/>
   <tile/>
   <tile/>
   <tile/>
   <tile gid="258"/>
   <tile gid="258"/>
   <tile gid="258"/>
   <tile/>
   <tile/>
   <tile/>
   <tile/>
   <tile/>
   <tile gid="258"/>
   <tile gid="258"/>
   <tile gid="258"/>
   <tile gid="258"/>
   <tile gid="258"/>
   <tile gid="258"/>
   <tile/>
   <tile/>
   <tile/>
   <tile/>
   <tile/>
   <tile/>
   <tile/>
   <tile/>
   <tile/>
   <tile/>
   <tile/>
   <tile/>
   <tile/>
   <tile gid="258"/>
   <tile/>
   <tile gid="258"/>
   <tile gid="258"/>
   <tile gid="258"/>
   <tile/>
   <tile/>
   <tile/>
   <tile/>
   <tile/>
   <tile/>
   <tile/>
   <tile/>
   <tile/>
   <tile/>
   <tile/>
   <tile/>
   <tile/>
   <tile/>
   <tile/>
   <tile gid="258"/>
   <tile gid="258"/>
   <tile/>
   <tile/>
   <tile/>
   <tile/>
   <tile/>
   <tile/>
   <tile/>
   <tile/>
   <tile/>
   <tile/>
   <tile/>
   <tile/>
   <tile/>
   <tile/>
   <tile/>
   <tile/>
   <tile/>
   <tile/>
   <tile/>
   <tile/>
   <tile/>
   <tile/>
   <tile/>
   <tile/>
   <tile/>
   <tile/>
   <tile gid="258"/>
   <tile gid="258"/>
   <tile/>
   <tile/>
   <tile/>
   <tile/>
   <tile/>
   <tile/>
   <tile/>
   <tile/>
   <tile/>
   <tile/>
   <tile/>
   <tile/>
   <tile/>
   <tile/>
   <tile/>
   <tile/>
   <tile/>
   <tile/>
   <tile/>
   <tile/>
   <tile/>
   <tile gid="258"/>
   <tile/>
   <tile/>
   <tile/>
   <tile/>
   <tile gid="258"/>
   <tile/>
   <tile/>
   <tile/>
   <tile/>
   <tile/>
   <tile/>
   <tile/>
   <tile/>
   <tile/>
   <tile/>
   <tile/>
   <tile/>
   <tile/>
   <tile gid="258"/>
   <tile/>
   <tile/>
   <tile/>
   <tile/>
   <tile gid="258"/>
   <tile gid="258"/>
   <tile gid="258"/>
   <tile gid="258"/>
   <tile gid="258"/>
   <tile gid="258"/>
   <tile gid="258"/>
   <tile gid="258"/>
   <tile gid="258"/>
   <tile gid="258"/>
   <tile gid="258"/>
   <tile gid="258"/>
   <tile gid="258"/>
   <tile gid="258"/>
   <tile gid="258"/>
   <tile gid="258"/>
   <tile gid="258"/>
   <tile/>
   <tile/>
   <tile/>
   <tile/>
   <tile/>
   <tile/>
   <tile/>
   <tile/>
   <tile/>
   <tile/>
   <tile/>
   <tile/>
   <tile/>
   <tile/>
   <tile/>
   <tile/>
   <tile/>
   <tile gid="258"/>
   <tile gid="258"/>
   <tile gid="258"/>
   <tile gid="258"/>
   <tile/>
   <tile/>
   <tile/>
   <tile/>
   <tile/>
   <tile gid="258"/>
   <tile gid="258"/>
   <tile/>
   <tile/>
   <tile/>
   <tile/>
   <tile/>
   <tile/>
   <tile/>
   <tile/>
   <tile/>
   <tile/>
   <tile/>
   <tile/>
   <tile/>
   <tile/>
   <tile/>
   <tile/>
   <tile/>
   <tile/>
   <tile/>
   <tile/>
   <tile/>
   <tile gid="258"/>
   <tile/>
   <tile/>
   <tile/>
   <tile/>
   <tile/>
   <tile gid="258"/>
   <tile gid="258"/>
   <tile gid="258"/>
   <tile/>
   <tile/>
   <tile/>
   <tile/>
   <tile/>
   <tile/>
   <tile/>
   <tile/>
   <tile/>
   <tile/>
   <tile gid="258"/>
   <tile/>
   <tile/>
   <tile/>
   <tile/>
   <tile/>
   <tile/>
   <tile/>
   <tile/>
   <tile/>
   <tile/>
   <tile/>
   <tile/>
   <tile/>
   <tile gid="258"/>
   <tile/>
   <tile/>
   <tile/>
   <tile/>
   <tile/>
   <tile/>
   <tile/>
   <tile/>
   <tile/>
   <tile/>
   <tile/>
   <tile/>
   <tile/>
   <tile/>
   <tile/>
   <tile/>
   <tile/>
   <tile/>
   <tile/>
   <tile/>
   <tile/>
   <tile/>
   <tile/>
   <tile/>
   <tile/>
   <tile gid="258"/>
   <tile gid="258"/>
   <tile gid="258"/>
   <tile/>
   <tile/>
   <tile/>
   <tile/>
   <tile/>
   <tile/>
   <tile/>
   <tile/>
   <tile/>
   <tile/>
   <tile/>
   <tile/>
   <tile/>
   <tile/>
   <tile/>
   <tile/>
   <tile/>
   <tile/>
   <tile/>
   <tile/>
   <tile/>
   <tile/>
   <tile/>
   <tile/>
   <tile/>
   <tile/>
   <tile/>
   <tile/>
   <tile gid="258"/>
   <tile/>
   <tile/>
   <tile/>
   <tile/>
   <tile/>
   <tile/>
   <tile/>
   <tile gid="258"/>
   <tile/>
   <tile/>
   <tile/>
   <tile/>
   <tile/>
   <tile/>
   <tile/>
   <tile/>
   <tile/>
   <tile/>
   <tile gid="258"/>
   <tile/>
   <tile/>
   <tile/>
   <tile/>
   <tile/>
   <tile/>
   <tile/>
   <tile/>
   <tile/>
   <tile/>
   <tile/>
   <tile/>
   <tile/>
   <tile gid="258"/>
   <tile/>
   <tile/>
   <tile/>
   <tile/>
   <tile/>
   <tile/>
   <tile/>
   <tile/>
   <tile/>
   <tile/>
   <tile/>
   <tile/>
   <tile/>
   <tile/>
   <tile/>
   <tile gid="258"/>
   <tile gid="258"/>
   <tile gid="258"/>
   <tile gid="258"/>
   <tile gid="258"/>
   <tile/>
   <tile/>
   <tile/>
   <tile/>
   <tile/>
   <tile/>
   <tile/>
   <tile gid="258"/>
   <tile/>
   <tile/>
   <tile/>
   <tile/>
   <tile/>
   <tile/>
   <tile/>
   <tile/>
   <tile/>
   <tile/>
   <tile/>
   <tile/>
   <tile/>
   <tile/>
   <tile/>
   <tile/>
   <tile/>
   <tile/>
   <tile/>
   <tile/>
   <tile/>
   <tile/>
   <tile/>
   <tile/>
   <tile/>
   <tile/>
   <tile/>
   <tile/>
   <tile gid="258"/>
   <tile/>
   <tile/>
   <tile/>
   <tile/>
   <tile/>
   <tile/>
   <tile/>
   <tile/>
   <tile gid="258"/>
   <tile gid="258"/>
   <tile gid="258"/>
   <tile gid="258"/>
   <tile gid="258"/>
   <tile gid="258"/>
   <tile/>
   <tile/>
   <tile/>
   <tile/>
   <tile gid="258"/>
   <tile/>
   <tile/>
   <tile/>
   <tile/>
   <tile/>
   <tile/>
   <tile/>
   <tile/>
   <tile/>
   <tile/>
   <tile/>
   <tile/>
   <tile/>
   <tile gid="258"/>
   <tile/>
   <tile/>
   <tile/>
   <tile/>
   <tile/>
   <tile/>
   <tile/>
   <tile/>
   <tile/>
   <tile/>
   <tile/>
   <tile/>
   <tile/>
   <tile/>
   <tile/>
   <tile/>
   <tile gid="258"/>
   <tile gid="258"/>
   <tile gid="258"/>
   <tile/>
   <tile/>
   <tile/>
   <tile/>
   <tile/>
   <tile/>
   <tile/>
   <tile/>
   <tile gid="258"/>
   <tile/>
   <tile/>
   <tile/>
   <tile/>
   <tile/>
   <tile/>
   <tile/>
   <tile/>
   <tile/>
   <tile/>
   <tile/>
   <tile/>
   <tile/>
   <tile/>
   <tile/>
   <tile/>
   <tile/>
   <tile/>
   <tile/>
   <tile/>
   <tile/>
   <tile/>
   <tile/>
   <tile/>
   <tile/>
   <tile/>
   <tile/>
   <tile/>
   <tile gid="258"/>
   <tile/>
   <tile/>
   <tile/>
   <tile/>
   <tile/>
   <tile/>
   <tile/>
   <tile/>
   <tile/>
   <tile/>
   <tile/>
   <tile/>
   <tile/>
   <tile gid="258"/>
   <tile/>
   <tile/>
   <tile/>
   <tile/>
   <tile gid="258"/>
   <tile/>
   <tile/>
   <tile/>
   <tile/>
   <tile/>
   <tile/>
   <tile/>
   <tile/>
   <tile/>
   <tile/>
   <tile/>
   <tile/>
   <tile/>
   <tile gid="258"/>
   <tile/>
   <tile/>
   <tile/>
   <tile/>
   <tile/>
   <tile/>
   <tile/>
   <tile/>
   <tile/>
   <tile/>
   <tile/>
   <tile/>
   <tile/>
   <tile/>
   <tile/>
   <tile/>
   <tile/>
   <tile/>
   <tile/>
   <tile/>
   <tile/>
   <tile/>
   <tile/>
   <tile/>
   <tile/>
   <tile/>
   <tile/>
   <tile gid="258"/>
   <tile/>
   <tile/>
   <tile/>
   <tile/>
   <tile/>
   <tile/>
   <tile/>
   <tile/>
   <tile/>
   <tile/>
   <tile/>
   <tile/>
   <tile/>
   <tile/>
   <tile/>
   <tile/>
   <tile/>
   <tile/>
   <tile/>
   <tile/>
   <tile/>
   <tile/>
   <tile/>
   <tile/>
   <tile/>
   <tile/>
   <tile/>
   <tile/>
   <tile gid="258"/>
   <tile/>
   <tile/>
   <tile/>
   <tile/>
   <tile/>
   <tile/>
   <tile/>
   <tile/>
   <tile/>
   <tile/>
   <tile/>
   <tile/>
   <tile/>
   <tile gid="258"/>
   <tile/>
   <tile/>
   <tile/>
   <tile/>
   <tile gid="258"/>
   <tile/>
   <tile/>
   <tile/>
   <tile/>
   <tile/>
   <tile/>
   <tile/>
   <tile/>
   <tile/>
   <tile/>
   <tile/>
   <tile/>
   <tile/>
   <tile gid="258"/>
   <tile gid="258"/>
   <tile gid="258"/>
   <tile gid="258"/>
   <tile gid="258"/>
   <tile gid="258"/>
   <tile gid="258"/>
   <tile gid="258"/>
   <tile gid="258"/>
   <tile gid="258"/>
   <tile gid="258"/>
   <tile/>
   <tile/>
   <tile/>
   <tile/>
   <tile/>
   <tile/>
   <tile/>
   <tile/>
   <tile/>
   <tile/>
   <tile/>
   <tile/>
   <tile/>
   <tile/>
   <tile/>
   <tile/>
   <tile/>
   <tile gid="258"/>
   <tile/>
   <tile/>
   <tile/>
   <tile/>
   <tile/>
   <tile/>
   <tile/>
   <tile/>
   <tile/>
   <tile/>
   <tile/>
   <tile/>
   <tile/>
   <tile/>
   <tile/>
   <tile/>
   <tile/>
   <tile/>
   <tile/>
   <tile/>
   <tile/>
   <tile/>
   <tile/>
   <tile/>
   <tile/>
   <tile/>
   <tile/>
   <tile/>
   <tile gid="258"/>
   <tile/>
   <tile/>
   <tile/>
   <tile/>
   <tile/>
   <tile/>
   <tile/>
   <tile/>
   <tile/>
   <tile/>
   <tile/>
   <tile/>
   <tile/>
   <tile gid="258"/>
   <tile/>
   <tile/>
   <tile/>
   <tile/>
   <tile gid="258"/>
   <tile/>
   <tile/>
   <tile/>
   <tile/>
   <tile/>
   <tile/>
   <tile/>
   <tile/>
   <tile/>
   <tile/>
   <tile/>
   <tile/>
   <tile/>
   <tile/>
   <tile/>
   <tile/>
   <tile/>
   <tile/>
   <tile/>
   <tile/>
   <tile/>
   <tile gid="258"/>
   <tile gid="258"/>
   <tile/>
   <tile/>
   <tile/>
   <tile/>
   <tile/>
   <tile/>
   <tile/>
   <tile/>
   <tile/>
   <tile/>
   <tile/>
   <tile/>
   <tile/>
   <tile/>
   <tile/>
   <tile/>
   <tile/>
   <tile/>
   <tile gid="258"/>
   <tile gid="258"/>
   <tile gid="258"/>
   <tile gid="258"/>
   <tile gid="258"/>
   <tile gid="258"/>
   <tile gid="258"/>
   <tile gid="258"/>
   <tile/>
   <tile/>
   <tile/>
   <tile/>
   <tile/>
   <tile/>
   <tile/>
   <tile/>
   <tile/>
   <tile/>
   <tile/>
   <tile/>
   <tile/>
   <tile/>
   <tile/>
   <tile/>
   <tile/>
   <tile/>
   <tile/>
   <tile/>
   <tile/>
   <tile gid="258"/>
   <tile/>
   <tile/>
   <tile/>
   <tile/>
   <tile/>
   <tile/>
   <tile/>
   <tile/>
   <tile/>
   <tile/>
   <tile/>
   <tile/>
   <tile/>
   <tile gid="258"/>
   <tile/>
   <tile/>
   <tile/>
   <tile/>
   <tile gid="258"/>
   <tile/>
   <tile/>
   <tile/>
   <tile/>
   <tile/>
   <tile/>
   <tile/>
   <tile/>
   <tile/>
   <tile/>
   <tile/>
   <tile/>
   <tile/>
   <tile/>
   <tile/>
   <tile/>
   <tile/>
   <tile/>
   <tile/>
   <tile/>
   <tile gid="258"/>
   <tile/>
   <tile/>
   <tile/>
   <tile/>
   <tile/>
   <tile/>
   <tile/>
   <tile/>
   <tile/>
   <tile/>
   <tile/>
   <tile/>
   <tile/>
   <tile/>
   <tile/>
   <tile/>
   <tile/>
   <tile/>
   <tile/>
   <tile/>
   <tile gid="258"/>
   <tile/>
   <tile/>
   <tile/>
   <tile/>
   <tile/>
   <tile/>
   <tile gid="258"/>
   <tile/>
   <tile/>
   <tile/>
   <tile/>
   <tile/>
   <tile/>
   <tile/>
   <tile/>
   <tile/>
   <tile/>
   <tile/>
   <tile/>
   <tile/>
   <tile/>
   <tile/>
   <tile/>
   <tile/>
   <tile/>
   <tile/>
   <tile/>
   <tile/>
   <tile gid="258"/>
   <tile/>
   <tile/>
   <tile/>
   <tile/>
   <tile/>
   <tile/>
   <tile/>
   <tile/>
   <tile/>
   <tile/>
   <tile/>
   <tile/>
   <tile/>
   <tile gid="258"/>
   <tile/>
   <tile/>
   <tile/>
   <tile/>
   <tile gid="258"/>
   <tile/>
   <tile/>
   <tile/>
   <tile/>
   <tile/>
   <tile/>
   <tile/>
   <tile/>
   <tile/>
   <tile/>
   <tile/>
   <tile/>
   <tile/>
   <tile/>
   <tile/>
   <tile/>
   <tile/>
   <tile/>
   <tile/>
   <tile gid="258"/>
   <tile/>
   <tile/>
   <tile/>
   <tile/>
   <tile/>
   <tile/>
   <tile/>
   <tile/>
   <tile/>
   <tile/>
   <tile/>
   <tile/>
   <tile/>
   <tile/>
   <tile/>
   <tile/>
   <tile/>
   <tile/>
   <tile/>
   <tile/>
   <tile/>
   <tile gid="258"/>
   <tile/>
   <tile/>
   <tile/>
   <tile/>
   <tile/>
   <tile/>
   <tile gid="258"/>
   <tile/>
   <tile/>
   <tile/>
   <tile/>
   <tile/>
   <tile/>
   <tile/>
   <tile/>
   <tile/>
   <tile/>
   <tile/>
   <tile/>
   <tile/>
   <tile/>
   <tile/>
   <tile/>
   <tile/>
   <tile/>
   <tile/>
   <tile/>
   <tile/>
   <tile gid="258"/>
   <tile gid="258"/>
   <tile gid="258"/>
   <tile gid="258"/>
   <tile gid="258"/>
   <tile gid="258"/>
   <tile gid="258"/>
   <tile gid="258"/>
   <tile gid="258"/>
   <tile gid="258"/>
   <tile gid="258"/>
   <tile gid="258"/>
   <tile gid="258"/>
   <tile gid="258"/>
   <tile gid="258"/>
   <tile/>
   <tile/>
   <tile/>
   <tile/>
   <tile gid="258"/>
   <tile/>
   <tile/>
   <tile/>
   <tile/>
   <tile/>
   <tile/>
   <tile/>
   <tile/>
   <tile/>
   <tile/>
   <tile/>
   <tile/>
   <tile/>
   <tile/>
   <tile/>
   <tile/>
   <tile/>
   <tile/>
   <tile/>
   <tile gid="258"/>
   <tile/>
   <tile/>
   <tile/>
   <tile/>
   <tile/>
   <tile/>
   <tile/>
   <tile/>
   <tile/>
   <tile/>
   <tile/>
   <tile/>
   <tile/>
   <tile/>
   <tile/>
   <tile/>
   <tile/>
   <tile/>
   <tile/>
   <tile/>
   <tile/>
   <tile gid="258"/>
   <tile/>
   <tile/>
   <tile/>
   <tile/>
   <tile/>
   <tile/>
   <tile gid="258"/>
   <tile/>
   <tile/>
   <tile/>
   <tile/>
   <tile/>
   <tile/>
   <tile/>
   <tile/>
   <tile/>
   <tile/>
   <tile/>
   <tile/>
   <tile/>
   <tile/>
   <tile/>
   <tile/>
   <tile/>
   <tile/>
   <tile/>
   <tile/>
   <tile/>
   <tile/>
   <tile/>
   <tile/>
   <tile/>
   <tile/>
   <tile/>
   <tile/>
   <tile/>
   <tile/>
   <tile/>
   <tile/>
   <tile/>
   <tile/>
   <tile/>
   <tile/>
   <tile/>
   <tile/>
   <tile/>
   <tile/>
   <tile gid="258"/>
   <tile/>
   <tile/>
   <tile/>
   <tile/>
   <tile/>
   <tile/>
   <tile/>
   <tile/>
   <tile/>
   <tile/>
   <tile/>
   <tile/>
   <tile/>
   <tile/>
   <tile gid="258"/>
   <tile/>
   <tile/>
   <tile/>
   <tile/>
   <tile gid="258"/>
   <tile/>
   <tile/>
   <tile/>
   <tile/>
   <tile/>
   <tile/>
   <tile/>
   <tile/>
   <tile/>
   <tile/>
   <tile/>
   <tile/>
   <tile/>
   <tile/>
   <tile/>
   <tile/>
   <tile/>
   <tile/>
   <tile/>
   <tile/>
   <tile/>
   <tile gid="258"/>
   <tile/>
   <tile/>
   <tile/>
   <tile/>
   <tile/>
   <tile/>
   <tile gid="258"/>
   <tile/>
   <tile/>
   <tile/>
   <tile/>
   <tile/>
   <tile/>
   <tile/>
   <tile/>
   <tile/>
   <tile/>
   <tile/>
   <tile/>
   <tile/>
   <tile/>
   <tile/>
   <tile/>
   <tile/>
   <tile/>
   <tile/>
   <tile/>
   <tile/>
   <tile/>
   <tile/>
   <tile/>
   <tile/>
   <tile/>
   <tile/>
   <tile/>
   <tile/>
   <tile/>
   <tile/>
   <tile/>
   <tile/>
   <tile/>
   <tile/>
   <tile/>
   <tile/>
   <tile/>
   <tile/>
   <tile/>
   <tile gid="258"/>
   <tile/>
   <tile/>
   <tile/>
   <tile/>
   <tile/>
   <tile/>
   <tile/>
   <tile/>
   <tile/>
   <tile/>
   <tile/>
   <tile/>
   <tile/>
   <tile gid="258"/>
   <tile/>
   <tile gid="258"/>
   <tile/>
   <tile/>
   <tile/>
   <tile gid="258"/>
   <tile/>
   <tile/>
   <tile/>
   <tile/>
   <tile/>
   <tile/>
   <tile/>
   <tile/>
   <tile/>
   <tile/>
   <tile/>
   <tile/>
   <tile/>
   <tile/>
   <tile/>
   <tile/>
   <tile/>
   <tile/>
   <tile gid="258"/>
   <tile gid="258"/>
   <tile gid="258"/>
   <tile/>
   <tile/>
   <tile/>
   <tile/>
   <tile/>
   <tile/>
   <tile/>
   <tile/>
   <tile gid="258"/>
   <tile gid="258"/>
   <tile gid="258"/>
   <tile gid="258"/>
   <tile gid="258"/>
   <tile/>
   <tile/>
   <tile/>
   <tile/>
   <tile/>
   <tile/>
   <tile/>
   <tile/>
   <tile/>
   <tile/>
   <tile/>
   <tile/>
   <tile/>
   <tile/>
   <tile/>
   <tile/>
   <tile/>
   <tile/>
   <tile/>
   <tile/>
   <tile/>
   <tile/>
   <tile/>
   <tile/>
   <tile/>
   <tile/>
   <tile/>
   <tile/>
   <tile/>
   <tile/>
   <tile/>
   <tile/>
   <tile/>
   <tile/>
   <tile/>
   <tile gid="258"/>
   <tile/>
   <tile/>
   <tile/>
   <tile/>
   <tile/>
   <tile/>
   <tile/>
   <tile/>
   <tile/>
   <tile/>
   <tile/>
   <tile/>
   <tile/>
   <tile gid="258"/>
   <tile/>
   <tile gid="258"/>
   <tile/>
   <tile/>
   <tile/>
   <tile gid="258"/>
   <tile/>
   <tile/>
   <tile/>
   <tile/>
   <tile/>
   <tile/>
   <tile/>
   <tile/>
   <tile/>
   <tile/>
   <tile/>
   <tile/>
   <tile/>
   <tile/>
   <tile/>
   <tile/>
   <tile/>
   <tile gid="258"/>
   <tile/>
   <tile/>
   <tile/>
   <tile/>
   <tile/>
   <tile/>
   <tile/>
   <tile/>
   <tile/>
   <tile/>
   <tile/>
   <tile/>
   <tile/>
   <tile/>
   <tile/>
   <tile gid="258"/>
   <tile/>
   <tile/>
   <tile/>
   <tile/>
   <tile/>
   <tile/>
   <tile/>
   <tile/>
   <tile/>
   <tile/>
   <tile/>
   <tile/>
   <tile/>
   <tile/>
   <tile/>
   <tile/>
   <tile/>
   <tile/>
   <tile/>
   <tile/>
   <tile/>
   <tile/>
   <tile/>
   <tile/>
   <tile/>
   <tile/>
   <tile/>
   <tile/>
   <tile/>
   <tile/>
   <tile/>
   <tile/>
   <tile/>
   <tile/>
   <tile/>
   <tile gid="258"/>
   <tile/>
   <tile/>
   <tile/>
   <tile/>
   <tile/>
   <tile/>
   <tile/>
   <tile/>
   <tile/>
   <tile/>
   <tile/>
   <tile gid="258"/>
   <tile gid="258"/>
   <tile/>
   <tile/>
   <tile gid="258"/>
   <tile/>
   <tile/>
   <tile/>
   <tile gid="258"/>
   <tile/>
   <tile/>
   <tile/>
   <tile/>
   <tile/>
   <tile/>
   <tile/>
   <tile/>
   <tile/>
   <tile/>
   <tile/>
   <tile/>
   <tile/>
   <tile/>
   <tile/>
   <tile/>
   <tile/>
   <tile gid="258"/>
   <tile/>
   <tile/>
   <tile/>
   <tile/>
   <tile/>
   <tile/>
   <tile/>
   <tile/>
   <tile/>
   <tile/>
   <tile/>
   <tile/>
   <tile/>
   <tile/>
   <tile/>
   <tile gid="258"/>
   <tile/>
   <tile/>
   <tile/>
   <tile/>
   <tile/>
   <tile/>
   <tile/>
   <tile/>
   <tile/>
   <tile/>
   <tile gid="258"/>
   <tile gid="258"/>
   <tile gid="258"/>
   <tile gid="258"/>
   <tile gid="258"/>
   <tile gid="258"/>
   <tile gid="258"/>
   <tile gid="258"/>
   <tile gid="258"/>
   <tile gid="258"/>
   <tile gid="258"/>
   <tile gid="258"/>
   <tile gid="258"/>
   <tile gid="258"/>
   <tile gid="258"/>
   <tile gid="258"/>
   <tile gid="258"/>
   <tile gid="258"/>
   <tile gid="258"/>
   <tile gid="258"/>
   <tile gid="258"/>
   <tile gid="258"/>
   <tile gid="258"/>
   <tile gid="258"/>
   <tile gid="258"/>
   <tile/>
   <tile/>
   <tile/>
   <tile/>
   <tile/>
   <tile/>
   <tile/>
   <tile/>
   <tile/>
   <tile/>
   <tile/>
   <tile gid="258"/>
   <tile/>
   <tile/>
   <tile/>
   <tile/>
   <tile/>
   <tile gid="258"/>
   <tile/>
   <tile/>
   <tile gid="258"/>
   <tile/>
   <tile/>
   <tile/>
   <tile/>
   <tile/>
   <tile/>
   <tile/>
   <tile/>
   <tile/>
   <tile gid="258"/>
   <tile gid="258"/>
   <tile gid="258"/>
   <tile gid="258"/>
   <tile gid="258"/>
   <tile gid="258"/>
   <tile gid="258"/>
   <tile gid="258"/>
   <tile/>
   <tile/>
   <tile/>
   <tile/>
   <tile/>
   <tile/>
   <tile/>
   <tile/>
   <tile/>
   <tile/>
   <tile/>
   <tile/>
   <tile/>
   <tile/>
   <tile/>
   <tile/>
   <tile gid="258"/>
   <tile/>
   <tile/>
   <tile/>
   <tile/>
   <tile gid="258"/>
   <tile gid="258"/>
   <tile gid="258"/>
   <tile gid="258"/>
   <tile gid="258"/>
   <tile gid="258"/>
   <tile/>
   <tile/>
   <tile/>
   <tile/>
   <tile/>
   <tile/>
   <tile/>
   <tile gid="258"/>
   <tile gid="258"/>
   <tile gid="258"/>
   <tile gid="258"/>
   <tile gid="258"/>
   <tile gid="258"/>
   <tile gid="258"/>
   <tile gid="258"/>
   <tile gid="258"/>
   <tile gid="258"/>
   <tile gid="258"/>
   <tile gid="258"/>
   <tile gid="258"/>
   <tile gid="258"/>
   <tile gid="258"/>
   <tile gid="258"/>
   <tile gid="258"/>
   <tile gid="258"/>
   <tile/>
   <tile/>
   <tile/>
   <tile/>
   <tile/>
   <tile/>
   <tile/>
   <tile/>
   <tile/>
   <tile gid="258"/>
   <tile gid="258"/>
   <tile/>
   <tile/>
   <tile/>
   <tile/>
   <tile/>
   <tile/>
   <tile gid="258"/>
   <tile/>
   <tile/>
   <tile gid="258"/>
   <tile/>
   <tile/>
   <tile/>
   <tile/>
   <tile/>
   <tile/>
   <tile/>
   <tile/>
   <tile/>
   <tile/>
   <tile gid="258"/>
   <tile gid="258"/>
   <tile gid="258"/>
   <tile gid="258"/>
   <tile gid="258"/>
   <tile gid="258"/>
   <tile gid="258"/>
   <tile gid="258"/>
   <tile gid="258"/>
   <tile gid="258"/>
   <tile gid="258"/>
   <tile gid="258"/>
   <tile gid="258"/>
   <tile/>
   <tile/>
   <tile gid="258"/>
   <tile gid="258"/>
   <tile gid="258"/>
   <tile gid="258"/>
   <tile gid="258"/>
   <tile gid="258"/>
   <tile gid="258"/>
   <tile gid="258"/>
   <tile gid="258"/>
   <tile gid="258"/>
   <tile gid="258"/>
   <tile gid="258"/>
   <tile gid="258"/>
   <tile gid="258"/>
   <tile gid="258"/>
   <tile gid="258"/>
   <tile gid="258"/>
   <tile gid="258"/>
   <tile gid="258"/>
   <tile gid="258"/>
   <tile gid="258"/>
   <tile gid="258"/>
   <tile gid="258"/>
   <tile gid="258"/>
   <tile gid="258"/>
   <tile gid="258"/>
   <tile gid="258"/>
   <tile/>
   <tile/>
   <tile/>
   <tile/>
   <tile/>
   <tile/>
   <tile/>
   <tile/>
   <tile/>
   <tile/>
   <tile/>
   <tile/>
   <tile/>
   <tile/>
   <tile/>
   <tile/>
   <tile/>
   <tile gid="258"/>
   <tile/>
   <tile/>
   <tile/>
   <tile/>
   <tile/>
   <tile/>
   <tile/>
   <tile gid="258"/>
   <tile/>
   <tile/>
   <tile/>
   <tile/>
   <tile/>
   <tile/>
   <tile/>
   <tile/>
   <tile gid="258"/>
   <tile/>
   <tile/>
   <tile gid="258"/>
   <tile/>
   <tile/>
   <tile/>
   <tile/>
   <tile/>
   <tile/>
   <tile/>
   <tile/>
   <tile/>
   <tile/>
   <tile/>
   <tile/>
   <tile/>
   <tile/>
   <tile/>
   <tile/>
   <tile/>
   <tile/>
   <tile/>
   <tile/>
   <tile/>
   <tile/>
   <tile gid="258"/>
   <tile gid="258"/>
   <tile gid="258"/>
   <tile gid="258"/>
   <tile/>
   <tile/>
   <tile/>
   <tile/>
   <tile/>
   <tile/>
   <tile/>
   <tile/>
   <tile/>
   <tile/>
   <tile/>
   <tile/>
   <tile/>
   <tile/>
   <tile/>
   <tile/>
   <tile/>
   <tile/>
   <tile/>
   <tile/>
   <tile/>
   <tile/>
   <tile/>
   <tile/>
   <tile gid="258"/>
   <tile gid="258"/>
   <tile/>
   <tile/>
   <tile/>
   <tile/>
   <tile/>
   <tile/>
   <tile/>
   <tile/>
   <tile/>
   <tile/>
   <tile/>
   <tile/>
   <tile/>
   <tile/>
   <tile/>
   <tile/>
   <tile/>
   <tile gid="258"/>
   <tile/>
   <tile/>
   <tile/>
   <tile/>
   <tile/>
   <tile/>
   <tile/>
   <tile gid="258"/>
   <tile/>
   <tile/>
   <tile/>
   <tile/>
   <tile/>
   <tile/>
   <tile/>
   <tile/>
   <tile/>
   <tile gid="258"/>
   <tile/>
   <tile gid="258"/>
   <tile/>
   <tile/>
   <tile/>
   <tile/>
   <tile/>
   <tile/>
   <tile/>
   <tile/>
   <tile/>
   <tile/>
   <tile/>
   <tile/>
   <tile/>
   <tile/>
   <tile/>
   <tile/>
   <tile/>
   <tile/>
   <tile/>
   <tile/>
   <tile/>
   <tile/>
   <tile/>
   <tile/>
   <tile/>
   <tile/>
   <tile/>
   <tile/>
   <tile/>
   <tile/>
   <tile/>
   <tile/>
   <tile/>
   <tile/>
   <tile/>
   <tile/>
   <tile/>
   <tile/>
   <tile/>
   <tile/>
   <tile/>
   <tile/>
   <tile/>
   <tile/>
   <tile/>
   <tile/>
   <tile/>
   <tile/>
   <tile/>
   <tile/>
   <tile/>
   <tile/>
   <tile/>
   <tile/>
   <tile/>
   <tile/>
   <tile/>
   <tile/>
   <tile/>
   <tile/>
   <tile/>
   <tile/>
   <tile/>
   <tile/>
   <tile/>
   <tile/>
   <tile/>
   <tile/>
   <tile/>
   <tile gid="258"/>
   <tile/>
   <tile/>
   <tile/>
   <tile/>
   <tile/>
   <tile/>
   <tile gid="258"/>
   <tile/>
   <tile/>
   <tile/>
   <tile/>
   <tile/>
   <tile/>
   <tile/>
   <tile/>
   <tile/>
   <tile/>
   <tile gid="258"/>
   <tile/>
   <tile gid="258"/>
   <tile/>
   <tile/>
   <tile/>
   <tile/>
   <tile/>
   <tile/>
   <tile/>
   <tile/>
   <tile/>
   <tile/>
   <tile/>
   <tile/>
   <tile/>
   <tile/>
   <tile/>
   <tile/>
   <tile/>
   <tile/>
   <tile/>
   <tile/>
   <tile/>
   <tile/>
   <tile/>
   <tile/>
   <tile/>
   <tile/>
   <tile/>
   <tile/>
   <tile/>
   <tile/>
   <tile/>
   <tile/>
   <tile/>
   <tile/>
   <tile/>
   <tile/>
   <tile/>
   <tile/>
   <tile/>
   <tile/>
   <tile/>
   <tile/>
   <tile/>
   <tile/>
   <tile/>
   <tile/>
   <tile/>
   <tile/>
   <tile/>
   <tile/>
   <tile/>
   <tile/>
   <tile/>
   <tile/>
   <tile/>
   <tile/>
   <tile/>
   <tile/>
   <tile/>
   <tile/>
   <tile/>
   <tile/>
   <tile/>
   <tile/>
   <tile/>
   <tile/>
   <tile/>
   <tile/>
   <tile/>
   <tile gid="258"/>
   <tile/>
   <tile/>
   <tile/>
   <tile/>
   <tile/>
   <tile gid="258"/>
   <tile/>
   <tile/>
   <tile/>
   <tile/>
   <tile/>
   <tile/>
   <tile/>
   <tile/>
   <tile/>
   <tile/>
   <tile/>
   <tile gid="258"/>
   <tile/>
   <tile gid="258"/>
   <tile/>
   <tile/>
   <tile/>
   <tile/>
   <tile/>
   <tile/>
   <tile/>
   <tile/>
   <tile/>
   <tile/>
   <tile/>
   <tile/>
   <tile/>
   <tile/>
   <tile/>
   <tile/>
   <tile/>
   <tile/>
   <tile/>
   <tile/>
   <tile/>
   <tile/>
   <tile/>
   <tile/>
   <tile/>
   <tile/>
   <tile/>
   <tile/>
   <tile/>
   <tile/>
   <tile/>
   <tile/>
   <tile/>
   <tile/>
   <tile/>
   <tile/>
   <tile/>
   <tile/>
   <tile/>
   <tile/>
   <tile/>
   <tile/>
   <tile/>
   <tile/>
   <tile/>
   <tile/>
   <tile/>
   <tile/>
   <tile/>
   <tile/>
   <tile/>
   <tile/>
   <tile/>
   <tile/>
   <tile/>
   <tile/>
   <tile/>
   <tile/>
   <tile/>
   <tile/>
   <tile/>
   <tile/>
   <tile/>
   <tile/>
   <tile/>
   <tile/>
   <tile/>
   <tile/>
   <tile/>
   <tile gid="258"/>
   <tile/>
   <tile/>
   <tile/>
   <tile/>
   <tile gid="258"/>
   <tile/>
   <tile/>
   <tile/>
   <tile/>
   <tile/>
   <tile/>
   <tile/>
   <tile/>
   <tile/>
   <tile/>
   <tile/>
   <tile/>
   <tile gid="258"/>
   <tile/>
   <tile gid="258"/>
   <tile/>
   <tile/>
   <tile/>
   <tile/>
   <tile/>
   <tile/>
   <tile/>
   <tile/>
   <tile/>
   <tile/>
   <tile/>
   <tile/>
   <tile/>
   <tile/>
   <tile/>
   <tile/>
   <tile/>
   <tile/>
   <tile/>
   <tile/>
   <tile/>
   <tile/>
   <tile/>
   <tile/>
   <tile/>
   <tile/>
   <tile/>
   <tile/>
   <tile/>
   <tile/>
   <tile/>
   <tile/>
   <tile/>
   <tile/>
   <tile/>
   <tile/>
   <tile/>
   <tile/>
   <tile/>
   <tile/>
   <tile/>
   <tile/>
   <tile/>
   <tile/>
   <tile/>
   <tile/>
   <tile/>
   <tile/>
   <tile/>
   <tile/>
   <tile/>
   <tile/>
   <tile/>
   <tile/>
   <tile/>
   <tile/>
   <tile/>
   <tile/>
   <tile/>
   <tile/>
   <tile/>
   <tile/>
   <tile/>
   <tile/>
   <tile/>
   <tile/>
   <tile/>
   <tile/>
   <tile/>
   <tile gid="258"/>
   <tile/>
   <tile/>
   <tile/>
   <tile gid="258"/>
   <tile/>
   <tile/>
   <tile/>
   <tile/>
   <tile/>
   <tile/>
   <tile/>
   <tile/>
   <tile/>
   <tile/>
   <tile/>
   <tile/>
   <tile/>
   <tile gid="258"/>
   <tile/>
   <tile gid="258"/>
   <tile/>
   <tile/>
   <tile/>
   <tile/>
   <tile/>
   <tile/>
   <tile/>
   <tile/>
   <tile/>
   <tile/>
   <tile/>
   <tile/>
   <tile/>
   <tile/>
   <tile/>
   <tile/>
   <tile/>
   <tile/>
   <tile/>
   <tile/>
   <tile/>
   <tile/>
   <tile/>
   <tile/>
   <tile/>
   <tile/>
   <tile/>
   <tile/>
   <tile/>
   <tile/>
   <tile/>
   <tile/>
   <tile/>
   <tile/>
   <tile/>
   <tile/>
   <tile/>
   <tile/>
   <tile/>
   <tile/>
   <tile/>
   <tile/>
   <tile/>
   <tile/>
   <tile/>
   <tile/>
   <tile/>
   <tile/>
   <tile/>
   <tile/>
   <tile/>
   <tile/>
   <tile/>
   <tile/>
   <tile/>
   <tile/>
   <tile/>
   <tile/>
   <tile/>
   <tile/>
   <tile/>
   <tile/>
   <tile/>
   <tile/>
   <tile/>
   <tile/>
   <tile/>
   <tile/>
   <tile/>
   <tile gid="258"/>
   <tile/>
   <tile/>
   <tile gid="258"/>
   <tile/>
   <tile/>
   <tile/>
   <tile/>
   <tile/>
   <tile/>
   <tile/>
   <tile/>
   <tile/>
   <tile/>
   <tile/>
   <tile/>
   <tile/>
   <tile/>
   <tile gid="258"/>
   <tile/>
   <tile gid="258"/>
   <tile/>
   <tile/>
   <tile/>
   <tile/>
   <tile/>
   <tile/>
   <tile/>
   <tile/>
   <tile/>
   <tile/>
   <tile/>
   <tile/>
   <tile/>
   <tile/>
   <tile/>
   <tile/>
   <tile/>
   <tile/>
   <tile/>
   <tile/>
   <tile/>
   <tile/>
   <tile/>
   <tile/>
   <tile/>
   <tile/>
   <tile/>
   <tile/>
   <tile/>
   <tile/>
   <tile/>
   <tile/>
   <tile/>
   <tile/>
   <tile/>
   <tile/>
   <tile/>
   <tile/>
   <tile/>
   <tile/>
   <tile/>
   <tile/>
   <tile/>
   <tile/>
   <tile/>
   <tile/>
   <tile/>
   <tile/>
   <tile/>
   <tile/>
   <tile gid="258"/>
   <tile gid="258"/>
   <tile gid="258"/>
   <tile gid="258"/>
   <tile gid="258"/>
   <tile gid="258"/>
   <tile gid="258"/>
   <tile gid="258"/>
   <tile gid="258"/>
   <tile gid="258"/>
   <tile gid="258"/>
   <tile gid="258"/>
   <tile gid="258"/>
   <tile gid="258"/>
   <tile gid="258"/>
   <tile/>
   <tile/>
   <tile/>
   <tile/>
   <tile gid="258"/>
   <tile/>
   <tile/>
   <tile gid="258"/>
   <tile/>
   <tile/>
   <tile/>
   <tile/>
   <tile/>
   <tile/>
   <tile/>
   <tile/>
   <tile/>
   <tile/>
   <tile/>
   <tile/>
   <tile/>
   <tile/>
   <tile/>
   <tile gid="258"/>
   <tile gid="258"/>
   <tile/>
   <tile/>
   <tile/>
   <tile/>
   <tile/>
   <tile/>
   <tile/>
   <tile/>
   <tile/>
   <tile/>
   <tile/>
   <tile/>
   <tile/>
   <tile/>
   <tile/>
   <tile/>
   <tile/>
   <tile/>
   <tile/>
   <tile/>
   <tile/>
   <tile/>
   <tile/>
   <tile/>
   <tile/>
   <tile/>
   <tile/>
   <tile/>
   <tile/>
   <tile/>
   <tile/>
   <tile/>
   <tile/>
   <tile/>
   <tile/>
   <tile/>
   <tile/>
   <tile/>
   <tile/>
   <tile/>
   <tile/>
   <tile/>
   <tile/>
   <tile/>
   <tile/>
   <tile/>
   <tile/>
   <tile/>
   <tile/>
   <tile/>
   <tile gid="258"/>
   <tile/>
   <tile/>
   <tile/>
   <tile/>
   <tile/>
   <tile/>
   <tile/>
   <tile/>
   <tile/>
   <tile/>
   <tile/>
   <tile/>
   <tile/>
   <tile gid="258"/>
   <tile/>
   <tile/>
   <tile/>
   <tile/>
   <tile gid="258"/>
   <tile/>
   <tile/>
   <tile gid="258"/>
   <tile/>
   <tile/>
   <tile/>
   <tile/>
   <tile/>
   <tile/>
   <tile/>
   <tile/>
   <tile/>
   <tile/>
   <tile/>
   <tile/>
   <tile/>
   <tile/>
   <tile/>
   <tile gid="258"/>
   <tile gid="258"/>
   <tile/>
   <tile/>
   <tile/>
   <tile/>
   <tile/>
   <tile/>
   <tile gid="258"/>
   <tile gid="258"/>
   <tile gid="258"/>
   <tile gid="258"/>
   <tile gid="258"/>
   <tile/>
   <tile/>
   <tile/>
   <tile/>
   <tile/>
   <tile/>
   <tile/>
   <tile/>
   <tile/>
   <tile/>
   <tile/>
   <tile gid="258"/>
   <tile gid="258"/>
   <tile gid="258"/>
   <tile gid="258"/>
   <tile/>
   <tile/>
   <tile/>
   <tile/>
   <tile/>
   <tile/>
   <tile gid="258"/>
   <tile gid="258"/>
   <tile gid="258"/>
   <tile gid="258"/>
   <tile gid="258"/>
   <tile/>
   <tile/>
   <tile/>
   <tile/>
   <tile/>
   <tile/>
   <tile/>
   <tile/>
   <tile/>
   <tile/>
   <tile/>
   <tile/>
   <tile/>
   <tile gid="258"/>
   <tile/>
   <tile/>
   <tile/>
   <tile/>
   <tile/>
   <tile/>
   <tile/>
   <tile/>
   <tile/>
   <tile/>
   <tile/>
   <tile/>
   <tile/>
   <tile gid="258"/>
   <tile/>
   <tile/>
   <tile/>
   <tile/>
   <tile gid="258"/>
   <tile/>
   <tile gid="258"/>
   <tile/>
   <tile/>
   <tile/>
   <tile/>
   <tile/>
   <tile/>
   <tile/>
   <tile/>
   <tile/>
   <tile/>
   <tile/>
   <tile/>
   <tile/>
   <tile/>
   <tile/>
   <tile/>
   <tile gid="258"/>
   <tile gid="258"/>
   <tile/>
   <tile/>
   <tile/>
   <tile/>
   <tile/>
   <tile/>
   <tile/>
   <tile gid="258"/>
   <tile gid="258"/>
   <tile gid="258"/>
   <tile/>
   <tile/>
   <tile/>
   <tile/>
   <tile/>
   <tile/>
   <tile/>
   <tile/>
   <tile/>
   <tile/>
   <tile/>
   <tile/>
   <tile gid="258"/>
   <tile/>
   <tile/>
   <tile gid="258"/>
   <tile/>
   <tile/>
   <tile/>
   <tile/>
   <tile/>
   <tile/>
   <tile/>
   <tile gid="258"/>
   <tile gid="258"/>
   <tile gid="258"/>
   <tile/>
   <tile/>
   <tile/>
   <tile/>
   <tile/>
   <tile/>
   <tile/>
   <tile/>
   <tile/>
   <tile/>
   <tile/>
   <tile/>
   <tile/>
   <tile/>
   <tile gid="258"/>
   <tile/>
   <tile/>
   <tile/>
   <tile/>
   <tile/>
   <tile/>
   <tile/>
   <tile/>
   <tile/>
   <tile/>
   <tile/>
   <tile/>
   <tile/>
   <tile gid="258"/>
   <tile/>
   <tile/>
   <tile/>
   <tile/>
   <tile gid="258"/>
   <tile gid="258"/>
   <tile/>
   <tile/>
   <tile/>
   <tile/>
   <tile/>
   <tile/>
   <tile/>
   <tile/>
   <tile/>
   <tile/>
   <tile/>
   <tile/>
   <tile/>
   <tile/>
   <tile/>
   <tile/>
   <tile/>
   <tile/>
   <tile gid="258"/>
   <tile/>
   <tile/>
   <tile/>
   <tile/>
   <tile/>
   <tile/>
   <tile/>
   <tile/>
   <tile/>
   <tile/>
   <tile/>
   <tile/>
   <tile/>
   <tile/>
   <tile/>
   <tile gid="258"/>
   <tile gid="258"/>
   <tile gid="258"/>
   <tile gid="258"/>
   <tile/>
   <tile/>
   <tile/>
   <tile gid="258"/>
   <tile/>
   <tile/>
   <tile gid="258"/>
   <tile/>
   <tile/>
   <tile/>
   <tile/>
   <tile/>
   <tile/>
   <tile/>
   <tile/>
   <tile/>
   <tile/>
   <tile/>
   <tile/>
   <tile/>
   <tile/>
   <tile gid="258"/>
   <tile gid="258"/>
   <tile gid="258"/>
   <tile gid="258"/>
   <tile gid="258"/>
   <tile/>
   <tile/>
   <tile/>
   <tile/>
   <tile/>
   <tile gid="258"/>
   <tile/>
   <tile/>
   <tile/>
   <tile/>
   <tile/>
   <tile/>
   <tile/>
   <tile/>
   <tile/>
   <tile/>
   <tile/>
   <tile/>
   <tile/>
   <tile gid="258"/>
   <tile/>
   <tile/>
   <tile/>
   <tile/>
   <tile gid="258"/>
   <tile gid="258"/>
   <tile/>
   <tile/>
   <tile/>
   <tile/>
   <tile/>
   <tile/>
   <tile/>
   <tile/>
   <tile/>
   <tile/>
   <tile/>
   <tile/>
   <tile/>
   <tile/>
   <tile/>
   <tile/>
   <tile/>
   <tile/>
   <tile gid="258"/>
   <tile/>
   <tile/>
   <tile/>
   <tile/>
   <tile/>
   <tile/>
   <tile/>
   <tile/>
   <tile/>
   <tile/>
   <tile/>
   <tile/>
   <tile/>
   <tile/>
   <tile/>
   <tile gid="258"/>
   <tile/>
   <tile/>
   <tile gid="258"/>
   <tile/>
   <tile/>
   <tile/>
   <tile gid="258"/>
   <tile/>
   <tile/>
   <tile gid="258"/>
   <tile/>
   <tile/>
   <tile/>
   <tile/>
   <tile/>
   <tile/>
   <tile/>
   <tile/>
   <tile/>
   <tile/>
   <tile/>
   <tile/>
   <tile/>
   <tile/>
   <tile gid="258"/>
   <tile/>
   <tile/>
   <tile/>
   <tile gid="258"/>
   <tile/>
   <tile/>
   <tile/>
   <tile/>
   <tile/>
   <tile gid="258"/>
   <tile/>
   <tile/>
   <tile/>
   <tile/>
   <tile/>
   <tile/>
   <tile/>
   <tile/>
   <tile/>
   <tile/>
   <tile/>
   <tile/>
   <tile/>
   <tile gid="258"/>
   <tile/>
   <tile/>
   <tile/>
   <tile/>
   <tile gid="258"/>
  </data>
 </layer>
 <objectgroup id="4" name="Entities">
  <object id="1" name="Neurona" type="Cell" x="5008" y="3856">
   <point/>
  </object>
  <object id="2" name="Neurona" type="Cell" x="5084.85" y="3315.15">
   <point/>
  </object>
  <object id="4" name="Virus" type="Enemy" x="5175.76" y="2212.12">
   <point/>
  </object>
  <object id="5" name="Neurona" type="Cell" x="5309.09" y="1045.45">
   <point/>
  </object>
 </objectgroup>
 <objectgroup id="5" name="Anim_Tiles"/>
</map>
