<?xml version="1.0" encoding="UTF-8"?>
<map version="1.10" tiledversion="1.12.1" orientation="orthogonal" renderorder="right-down" width="90" height="68" tilewidth="64" tileheight="64" infinite="0" nextlayerid="9" nextobjectid="5">
 <tileset firstgid="1" name="atñas_2.6" tilewidth="64" tileheight="64" tilecount="256" columns="16">
  <image source="atñas_2.6.png" width="1024" height="1024"/>
 </tileset>
 <tileset firstgid="257" name="TileMetadata" tilewidth="64" tileheight="64" tilecount="2" columns="2">
  <image source="TileMetadata.png" width="128" height="64"/>
 </tileset>
 <tileset firstgid="259" name="Atlas_2.3" tilewidth="64" tileheight="64" tilecount="256" columns="16">
  <image source="Atlas_2.3.png" width="1024" height="1024"/>
 </tileset>
 <tileset firstgid="515" name="Atlas_3.4" tilewidth="64" tileheight="64" tilecount="256" columns="16">
  <image source="Atlas_3.4.png" width="1024" height="1024"/>
 </tileset>
 <tileset firstgid="771" name="Background" tilewidth="64" tileheight="64" tilecount="2300" columns="50">
  <image source="../Textures/Backgrounds/Medula/Background.png" width="3200" height="2944"/>
 </tileset>
 <tileset firstgid="3071" name="middleground" tilewidth="5760" tileheight="4361" tilecount="2" columns="0">
  <grid orientation="orthogonal" width="1" height="1"/>
  <tile id="0">
   <image source="../Textures/Middleground/Medula/Medula_Espinal_Middleground.png" width="5760" height="4361"/>
  </tile>
  <tile id="1">
   <image source="../Textures/Middleground/Medula/Middleground.png" width="3200" height="2944"/>
  </tile>
 </tileset>
 <layer id="7" name="Background" width="90" height="68" visible="0" parallaxx="1.2">
  <properties>
   <property name="Draw" type="bool" value="true"/>
  </properties>
  <data>
   <tile gid="771"/>
   <tile gid="772"/>
   <tile gid="773"/>
   <tile gid="774"/>
   <tile gid="775"/>
   <tile gid="776"/>
   <tile gid="777"/>
   <tile gid="778"/>
   <tile gid="779"/>
   <tile gid="780"/>
   <tile gid="781"/>
   <tile gid="782"/>
   <tile gid="783"/>
   <tile gid="784"/>
   <tile gid="785"/>
   <tile gid="786"/>
   <tile gid="787"/>
   <tile gid="788"/>
   <tile gid="789"/>
   <tile gid="790"/>
   <tile gid="791"/>
   <tile gid="792"/>
   <tile gid="793"/>
   <tile gid="794"/>
   <tile gid="795"/>
   <tile gid="796"/>
   <tile gid="797"/>
   <tile gid="798"/>
   <tile gid="799"/>
   <tile gid="800"/>
   <tile gid="801"/>
   <tile gid="802"/>
   <tile gid="803"/>
   <tile gid="804"/>
   <tile gid="805"/>
   <tile gid="806"/>
   <tile gid="807"/>
   <tile gid="808"/>
   <tile gid="809"/>
   <tile gid="810"/>
   <tile gid="811"/>
   <tile gid="812"/>
   <tile gid="813"/>
   <tile gid="814"/>
   <tile gid="815"/>
   <tile gid="816"/>
   <tile gid="817"/>
   <tile gid="818"/>
   <tile gid="819"/>
   <tile gid="820"/>
   <tile gid="771"/>
   <tile gid="772"/>
   <tile gid="773"/>
   <tile gid="774"/>
   <tile gid="775"/>
   <tile gid="776"/>
   <tile gid="777"/>
   <tile gid="778"/>
   <tile gid="779"/>
   <tile gid="780"/>
   <tile gid="781"/>
   <tile gid="782"/>
   <tile gid="783"/>
   <tile gid="784"/>
   <tile gid="785"/>
   <tile gid="786"/>
   <tile gid="787"/>
   <tile gid="788"/>
   <tile gid="789"/>
   <tile gid="790"/>
   <tile gid="791"/>
   <tile gid="792"/>
   <tile gid="793"/>
   <tile gid="794"/>
   <tile gid="795"/>
   <tile gid="796"/>
   <tile gid="797"/>
   <tile gid="798"/>
   <tile gid="799"/>
   <tile gid="800"/>
   <tile gid="801"/>
   <tile gid="802"/>
   <tile gid="803"/>
   <tile gid="804"/>
   <tile gid="805"/>
   <tile gid="806"/>
   <tile gid="807"/>
   <tile gid="808"/>
   <tile gid="809"/>
   <tile gid="810"/>
   <tile gid="821"/>
   <tile gid="822"/>
   <tile gid="823"/>
   <tile gid="824"/>
   <tile gid="825"/>
   <tile gid="826"/>
   <tile gid="827"/>
   <tile gid="828"/>
   <tile gid="829"/>
   <tile gid="830"/>
   <tile gid="831"/>
   <tile gid="832"/>
   <tile gid="833"/>
   <tile gid="834"/>
   <tile gid="835"/>
   <tile gid="836"/>
   <tile gid="837"/>
   <tile gid="838"/>
   <tile gid="839"/>
   <tile gid="840"/>
   <tile gid="841"/>
   <tile gid="842"/>
   <tile gid="843"/>
   <tile gid="844"/>
   <tile gid="845"/>
   <tile gid="846"/>
   <tile gid="847"/>
   <tile gid="848"/>
   <tile gid="849"/>
   <tile gid="850"/>
   <tile gid="851"/>
   <tile gid="852"/>
   <tile gid="853"/>
   <tile gid="854"/>
   <tile gid="855"/>
   <tile gid="856"/>
   <tile gid="857"/>
   <tile gid="858"/>
   <tile gid="859"/>
   <tile gid="860"/>
   <tile gid="861"/>
   <tile gid="862"/>
   <tile gid="863"/>
   <tile gid="864"/>
   <tile gid="865"/>
   <tile gid="866"/>
   <tile gid="867"/>
   <tile gid="868"/>
   <tile gid="869"/>
   <tile gid="870"/>
   <tile gid="821"/>
   <tile gid="822"/>
   <tile gid="823"/>
   <tile gid="824"/>
   <tile gid="825"/>
   <tile gid="826"/>
   <tile gid="827"/>
   <tile gid="828"/>
   <tile gid="829"/>
   <tile gid="830"/>
   <tile gid="831"/>
   <tile gid="832"/>
   <tile gid="833"/>
   <tile gid="834"/>
   <tile gid="835"/>
   <tile gid="836"/>
   <tile gid="837"/>
   <tile gid="838"/>
   <tile gid="839"/>
   <tile gid="840"/>
   <tile gid="841"/>
   <tile gid="842"/>
   <tile gid="843"/>
   <tile gid="844"/>
   <tile gid="845"/>
   <tile gid="846"/>
   <tile gid="847"/>
   <tile gid="848"/>
   <tile gid="849"/>
   <tile gid="850"/>
   <tile gid="851"/>
   <tile gid="852"/>
   <tile gid="853"/>
   <tile gid="854"/>
   <tile gid="855"/>
   <tile gid="856"/>
   <tile gid="857"/>
   <tile gid="858"/>
   <tile gid="859"/>
   <tile gid="860"/>
   <tile gid="871"/>
   <tile gid="872"/>
   <tile gid="873"/>
   <tile gid="874"/>
   <tile gid="875"/>
   <tile gid="876"/>
   <tile gid="877"/>
   <tile gid="878"/>
   <tile gid="879"/>
   <tile gid="880"/>
   <tile gid="881"/>
   <tile gid="882"/>
   <tile gid="883"/>
   <tile gid="884"/>
   <tile gid="885"/>
   <tile gid="886"/>
   <tile gid="887"/>
   <tile gid="888"/>
   <tile gid="889"/>
   <tile gid="890"/>
   <tile gid="891"/>
   <tile gid="892"/>
   <tile gid="893"/>
   <tile gid="894"/>
   <tile gid="895"/>
   <tile gid="896"/>
   <tile gid="897"/>
   <tile gid="898"/>
   <tile gid="899"/>
   <tile gid="900"/>
   <tile gid="901"/>
   <tile gid="902"/>
   <tile gid="903"/>
   <tile gid="904"/>
   <tile gid="905"/>
   <tile gid="906"/>
   <tile gid="907"/>
   <tile gid="908"/>
   <tile gid="909"/>
   <tile gid="910"/>
   <tile gid="911"/>
   <tile gid="912"/>
   <tile gid="913"/>
   <tile gid="914"/>
   <tile gid="915"/>
   <tile gid="916"/>
   <tile gid="917"/>
   <tile gid="918"/>
   <tile gid="919"/>
   <tile gid="920"/>
   <tile gid="871"/>
   <tile gid="872"/>
   <tile gid="873"/>
   <tile gid="874"/>
   <tile gid="875"/>
   <tile gid="876"/>
   <tile gid="877"/>
   <tile gid="878"/>
   <tile gid="879"/>
   <tile gid="880"/>
   <tile gid="881"/>
   <tile gid="882"/>
   <tile gid="883"/>
   <tile gid="884"/>
   <tile gid="885"/>
   <tile gid="886"/>
   <tile gid="887"/>
   <tile gid="888"/>
   <tile gid="889"/>
   <tile gid="890"/>
   <tile gid="891"/>
   <tile gid="892"/>
   <tile gid="893"/>
   <tile gid="894"/>
   <tile gid="895"/>
   <tile gid="896"/>
   <tile gid="897"/>
   <tile gid="898"/>
   <tile gid="899"/>
   <tile gid="900"/>
   <tile gid="901"/>
   <tile gid="902"/>
   <tile gid="903"/>
   <tile gid="904"/>
   <tile gid="905"/>
   <tile gid="906"/>
   <tile gid="907"/>
   <tile gid="908"/>
   <tile gid="909"/>
   <tile gid="910"/>
   <tile gid="921"/>
   <tile gid="922"/>
   <tile gid="923"/>
   <tile gid="924"/>
   <tile gid="925"/>
   <tile gid="926"/>
   <tile gid="927"/>
   <tile gid="928"/>
   <tile gid="929"/>
   <tile gid="930"/>
   <tile gid="931"/>
   <tile gid="932"/>
   <tile gid="933"/>
   <tile gid="934"/>
   <tile gid="935"/>
   <tile gid="936"/>
   <tile gid="937"/>
   <tile gid="938"/>
   <tile gid="939"/>
   <tile gid="940"/>
   <tile gid="941"/>
   <tile gid="942"/>
   <tile gid="943"/>
   <tile gid="944"/>
   <tile gid="945"/>
   <tile gid="946"/>
   <tile gid="947"/>
   <tile gid="948"/>
   <tile gid="949"/>
   <tile gid="950"/>
   <tile gid="951"/>
   <tile gid="952"/>
   <tile gid="953"/>
   <tile gid="954"/>
   <tile gid="955"/>
   <tile gid="956"/>
   <tile gid="957"/>
   <tile gid="958"/>
   <tile gid="959"/>
   <tile gid="960"/>
   <tile gid="961"/>
   <tile gid="962"/>
   <tile gid="963"/>
   <tile gid="964"/>
   <tile gid="965"/>
   <tile gid="966"/>
   <tile gid="967"/>
   <tile gid="968"/>
   <tile gid="969"/>
   <tile gid="970"/>
   <tile gid="921"/>
   <tile gid="922"/>
   <tile gid="923"/>
   <tile gid="924"/>
   <tile gid="925"/>
   <tile gid="926"/>
   <tile gid="927"/>
   <tile gid="928"/>
   <tile gid="929"/>
   <tile gid="930"/>
   <tile gid="931"/>
   <tile gid="932"/>
   <tile gid="933"/>
   <tile gid="934"/>
   <tile gid="935"/>
   <tile gid="936"/>
   <tile gid="937"/>
   <tile gid="938"/>
   <tile gid="939"/>
   <tile gid="940"/>
   <tile gid="941"/>
   <tile gid="942"/>
   <tile gid="943"/>
   <tile gid="944"/>
   <tile gid="945"/>
   <tile gid="946"/>
   <tile gid="947"/>
   <tile gid="948"/>
   <tile gid="949"/>
   <tile gid="950"/>
   <tile gid="951"/>
   <tile gid="952"/>
   <tile gid="953"/>
   <tile gid="954"/>
   <tile gid="955"/>
   <tile gid="956"/>
   <tile gid="957"/>
   <tile gid="958"/>
   <tile gid="959"/>
   <tile gid="960"/>
   <tile gid="971"/>
   <tile gid="972"/>
   <tile gid="973"/>
   <tile gid="974"/>
   <tile gid="975"/>
   <tile gid="976"/>
   <tile gid="977"/>
   <tile gid="978"/>
   <tile gid="979"/>
   <tile gid="980"/>
   <tile gid="981"/>
   <tile gid="982"/>
   <tile gid="983"/>
   <tile gid="984"/>
   <tile gid="985"/>
   <tile gid="986"/>
   <tile gid="987"/>
   <tile gid="988"/>
   <tile gid="989"/>
   <tile gid="990"/>
   <tile gid="991"/>
   <tile gid="992"/>
   <tile gid="993"/>
   <tile gid="994"/>
   <tile gid="995"/>
   <tile gid="996"/>
   <tile gid="997"/>
   <tile gid="998"/>
   <tile gid="999"/>
   <tile gid="1000"/>
   <tile gid="1001"/>
   <tile gid="1002"/>
   <tile gid="1003"/>
   <tile gid="1004"/>
   <tile gid="1005"/>
   <tile gid="1006"/>
   <tile gid="1007"/>
   <tile gid="1008"/>
   <tile gid="1009"/>
   <tile gid="1010"/>
   <tile gid="1011"/>
   <tile gid="1012"/>
   <tile gid="1013"/>
   <tile gid="1014"/>
   <tile gid="1015"/>
   <tile gid="1016"/>
   <tile gid="1017"/>
   <tile gid="1018"/>
   <tile gid="1019"/>
   <tile gid="1020"/>
   <tile gid="971"/>
   <tile gid="972"/>
   <tile gid="973"/>
   <tile gid="974"/>
   <tile gid="975"/>
   <tile gid="976"/>
   <tile gid="977"/>
   <tile gid="978"/>
   <tile gid="979"/>
   <tile gid="980"/>
   <tile gid="981"/>
   <tile gid="982"/>
   <tile gid="983"/>
   <tile gid="984"/>
   <tile gid="985"/>
   <tile gid="986"/>
   <tile gid="987"/>
   <tile gid="988"/>
   <tile gid="989"/>
   <tile gid="990"/>
   <tile gid="991"/>
   <tile gid="992"/>
   <tile gid="993"/>
   <tile gid="994"/>
   <tile gid="995"/>
   <tile gid="996"/>
   <tile gid="997"/>
   <tile gid="998"/>
   <tile gid="999"/>
   <tile gid="1000"/>
   <tile gid="1001"/>
   <tile gid="1002"/>
   <tile gid="1003"/>
   <tile gid="1004"/>
   <tile gid="1005"/>
   <tile gid="1006"/>
   <tile gid="1007"/>
   <tile gid="1008"/>
   <tile gid="1009"/>
   <tile gid="1010"/>
   <tile gid="1021"/>
   <tile gid="1022"/>
   <tile gid="1023"/>
   <tile gid="1024"/>
   <tile gid="1025"/>
   <tile gid="1026"/>
   <tile gid="1027"/>
   <tile gid="1028"/>
   <tile gid="1029"/>
   <tile gid="1030"/>
   <tile gid="1031"/>
   <tile gid="1032"/>
   <tile gid="1033"/>
   <tile gid="1034"/>
   <tile gid="1035"/>
   <tile gid="1036"/>
   <tile gid="1037"/>
   <tile gid="1038"/>
   <tile gid="1039"/>
   <tile gid="1040"/>
   <tile gid="1041"/>
   <tile gid="1042"/>
   <tile gid="1043"/>
   <tile gid="1044"/>
   <tile gid="1045"/>
   <tile gid="1046"/>
   <tile gid="1047"/>
   <tile gid="1048"/>
   <tile gid="1049"/>
   <tile gid="1050"/>
   <tile gid="1051"/>
   <tile gid="1052"/>
   <tile gid="1053"/>
   <tile gid="1054"/>
   <tile gid="1055"/>
   <tile gid="1056"/>
   <tile gid="1057"/>
   <tile gid="1058"/>
   <tile gid="1059"/>
   <tile gid="1060"/>
   <tile gid="1061"/>
   <tile gid="1062"/>
   <tile gid="1063"/>
   <tile gid="1064"/>
   <tile gid="1065"/>
   <tile gid="1066"/>
   <tile gid="1067"/>
   <tile gid="1068"/>
   <tile gid="1069"/>
   <tile gid="1070"/>
   <tile gid="1021"/>
   <tile gid="1022"/>
   <tile gid="1023"/>
   <tile gid="1024"/>
   <tile gid="1025"/>
   <tile gid="1026"/>
   <tile gid="1027"/>
   <tile gid="1028"/>
   <tile gid="1029"/>
   <tile gid="1030"/>
   <tile gid="1031"/>
   <tile gid="1032"/>
   <tile gid="1033"/>
   <tile gid="1034"/>
   <tile gid="1035"/>
   <tile gid="1036"/>
   <tile gid="1037"/>
   <tile gid="1038"/>
   <tile gid="1039"/>
   <tile gid="1040"/>
   <tile gid="1041"/>
   <tile gid="1042"/>
   <tile gid="1043"/>
   <tile gid="1044"/>
   <tile gid="1045"/>
   <tile gid="1046"/>
   <tile gid="1047"/>
   <tile gid="1048"/>
   <tile gid="1049"/>
   <tile gid="1050"/>
   <tile gid="1051"/>
   <tile gid="1052"/>
   <tile gid="1053"/>
   <tile gid="1054"/>
   <tile gid="1055"/>
   <tile gid="1056"/>
   <tile gid="1057"/>
   <tile gid="1058"/>
   <tile gid="1059"/>
   <tile gid="1060"/>
   <tile gid="1071"/>
   <tile gid="1072"/>
   <tile gid="1073"/>
   <tile gid="1074"/>
   <tile gid="1075"/>
   <tile gid="1076"/>
   <tile gid="1077"/>
   <tile gid="1078"/>
   <tile gid="1079"/>
   <tile gid="1080"/>
   <tile gid="1081"/>
   <tile gid="1082"/>
   <tile gid="1083"/>
   <tile gid="1084"/>
   <tile gid="1085"/>
   <tile gid="1086"/>
   <tile gid="1087"/>
   <tile gid="1088"/>
   <tile gid="1089"/>
   <tile gid="1090"/>
   <tile gid="1091"/>
   <tile gid="1092"/>
   <tile gid="1093"/>
   <tile gid="1094"/>
   <tile gid="1095"/>
   <tile gid="1096"/>
   <tile gid="1097"/>
   <tile gid="1098"/>
   <tile gid="1099"/>
   <tile gid="1100"/>
   <tile gid="1101"/>
   <tile gid="1102"/>
   <tile gid="1103"/>
   <tile gid="1104"/>
   <tile gid="1105"/>
   <tile gid="1106"/>
   <tile gid="1107"/>
   <tile gid="1108"/>
   <tile gid="1109"/>
   <tile gid="1110"/>
   <tile gid="1111"/>
   <tile gid="1112"/>
   <tile gid="1113"/>
   <tile gid="1114"/>
   <tile gid="1115"/>
   <tile gid="1116"/>
   <tile gid="1117"/>
   <tile gid="1118"/>
   <tile gid="1119"/>
   <tile gid="1120"/>
   <tile gid="1071"/>
   <tile gid="1072"/>
   <tile gid="1073"/>
   <tile gid="1074"/>
   <tile gid="1075"/>
   <tile gid="1076"/>
   <tile gid="1077"/>
   <tile gid="1078"/>
   <tile gid="1079"/>
   <tile gid="1080"/>
   <tile gid="1081"/>
   <tile gid="1082"/>
   <tile gid="1083"/>
   <tile gid="1084"/>
   <tile gid="1085"/>
   <tile gid="1086"/>
   <tile gid="1087"/>
   <tile gid="1088"/>
   <tile gid="1089"/>
   <tile gid="1090"/>
   <tile gid="1091"/>
   <tile gid="1092"/>
   <tile gid="1093"/>
   <tile gid="1094"/>
   <tile gid="1095"/>
   <tile gid="1096"/>
   <tile gid="1097"/>
   <tile gid="1098"/>
   <tile gid="1099"/>
   <tile gid="1100"/>
   <tile gid="1101"/>
   <tile gid="1102"/>
   <tile gid="1103"/>
   <tile gid="1104"/>
   <tile gid="1105"/>
   <tile gid="1106"/>
   <tile gid="1107"/>
   <tile gid="1108"/>
   <tile gid="1109"/>
   <tile gid="1110"/>
   <tile gid="1121"/>
   <tile gid="1122"/>
   <tile gid="1123"/>
   <tile gid="1124"/>
   <tile gid="1125"/>
   <tile gid="1126"/>
   <tile gid="1127"/>
   <tile gid="1128"/>
   <tile gid="1129"/>
   <tile gid="1130"/>
   <tile gid="1131"/>
   <tile gid="1132"/>
   <tile gid="1133"/>
   <tile gid="1134"/>
   <tile gid="1135"/>
   <tile gid="1136"/>
   <tile gid="1137"/>
   <tile gid="1138"/>
   <tile gid="1139"/>
   <tile gid="1140"/>
   <tile gid="1141"/>
   <tile gid="1142"/>
   <tile gid="1143"/>
   <tile gid="1144"/>
   <tile gid="1145"/>
   <tile gid="1146"/>
   <tile gid="1147"/>
   <tile gid="1148"/>
   <tile gid="1149"/>
   <tile gid="1150"/>
   <tile gid="1151"/>
   <tile gid="1152"/>
   <tile gid="1153"/>
   <tile gid="1154"/>
   <tile gid="1155"/>
   <tile gid="1156"/>
   <tile gid="1157"/>
   <tile gid="1158"/>
   <tile gid="1159"/>
   <tile gid="1160"/>
   <tile gid="1161"/>
   <tile gid="1162"/>
   <tile gid="1163"/>
   <tile gid="1164"/>
   <tile gid="1165"/>
   <tile gid="1166"/>
   <tile gid="1167"/>
   <tile gid="1168"/>
   <tile gid="1169"/>
   <tile gid="1170"/>
   <tile gid="1121"/>
   <tile gid="1122"/>
   <tile gid="1123"/>
   <tile gid="1124"/>
   <tile gid="1125"/>
   <tile gid="1126"/>
   <tile gid="1127"/>
   <tile gid="1128"/>
   <tile gid="1129"/>
   <tile gid="1130"/>
   <tile gid="1131"/>
   <tile gid="1132"/>
   <tile gid="1133"/>
   <tile gid="1134"/>
   <tile gid="1135"/>
   <tile gid="1136"/>
   <tile gid="1137"/>
   <tile gid="1138"/>
   <tile gid="1139"/>
   <tile gid="1140"/>
   <tile gid="1141"/>
   <tile gid="1142"/>
   <tile gid="1143"/>
   <tile gid="1144"/>
   <tile gid="1145"/>
   <tile gid="1146"/>
   <tile gid="1147"/>
   <tile gid="1148"/>
   <tile gid="1149"/>
   <tile gid="1150"/>
   <tile gid="1151"/>
   <tile gid="1152"/>
   <tile gid="1153"/>
   <tile gid="1154"/>
   <tile gid="1155"/>
   <tile gid="1156"/>
   <tile gid="1157"/>
   <tile gid="1158"/>
   <tile gid="1159"/>
   <tile gid="1160"/>
   <tile gid="1171"/>
   <tile gid="1172"/>
   <tile gid="1173"/>
   <tile gid="1174"/>
   <tile gid="1175"/>
   <tile gid="1176"/>
   <tile gid="1177"/>
   <tile gid="1178"/>
   <tile gid="1179"/>
   <tile gid="1180"/>
   <tile gid="1181"/>
   <tile gid="1182"/>
   <tile gid="1183"/>
   <tile gid="1184"/>
   <tile gid="1185"/>
   <tile gid="1186"/>
   <tile gid="1187"/>
   <tile gid="1188"/>
   <tile gid="1189"/>
   <tile gid="1190"/>
   <tile gid="1191"/>
   <tile gid="1192"/>
   <tile gid="1193"/>
   <tile gid="1194"/>
   <tile gid="1195"/>
   <tile gid="1196"/>
   <tile gid="1197"/>
   <tile gid="1198"/>
   <tile gid="1199"/>
   <tile gid="1200"/>
   <tile gid="1201"/>
   <tile gid="1202"/>
   <tile gid="1203"/>
   <tile gid="1204"/>
   <tile gid="1205"/>
   <tile gid="1206"/>
   <tile gid="1207"/>
   <tile gid="1208"/>
   <tile gid="1209"/>
   <tile gid="1210"/>
   <tile gid="1211"/>
   <tile gid="1212"/>
   <tile gid="1213"/>
   <tile gid="1214"/>
   <tile gid="1215"/>
   <tile gid="1216"/>
   <tile gid="1217"/>
   <tile gid="1218"/>
   <tile gid="1219"/>
   <tile gid="1220"/>
   <tile gid="1171"/>
   <tile gid="1172"/>
   <tile gid="1173"/>
   <tile gid="1174"/>
   <tile gid="1175"/>
   <tile gid="1176"/>
   <tile gid="1177"/>
   <tile gid="1178"/>
   <tile gid="1179"/>
   <tile gid="1180"/>
   <tile gid="1181"/>
   <tile gid="1182"/>
   <tile gid="1183"/>
   <tile gid="1184"/>
   <tile gid="1185"/>
   <tile gid="1186"/>
   <tile gid="1187"/>
   <tile gid="1188"/>
   <tile gid="1189"/>
   <tile gid="1190"/>
   <tile gid="1191"/>
   <tile gid="1192"/>
   <tile gid="1193"/>
   <tile gid="1194"/>
   <tile gid="1195"/>
   <tile gid="1196"/>
   <tile gid="1197"/>
   <tile gid="1198"/>
   <tile gid="1199"/>
   <tile gid="1200"/>
   <tile gid="1201"/>
   <tile gid="1202"/>
   <tile gid="1203"/>
   <tile gid="1204"/>
   <tile gid="1205"/>
   <tile gid="1206"/>
   <tile gid="1207"/>
   <tile gid="1208"/>
   <tile gid="1209"/>
   <tile gid="1210"/>
   <tile gid="1221"/>
   <tile gid="1222"/>
   <tile gid="1223"/>
   <tile gid="1224"/>
   <tile gid="1225"/>
   <tile gid="1226"/>
   <tile gid="1227"/>
   <tile gid="1228"/>
   <tile gid="1229"/>
   <tile gid="1230"/>
   <tile gid="1231"/>
   <tile gid="1232"/>
   <tile gid="1233"/>
   <tile gid="1234"/>
   <tile gid="1235"/>
   <tile gid="1236"/>
   <tile gid="1237"/>
   <tile gid="1238"/>
   <tile gid="1239"/>
   <tile gid="1240"/>
   <tile gid="1241"/>
   <tile gid="1242"/>
   <tile gid="1243"/>
   <tile gid="1244"/>
   <tile gid="1245"/>
   <tile gid="1246"/>
   <tile gid="1247"/>
   <tile gid="1248"/>
   <tile gid="1249"/>
   <tile gid="1250"/>
   <tile gid="1251"/>
   <tile gid="1252"/>
   <tile gid="1253"/>
   <tile gid="1254"/>
   <tile gid="1255"/>
   <tile gid="1256"/>
   <tile gid="1257"/>
   <tile gid="1258"/>
   <tile gid="1259"/>
   <tile gid="1260"/>
   <tile gid="1261"/>
   <tile gid="1262"/>
   <tile gid="1263"/>
   <tile gid="1264"/>
   <tile gid="1265"/>
   <tile gid="1266"/>
   <tile gid="1267"/>
   <tile gid="1268"/>
   <tile gid="1269"/>
   <tile gid="1270"/>
   <tile gid="1221"/>
   <tile gid="1222"/>
   <tile gid="1223"/>
   <tile gid="1224"/>
   <tile gid="1225"/>
   <tile gid="1226"/>
   <tile gid="1227"/>
   <tile gid="1228"/>
   <tile gid="1229"/>
   <tile gid="1230"/>
   <tile gid="1231"/>
   <tile gid="1232"/>
   <tile gid="1233"/>
   <tile gid="1234"/>
   <tile gid="1235"/>
   <tile gid="1236"/>
   <tile gid="1237"/>
   <tile gid="1238"/>
   <tile gid="1239"/>
   <tile gid="1240"/>
   <tile gid="1241"/>
   <tile gid="1242"/>
   <tile gid="1243"/>
   <tile gid="1244"/>
   <tile gid="1245"/>
   <tile gid="1246"/>
   <tile gid="1247"/>
   <tile gid="1248"/>
   <tile gid="1249"/>
   <tile gid="1250"/>
   <tile gid="1251"/>
   <tile gid="1252"/>
   <tile gid="1253"/>
   <tile gid="1254"/>
   <tile gid="1255"/>
   <tile gid="1256"/>
   <tile gid="1257"/>
   <tile gid="1258"/>
   <tile gid="1259"/>
   <tile gid="1260"/>
   <tile gid="1271"/>
   <tile gid="1272"/>
   <tile gid="1273"/>
   <tile gid="1274"/>
   <tile gid="1275"/>
   <tile gid="1276"/>
   <tile gid="1277"/>
   <tile gid="1278"/>
   <tile gid="1279"/>
   <tile gid="1280"/>
   <tile gid="1281"/>
   <tile gid="1282"/>
   <tile gid="1283"/>
   <tile gid="1284"/>
   <tile gid="1285"/>
   <tile gid="1286"/>
   <tile gid="1287"/>
   <tile gid="1288"/>
   <tile gid="1289"/>
   <tile gid="1290"/>
   <tile gid="1291"/>
   <tile gid="1292"/>
   <tile gid="1293"/>
   <tile gid="1294"/>
   <tile gid="1295"/>
   <tile gid="1296"/>
   <tile gid="1297"/>
   <tile gid="1298"/>
   <tile gid="1299"/>
   <tile gid="1300"/>
   <tile gid="1301"/>
   <tile gid="1302"/>
   <tile gid="1303"/>
   <tile gid="1304"/>
   <tile gid="1305"/>
   <tile gid="1306"/>
   <tile gid="1307"/>
   <tile gid="1308"/>
   <tile gid="1309"/>
   <tile gid="1310"/>
   <tile gid="1311"/>
   <tile gid="1312"/>
   <tile gid="1313"/>
   <tile gid="1314"/>
   <tile gid="1315"/>
   <tile gid="1316"/>
   <tile gid="1317"/>
   <tile gid="1318"/>
   <tile gid="1319"/>
   <tile gid="1320"/>
   <tile gid="1271"/>
   <tile gid="1272"/>
   <tile gid="1273"/>
   <tile gid="1274"/>
   <tile gid="1275"/>
   <tile gid="1276"/>
   <tile gid="1277"/>
   <tile gid="1278"/>
   <tile gid="1279"/>
   <tile gid="1280"/>
   <tile gid="1281"/>
   <tile gid="1282"/>
   <tile gid="1283"/>
   <tile gid="1284"/>
   <tile gid="1285"/>
   <tile gid="1286"/>
   <tile gid="1287"/>
   <tile gid="1288"/>
   <tile gid="1289"/>
   <tile gid="1290"/>
   <tile gid="1291"/>
   <tile gid="1292"/>
   <tile gid="1293"/>
   <tile gid="1294"/>
   <tile gid="1295"/>
   <tile gid="1296"/>
   <tile gid="1297"/>
   <tile gid="1298"/>
   <tile gid="1299"/>
   <tile gid="1300"/>
   <tile gid="1301"/>
   <tile gid="1302"/>
   <tile gid="1303"/>
   <tile gid="1304"/>
   <tile gid="1305"/>
   <tile gid="1306"/>
   <tile gid="1307"/>
   <tile gid="1308"/>
   <tile gid="1309"/>
   <tile gid="1310"/>
   <tile gid="1321"/>
   <tile gid="1322"/>
   <tile gid="1323"/>
   <tile gid="1324"/>
   <tile gid="1325"/>
   <tile gid="1326"/>
   <tile gid="1327"/>
   <tile gid="1328"/>
   <tile gid="1329"/>
   <tile gid="1330"/>
   <tile gid="1331"/>
   <tile gid="1332"/>
   <tile gid="1333"/>
   <tile gid="1334"/>
   <tile gid="1335"/>
   <tile gid="1336"/>
   <tile gid="1337"/>
   <tile gid="1338"/>
   <tile gid="1339"/>
   <tile gid="1340"/>
   <tile gid="1341"/>
   <tile gid="1342"/>
   <tile gid="1343"/>
   <tile gid="1344"/>
   <tile gid="1345"/>
   <tile gid="1346"/>
   <tile gid="1347"/>
   <tile gid="1348"/>
   <tile gid="1349"/>
   <tile gid="1350"/>
   <tile gid="1351"/>
   <tile gid="1352"/>
   <tile gid="1353"/>
   <tile gid="1354"/>
   <tile gid="1355"/>
   <tile gid="1356"/>
   <tile gid="1357"/>
   <tile gid="1358"/>
   <tile gid="1359"/>
   <tile gid="1360"/>
   <tile gid="1361"/>
   <tile gid="1362"/>
   <tile gid="1363"/>
   <tile gid="1364"/>
   <tile gid="1365"/>
   <tile gid="1366"/>
   <tile gid="1367"/>
   <tile gid="1368"/>
   <tile gid="1369"/>
   <tile gid="1370"/>
   <tile gid="1321"/>
   <tile gid="1322"/>
   <tile gid="1323"/>
   <tile gid="1324"/>
   <tile gid="1325"/>
   <tile gid="1326"/>
   <tile gid="1327"/>
   <tile gid="1328"/>
   <tile gid="1329"/>
   <tile gid="1330"/>
   <tile gid="1331"/>
   <tile gid="1332"/>
   <tile gid="1333"/>
   <tile gid="1334"/>
   <tile gid="1335"/>
   <tile gid="1336"/>
   <tile gid="1337"/>
   <tile gid="1338"/>
   <tile gid="1339"/>
   <tile gid="1340"/>
   <tile gid="1341"/>
   <tile gid="1342"/>
   <tile gid="1343"/>
   <tile gid="1344"/>
   <tile gid="1345"/>
   <tile gid="1346"/>
   <tile gid="1347"/>
   <tile gid="1348"/>
   <tile gid="1349"/>
   <tile gid="1350"/>
   <tile gid="1351"/>
   <tile gid="1352"/>
   <tile gid="1353"/>
   <tile gid="1354"/>
   <tile gid="1355"/>
   <tile gid="1356"/>
   <tile gid="1357"/>
   <tile gid="1358"/>
   <tile gid="1359"/>
   <tile gid="1360"/>
   <tile gid="1371"/>
   <tile gid="1372"/>
   <tile gid="1373"/>
   <tile gid="1374"/>
   <tile gid="1375"/>
   <tile gid="1376"/>
   <tile gid="1377"/>
   <tile gid="1378"/>
   <tile gid="1379"/>
   <tile gid="1380"/>
   <tile gid="1381"/>
   <tile gid="1382"/>
   <tile gid="1383"/>
   <tile gid="1384"/>
   <tile gid="1385"/>
   <tile gid="1386"/>
   <tile gid="1387"/>
   <tile gid="1388"/>
   <tile gid="1389"/>
   <tile gid="1390"/>
   <tile gid="1391"/>
   <tile gid="1392"/>
   <tile gid="1393"/>
   <tile gid="1394"/>
   <tile gid="1395"/>
   <tile gid="1396"/>
   <tile gid="1397"/>
   <tile gid="1398"/>
   <tile gid="1399"/>
   <tile gid="1400"/>
   <tile gid="1401"/>
   <tile gid="1402"/>
   <tile gid="1403"/>
   <tile gid="1404"/>
   <tile gid="1405"/>
   <tile gid="1406"/>
   <tile gid="1407"/>
   <tile gid="1408"/>
   <tile gid="1409"/>
   <tile gid="1410"/>
   <tile gid="1411"/>
   <tile gid="1412"/>
   <tile gid="1413"/>
   <tile gid="1414"/>
   <tile gid="1415"/>
   <tile gid="1416"/>
   <tile gid="1417"/>
   <tile gid="1418"/>
   <tile gid="1419"/>
   <tile gid="1420"/>
   <tile gid="1371"/>
   <tile gid="1372"/>
   <tile gid="1373"/>
   <tile gid="1374"/>
   <tile gid="1375"/>
   <tile gid="1376"/>
   <tile gid="1377"/>
   <tile gid="1378"/>
   <tile gid="1379"/>
   <tile gid="1380"/>
   <tile gid="1381"/>
   <tile gid="1382"/>
   <tile gid="1383"/>
   <tile gid="1384"/>
   <tile gid="1385"/>
   <tile gid="1386"/>
   <tile gid="1387"/>
   <tile gid="1388"/>
   <tile gid="1389"/>
   <tile gid="1390"/>
   <tile gid="1391"/>
   <tile gid="1392"/>
   <tile gid="1393"/>
   <tile gid="1394"/>
   <tile gid="1395"/>
   <tile gid="1396"/>
   <tile gid="1397"/>
   <tile gid="1398"/>
   <tile gid="1399"/>
   <tile gid="1400"/>
   <tile gid="1401"/>
   <tile gid="1402"/>
   <tile gid="1403"/>
   <tile gid="1404"/>
   <tile gid="1405"/>
   <tile gid="1406"/>
   <tile gid="1407"/>
   <tile gid="1408"/>
   <tile gid="1409"/>
   <tile gid="1410"/>
   <tile gid="1421"/>
   <tile gid="1422"/>
   <tile gid="1423"/>
   <tile gid="1424"/>
   <tile gid="1425"/>
   <tile gid="1426"/>
   <tile gid="1427"/>
   <tile gid="1428"/>
   <tile gid="1429"/>
   <tile gid="1430"/>
   <tile gid="1431"/>
   <tile gid="1432"/>
   <tile gid="1433"/>
   <tile gid="1434"/>
   <tile gid="1435"/>
   <tile gid="1436"/>
   <tile gid="1437"/>
   <tile gid="1438"/>
   <tile gid="1439"/>
   <tile gid="1440"/>
   <tile gid="1441"/>
   <tile gid="1442"/>
   <tile gid="1443"/>
   <tile gid="1444"/>
   <tile gid="1445"/>
   <tile gid="1446"/>
   <tile gid="1447"/>
   <tile gid="1448"/>
   <tile gid="1449"/>
   <tile gid="1450"/>
   <tile gid="1451"/>
   <tile gid="1452"/>
   <tile gid="1453"/>
   <tile gid="1454"/>
   <tile gid="1455"/>
   <tile gid="1456"/>
   <tile gid="1457"/>
   <tile gid="1458"/>
   <tile gid="1459"/>
   <tile gid="1460"/>
   <tile gid="1461"/>
   <tile gid="1462"/>
   <tile gid="1463"/>
   <tile gid="1464"/>
   <tile gid="1465"/>
   <tile gid="1466"/>
   <tile gid="1467"/>
   <tile gid="1468"/>
   <tile gid="1469"/>
   <tile gid="1470"/>
   <tile gid="1421"/>
   <tile gid="1422"/>
   <tile gid="1423"/>
   <tile gid="1424"/>
   <tile gid="1425"/>
   <tile gid="1426"/>
   <tile gid="1427"/>
   <tile gid="1428"/>
   <tile gid="1429"/>
   <tile gid="1430"/>
   <tile gid="1431"/>
   <tile gid="1432"/>
   <tile gid="1433"/>
   <tile gid="1434"/>
   <tile gid="1435"/>
   <tile gid="1436"/>
   <tile gid="1437"/>
   <tile gid="1438"/>
   <tile gid="1439"/>
   <tile gid="1440"/>
   <tile gid="1441"/>
   <tile gid="1442"/>
   <tile gid="1443"/>
   <tile gid="1444"/>
   <tile gid="1445"/>
   <tile gid="1446"/>
   <tile gid="1447"/>
   <tile gid="1448"/>
   <tile gid="1449"/>
   <tile gid="1450"/>
   <tile gid="1451"/>
   <tile gid="1452"/>
   <tile gid="1453"/>
   <tile gid="1454"/>
   <tile gid="1455"/>
   <tile gid="1456"/>
   <tile gid="1457"/>
   <tile gid="1458"/>
   <tile gid="1459"/>
   <tile gid="1460"/>
   <tile gid="1471"/>
   <tile gid="1472"/>
   <tile gid="1473"/>
   <tile gid="1474"/>
   <tile gid="1475"/>
   <tile gid="1476"/>
   <tile gid="1477"/>
   <tile gid="1478"/>
   <tile gid="1479"/>
   <tile gid="1480"/>
   <tile gid="1481"/>
   <tile gid="1482"/>
   <tile gid="1483"/>
   <tile gid="1484"/>
   <tile gid="1485"/>
   <tile gid="1486"/>
   <tile gid="1487"/>
   <tile gid="1488"/>
   <tile gid="1489"/>
   <tile gid="1490"/>
   <tile gid="1491"/>
   <tile gid="1492"/>
   <tile gid="1493"/>
   <tile gid="1494"/>
   <tile gid="1495"/>
   <tile gid="1496"/>
   <tile gid="1497"/>
   <tile gid="1498"/>
   <tile gid="1499"/>
   <tile gid="1500"/>
   <tile gid="1501"/>
   <tile gid="1502"/>
   <tile gid="1503"/>
   <tile gid="1504"/>
   <tile gid="1505"/>
   <tile gid="1506"/>
   <tile gid="1507"/>
   <tile gid="1508"/>
   <tile gid="1509"/>
   <tile gid="1510"/>
   <tile gid="1511"/>
   <tile gid="1512"/>
   <tile gid="1513"/>
   <tile gid="1514"/>
   <tile gid="1515"/>
   <tile gid="1516"/>
   <tile gid="1517"/>
   <tile gid="1518"/>
   <tile gid="1519"/>
   <tile gid="1520"/>
   <tile gid="1471"/>
   <tile gid="1472"/>
   <tile gid="1473"/>
   <tile gid="1474"/>
   <tile gid="1475"/>
   <tile gid="1476"/>
   <tile gid="1477"/>
   <tile gid="1478"/>
   <tile gid="1479"/>
   <tile gid="1480"/>
   <tile gid="1481"/>
   <tile gid="1482"/>
   <tile gid="1483"/>
   <tile gid="1484"/>
   <tile gid="1485"/>
   <tile gid="1486"/>
   <tile gid="1487"/>
   <tile gid="1488"/>
   <tile gid="1489"/>
   <tile gid="1490"/>
   <tile gid="1491"/>
   <tile gid="1492"/>
   <tile gid="1493"/>
   <tile gid="1494"/>
   <tile gid="1495"/>
   <tile gid="1496"/>
   <tile gid="1497"/>
   <tile gid="1498"/>
   <tile gid="1499"/>
   <tile gid="1500"/>
   <tile gid="1501"/>
   <tile gid="1502"/>
   <tile gid="1503"/>
   <tile gid="1504"/>
   <tile gid="1505"/>
   <tile gid="1506"/>
   <tile gid="1507"/>
   <tile gid="1508"/>
   <tile gid="1509"/>
   <tile gid="1510"/>
   <tile gid="1521"/>
   <tile gid="1522"/>
   <tile gid="1523"/>
   <tile gid="1524"/>
   <tile gid="1525"/>
   <tile gid="1526"/>
   <tile gid="1527"/>
   <tile gid="1528"/>
   <tile gid="1529"/>
   <tile gid="1530"/>
   <tile gid="1531"/>
   <tile gid="1532"/>
   <tile gid="1533"/>
   <tile gid="1534"/>
   <tile gid="1535"/>
   <tile gid="1536"/>
   <tile gid="1537"/>
   <tile gid="1538"/>
   <tile gid="1539"/>
   <tile gid="1540"/>
   <tile gid="1541"/>
   <tile gid="1542"/>
   <tile gid="1543"/>
   <tile gid="1544"/>
   <tile gid="1545"/>
   <tile gid="1546"/>
   <tile gid="1547"/>
   <tile gid="1548"/>
   <tile gid="1549"/>
   <tile gid="1550"/>
   <tile gid="1551"/>
   <tile gid="1552"/>
   <tile gid="1553"/>
   <tile gid="1554"/>
   <tile gid="1555"/>
   <tile gid="1556"/>
   <tile gid="1557"/>
   <tile gid="1558"/>
   <tile gid="1559"/>
   <tile gid="1560"/>
   <tile gid="1561"/>
   <tile gid="1562"/>
   <tile gid="1563"/>
   <tile gid="1564"/>
   <tile gid="1565"/>
   <tile gid="1566"/>
   <tile gid="1567"/>
   <tile gid="1568"/>
   <tile gid="1569"/>
   <tile gid="1570"/>
   <tile gid="1521"/>
   <tile gid="1522"/>
   <tile gid="1523"/>
   <tile gid="1524"/>
   <tile gid="1525"/>
   <tile gid="1526"/>
   <tile gid="1527"/>
   <tile gid="1528"/>
   <tile gid="1529"/>
   <tile gid="1530"/>
   <tile gid="1531"/>
   <tile gid="1532"/>
   <tile gid="1533"/>
   <tile gid="1534"/>
   <tile gid="1535"/>
   <tile gid="1536"/>
   <tile gid="1537"/>
   <tile gid="1538"/>
   <tile gid="1539"/>
   <tile gid="1540"/>
   <tile gid="1541"/>
   <tile gid="1542"/>
   <tile gid="1543"/>
   <tile gid="1544"/>
   <tile gid="1545"/>
   <tile gid="1546"/>
   <tile gid="1547"/>
   <tile gid="1548"/>
   <tile gid="1549"/>
   <tile gid="1550"/>
   <tile gid="1551"/>
   <tile gid="1552"/>
   <tile gid="1553"/>
   <tile gid="1554"/>
   <tile gid="1555"/>
   <tile gid="1556"/>
   <tile gid="1557"/>
   <tile gid="1558"/>
   <tile gid="1559"/>
   <tile gid="1560"/>
   <tile gid="1571"/>
   <tile gid="1572"/>
   <tile gid="1573"/>
   <tile gid="1574"/>
   <tile gid="1575"/>
   <tile gid="1576"/>
   <tile gid="1577"/>
   <tile gid="1578"/>
   <tile gid="1579"/>
   <tile gid="1580"/>
   <tile gid="1581"/>
   <tile gid="1582"/>
   <tile gid="1583"/>
   <tile gid="1584"/>
   <tile gid="1585"/>
   <tile gid="1586"/>
   <tile gid="1587"/>
   <tile gid="1588"/>
   <tile gid="1589"/>
   <tile gid="1590"/>
   <tile gid="1591"/>
   <tile gid="1592"/>
   <tile gid="1593"/>
   <tile gid="1594"/>
   <tile gid="1595"/>
   <tile gid="1596"/>
   <tile gid="1597"/>
   <tile gid="1598"/>
   <tile gid="1599"/>
   <tile gid="1600"/>
   <tile gid="1601"/>
   <tile gid="1602"/>
   <tile gid="1603"/>
   <tile gid="1604"/>
   <tile gid="1605"/>
   <tile gid="1606"/>
   <tile gid="1607"/>
   <tile gid="1608"/>
   <tile gid="1609"/>
   <tile gid="1610"/>
   <tile gid="1611"/>
   <tile gid="1612"/>
   <tile gid="1613"/>
   <tile gid="1614"/>
   <tile gid="1615"/>
   <tile gid="1616"/>
   <tile gid="1617"/>
   <tile gid="1618"/>
   <tile gid="1619"/>
   <tile gid="1620"/>
   <tile gid="1571"/>
   <tile gid="1572"/>
   <tile gid="1573"/>
   <tile gid="1574"/>
   <tile gid="1575"/>
   <tile gid="1576"/>
   <tile gid="1577"/>
   <tile gid="1578"/>
   <tile gid="1579"/>
   <tile gid="1580"/>
   <tile gid="1581"/>
   <tile gid="1582"/>
   <tile gid="1583"/>
   <tile gid="1584"/>
   <tile gid="1585"/>
   <tile gid="1586"/>
   <tile gid="1587"/>
   <tile gid="1588"/>
   <tile gid="1589"/>
   <tile gid="1590"/>
   <tile gid="1591"/>
   <tile gid="1592"/>
   <tile gid="1593"/>
   <tile gid="1594"/>
   <tile gid="1595"/>
   <tile gid="1596"/>
   <tile gid="1597"/>
   <tile gid="1598"/>
   <tile gid="1599"/>
   <tile gid="1600"/>
   <tile gid="1601"/>
   <tile gid="1602"/>
   <tile gid="1603"/>
   <tile gid="1604"/>
   <tile gid="1605"/>
   <tile gid="1606"/>
   <tile gid="1607"/>
   <tile gid="1608"/>
   <tile gid="1609"/>
   <tile gid="1610"/>
   <tile gid="1621"/>
   <tile gid="1622"/>
   <tile gid="1623"/>
   <tile gid="1624"/>
   <tile gid="1625"/>
   <tile gid="1626"/>
   <tile gid="1627"/>
   <tile gid="1628"/>
   <tile gid="1629"/>
   <tile gid="1630"/>
   <tile gid="1631"/>
   <tile gid="1632"/>
   <tile gid="1633"/>
   <tile gid="1634"/>
   <tile gid="1635"/>
   <tile gid="1636"/>
   <tile gid="1637"/>
   <tile gid="1638"/>
   <tile gid="1639"/>
   <tile gid="1640"/>
   <tile gid="1641"/>
   <tile gid="1642"/>
   <tile gid="1643"/>
   <tile gid="1644"/>
   <tile gid="1645"/>
   <tile gid="1646"/>
   <tile gid="1647"/>
   <tile gid="1648"/>
   <tile gid="1649"/>
   <tile gid="1650"/>
   <tile gid="1651"/>
   <tile gid="1652"/>
   <tile gid="1653"/>
   <tile gid="1654"/>
   <tile gid="1655"/>
   <tile gid="1656"/>
   <tile gid="1657"/>
   <tile gid="1658"/>
   <tile gid="1659"/>
   <tile gid="1660"/>
   <tile gid="1661"/>
   <tile gid="1662"/>
   <tile gid="1663"/>
   <tile gid="1664"/>
   <tile gid="1665"/>
   <tile gid="1666"/>
   <tile gid="1667"/>
   <tile gid="1668"/>
   <tile gid="1669"/>
   <tile gid="1670"/>
   <tile gid="1621"/>
   <tile gid="1622"/>
   <tile gid="1623"/>
   <tile gid="1624"/>
   <tile gid="1625"/>
   <tile gid="1626"/>
   <tile gid="1627"/>
   <tile gid="1628"/>
   <tile gid="1629"/>
   <tile gid="1630"/>
   <tile gid="1631"/>
   <tile gid="1632"/>
   <tile gid="1633"/>
   <tile gid="1634"/>
   <tile gid="1635"/>
   <tile gid="1636"/>
   <tile gid="1637"/>
   <tile gid="1638"/>
   <tile gid="1639"/>
   <tile gid="1640"/>
   <tile gid="1641"/>
   <tile gid="1642"/>
   <tile gid="1643"/>
   <tile gid="1644"/>
   <tile gid="1645"/>
   <tile gid="1646"/>
   <tile gid="1647"/>
   <tile gid="1648"/>
   <tile gid="1649"/>
   <tile gid="1650"/>
   <tile gid="1651"/>
   <tile gid="1652"/>
   <tile gid="1653"/>
   <tile gid="1654"/>
   <tile gid="1655"/>
   <tile gid="1656"/>
   <tile gid="1657"/>
   <tile gid="1658"/>
   <tile gid="1659"/>
   <tile gid="1660"/>
   <tile gid="1671"/>
   <tile gid="1672"/>
   <tile gid="1673"/>
   <tile gid="1674"/>
   <tile gid="1675"/>
   <tile gid="1676"/>
   <tile gid="1677"/>
   <tile gid="1678"/>
   <tile gid="1679"/>
   <tile gid="1680"/>
   <tile gid="1681"/>
   <tile gid="1682"/>
   <tile gid="1683"/>
   <tile gid="1684"/>
   <tile gid="1685"/>
   <tile gid="1686"/>
   <tile gid="1687"/>
   <tile gid="1688"/>
   <tile gid="1689"/>
   <tile gid="1690"/>
   <tile gid="1691"/>
   <tile gid="1692"/>
   <tile gid="1693"/>
   <tile gid="1694"/>
   <tile gid="1695"/>
   <tile gid="1696"/>
   <tile gid="1697"/>
   <tile gid="1698"/>
   <tile gid="1699"/>
   <tile gid="1700"/>
   <tile gid="1701"/>
   <tile gid="1702"/>
   <tile gid="1703"/>
   <tile gid="1704"/>
   <tile gid="1705"/>
   <tile gid="1706"/>
   <tile gid="1707"/>
   <tile gid="1708"/>
   <tile gid="1709"/>
   <tile gid="1710"/>
   <tile gid="1711"/>
   <tile gid="1712"/>
   <tile gid="1713"/>
   <tile gid="1714"/>
   <tile gid="1715"/>
   <tile gid="1716"/>
   <tile gid="1717"/>
   <tile gid="1718"/>
   <tile gid="1719"/>
   <tile gid="1720"/>
   <tile gid="1671"/>
   <tile gid="1672"/>
   <tile gid="1673"/>
   <tile gid="1674"/>
   <tile gid="1675"/>
   <tile gid="1676"/>
   <tile gid="1677"/>
   <tile gid="1678"/>
   <tile gid="1679"/>
   <tile gid="1680"/>
   <tile gid="1681"/>
   <tile gid="1682"/>
   <tile gid="1683"/>
   <tile gid="1684"/>
   <tile gid="1685"/>
   <tile gid="1686"/>
   <tile gid="1687"/>
   <tile gid="1688"/>
   <tile gid="1689"/>
   <tile gid="1690"/>
   <tile gid="1691"/>
   <tile gid="1692"/>
   <tile gid="1693"/>
   <tile gid="1694"/>
   <tile gid="1695"/>
   <tile gid="1696"/>
   <tile gid="1697"/>
   <tile gid="1698"/>
   <tile gid="1699"/>
   <tile gid="1700"/>
   <tile gid="1701"/>
   <tile gid="1702"/>
   <tile gid="1703"/>
   <tile gid="1704"/>
   <tile gid="1705"/>
   <tile gid="1706"/>
   <tile gid="1707"/>
   <tile gid="1708"/>
   <tile gid="1709"/>
   <tile gid="1710"/>
   <tile gid="1721"/>
   <tile gid="1722"/>
   <tile gid="1723"/>
   <tile gid="1724"/>
   <tile gid="1725"/>
   <tile gid="1726"/>
   <tile gid="1727"/>
   <tile gid="1728"/>
   <tile gid="1729"/>
   <tile gid="1730"/>
   <tile gid="1731"/>
   <tile gid="1732"/>
   <tile gid="1733"/>
   <tile gid="1734"/>
   <tile gid="1735"/>
   <tile gid="1736"/>
   <tile gid="1737"/>
   <tile gid="1738"/>
   <tile gid="1739"/>
   <tile gid="1740"/>
   <tile gid="1741"/>
   <tile gid="1742"/>
   <tile gid="1743"/>
   <tile gid="1744"/>
   <tile gid="1745"/>
   <tile gid="1746"/>
   <tile gid="1747"/>
   <tile gid="1748"/>
   <tile gid="1749"/>
   <tile gid="1750"/>
   <tile gid="1751"/>
   <tile gid="1752"/>
   <tile gid="1753"/>
   <tile gid="1754"/>
   <tile gid="1755"/>
   <tile gid="1756"/>
   <tile gid="1757"/>
   <tile gid="1758"/>
   <tile gid="1759"/>
   <tile gid="1760"/>
   <tile gid="1761"/>
   <tile gid="1762"/>
   <tile gid="1763"/>
   <tile gid="1764"/>
   <tile gid="1765"/>
   <tile gid="1766"/>
   <tile gid="1767"/>
   <tile gid="1768"/>
   <tile gid="1769"/>
   <tile gid="1770"/>
   <tile gid="1721"/>
   <tile gid="1722"/>
   <tile gid="1723"/>
   <tile gid="1724"/>
   <tile gid="1725"/>
   <tile gid="1726"/>
   <tile gid="1727"/>
   <tile gid="1728"/>
   <tile gid="1729"/>
   <tile gid="1730"/>
   <tile gid="1731"/>
   <tile gid="1732"/>
   <tile gid="1733"/>
   <tile gid="1734"/>
   <tile gid="1735"/>
   <tile gid="1736"/>
   <tile gid="1737"/>
   <tile gid="1738"/>
   <tile gid="1739"/>
   <tile gid="1740"/>
   <tile gid="1741"/>
   <tile gid="1742"/>
   <tile gid="1743"/>
   <tile gid="1744"/>
   <tile gid="1745"/>
   <tile gid="1746"/>
   <tile gid="1747"/>
   <tile gid="1748"/>
   <tile gid="1749"/>
   <tile gid="1750"/>
   <tile gid="1751"/>
   <tile gid="1752"/>
   <tile gid="1753"/>
   <tile gid="1754"/>
   <tile gid="1755"/>
   <tile gid="1756"/>
   <tile gid="1757"/>
   <tile gid="1758"/>
   <tile gid="1759"/>
   <tile gid="1760"/>
   <tile gid="1771"/>
   <tile gid="1772"/>
   <tile gid="1773"/>
   <tile gid="1774"/>
   <tile gid="1775"/>
   <tile gid="1776"/>
   <tile gid="1777"/>
   <tile gid="1778"/>
   <tile gid="1779"/>
   <tile gid="1780"/>
   <tile gid="1781"/>
   <tile gid="1782"/>
   <tile gid="1783"/>
   <tile gid="1784"/>
   <tile gid="1785"/>
   <tile gid="1786"/>
   <tile gid="1787"/>
   <tile gid="1788"/>
   <tile gid="1789"/>
   <tile gid="1790"/>
   <tile gid="1791"/>
   <tile gid="1792"/>
   <tile gid="1793"/>
   <tile gid="1794"/>
   <tile gid="1795"/>
   <tile gid="1796"/>
   <tile gid="1797"/>
   <tile gid="1798"/>
   <tile gid="1799"/>
   <tile gid="1800"/>
   <tile gid="1801"/>
   <tile gid="1802"/>
   <tile gid="1803"/>
   <tile gid="1804"/>
   <tile gid="1805"/>
   <tile gid="1806"/>
   <tile gid="1807"/>
   <tile gid="1808"/>
   <tile gid="1809"/>
   <tile gid="1810"/>
   <tile gid="1811"/>
   <tile gid="1812"/>
   <tile gid="1813"/>
   <tile gid="1814"/>
   <tile gid="1815"/>
   <tile gid="1816"/>
   <tile gid="1817"/>
   <tile gid="1818"/>
   <tile gid="1819"/>
   <tile gid="1820"/>
   <tile gid="1771"/>
   <tile gid="1772"/>
   <tile gid="1773"/>
   <tile gid="1774"/>
   <tile gid="1775"/>
   <tile gid="1776"/>
   <tile gid="1777"/>
   <tile gid="1778"/>
   <tile gid="1779"/>
   <tile gid="1780"/>
   <tile gid="1781"/>
   <tile gid="1782"/>
   <tile gid="1783"/>
   <tile gid="1784"/>
   <tile gid="1785"/>
   <tile gid="1786"/>
   <tile gid="1787"/>
   <tile gid="1788"/>
   <tile gid="1789"/>
   <tile gid="1790"/>
   <tile gid="1791"/>
   <tile gid="1792"/>
   <tile gid="1793"/>
   <tile gid="1794"/>
   <tile gid="1795"/>
   <tile gid="1796"/>
   <tile gid="1797"/>
   <tile gid="1798"/>
   <tile gid="1799"/>
   <tile gid="1800"/>
   <tile gid="1801"/>
   <tile gid="1802"/>
   <tile gid="1803"/>
   <tile gid="1804"/>
   <tile gid="1805"/>
   <tile gid="1806"/>
   <tile gid="1807"/>
   <tile gid="1808"/>
   <tile gid="1809"/>
   <tile gid="1810"/>
   <tile gid="1821"/>
   <tile gid="1822"/>
   <tile gid="1823"/>
   <tile gid="1824"/>
   <tile gid="1825"/>
   <tile gid="1826"/>
   <tile gid="1827"/>
   <tile gid="1828"/>
   <tile gid="1829"/>
   <tile gid="1830"/>
   <tile gid="1831"/>
   <tile gid="1832"/>
   <tile gid="1833"/>
   <tile gid="1834"/>
   <tile gid="1835"/>
   <tile gid="1836"/>
   <tile gid="1837"/>
   <tile gid="1838"/>
   <tile gid="1839"/>
   <tile gid="1840"/>
   <tile gid="1841"/>
   <tile gid="1842"/>
   <tile gid="1843"/>
   <tile gid="1844"/>
   <tile gid="1845"/>
   <tile gid="1846"/>
   <tile gid="1847"/>
   <tile gid="1848"/>
   <tile gid="1849"/>
   <tile gid="1850"/>
   <tile gid="1851"/>
   <tile gid="1852"/>
   <tile gid="1853"/>
   <tile gid="1854"/>
   <tile gid="1855"/>
   <tile gid="1856"/>
   <tile gid="1857"/>
   <tile gid="1858"/>
   <tile gid="1859"/>
   <tile gid="1860"/>
   <tile gid="1861"/>
   <tile gid="1862"/>
   <tile gid="1863"/>
   <tile gid="1864"/>
   <tile gid="1865"/>
   <tile gid="1866"/>
   <tile gid="1867"/>
   <tile gid="1868"/>
   <tile gid="1869"/>
   <tile gid="1870"/>
   <tile gid="1821"/>
   <tile gid="1822"/>
   <tile gid="1823"/>
   <tile gid="1824"/>
   <tile gid="1825"/>
   <tile gid="1826"/>
   <tile gid="1827"/>
   <tile gid="1828"/>
   <tile gid="1829"/>
   <tile gid="1830"/>
   <tile gid="1831"/>
   <tile gid="1832"/>
   <tile gid="1833"/>
   <tile gid="1834"/>
   <tile gid="1835"/>
   <tile gid="1836"/>
   <tile gid="1837"/>
   <tile gid="1838"/>
   <tile gid="1839"/>
   <tile gid="1840"/>
   <tile gid="1841"/>
   <tile gid="1842"/>
   <tile gid="1843"/>
   <tile gid="1844"/>
   <tile gid="1845"/>
   <tile gid="1846"/>
   <tile gid="1847"/>
   <tile gid="1848"/>
   <tile gid="1849"/>
   <tile gid="1850"/>
   <tile gid="1851"/>
   <tile gid="1852"/>
   <tile gid="1853"/>
   <tile gid="1854"/>
   <tile gid="1855"/>
   <tile gid="1856"/>
   <tile gid="1857"/>
   <tile gid="1858"/>
   <tile gid="1859"/>
   <tile gid="1860"/>
   <tile gid="1871"/>
   <tile gid="1872"/>
   <tile gid="1873"/>
   <tile gid="1874"/>
   <tile gid="1875"/>
   <tile gid="1876"/>
   <tile gid="1877"/>
   <tile gid="1878"/>
   <tile gid="1879"/>
   <tile gid="1880"/>
   <tile gid="1881"/>
   <tile gid="1882"/>
   <tile gid="1883"/>
   <tile gid="1884"/>
   <tile gid="1885"/>
   <tile gid="1886"/>
   <tile gid="1887"/>
   <tile gid="1888"/>
   <tile gid="1889"/>
   <tile gid="1890"/>
   <tile gid="1891"/>
   <tile gid="1892"/>
   <tile gid="1893"/>
   <tile gid="1894"/>
   <tile gid="1895"/>
   <tile gid="1896"/>
   <tile gid="1897"/>
   <tile gid="1898"/>
   <tile gid="1899"/>
   <tile gid="1900"/>
   <tile gid="1901"/>
   <tile gid="1902"/>
   <tile gid="1903"/>
   <tile gid="1904"/>
   <tile gid="1905"/>
   <tile gid="1906"/>
   <tile gid="1907"/>
   <tile gid="1908"/>
   <tile gid="1909"/>
   <tile gid="1910"/>
   <tile gid="1911"/>
   <tile gid="1912"/>
   <tile gid="1913"/>
   <tile gid="1914"/>
   <tile gid="1915"/>
   <tile gid="1916"/>
   <tile gid="1917"/>
   <tile gid="1918"/>
   <tile gid="1919"/>
   <tile gid="1920"/>
   <tile gid="1871"/>
   <tile gid="1872"/>
   <tile gid="1873"/>
   <tile gid="1874"/>
   <tile gid="1875"/>
   <tile gid="1876"/>
   <tile gid="1877"/>
   <tile gid="1878"/>
   <tile gid="1879"/>
   <tile gid="1880"/>
   <tile gid="1881"/>
   <tile gid="1882"/>
   <tile gid="1883"/>
   <tile gid="1884"/>
   <tile gid="1885"/>
   <tile gid="1886"/>
   <tile gid="1887"/>
   <tile gid="1888"/>
   <tile gid="1889"/>
   <tile gid="1890"/>
   <tile gid="1891"/>
   <tile gid="1892"/>
   <tile gid="1893"/>
   <tile gid="1894"/>
   <tile gid="1895"/>
   <tile gid="1896"/>
   <tile gid="1897"/>
   <tile gid="1898"/>
   <tile gid="1899"/>
   <tile gid="1900"/>
   <tile gid="1901"/>
   <tile gid="1902"/>
   <tile gid="1903"/>
   <tile gid="1904"/>
   <tile gid="1905"/>
   <tile gid="1906"/>
   <tile gid="1907"/>
   <tile gid="1908"/>
   <tile gid="1909"/>
   <tile gid="1910"/>
   <tile gid="1921"/>
   <tile gid="1922"/>
   <tile gid="1923"/>
   <tile gid="1924"/>
   <tile gid="1925"/>
   <tile gid="1926"/>
   <tile gid="1927"/>
   <tile gid="1928"/>
   <tile gid="1929"/>
   <tile gid="1930"/>
   <tile gid="1931"/>
   <tile gid="1932"/>
   <tile gid="1933"/>
   <tile gid="1934"/>
   <tile gid="1935"/>
   <tile gid="1936"/>
   <tile gid="1937"/>
   <tile gid="1938"/>
   <tile gid="1939"/>
   <tile gid="1940"/>
   <tile gid="1941"/>
   <tile gid="1942"/>
   <tile gid="1943"/>
   <tile gid="1944"/>
   <tile gid="1945"/>
   <tile gid="1946"/>
   <tile gid="1947"/>
   <tile gid="1948"/>
   <tile gid="1949"/>
   <tile gid="1950"/>
   <tile gid="1951"/>
   <tile gid="1952"/>
   <tile gid="1953"/>
   <tile gid="1954"/>
   <tile gid="1955"/>
   <tile gid="1956"/>
   <tile gid="1957"/>
   <tile gid="1958"/>
   <tile gid="1959"/>
   <tile gid="1960"/>
   <tile gid="1961"/>
   <tile gid="1962"/>
   <tile gid="1963"/>
   <tile gid="1964"/>
   <tile gid="1965"/>
   <tile gid="1966"/>
   <tile gid="1967"/>
   <tile gid="1968"/>
   <tile gid="1969"/>
   <tile gid="1970"/>
   <tile gid="1921"/>
   <tile gid="1922"/>
   <tile gid="1923"/>
   <tile gid="1924"/>
   <tile gid="1925"/>
   <tile gid="1926"/>
   <tile gid="1927"/>
   <tile gid="1928"/>
   <tile gid="1929"/>
   <tile gid="1930"/>
   <tile gid="1931"/>
   <tile gid="1932"/>
   <tile gid="1933"/>
   <tile gid="1934"/>
   <tile gid="1935"/>
   <tile gid="1936"/>
   <tile gid="1937"/>
   <tile gid="1938"/>
   <tile gid="1939"/>
   <tile gid="1940"/>
   <tile gid="1941"/>
   <tile gid="1942"/>
   <tile gid="1943"/>
   <tile gid="1944"/>
   <tile gid="1945"/>
   <tile gid="1946"/>
   <tile gid="1947"/>
   <tile gid="1948"/>
   <tile gid="1949"/>
   <tile gid="1950"/>
   <tile gid="1951"/>
   <tile gid="1952"/>
   <tile gid="1953"/>
   <tile gid="1954"/>
   <tile gid="1955"/>
   <tile gid="1956"/>
   <tile gid="1957"/>
   <tile gid="1958"/>
   <tile gid="1959"/>
   <tile gid="1960"/>
   <tile gid="1971"/>
   <tile gid="1972"/>
   <tile gid="1973"/>
   <tile gid="1974"/>
   <tile gid="1975"/>
   <tile gid="1976"/>
   <tile gid="1977"/>
   <tile gid="1978"/>
   <tile gid="1979"/>
   <tile gid="1980"/>
   <tile gid="1981"/>
   <tile gid="1982"/>
   <tile gid="1983"/>
   <tile gid="1984"/>
   <tile gid="1985"/>
   <tile gid="1986"/>
   <tile gid="1987"/>
   <tile gid="1988"/>
   <tile gid="1989"/>
   <tile gid="1990"/>
   <tile gid="1991"/>
   <tile gid="1992"/>
   <tile gid="1993"/>
   <tile gid="1994"/>
   <tile gid="1995"/>
   <tile gid="1996"/>
   <tile gid="1997"/>
   <tile gid="1998"/>
   <tile gid="1999"/>
   <tile gid="2000"/>
   <tile gid="2001"/>
   <tile gid="2002"/>
   <tile gid="2003"/>
   <tile gid="2004"/>
   <tile gid="2005"/>
   <tile gid="2006"/>
   <tile gid="2007"/>
   <tile gid="2008"/>
   <tile gid="2009"/>
   <tile gid="2010"/>
   <tile gid="2011"/>
   <tile gid="2012"/>
   <tile gid="2013"/>
   <tile gid="2014"/>
   <tile gid="2015"/>
   <tile gid="2016"/>
   <tile gid="2017"/>
   <tile gid="2018"/>
   <tile gid="2019"/>
   <tile gid="2020"/>
   <tile gid="1971"/>
   <tile gid="1972"/>
   <tile gid="1973"/>
   <tile gid="1974"/>
   <tile gid="1975"/>
   <tile gid="1976"/>
   <tile gid="1977"/>
   <tile gid="1978"/>
   <tile gid="1979"/>
   <tile gid="1980"/>
   <tile gid="1981"/>
   <tile gid="1982"/>
   <tile gid="1983"/>
   <tile gid="1984"/>
   <tile gid="1985"/>
   <tile gid="1986"/>
   <tile gid="1987"/>
   <tile gid="1988"/>
   <tile gid="1989"/>
   <tile gid="1990"/>
   <tile gid="1991"/>
   <tile gid="1992"/>
   <tile gid="1993"/>
   <tile gid="1994"/>
   <tile gid="1995"/>
   <tile gid="1996"/>
   <tile gid="1997"/>
   <tile gid="1998"/>
   <tile gid="1999"/>
   <tile gid="2000"/>
   <tile gid="2001"/>
   <tile gid="2002"/>
   <tile gid="2003"/>
   <tile gid="2004"/>
   <tile gid="2005"/>
   <tile gid="2006"/>
   <tile gid="2007"/>
   <tile gid="2008"/>
   <tile gid="2009"/>
   <tile gid="2010"/>
   <tile gid="2021"/>
   <tile gid="2022"/>
   <tile gid="2023"/>
   <tile gid="2024"/>
   <tile gid="2025"/>
   <tile gid="2026"/>
   <tile gid="2027"/>
   <tile gid="2028"/>
   <tile gid="2029"/>
   <tile gid="2030"/>
   <tile gid="2031"/>
   <tile gid="2032"/>
   <tile gid="2033"/>
   <tile gid="2034"/>
   <tile gid="2035"/>
   <tile gid="2036"/>
   <tile gid="2037"/>
   <tile gid="2038"/>
   <tile gid="2039"/>
   <tile gid="2040"/>
   <tile gid="2041"/>
   <tile gid="2042"/>
   <tile gid="2043"/>
   <tile gid="2044"/>
   <tile gid="2045"/>
   <tile gid="2046"/>
   <tile gid="2047"/>
   <tile gid="2048"/>
   <tile gid="2049"/>
   <tile gid="2050"/>
   <tile gid="2051"/>
   <tile gid="2052"/>
   <tile gid="2053"/>
   <tile gid="2054"/>
   <tile gid="2055"/>
   <tile gid="2056"/>
   <tile gid="2057"/>
   <tile gid="2058"/>
   <tile gid="2059"/>
   <tile gid="2060"/>
   <tile gid="2061"/>
   <tile gid="2062"/>
   <tile gid="2063"/>
   <tile gid="2064"/>
   <tile gid="2065"/>
   <tile gid="2066"/>
   <tile gid="2067"/>
   <tile gid="2068"/>
   <tile gid="2069"/>
   <tile gid="2070"/>
   <tile gid="2021"/>
   <tile gid="2022"/>
   <tile gid="2023"/>
   <tile gid="2024"/>
   <tile gid="2025"/>
   <tile gid="2026"/>
   <tile gid="2027"/>
   <tile gid="2028"/>
   <tile gid="2029"/>
   <tile gid="2030"/>
   <tile gid="2031"/>
   <tile gid="2032"/>
   <tile gid="2033"/>
   <tile gid="2034"/>
   <tile gid="2035"/>
   <tile gid="2036"/>
   <tile gid="2037"/>
   <tile gid="2038"/>
   <tile gid="2039"/>
   <tile gid="2040"/>
   <tile gid="2041"/>
   <tile gid="2042"/>
   <tile gid="2043"/>
   <tile gid="2044"/>
   <tile gid="2045"/>
   <tile gid="2046"/>
   <tile gid="2047"/>
   <tile gid="2048"/>
   <tile gid="2049"/>
   <tile gid="2050"/>
   <tile gid="2051"/>
   <tile gid="2052"/>
   <tile gid="2053"/>
   <tile gid="2054"/>
   <tile gid="2055"/>
   <tile gid="2056"/>
   <tile gid="2057"/>
   <tile gid="2058"/>
   <tile gid="2059"/>
   <tile gid="2060"/>
   <tile gid="2071"/>
   <tile gid="2072"/>
   <tile gid="2073"/>
   <tile gid="2074"/>
   <tile gid="2075"/>
   <tile gid="2076"/>
   <tile gid="2077"/>
   <tile gid="2078"/>
   <tile gid="2079"/>
   <tile gid="2080"/>
   <tile gid="2081"/>
   <tile gid="2082"/>
   <tile gid="2083"/>
   <tile gid="2084"/>
   <tile gid="2085"/>
   <tile gid="2086"/>
   <tile gid="2087"/>
   <tile gid="2088"/>
   <tile gid="2089"/>
   <tile gid="2090"/>
   <tile gid="2091"/>
   <tile gid="2092"/>
   <tile gid="2093"/>
   <tile gid="2094"/>
   <tile gid="2095"/>
   <tile gid="2096"/>
   <tile gid="2097"/>
   <tile gid="2098"/>
   <tile gid="2099"/>
   <tile gid="2100"/>
   <tile gid="2101"/>
   <tile gid="2102"/>
   <tile gid="2103"/>
   <tile gid="2104"/>
   <tile gid="2105"/>
   <tile gid="2106"/>
   <tile gid="2107"/>
   <tile gid="2108"/>
   <tile gid="2109"/>
   <tile gid="2110"/>
   <tile gid="2111"/>
   <tile gid="2112"/>
   <tile gid="2113"/>
   <tile gid="2114"/>
   <tile gid="2115"/>
   <tile gid="2116"/>
   <tile gid="2117"/>
   <tile gid="2118"/>
   <tile gid="2119"/>
   <tile gid="2120"/>
   <tile gid="2071"/>
   <tile gid="556"/>
   <tile gid="2073"/>
   <tile gid="2074"/>
   <tile gid="2075"/>
   <tile gid="2076"/>
   <tile gid="2077"/>
   <tile gid="2078"/>
   <tile gid="2079"/>
   <tile gid="2080"/>
   <tile gid="2081"/>
   <tile gid="2082"/>
   <tile gid="2083"/>
   <tile gid="2084"/>
   <tile gid="2085"/>
   <tile gid="2086"/>
   <tile gid="2087"/>
   <tile gid="2088"/>
   <tile gid="2089"/>
   <tile gid="2090"/>
   <tile gid="2091"/>
   <tile gid="2092"/>
   <tile gid="2093"/>
   <tile gid="2094"/>
   <tile gid="2095"/>
   <tile gid="2096"/>
   <tile gid="2097"/>
   <tile gid="2098"/>
   <tile gid="2099"/>
   <tile gid="2100"/>
   <tile gid="2101"/>
   <tile gid="2102"/>
   <tile gid="2103"/>
   <tile gid="2104"/>
   <tile gid="2105"/>
   <tile gid="2106"/>
   <tile gid="2107"/>
   <tile gid="2108"/>
   <tile gid="2109"/>
   <tile gid="2110"/>
   <tile gid="2121"/>
   <tile gid="2122"/>
   <tile gid="2123"/>
   <tile gid="2124"/>
   <tile gid="2125"/>
   <tile gid="2126"/>
   <tile gid="2127"/>
   <tile gid="2128"/>
   <tile gid="2129"/>
   <tile gid="2130"/>
   <tile gid="2131"/>
   <tile gid="2132"/>
   <tile gid="2133"/>
   <tile gid="2134"/>
   <tile gid="2135"/>
   <tile gid="2136"/>
   <tile gid="2137"/>
   <tile gid="2138"/>
   <tile gid="2139"/>
   <tile gid="2140"/>
   <tile gid="2141"/>
   <tile gid="2142"/>
   <tile gid="2143"/>
   <tile gid="2144"/>
   <tile gid="2145"/>
   <tile gid="2146"/>
   <tile gid="2147"/>
   <tile gid="2148"/>
   <tile gid="2149"/>
   <tile gid="2150"/>
   <tile gid="2151"/>
   <tile gid="2152"/>
   <tile gid="2153"/>
   <tile gid="2154"/>
   <tile gid="2155"/>
   <tile gid="2156"/>
   <tile gid="2157"/>
   <tile gid="2158"/>
   <tile gid="2159"/>
   <tile gid="2160"/>
   <tile gid="2161"/>
   <tile gid="2162"/>
   <tile gid="2163"/>
   <tile gid="2164"/>
   <tile gid="2165"/>
   <tile gid="2166"/>
   <tile gid="2167"/>
   <tile gid="2168"/>
   <tile gid="2169"/>
   <tile gid="2170"/>
   <tile gid="2121"/>
   <tile gid="556"/>
   <tile gid="2123"/>
   <tile gid="2124"/>
   <tile gid="2125"/>
   <tile gid="2126"/>
   <tile gid="2127"/>
   <tile gid="2128"/>
   <tile gid="2129"/>
   <tile gid="2130"/>
   <tile gid="2131"/>
   <tile gid="2132"/>
   <tile gid="2133"/>
   <tile gid="2134"/>
   <tile gid="2135"/>
   <tile gid="2136"/>
   <tile gid="2137"/>
   <tile gid="2138"/>
   <tile gid="2139"/>
   <tile gid="2140"/>
   <tile gid="2141"/>
   <tile gid="2142"/>
   <tile gid="2143"/>
   <tile gid="2144"/>
   <tile gid="2145"/>
   <tile gid="2146"/>
   <tile gid="2147"/>
   <tile gid="2148"/>
   <tile gid="2149"/>
   <tile gid="2150"/>
   <tile gid="2151"/>
   <tile gid="2152"/>
   <tile gid="2153"/>
   <tile gid="2154"/>
   <tile gid="2155"/>
   <tile gid="2156"/>
   <tile gid="2157"/>
   <tile gid="2158"/>
   <tile gid="2159"/>
   <tile gid="2160"/>
   <tile gid="2171"/>
   <tile gid="2172"/>
   <tile gid="2173"/>
   <tile gid="2174"/>
   <tile gid="2175"/>
   <tile gid="2176"/>
   <tile gid="2177"/>
   <tile gid="2178"/>
   <tile gid="2179"/>
   <tile gid="2180"/>
   <tile gid="2181"/>
   <tile gid="2182"/>
   <tile gid="2183"/>
   <tile gid="2184"/>
   <tile gid="2185"/>
   <tile gid="2186"/>
   <tile gid="2187"/>
   <tile gid="2188"/>
   <tile gid="2189"/>
   <tile gid="2190"/>
   <tile gid="2191"/>
   <tile gid="2192"/>
   <tile gid="2193"/>
   <tile gid="2194"/>
   <tile gid="2195"/>
   <tile gid="2196"/>
   <tile gid="2197"/>
   <tile gid="2198"/>
   <tile gid="2199"/>
   <tile gid="2200"/>
   <tile gid="2201"/>
   <tile gid="2202"/>
   <tile gid="2203"/>
   <tile gid="2204"/>
   <tile gid="2205"/>
   <tile gid="2206"/>
   <tile gid="2207"/>
   <tile gid="2208"/>
   <tile gid="2209"/>
   <tile gid="2210"/>
   <tile gid="2211"/>
   <tile gid="2212"/>
   <tile gid="2213"/>
   <tile gid="2214"/>
   <tile gid="2215"/>
   <tile gid="2216"/>
   <tile gid="2217"/>
   <tile gid="2218"/>
   <tile gid="2219"/>
   <tile gid="2220"/>
   <tile gid="2171"/>
   <tile gid="556"/>
   <tile gid="2173"/>
   <tile gid="2174"/>
   <tile gid="2175"/>
   <tile gid="2176"/>
   <tile gid="2177"/>
   <tile gid="2178"/>
   <tile gid="2179"/>
   <tile gid="2180"/>
   <tile gid="2181"/>
   <tile gid="2182"/>
   <tile gid="2183"/>
   <tile gid="2184"/>
   <tile gid="2185"/>
   <tile gid="2186"/>
   <tile gid="2187"/>
   <tile gid="2188"/>
   <tile gid="2189"/>
   <tile gid="2190"/>
   <tile gid="2191"/>
   <tile gid="2192"/>
   <tile gid="2193"/>
   <tile gid="2194"/>
   <tile gid="2195"/>
   <tile gid="2196"/>
   <tile gid="2197"/>
   <tile gid="2198"/>
   <tile gid="2199"/>
   <tile gid="2200"/>
   <tile gid="2201"/>
   <tile gid="2202"/>
   <tile gid="2203"/>
   <tile gid="2204"/>
   <tile gid="2205"/>
   <tile gid="2206"/>
   <tile gid="2207"/>
   <tile gid="2208"/>
   <tile gid="2209"/>
   <tile gid="2210"/>
   <tile gid="2221"/>
   <tile gid="2222"/>
   <tile gid="2223"/>
   <tile gid="2224"/>
   <tile gid="2225"/>
   <tile gid="2226"/>
   <tile gid="2227"/>
   <tile gid="2228"/>
   <tile gid="2229"/>
   <tile gid="2230"/>
   <tile gid="2231"/>
   <tile gid="2232"/>
   <tile gid="2233"/>
   <tile gid="2234"/>
   <tile gid="2235"/>
   <tile gid="2236"/>
   <tile gid="2237"/>
   <tile gid="2238"/>
   <tile gid="2239"/>
   <tile gid="2240"/>
   <tile gid="2241"/>
   <tile gid="2242"/>
   <tile gid="2243"/>
   <tile gid="2244"/>
   <tile gid="2245"/>
   <tile gid="2246"/>
   <tile gid="2247"/>
   <tile gid="2248"/>
   <tile gid="2249"/>
   <tile gid="2250"/>
   <tile gid="2251"/>
   <tile gid="2252"/>
   <tile gid="2253"/>
   <tile gid="2254"/>
   <tile gid="2255"/>
   <tile gid="2256"/>
   <tile gid="2257"/>
   <tile gid="2258"/>
   <tile gid="2259"/>
   <tile gid="2260"/>
   <tile gid="2261"/>
   <tile gid="2262"/>
   <tile gid="2263"/>
   <tile gid="2264"/>
   <tile gid="2265"/>
   <tile gid="2266"/>
   <tile gid="2267"/>
   <tile gid="2268"/>
   <tile gid="2269"/>
   <tile gid="2270"/>
   <tile gid="2221"/>
   <tile gid="556"/>
   <tile gid="556"/>
   <tile gid="2224"/>
   <tile gid="2225"/>
   <tile gid="2226"/>
   <tile gid="2227"/>
   <tile gid="2228"/>
   <tile gid="2229"/>
   <tile gid="2230"/>
   <tile gid="2231"/>
   <tile gid="2232"/>
   <tile gid="2233"/>
   <tile gid="2234"/>
   <tile gid="2235"/>
   <tile gid="2236"/>
   <tile gid="2237"/>
   <tile gid="2238"/>
   <tile gid="2239"/>
   <tile gid="2240"/>
   <tile gid="2241"/>
   <tile gid="2242"/>
   <tile gid="2243"/>
   <tile gid="2244"/>
   <tile gid="2245"/>
   <tile gid="2246"/>
   <tile gid="2247"/>
   <tile gid="2248"/>
   <tile gid="2249"/>
   <tile gid="2250"/>
   <tile gid="2251"/>
   <tile gid="2252"/>
   <tile gid="2253"/>
   <tile gid="2254"/>
   <tile gid="2255"/>
   <tile gid="2256"/>
   <tile gid="2257"/>
   <tile gid="2258"/>
   <tile gid="2259"/>
   <tile gid="2260"/>
   <tile gid="2271"/>
   <tile gid="2272"/>
   <tile gid="2273"/>
   <tile gid="2274"/>
   <tile gid="2275"/>
   <tile gid="2276"/>
   <tile gid="2277"/>
   <tile gid="2278"/>
   <tile gid="2279"/>
   <tile gid="2280"/>
   <tile gid="2281"/>
   <tile gid="2282"/>
   <tile gid="2283"/>
   <tile gid="2284"/>
   <tile gid="2285"/>
   <tile gid="2286"/>
   <tile gid="2287"/>
   <tile gid="2288"/>
   <tile gid="2289"/>
   <tile gid="2290"/>
   <tile gid="2291"/>
   <tile gid="2292"/>
   <tile gid="2293"/>
   <tile gid="2294"/>
   <tile gid="2295"/>
   <tile gid="2296"/>
   <tile gid="2297"/>
   <tile gid="2298"/>
   <tile gid="2299"/>
   <tile gid="2300"/>
   <tile gid="2301"/>
   <tile gid="2302"/>
   <tile gid="2303"/>
   <tile gid="2304"/>
   <tile gid="2305"/>
   <tile gid="2306"/>
   <tile gid="2307"/>
   <tile gid="2308"/>
   <tile gid="2309"/>
   <tile gid="2310"/>
   <tile gid="2311"/>
   <tile gid="2312"/>
   <tile gid="2313"/>
   <tile gid="2314"/>
   <tile gid="2315"/>
   <tile gid="2316"/>
   <tile gid="2317"/>
   <tile gid="2318"/>
   <tile gid="2319"/>
   <tile gid="2320"/>
   <tile gid="2271"/>
   <tile gid="2272"/>
   <tile gid="556"/>
   <tile gid="2274"/>
   <tile gid="2275"/>
   <tile gid="2276"/>
   <tile gid="2277"/>
   <tile gid="2278"/>
   <tile gid="2279"/>
   <tile gid="2280"/>
   <tile gid="2281"/>
   <tile gid="2282"/>
   <tile gid="2283"/>
   <tile gid="2284"/>
   <tile gid="2285"/>
   <tile gid="2286"/>
   <tile gid="2287"/>
   <tile gid="2288"/>
   <tile gid="2289"/>
   <tile gid="2290"/>
   <tile gid="2291"/>
   <tile gid="2292"/>
   <tile gid="2293"/>
   <tile gid="2294"/>
   <tile gid="2295"/>
   <tile gid="2296"/>
   <tile gid="2297"/>
   <tile gid="2298"/>
   <tile gid="2299"/>
   <tile gid="2300"/>
   <tile gid="2301"/>
   <tile gid="2302"/>
   <tile gid="2303"/>
   <tile gid="2304"/>
   <tile gid="2305"/>
   <tile gid="2306"/>
   <tile gid="2307"/>
   <tile gid="2308"/>
   <tile gid="2309"/>
   <tile gid="2310"/>
   <tile gid="2321"/>
   <tile gid="2322"/>
   <tile gid="2323"/>
   <tile gid="2324"/>
   <tile gid="2325"/>
   <tile gid="2326"/>
   <tile gid="2327"/>
   <tile gid="2328"/>
   <tile gid="2329"/>
   <tile gid="2330"/>
   <tile gid="2331"/>
   <tile gid="2332"/>
   <tile gid="2333"/>
   <tile gid="2334"/>
   <tile gid="2335"/>
   <tile gid="2336"/>
   <tile gid="2337"/>
   <tile gid="2338"/>
   <tile gid="2339"/>
   <tile gid="2340"/>
   <tile gid="2341"/>
   <tile gid="2342"/>
   <tile gid="2343"/>
   <tile gid="2344"/>
   <tile gid="2345"/>
   <tile gid="2346"/>
   <tile gid="2347"/>
   <tile gid="2348"/>
   <tile gid="2349"/>
   <tile gid="2350"/>
   <tile gid="2351"/>
   <tile gid="2352"/>
   <tile gid="2353"/>
   <tile gid="2354"/>
   <tile gid="2355"/>
   <tile gid="2356"/>
   <tile gid="2357"/>
   <tile gid="2358"/>
   <tile gid="2359"/>
   <tile gid="2360"/>
   <tile gid="2361"/>
   <tile gid="2362"/>
   <tile gid="2363"/>
   <tile gid="2364"/>
   <tile gid="2365"/>
   <tile gid="2366"/>
   <tile gid="2367"/>
   <tile gid="2368"/>
   <tile gid="2369"/>
   <tile gid="2370"/>
   <tile gid="2321"/>
   <tile gid="2322"/>
   <tile gid="556"/>
   <tile gid="556"/>
   <tile gid="2325"/>
   <tile gid="2326"/>
   <tile gid="2327"/>
   <tile gid="2328"/>
   <tile gid="2329"/>
   <tile gid="2330"/>
   <tile gid="2331"/>
   <tile gid="2332"/>
   <tile gid="2333"/>
   <tile gid="2334"/>
   <tile gid="2335"/>
   <tile gid="2336"/>
   <tile gid="2337"/>
   <tile gid="2338"/>
   <tile gid="2339"/>
   <tile gid="2340"/>
   <tile gid="2341"/>
   <tile gid="2342"/>
   <tile gid="2343"/>
   <tile gid="2344"/>
   <tile gid="2345"/>
   <tile gid="2346"/>
   <tile gid="2347"/>
   <tile gid="2348"/>
   <tile gid="2349"/>
   <tile gid="2350"/>
   <tile gid="2351"/>
   <tile gid="2352"/>
   <tile gid="2353"/>
   <tile gid="2354"/>
   <tile gid="2355"/>
   <tile gid="2356"/>
   <tile gid="2357"/>
   <tile gid="2358"/>
   <tile gid="2359"/>
   <tile gid="2360"/>
   <tile gid="2371"/>
   <tile gid="2372"/>
   <tile gid="2373"/>
   <tile gid="2374"/>
   <tile gid="2375"/>
   <tile gid="2376"/>
   <tile gid="2377"/>
   <tile gid="2378"/>
   <tile gid="2379"/>
   <tile gid="2380"/>
   <tile gid="2381"/>
   <tile gid="2382"/>
   <tile gid="2383"/>
   <tile gid="2384"/>
   <tile gid="2385"/>
   <tile gid="2386"/>
   <tile gid="2387"/>
   <tile gid="2388"/>
   <tile gid="2389"/>
   <tile gid="2390"/>
   <tile gid="2391"/>
   <tile gid="2392"/>
   <tile gid="2393"/>
   <tile gid="2394"/>
   <tile gid="2395"/>
   <tile gid="2396"/>
   <tile gid="2397"/>
   <tile gid="2398"/>
   <tile gid="2399"/>
   <tile gid="2400"/>
   <tile gid="2401"/>
   <tile gid="2402"/>
   <tile gid="2403"/>
   <tile gid="2404"/>
   <tile gid="2405"/>
   <tile gid="2406"/>
   <tile gid="2407"/>
   <tile gid="2408"/>
   <tile gid="2409"/>
   <tile gid="2410"/>
   <tile gid="2411"/>
   <tile gid="2412"/>
   <tile gid="2413"/>
   <tile gid="2414"/>
   <tile gid="2415"/>
   <tile gid="2416"/>
   <tile gid="2417"/>
   <tile gid="2418"/>
   <tile gid="2419"/>
   <tile gid="2420"/>
   <tile gid="2371"/>
   <tile gid="2372"/>
   <tile gid="2373"/>
   <tile gid="556"/>
   <tile gid="2375"/>
   <tile gid="2376"/>
   <tile gid="2377"/>
   <tile gid="2378"/>
   <tile gid="2379"/>
   <tile gid="2380"/>
   <tile gid="2381"/>
   <tile gid="2382"/>
   <tile gid="2383"/>
   <tile gid="2384"/>
   <tile gid="2385"/>
   <tile gid="2386"/>
   <tile gid="2387"/>
   <tile gid="2388"/>
   <tile gid="2389"/>
   <tile gid="2390"/>
   <tile gid="2391"/>
   <tile gid="2392"/>
   <tile gid="2393"/>
   <tile gid="2394"/>
   <tile gid="2395"/>
   <tile gid="2396"/>
   <tile gid="2397"/>
   <tile gid="2398"/>
   <tile gid="2399"/>
   <tile gid="2400"/>
   <tile gid="2401"/>
   <tile gid="2402"/>
   <tile gid="2403"/>
   <tile gid="2404"/>
   <tile gid="2405"/>
   <tile gid="2406"/>
   <tile gid="2407"/>
   <tile gid="2408"/>
   <tile gid="2409"/>
   <tile gid="2410"/>
   <tile gid="2421"/>
   <tile gid="2422"/>
   <tile gid="2423"/>
   <tile gid="2424"/>
   <tile gid="2425"/>
   <tile gid="2426"/>
   <tile gid="2427"/>
   <tile gid="2428"/>
   <tile gid="2429"/>
   <tile gid="2430"/>
   <tile gid="2431"/>
   <tile gid="2432"/>
   <tile gid="2433"/>
   <tile gid="2434"/>
   <tile gid="2435"/>
   <tile gid="2436"/>
   <tile gid="2437"/>
   <tile gid="2438"/>
   <tile gid="2439"/>
   <tile gid="2440"/>
   <tile gid="2441"/>
   <tile gid="2442"/>
   <tile gid="2443"/>
   <tile gid="2444"/>
   <tile gid="2445"/>
   <tile gid="2446"/>
   <tile gid="2447"/>
   <tile gid="2448"/>
   <tile gid="2449"/>
   <tile gid="2450"/>
   <tile gid="2451"/>
   <tile gid="2452"/>
   <tile gid="2453"/>
   <tile gid="2454"/>
   <tile gid="2455"/>
   <tile gid="2456"/>
   <tile gid="2457"/>
   <tile gid="2458"/>
   <tile gid="2459"/>
   <tile gid="2460"/>
   <tile gid="2461"/>
   <tile gid="2462"/>
   <tile gid="2463"/>
   <tile gid="2464"/>
   <tile gid="2465"/>
   <tile gid="2466"/>
   <tile gid="2467"/>
   <tile gid="2468"/>
   <tile gid="2469"/>
   <tile gid="2470"/>
   <tile gid="2421"/>
   <tile gid="2422"/>
   <tile gid="2423"/>
   <tile gid="2424"/>
   <tile gid="2425"/>
   <tile gid="2426"/>
   <tile gid="2427"/>
   <tile gid="2428"/>
   <tile gid="2429"/>
   <tile gid="2430"/>
   <tile gid="2431"/>
   <tile gid="2432"/>
   <tile gid="2433"/>
   <tile gid="2434"/>
   <tile gid="2435"/>
   <tile gid="2436"/>
   <tile gid="2437"/>
   <tile gid="2438"/>
   <tile gid="2439"/>
   <tile gid="2440"/>
   <tile gid="2441"/>
   <tile gid="2442"/>
   <tile gid="2443"/>
   <tile gid="2444"/>
   <tile gid="2445"/>
   <tile gid="2446"/>
   <tile gid="2447"/>
   <tile gid="2448"/>
   <tile gid="2449"/>
   <tile gid="2450"/>
   <tile gid="2451"/>
   <tile gid="2452"/>
   <tile gid="2453"/>
   <tile gid="2454"/>
   <tile gid="2455"/>
   <tile gid="2456"/>
   <tile gid="2457"/>
   <tile gid="2458"/>
   <tile gid="2459"/>
   <tile gid="2460"/>
   <tile gid="2471"/>
   <tile gid="2472"/>
   <tile gid="2473"/>
   <tile gid="2474"/>
   <tile gid="2475"/>
   <tile gid="2476"/>
   <tile gid="2477"/>
   <tile gid="2478"/>
   <tile gid="2479"/>
   <tile gid="2480"/>
   <tile gid="2481"/>
   <tile gid="2482"/>
   <tile gid="2483"/>
   <tile gid="2484"/>
   <tile gid="2485"/>
   <tile gid="2486"/>
   <tile gid="2487"/>
   <tile gid="2488"/>
   <tile gid="2489"/>
   <tile gid="2490"/>
   <tile gid="2491"/>
   <tile gid="2492"/>
   <tile gid="2493"/>
   <tile gid="2494"/>
   <tile gid="2495"/>
   <tile gid="2496"/>
   <tile gid="2497"/>
   <tile gid="2498"/>
   <tile gid="2499"/>
   <tile gid="2500"/>
   <tile gid="2501"/>
   <tile gid="2502"/>
   <tile gid="2503"/>
   <tile gid="2504"/>
   <tile gid="2505"/>
   <tile gid="2506"/>
   <tile gid="2507"/>
   <tile gid="2508"/>
   <tile gid="2509"/>
   <tile gid="2510"/>
   <tile gid="2511"/>
   <tile gid="2512"/>
   <tile gid="2513"/>
   <tile gid="2514"/>
   <tile gid="2515"/>
   <tile gid="2516"/>
   <tile gid="2517"/>
   <tile gid="2518"/>
   <tile gid="2519"/>
   <tile gid="2520"/>
   <tile gid="2471"/>
   <tile gid="2472"/>
   <tile gid="2473"/>
   <tile gid="2474"/>
   <tile gid="2475"/>
   <tile gid="2476"/>
   <tile gid="2477"/>
   <tile gid="2478"/>
   <tile gid="2479"/>
   <tile gid="2480"/>
   <tile gid="2481"/>
   <tile gid="2482"/>
   <tile gid="2483"/>
   <tile gid="2484"/>
   <tile gid="2485"/>
   <tile gid="2486"/>
   <tile gid="2487"/>
   <tile gid="2488"/>
   <tile gid="2489"/>
   <tile gid="2490"/>
   <tile gid="2491"/>
   <tile gid="2492"/>
   <tile gid="2493"/>
   <tile gid="2494"/>
   <tile gid="2495"/>
   <tile gid="2496"/>
   <tile gid="2497"/>
   <tile gid="2498"/>
   <tile gid="2499"/>
   <tile gid="2500"/>
   <tile gid="2501"/>
   <tile gid="2502"/>
   <tile gid="2503"/>
   <tile gid="2504"/>
   <tile gid="2505"/>
   <tile gid="2506"/>
   <tile gid="2507"/>
   <tile gid="2508"/>
   <tile gid="2509"/>
   <tile gid="2510"/>
   <tile gid="2521"/>
   <tile gid="2522"/>
   <tile gid="2523"/>
   <tile gid="2524"/>
   <tile gid="2525"/>
   <tile gid="2526"/>
   <tile gid="2527"/>
   <tile gid="2528"/>
   <tile gid="2529"/>
   <tile gid="2530"/>
   <tile gid="2531"/>
   <tile gid="2532"/>
   <tile gid="2533"/>
   <tile gid="2534"/>
   <tile gid="2535"/>
   <tile gid="2536"/>
   <tile gid="2537"/>
   <tile gid="2538"/>
   <tile gid="2539"/>
   <tile gid="2540"/>
   <tile gid="2541"/>
   <tile gid="2542"/>
   <tile gid="2543"/>
   <tile gid="2544"/>
   <tile gid="2545"/>
   <tile gid="2546"/>
   <tile gid="2547"/>
   <tile gid="2548"/>
   <tile gid="2549"/>
   <tile gid="2550"/>
   <tile gid="2551"/>
   <tile gid="2552"/>
   <tile gid="2553"/>
   <tile gid="2554"/>
   <tile gid="2555"/>
   <tile gid="2556"/>
   <tile gid="2557"/>
   <tile gid="2558"/>
   <tile gid="2559"/>
   <tile gid="2560"/>
   <tile gid="2561"/>
   <tile gid="2562"/>
   <tile gid="2563"/>
   <tile gid="2564"/>
   <tile gid="2565"/>
   <tile gid="2566"/>
   <tile gid="2567"/>
   <tile gid="2568"/>
   <tile gid="2569"/>
   <tile gid="2570"/>
   <tile gid="2521"/>
   <tile gid="2522"/>
   <tile gid="2523"/>
   <tile gid="2524"/>
   <tile gid="2525"/>
   <tile gid="2526"/>
   <tile gid="2527"/>
   <tile gid="2528"/>
   <tile gid="2529"/>
   <tile gid="2530"/>
   <tile gid="2531"/>
   <tile gid="2532"/>
   <tile gid="2533"/>
   <tile gid="2534"/>
   <tile gid="2535"/>
   <tile gid="2536"/>
   <tile gid="2537"/>
   <tile gid="2538"/>
   <tile gid="2539"/>
   <tile gid="2540"/>
   <tile gid="2541"/>
   <tile gid="2542"/>
   <tile gid="2543"/>
   <tile gid="2544"/>
   <tile gid="2545"/>
   <tile gid="2546"/>
   <tile gid="2547"/>
   <tile gid="2548"/>
   <tile gid="2549"/>
   <tile gid="2550"/>
   <tile gid="2551"/>
   <tile gid="2552"/>
   <tile gid="2553"/>
   <tile gid="2554"/>
   <tile gid="2555"/>
   <tile gid="2556"/>
   <tile gid="2557"/>
   <tile gid="2558"/>
   <tile gid="2559"/>
   <tile gid="2560"/>
   <tile gid="2571"/>
   <tile gid="2572"/>
   <tile gid="2573"/>
   <tile gid="2574"/>
   <tile gid="2575"/>
   <tile gid="2576"/>
   <tile gid="2577"/>
   <tile gid="2578"/>
   <tile gid="2579"/>
   <tile gid="2580"/>
   <tile gid="2581"/>
   <tile gid="2582"/>
   <tile gid="2583"/>
   <tile gid="2584"/>
   <tile gid="2585"/>
   <tile gid="2586"/>
   <tile gid="2587"/>
   <tile gid="2588"/>
   <tile gid="2589"/>
   <tile gid="2590"/>
   <tile gid="2591"/>
   <tile gid="2592"/>
   <tile gid="2593"/>
   <tile gid="2594"/>
   <tile gid="2595"/>
   <tile gid="2596"/>
   <tile gid="2597"/>
   <tile gid="2598"/>
   <tile gid="2599"/>
   <tile gid="2600"/>
   <tile gid="2601"/>
   <tile gid="2602"/>
   <tile gid="2603"/>
   <tile gid="2604"/>
   <tile gid="2605"/>
   <tile gid="2606"/>
   <tile gid="2607"/>
   <tile gid="2608"/>
   <tile gid="2609"/>
   <tile gid="2610"/>
   <tile gid="2611"/>
   <tile gid="2612"/>
   <tile gid="2613"/>
   <tile gid="2614"/>
   <tile gid="2615"/>
   <tile gid="2616"/>
   <tile gid="2617"/>
   <tile gid="2618"/>
   <tile gid="2619"/>
   <tile gid="2620"/>
   <tile gid="2571"/>
   <tile gid="2572"/>
   <tile gid="2573"/>
   <tile gid="2574"/>
   <tile gid="2575"/>
   <tile gid="2576"/>
   <tile gid="2577"/>
   <tile gid="2578"/>
   <tile gid="2579"/>
   <tile gid="2580"/>
   <tile gid="2581"/>
   <tile gid="2582"/>
   <tile gid="2583"/>
   <tile gid="2584"/>
   <tile gid="2585"/>
   <tile gid="2586"/>
   <tile gid="2587"/>
   <tile gid="2588"/>
   <tile gid="2589"/>
   <tile gid="2590"/>
   <tile gid="2591"/>
   <tile gid="2592"/>
   <tile gid="2593"/>
   <tile gid="2594"/>
   <tile gid="2595"/>
   <tile gid="2596"/>
   <tile gid="2597"/>
   <tile gid="2598"/>
   <tile gid="2599"/>
   <tile gid="2600"/>
   <tile gid="2601"/>
   <tile gid="2602"/>
   <tile gid="2603"/>
   <tile gid="2604"/>
   <tile gid="2605"/>
   <tile gid="2606"/>
   <tile gid="2607"/>
   <tile gid="2608"/>
   <tile gid="2609"/>
   <tile gid="2610"/>
   <tile gid="2621"/>
   <tile gid="2622"/>
   <tile gid="2623"/>
   <tile gid="2624"/>
   <tile gid="2625"/>
   <tile gid="2626"/>
   <tile gid="2627"/>
   <tile gid="2628"/>
   <tile gid="2629"/>
   <tile gid="2630"/>
   <tile gid="2631"/>
   <tile gid="2632"/>
   <tile gid="2633"/>
   <tile gid="2634"/>
   <tile gid="2635"/>
   <tile gid="2636"/>
   <tile gid="2637"/>
   <tile gid="2638"/>
   <tile gid="2639"/>
   <tile gid="2640"/>
   <tile gid="2641"/>
   <tile gid="2642"/>
   <tile gid="2643"/>
   <tile gid="2644"/>
   <tile gid="2645"/>
   <tile gid="2646"/>
   <tile gid="2647"/>
   <tile gid="2648"/>
   <tile gid="2649"/>
   <tile gid="2650"/>
   <tile gid="2651"/>
   <tile gid="2652"/>
   <tile gid="2653"/>
   <tile gid="2654"/>
   <tile gid="2655"/>
   <tile gid="2656"/>
   <tile gid="2657"/>
   <tile gid="2658"/>
   <tile gid="2659"/>
   <tile gid="2660"/>
   <tile gid="2661"/>
   <tile gid="2662"/>
   <tile gid="2663"/>
   <tile gid="2664"/>
   <tile gid="2665"/>
   <tile gid="2666"/>
   <tile gid="2667"/>
   <tile gid="2668"/>
   <tile gid="2669"/>
   <tile gid="2670"/>
   <tile gid="2621"/>
   <tile gid="2622"/>
   <tile gid="2623"/>
   <tile gid="2624"/>
   <tile gid="2625"/>
   <tile gid="2626"/>
   <tile gid="2627"/>
   <tile gid="2628"/>
   <tile gid="2629"/>
   <tile gid="2630"/>
   <tile gid="2631"/>
   <tile gid="2632"/>
   <tile gid="2633"/>
   <tile gid="2634"/>
   <tile gid="2635"/>
   <tile gid="2636"/>
   <tile gid="2637"/>
   <tile gid="2638"/>
   <tile gid="2639"/>
   <tile gid="2640"/>
   <tile gid="2641"/>
   <tile gid="2642"/>
   <tile gid="2643"/>
   <tile gid="2644"/>
   <tile gid="2645"/>
   <tile gid="2646"/>
   <tile gid="2647"/>
   <tile gid="2648"/>
   <tile gid="2649"/>
   <tile gid="2650"/>
   <tile gid="2651"/>
   <tile gid="2652"/>
   <tile gid="2653"/>
   <tile gid="2654"/>
   <tile gid="2655"/>
   <tile gid="2656"/>
   <tile gid="2657"/>
   <tile gid="2658"/>
   <tile gid="2659"/>
   <tile gid="2660"/>
   <tile gid="2671"/>
   <tile gid="2672"/>
   <tile gid="2673"/>
   <tile gid="2674"/>
   <tile gid="2675"/>
   <tile gid="2676"/>
   <tile gid="2677"/>
   <tile gid="2678"/>
   <tile gid="2679"/>
   <tile gid="2680"/>
   <tile gid="2681"/>
   <tile gid="2682"/>
   <tile gid="2683"/>
   <tile gid="2684"/>
   <tile gid="2685"/>
   <tile gid="2686"/>
   <tile gid="2687"/>
   <tile gid="2688"/>
   <tile gid="2689"/>
   <tile gid="2690"/>
   <tile gid="2691"/>
   <tile gid="2692"/>
   <tile gid="2693"/>
   <tile gid="2694"/>
   <tile gid="2695"/>
   <tile gid="2696"/>
   <tile gid="2697"/>
   <tile gid="2698"/>
   <tile gid="2699"/>
   <tile gid="2700"/>
   <tile gid="2701"/>
   <tile gid="2702"/>
   <tile gid="2703"/>
   <tile gid="2704"/>
   <tile gid="2705"/>
   <tile gid="2706"/>
   <tile gid="2707"/>
   <tile gid="2708"/>
   <tile gid="2709"/>
   <tile gid="2710"/>
   <tile gid="2711"/>
   <tile gid="2712"/>
   <tile gid="2713"/>
   <tile gid="2714"/>
   <tile gid="2715"/>
   <tile gid="2716"/>
   <tile gid="2717"/>
   <tile gid="2718"/>
   <tile gid="2719"/>
   <tile gid="2720"/>
   <tile gid="2671"/>
   <tile gid="2672"/>
   <tile gid="2673"/>
   <tile gid="2674"/>
   <tile gid="2675"/>
   <tile gid="2676"/>
   <tile gid="2677"/>
   <tile gid="2678"/>
   <tile gid="2679"/>
   <tile gid="2680"/>
   <tile gid="2681"/>
   <tile gid="2682"/>
   <tile gid="2683"/>
   <tile gid="2684"/>
   <tile gid="2685"/>
   <tile gid="2686"/>
   <tile gid="2687"/>
   <tile gid="2688"/>
   <tile gid="2689"/>
   <tile gid="2690"/>
   <tile gid="2691"/>
   <tile gid="2692"/>
   <tile gid="2693"/>
   <tile gid="2694"/>
   <tile gid="2695"/>
   <tile gid="2696"/>
   <tile gid="2697"/>
   <tile gid="2698"/>
   <tile gid="2699"/>
   <tile gid="2700"/>
   <tile gid="2701"/>
   <tile gid="2702"/>
   <tile gid="2703"/>
   <tile gid="2704"/>
   <tile gid="2705"/>
   <tile gid="2706"/>
   <tile gid="2707"/>
   <tile gid="2708"/>
   <tile gid="2709"/>
   <tile gid="2710"/>
   <tile gid="2721"/>
   <tile gid="2722"/>
   <tile gid="2723"/>
   <tile gid="2724"/>
   <tile gid="2725"/>
   <tile gid="2726"/>
   <tile gid="2727"/>
   <tile gid="2728"/>
   <tile gid="2729"/>
   <tile gid="2730"/>
   <tile gid="2731"/>
   <tile gid="2732"/>
   <tile gid="2733"/>
   <tile gid="2734"/>
   <tile gid="2735"/>
   <tile gid="2736"/>
   <tile gid="2737"/>
   <tile gid="2738"/>
   <tile gid="2739"/>
   <tile gid="2740"/>
   <tile gid="2741"/>
   <tile gid="2742"/>
   <tile gid="2743"/>
   <tile gid="2744"/>
   <tile gid="2745"/>
   <tile gid="2746"/>
   <tile gid="2747"/>
   <tile gid="2748"/>
   <tile gid="2749"/>
   <tile gid="2750"/>
   <tile gid="2751"/>
   <tile gid="2752"/>
   <tile gid="2753"/>
   <tile gid="2754"/>
   <tile gid="2755"/>
   <tile gid="2756"/>
   <tile gid="2757"/>
   <tile gid="2758"/>
   <tile gid="2759"/>
   <tile gid="2760"/>
   <tile gid="2761"/>
   <tile gid="2762"/>
   <tile gid="2763"/>
   <tile gid="2764"/>
   <tile gid="2765"/>
   <tile gid="2766"/>
   <tile gid="2767"/>
   <tile gid="2768"/>
   <tile gid="2769"/>
   <tile gid="2770"/>
   <tile gid="2721"/>
   <tile gid="2722"/>
   <tile gid="2723"/>
   <tile gid="2724"/>
   <tile gid="2725"/>
   <tile gid="2726"/>
   <tile gid="2727"/>
   <tile gid="2728"/>
   <tile gid="2729"/>
   <tile gid="2730"/>
   <tile gid="2731"/>
   <tile gid="2732"/>
   <tile gid="2733"/>
   <tile gid="2734"/>
   <tile gid="2735"/>
   <tile gid="2736"/>
   <tile gid="2737"/>
   <tile gid="2738"/>
   <tile gid="2739"/>
   <tile gid="2740"/>
   <tile gid="2741"/>
   <tile gid="2742"/>
   <tile gid="2743"/>
   <tile gid="2744"/>
   <tile gid="2745"/>
   <tile gid="2746"/>
   <tile gid="2747"/>
   <tile gid="2748"/>
   <tile gid="2749"/>
   <tile gid="2750"/>
   <tile gid="2751"/>
   <tile gid="2752"/>
   <tile gid="2753"/>
   <tile gid="2754"/>
   <tile gid="2755"/>
   <tile gid="2756"/>
   <tile gid="2757"/>
   <tile gid="2758"/>
   <tile gid="2759"/>
   <tile gid="2760"/>
   <tile gid="2771"/>
   <tile gid="2772"/>
   <tile gid="2773"/>
   <tile gid="2774"/>
   <tile gid="2775"/>
   <tile gid="2776"/>
   <tile gid="2777"/>
   <tile gid="2778"/>
   <tile gid="2779"/>
   <tile gid="2780"/>
   <tile gid="2781"/>
   <tile gid="2782"/>
   <tile gid="2783"/>
   <tile gid="2784"/>
   <tile gid="2785"/>
   <tile gid="2786"/>
   <tile gid="2787"/>
   <tile gid="2788"/>
   <tile gid="2789"/>
   <tile gid="2790"/>
   <tile gid="2791"/>
   <tile gid="2792"/>
   <tile gid="2793"/>
   <tile gid="2794"/>
   <tile gid="2795"/>
   <tile gid="2796"/>
   <tile gid="2797"/>
   <tile gid="2798"/>
   <tile gid="2799"/>
   <tile gid="2800"/>
   <tile gid="2801"/>
   <tile gid="2802"/>
   <tile gid="2803"/>
   <tile gid="2804"/>
   <tile gid="2805"/>
   <tile gid="2806"/>
   <tile gid="2807"/>
   <tile gid="2808"/>
   <tile gid="2809"/>
   <tile gid="2810"/>
   <tile gid="2811"/>
   <tile gid="2812"/>
   <tile gid="2813"/>
   <tile gid="2814"/>
   <tile gid="2815"/>
   <tile gid="2816"/>
   <tile gid="2817"/>
   <tile gid="2818"/>
   <tile gid="2819"/>
   <tile gid="2820"/>
   <tile gid="2771"/>
   <tile gid="2772"/>
   <tile gid="2773"/>
   <tile gid="2774"/>
   <tile gid="2775"/>
   <tile gid="2776"/>
   <tile gid="2777"/>
   <tile gid="2778"/>
   <tile gid="2779"/>
   <tile gid="2780"/>
   <tile gid="2781"/>
   <tile gid="2782"/>
   <tile gid="2783"/>
   <tile gid="2784"/>
   <tile gid="2785"/>
   <tile gid="2786"/>
   <tile gid="2787"/>
   <tile gid="2788"/>
   <tile gid="2789"/>
   <tile gid="2790"/>
   <tile gid="2791"/>
   <tile gid="2792"/>
   <tile gid="2793"/>
   <tile gid="2794"/>
   <tile gid="2795"/>
   <tile gid="2796"/>
   <tile gid="2797"/>
   <tile gid="2798"/>
   <tile gid="2799"/>
   <tile gid="2800"/>
   <tile gid="2801"/>
   <tile gid="2802"/>
   <tile gid="2803"/>
   <tile gid="2804"/>
   <tile gid="2805"/>
   <tile gid="2806"/>
   <tile gid="2807"/>
   <tile gid="2808"/>
   <tile gid="2809"/>
   <tile gid="2810"/>
   <tile gid="2821"/>
   <tile gid="2822"/>
   <tile gid="2823"/>
   <tile gid="2824"/>
   <tile gid="2825"/>
   <tile gid="2826"/>
   <tile gid="2827"/>
   <tile gid="2828"/>
   <tile gid="2829"/>
   <tile gid="2830"/>
   <tile gid="2831"/>
   <tile gid="2832"/>
   <tile gid="2833"/>
   <tile gid="2834"/>
   <tile gid="2835"/>
   <tile gid="2836"/>
   <tile gid="2837"/>
   <tile gid="2838"/>
   <tile gid="2839"/>
   <tile gid="2840"/>
   <tile gid="2841"/>
   <tile gid="2842"/>
   <tile gid="2843"/>
   <tile gid="2844"/>
   <tile gid="2845"/>
   <tile gid="2846"/>
   <tile gid="2847"/>
   <tile gid="2848"/>
   <tile gid="2849"/>
   <tile gid="2850"/>
   <tile gid="2851"/>
   <tile gid="2852"/>
   <tile gid="2853"/>
   <tile gid="2854"/>
   <tile gid="2855"/>
   <tile gid="2856"/>
   <tile gid="2857"/>
   <tile gid="2858"/>
   <tile gid="2859"/>
   <tile gid="2860"/>
   <tile gid="2861"/>
   <tile gid="2862"/>
   <tile gid="2863"/>
   <tile gid="2864"/>
   <tile gid="2865"/>
   <tile gid="2866"/>
   <tile gid="2867"/>
   <tile gid="2868"/>
   <tile gid="2869"/>
   <tile gid="2870"/>
   <tile gid="2821"/>
   <tile gid="2822"/>
   <tile gid="2823"/>
   <tile gid="2824"/>
   <tile gid="2825"/>
   <tile gid="2826"/>
   <tile gid="2827"/>
   <tile gid="2828"/>
   <tile gid="2829"/>
   <tile gid="2830"/>
   <tile gid="2831"/>
   <tile gid="2832"/>
   <tile gid="2833"/>
   <tile gid="2834"/>
   <tile gid="2835"/>
   <tile gid="2836"/>
   <tile gid="2837"/>
   <tile gid="2838"/>
   <tile gid="2839"/>
   <tile gid="2840"/>
   <tile gid="2841"/>
   <tile gid="2842"/>
   <tile gid="2843"/>
   <tile gid="2844"/>
   <tile gid="2845"/>
   <tile gid="2846"/>
   <tile gid="2847"/>
   <tile gid="2848"/>
   <tile gid="2849"/>
   <tile gid="2850"/>
   <tile gid="2851"/>
   <tile gid="2852"/>
   <tile gid="2853"/>
   <tile gid="2854"/>
   <tile gid="2855"/>
   <tile gid="2856"/>
   <tile gid="2857"/>
   <tile gid="2858"/>
   <tile gid="2859"/>
   <tile gid="2860"/>
   <tile gid="2871"/>
   <tile gid="2872"/>
   <tile gid="2873"/>
   <tile gid="2874"/>
   <tile gid="2875"/>
   <tile gid="2876"/>
   <tile gid="2877"/>
   <tile gid="2878"/>
   <tile gid="2879"/>
   <tile gid="2880"/>
   <tile gid="2881"/>
   <tile gid="2882"/>
   <tile gid="2883"/>
   <tile gid="2884"/>
   <tile gid="2885"/>
   <tile gid="2886"/>
   <tile gid="2887"/>
   <tile gid="2888"/>
   <tile gid="2889"/>
   <tile gid="2890"/>
   <tile gid="2891"/>
   <tile gid="2892"/>
   <tile gid="2893"/>
   <tile gid="2894"/>
   <tile gid="2895"/>
   <tile gid="2896"/>
   <tile gid="2897"/>
   <tile gid="2898"/>
   <tile gid="2899"/>
   <tile gid="2900"/>
   <tile gid="2901"/>
   <tile gid="2902"/>
   <tile gid="2903"/>
   <tile gid="2904"/>
   <tile gid="2905"/>
   <tile gid="2906"/>
   <tile gid="2907"/>
   <tile gid="2908"/>
   <tile gid="2909"/>
   <tile gid="2910"/>
   <tile gid="2911"/>
   <tile gid="2912"/>
   <tile gid="2913"/>
   <tile gid="2914"/>
   <tile gid="2915"/>
   <tile gid="2916"/>
   <tile gid="2917"/>
   <tile gid="2918"/>
   <tile gid="2919"/>
   <tile gid="2920"/>
   <tile gid="2871"/>
   <tile gid="2872"/>
   <tile gid="2873"/>
   <tile gid="2874"/>
   <tile gid="2875"/>
   <tile gid="2876"/>
   <tile gid="2877"/>
   <tile gid="2878"/>
   <tile gid="2879"/>
   <tile gid="2880"/>
   <tile gid="2881"/>
   <tile gid="2882"/>
   <tile gid="2883"/>
   <tile gid="2884"/>
   <tile gid="2885"/>
   <tile gid="2886"/>
   <tile gid="2887"/>
   <tile gid="2888"/>
   <tile gid="2889"/>
   <tile gid="2890"/>
   <tile gid="2891"/>
   <tile gid="2892"/>
   <tile gid="2893"/>
   <tile gid="2894"/>
   <tile gid="2895"/>
   <tile gid="2896"/>
   <tile gid="2897"/>
   <tile gid="2898"/>
   <tile gid="2899"/>
   <tile gid="2900"/>
   <tile gid="2901"/>
   <tile gid="2902"/>
   <tile gid="2903"/>
   <tile gid="2904"/>
   <tile gid="2905"/>
   <tile gid="2906"/>
   <tile gid="2907"/>
   <tile gid="2908"/>
   <tile gid="2909"/>
   <tile gid="2910"/>
   <tile gid="2921"/>
   <tile gid="2922"/>
   <tile gid="2923"/>
   <tile gid="2924"/>
   <tile gid="2925"/>
   <tile gid="2926"/>
   <tile gid="2927"/>
   <tile gid="2928"/>
   <tile gid="2929"/>
   <tile gid="2930"/>
   <tile gid="2931"/>
   <tile gid="2932"/>
   <tile gid="2933"/>
   <tile gid="2934"/>
   <tile gid="2935"/>
   <tile gid="2936"/>
   <tile gid="2937"/>
   <tile gid="2938"/>
   <tile gid="2939"/>
   <tile gid="2940"/>
   <tile gid="2941"/>
   <tile gid="2942"/>
   <tile gid="2943"/>
   <tile gid="2944"/>
   <tile gid="2945"/>
   <tile gid="2946"/>
   <tile gid="2947"/>
   <tile gid="2948"/>
   <tile gid="2949"/>
   <tile gid="2950"/>
   <tile gid="2951"/>
   <tile gid="2952"/>
   <tile gid="2953"/>
   <tile gid="2954"/>
   <tile gid="2955"/>
   <tile gid="2956"/>
   <tile gid="2957"/>
   <tile gid="2958"/>
   <tile gid="2959"/>
   <tile gid="2960"/>
   <tile gid="2961"/>
   <tile gid="2962"/>
   <tile gid="2963"/>
   <tile gid="2964"/>
   <tile gid="2965"/>
   <tile gid="2966"/>
   <tile gid="2967"/>
   <tile gid="2968"/>
   <tile gid="2969"/>
   <tile gid="2970"/>
   <tile gid="2921"/>
   <tile gid="2922"/>
   <tile gid="2923"/>
   <tile gid="2924"/>
   <tile gid="2925"/>
   <tile gid="2926"/>
   <tile gid="2927"/>
   <tile gid="2928"/>
   <tile gid="2929"/>
   <tile gid="2930"/>
   <tile gid="2931"/>
   <tile gid="2932"/>
   <tile gid="2933"/>
   <tile gid="2934"/>
   <tile gid="2935"/>
   <tile gid="2936"/>
   <tile gid="2937"/>
   <tile gid="2938"/>
   <tile gid="2939"/>
   <tile gid="2940"/>
   <tile gid="2941"/>
   <tile gid="2942"/>
   <tile gid="2943"/>
   <tile gid="2944"/>
   <tile gid="2945"/>
   <tile gid="2946"/>
   <tile gid="2947"/>
   <tile gid="2948"/>
   <tile gid="2949"/>
   <tile gid="2950"/>
   <tile gid="2951"/>
   <tile gid="2952"/>
   <tile gid="2953"/>
   <tile gid="2954"/>
   <tile gid="2955"/>
   <tile gid="2956"/>
   <tile gid="2957"/>
   <tile gid="2958"/>
   <tile gid="2959"/>
   <tile gid="2960"/>
   <tile gid="2971"/>
   <tile gid="2972"/>
   <tile gid="2973"/>
   <tile gid="2974"/>
   <tile gid="2975"/>
   <tile gid="2976"/>
   <tile gid="2977"/>
   <tile gid="2978"/>
   <tile gid="2979"/>
   <tile gid="2980"/>
   <tile gid="2981"/>
   <tile gid="2982"/>
   <tile gid="2983"/>
   <tile gid="2984"/>
   <tile gid="2985"/>
   <tile gid="2986"/>
   <tile gid="2987"/>
   <tile gid="2988"/>
   <tile gid="2989"/>
   <tile gid="2990"/>
   <tile gid="2991"/>
   <tile gid="2992"/>
   <tile gid="2993"/>
   <tile gid="2994"/>
   <tile gid="2995"/>
   <tile gid="2996"/>
   <tile gid="2997"/>
   <tile gid="2998"/>
   <tile gid="2999"/>
   <tile gid="3000"/>
   <tile gid="3001"/>
   <tile gid="3002"/>
   <tile gid="3003"/>
   <tile gid="3004"/>
   <tile gid="3005"/>
   <tile gid="3006"/>
   <tile gid="3007"/>
   <tile gid="3008"/>
   <tile gid="3009"/>
   <tile gid="3010"/>
   <tile gid="3011"/>
   <tile gid="3012"/>
   <tile gid="3013"/>
   <tile gid="3014"/>
   <tile gid="3015"/>
   <tile gid="3016"/>
   <tile gid="3017"/>
   <tile gid="3018"/>
   <tile gid="3019"/>
   <tile gid="3020"/>
   <tile gid="2971"/>
   <tile gid="2972"/>
   <tile gid="2973"/>
   <tile gid="2974"/>
   <tile gid="2975"/>
   <tile gid="2976"/>
   <tile gid="2977"/>
   <tile gid="2978"/>
   <tile gid="2979"/>
   <tile gid="2980"/>
   <tile gid="2981"/>
   <tile gid="2982"/>
   <tile gid="2983"/>
   <tile gid="2984"/>
   <tile gid="2985"/>
   <tile gid="2986"/>
   <tile gid="2987"/>
   <tile gid="2988"/>
   <tile gid="2989"/>
   <tile gid="2990"/>
   <tile gid="2991"/>
   <tile gid="2992"/>
   <tile gid="2993"/>
   <tile gid="2994"/>
   <tile gid="2995"/>
   <tile gid="2996"/>
   <tile gid="2997"/>
   <tile gid="2998"/>
   <tile gid="2999"/>
   <tile gid="3000"/>
   <tile gid="3001"/>
   <tile gid="3002"/>
   <tile gid="3003"/>
   <tile gid="3004"/>
   <tile gid="3005"/>
   <tile gid="3006"/>
   <tile gid="3007"/>
   <tile gid="3008"/>
   <tile gid="3009"/>
   <tile gid="3010"/>
   <tile gid="3021"/>
   <tile gid="3022"/>
   <tile gid="3023"/>
   <tile gid="3024"/>
   <tile gid="3025"/>
   <tile gid="3026"/>
   <tile gid="3027"/>
   <tile gid="3028"/>
   <tile gid="3029"/>
   <tile gid="3030"/>
   <tile gid="3031"/>
   <tile gid="3032"/>
   <tile gid="3033"/>
   <tile gid="3034"/>
   <tile gid="3035"/>
   <tile gid="3036"/>
   <tile gid="3037"/>
   <tile gid="3038"/>
   <tile gid="3039"/>
   <tile gid="3040"/>
   <tile gid="3041"/>
   <tile gid="3042"/>
   <tile gid="3043"/>
   <tile gid="3044"/>
   <tile gid="3045"/>
   <tile gid="3046"/>
   <tile gid="3047"/>
   <tile gid="3048"/>
   <tile gid="3049"/>
   <tile gid="3050"/>
   <tile gid="3051"/>
   <tile gid="3052"/>
   <tile gid="3053"/>
   <tile gid="3054"/>
   <tile gid="3055"/>
   <tile gid="3056"/>
   <tile gid="3057"/>
   <tile gid="3058"/>
   <tile gid="3059"/>
   <tile gid="3060"/>
   <tile gid="3061"/>
   <tile gid="3062"/>
   <tile gid="3063"/>
   <tile gid="3064"/>
   <tile gid="3065"/>
   <tile gid="3066"/>
   <tile gid="3067"/>
   <tile gid="3068"/>
   <tile gid="3069"/>
   <tile gid="3070"/>
   <tile gid="3021"/>
   <tile gid="3022"/>
   <tile gid="3023"/>
   <tile gid="3024"/>
   <tile gid="3025"/>
   <tile gid="3026"/>
   <tile gid="3027"/>
   <tile gid="3028"/>
   <tile gid="3029"/>
   <tile gid="3030"/>
   <tile gid="3031"/>
   <tile gid="3032"/>
   <tile gid="3033"/>
   <tile gid="3034"/>
   <tile gid="3035"/>
   <tile gid="3036"/>
   <tile gid="3037"/>
   <tile gid="3038"/>
   <tile gid="3039"/>
   <tile gid="3040"/>
   <tile gid="3041"/>
   <tile gid="3042"/>
   <tile gid="3043"/>
   <tile gid="3044"/>
   <tile gid="3045"/>
   <tile gid="3046"/>
   <tile gid="3047"/>
   <tile gid="3048"/>
   <tile gid="3049"/>
   <tile gid="3050"/>
   <tile gid="3051"/>
   <tile gid="3052"/>
   <tile gid="3053"/>
   <tile gid="3054"/>
   <tile gid="3055"/>
   <tile gid="3056"/>
   <tile gid="3057"/>
   <tile gid="3058"/>
   <tile gid="3059"/>
   <tile gid="3060"/>
   <tile gid="1073744845"/>
   <tile gid="1073744846"/>
   <tile gid="1073744847"/>
   <tile gid="1073744848"/>
   <tile gid="1073744849"/>
   <tile gid="1073744850"/>
   <tile gid="1073744851"/>
   <tile gid="1073744852"/>
   <tile gid="1073744853"/>
   <tile gid="1073744854"/>
   <tile gid="1073744855"/>
   <tile gid="1073744856"/>
   <tile gid="1073744857"/>
   <tile gid="1073744858"/>
   <tile gid="1073744859"/>
   <tile gid="1073744860"/>
   <tile gid="1073744861"/>
   <tile gid="1073744862"/>
   <tile gid="1073744863"/>
   <tile gid="1073744864"/>
   <tile gid="1073744865"/>
   <tile gid="1073744866"/>
   <tile gid="1073744867"/>
   <tile gid="1073744868"/>
   <tile gid="1073744869"/>
   <tile gid="1073744870"/>
   <tile gid="1073744871"/>
   <tile gid="1073744872"/>
   <tile gid="1073744873"/>
   <tile gid="1073744874"/>
   <tile gid="1073744875"/>
   <tile gid="1073744876"/>
   <tile gid="1073744877"/>
   <tile gid="1073744878"/>
   <tile gid="1073744879"/>
   <tile gid="1073744880"/>
   <tile gid="1073744881"/>
   <tile gid="1073744882"/>
   <tile gid="1073744883"/>
   <tile gid="1073744884"/>
   <tile gid="1073744885"/>
   <tile gid="1073744886"/>
   <tile gid="1073744887"/>
   <tile gid="1073744888"/>
   <tile gid="1073744889"/>
   <tile gid="1073744890"/>
   <tile gid="1073744891"/>
   <tile gid="1073744892"/>
   <tile gid="1073744893"/>
   <tile gid="1073744894"/>
   <tile gid="1073744845"/>
   <tile gid="1073744846"/>
   <tile gid="1073744847"/>
   <tile gid="1073744848"/>
   <tile gid="1073744849"/>
   <tile gid="1073744850"/>
   <tile gid="1073744851"/>
   <tile gid="1073744852"/>
   <tile gid="1073744853"/>
   <tile gid="1073744854"/>
   <tile gid="1073744855"/>
   <tile gid="1073744856"/>
   <tile gid="1073744857"/>
   <tile gid="1073744858"/>
   <tile gid="1073744859"/>
   <tile gid="1073744860"/>
   <tile gid="1073744861"/>
   <tile gid="1073744862"/>
   <tile gid="1073744863"/>
   <tile gid="1073744864"/>
   <tile gid="1073744865"/>
   <tile gid="1073744866"/>
   <tile gid="1073744867"/>
   <tile gid="1073744868"/>
   <tile gid="1073744869"/>
   <tile gid="1073744870"/>
   <tile gid="1073744871"/>
   <tile gid="1073744872"/>
   <tile gid="1073744873"/>
   <tile gid="1073744874"/>
   <tile gid="1073744875"/>
   <tile gid="1073744876"/>
   <tile gid="1073744877"/>
   <tile gid="1073744878"/>
   <tile gid="1073744879"/>
   <tile gid="1073744880"/>
   <tile gid="1073744881"/>
   <tile gid="1073744882"/>
   <tile gid="1073744883"/>
   <tile gid="1073744884"/>
   <tile gid="1073744795"/>
   <tile gid="1073744796"/>
   <tile gid="1073744797"/>
   <tile gid="1073744798"/>
   <tile gid="1073744799"/>
   <tile gid="1073744800"/>
   <tile gid="1073744801"/>
   <tile gid="1073744802"/>
   <tile gid="1073744803"/>
   <tile gid="1073744804"/>
   <tile gid="1073744805"/>
   <tile gid="1073744806"/>
   <tile gid="1073744807"/>
   <tile gid="1073744808"/>
   <tile gid="1073744809"/>
   <tile gid="1073744810"/>
   <tile gid="1073744811"/>
   <tile gid="1073744812"/>
   <tile gid="1073744813"/>
   <tile gid="1073744814"/>
   <tile gid="1073744815"/>
   <tile gid="1073744816"/>
   <tile gid="1073744817"/>
   <tile gid="1073744818"/>
   <tile gid="1073744819"/>
   <tile gid="1073744820"/>
   <tile gid="1073744821"/>
   <tile gid="1073744822"/>
   <tile gid="1073744823"/>
   <tile gid="1073744824"/>
   <tile gid="1073744825"/>
   <tile gid="1073744826"/>
   <tile gid="1073744827"/>
   <tile gid="1073744828"/>
   <tile gid="1073744829"/>
   <tile gid="1073744830"/>
   <tile gid="1073744831"/>
   <tile gid="1073744832"/>
   <tile gid="1073744833"/>
   <tile gid="1073744834"/>
   <tile gid="1073744835"/>
   <tile gid="1073744836"/>
   <tile gid="1073744837"/>
   <tile gid="1073744838"/>
   <tile gid="1073744839"/>
   <tile gid="1073744840"/>
   <tile gid="1073744841"/>
   <tile gid="1073744842"/>
   <tile gid="1073744843"/>
   <tile gid="1073744844"/>
   <tile gid="1073744795"/>
   <tile gid="1073744796"/>
   <tile gid="1073744797"/>
   <tile gid="1073744798"/>
   <tile gid="1073744799"/>
   <tile gid="1073744800"/>
   <tile gid="1073744801"/>
   <tile gid="1073744802"/>
   <tile gid="1073744803"/>
   <tile gid="1073744804"/>
   <tile gid="1073744805"/>
   <tile gid="1073744806"/>
   <tile gid="1073744807"/>
   <tile gid="1073744808"/>
   <tile gid="1073744809"/>
   <tile gid="1073744810"/>
   <tile gid="1073744811"/>
   <tile gid="1073744812"/>
   <tile gid="1073744813"/>
   <tile gid="1073744814"/>
   <tile gid="1073744815"/>
   <tile gid="1073744816"/>
   <tile gid="1073744817"/>
   <tile gid="1073744818"/>
   <tile gid="1073744819"/>
   <tile gid="1073744820"/>
   <tile gid="1073744821"/>
   <tile gid="1073744822"/>
   <tile gid="1073744823"/>
   <tile gid="1073744824"/>
   <tile gid="1073744825"/>
   <tile gid="1073744826"/>
   <tile gid="1073744827"/>
   <tile gid="1073744828"/>
   <tile gid="1073744829"/>
   <tile gid="1073744830"/>
   <tile gid="1073744831"/>
   <tile gid="1073744832"/>
   <tile gid="1073744833"/>
   <tile gid="1073744834"/>
   <tile gid="1073744745"/>
   <tile gid="1073744746"/>
   <tile gid="1073744747"/>
   <tile gid="1073744748"/>
   <tile gid="1073744749"/>
   <tile gid="1073744750"/>
   <tile gid="1073744751"/>
   <tile gid="1073744752"/>
   <tile gid="1073744753"/>
   <tile gid="1073744754"/>
   <tile gid="1073744755"/>
   <tile gid="1073744756"/>
   <tile gid="1073744757"/>
   <tile gid="1073744758"/>
   <tile gid="1073744759"/>
   <tile gid="1073744760"/>
   <tile gid="1073744761"/>
   <tile gid="1073744762"/>
   <tile gid="1073744763"/>
   <tile gid="1073744764"/>
   <tile gid="1073744765"/>
   <tile gid="1073744766"/>
   <tile gid="1073744767"/>
   <tile gid="1073744768"/>
   <tile gid="1073744769"/>
   <tile gid="1073744770"/>
   <tile gid="1073744771"/>
   <tile gid="1073744772"/>
   <tile gid="1073744773"/>
   <tile gid="1073744774"/>
   <tile gid="1073744775"/>
   <tile gid="1073744776"/>
   <tile gid="1073744777"/>
   <tile gid="1073744778"/>
   <tile gid="1073744779"/>
   <tile gid="1073744780"/>
   <tile gid="1073744781"/>
   <tile gid="1073744782"/>
   <tile gid="1073744783"/>
   <tile gid="1073744784"/>
   <tile gid="1073744785"/>
   <tile gid="1073744786"/>
   <tile gid="1073744787"/>
   <tile gid="1073744788"/>
   <tile gid="1073744789"/>
   <tile gid="1073744790"/>
   <tile gid="1073744791"/>
   <tile gid="1073744792"/>
   <tile gid="1073744793"/>
   <tile gid="1073744794"/>
   <tile gid="1073744745"/>
   <tile gid="1073744746"/>
   <tile gid="1073744747"/>
   <tile gid="1073744748"/>
   <tile gid="1073744749"/>
   <tile gid="1073744750"/>
   <tile gid="1073744751"/>
   <tile gid="1073744752"/>
   <tile gid="1073744753"/>
   <tile gid="1073744754"/>
   <tile gid="1073744755"/>
   <tile gid="1073744756"/>
   <tile gid="1073744757"/>
   <tile gid="1073744758"/>
   <tile gid="1073744759"/>
   <tile gid="1073744760"/>
   <tile gid="1073744761"/>
   <tile gid="1073744762"/>
   <tile gid="1073744763"/>
   <tile gid="1073744764"/>
   <tile gid="1073744765"/>
   <tile gid="1073744766"/>
   <tile gid="1073744767"/>
   <tile gid="1073744768"/>
   <tile gid="1073744769"/>
   <tile gid="1073744770"/>
   <tile gid="1073744771"/>
   <tile gid="1073744772"/>
   <tile gid="1073744773"/>
   <tile gid="1073744774"/>
   <tile gid="1073744775"/>
   <tile gid="1073744776"/>
   <tile gid="1073744777"/>
   <tile gid="1073744778"/>
   <tile gid="1073744779"/>
   <tile gid="1073744780"/>
   <tile gid="1073744781"/>
   <tile gid="1073744782"/>
   <tile gid="1073744783"/>
   <tile gid="1073744784"/>
   <tile gid="1073744695"/>
   <tile gid="1073744696"/>
   <tile gid="1073744697"/>
   <tile gid="1073744698"/>
   <tile gid="1073744699"/>
   <tile gid="1073744700"/>
   <tile gid="1073744701"/>
   <tile gid="1073744702"/>
   <tile gid="1073744703"/>
   <tile gid="1073744704"/>
   <tile gid="1073744705"/>
   <tile gid="1073744706"/>
   <tile gid="1073744707"/>
   <tile gid="1073744708"/>
   <tile gid="1073744709"/>
   <tile gid="1073744710"/>
   <tile gid="1073744711"/>
   <tile gid="1073744712"/>
   <tile gid="1073744713"/>
   <tile gid="1073744714"/>
   <tile gid="1073744715"/>
   <tile gid="1073744716"/>
   <tile gid="1073744717"/>
   <tile gid="1073744718"/>
   <tile gid="1073744719"/>
   <tile gid="1073744720"/>
   <tile gid="1073744721"/>
   <tile gid="1073744722"/>
   <tile gid="1073744723"/>
   <tile gid="1073744724"/>
   <tile gid="1073744725"/>
   <tile gid="1073744726"/>
   <tile gid="1073744727"/>
   <tile gid="1073744728"/>
   <tile gid="1073744729"/>
   <tile gid="1073744730"/>
   <tile gid="1073744731"/>
   <tile gid="1073744732"/>
   <tile gid="1073744733"/>
   <tile gid="1073744734"/>
   <tile gid="1073744735"/>
   <tile gid="1073744736"/>
   <tile gid="1073744737"/>
   <tile gid="1073744738"/>
   <tile gid="1073744739"/>
   <tile gid="1073744740"/>
   <tile gid="1073744741"/>
   <tile gid="1073744742"/>
   <tile gid="1073744743"/>
   <tile gid="1073744744"/>
   <tile gid="1073744695"/>
   <tile gid="1073744696"/>
   <tile gid="1073744697"/>
   <tile gid="1073744698"/>
   <tile gid="1073744699"/>
   <tile gid="1073744700"/>
   <tile gid="1073744701"/>
   <tile gid="1073744702"/>
   <tile gid="1073744703"/>
   <tile gid="1073744704"/>
   <tile gid="1073744705"/>
   <tile gid="1073744706"/>
   <tile gid="1073744707"/>
   <tile gid="1073744708"/>
   <tile gid="1073744709"/>
   <tile gid="1073744710"/>
   <tile gid="1073744711"/>
   <tile gid="1073744712"/>
   <tile gid="1073744713"/>
   <tile gid="1073744714"/>
   <tile gid="1073744715"/>
   <tile gid="1073744716"/>
   <tile gid="1073744717"/>
   <tile gid="1073744718"/>
   <tile gid="1073744719"/>
   <tile gid="1073744720"/>
   <tile gid="1073744721"/>
   <tile gid="1073744722"/>
   <tile gid="1073744723"/>
   <tile gid="1073744724"/>
   <tile gid="1073744725"/>
   <tile gid="1073744726"/>
   <tile gid="1073744727"/>
   <tile gid="1073744728"/>
   <tile gid="1073744729"/>
   <tile gid="1073744730"/>
   <tile gid="1073744731"/>
   <tile gid="1073744732"/>
   <tile gid="1073744733"/>
   <tile gid="1073744734"/>
   <tile gid="1073744645"/>
   <tile gid="1073744646"/>
   <tile gid="1073744647"/>
   <tile gid="1073744648"/>
   <tile gid="1073744649"/>
   <tile gid="1073744650"/>
   <tile gid="1073744651"/>
   <tile gid="1073744652"/>
   <tile gid="1073744653"/>
   <tile gid="1073744654"/>
   <tile gid="1073744655"/>
   <tile gid="1073744656"/>
   <tile gid="1073744657"/>
   <tile gid="1073744658"/>
   <tile gid="1073744659"/>
   <tile gid="1073744660"/>
   <tile gid="1073744661"/>
   <tile gid="1073744662"/>
   <tile gid="1073744663"/>
   <tile gid="1073744664"/>
   <tile gid="1073744665"/>
   <tile gid="1073744666"/>
   <tile gid="1073744667"/>
   <tile gid="1073744668"/>
   <tile gid="1073744669"/>
   <tile gid="1073744670"/>
   <tile gid="1073744671"/>
   <tile gid="1073744672"/>
   <tile gid="1073744673"/>
   <tile gid="1073744674"/>
   <tile gid="1073744675"/>
   <tile gid="1073744676"/>
   <tile gid="1073744677"/>
   <tile gid="1073744678"/>
   <tile gid="1073744679"/>
   <tile gid="1073744680"/>
   <tile gid="1073744681"/>
   <tile gid="1073744682"/>
   <tile gid="1073744683"/>
   <tile gid="1073744684"/>
   <tile gid="1073744685"/>
   <tile gid="1073744686"/>
   <tile gid="1073744687"/>
   <tile gid="1073744688"/>
   <tile gid="1073744689"/>
   <tile gid="1073744690"/>
   <tile gid="1073744691"/>
   <tile gid="1073744692"/>
   <tile gid="1073744693"/>
   <tile gid="1073744694"/>
   <tile gid="1073744645"/>
   <tile gid="1073744646"/>
   <tile gid="1073744647"/>
   <tile gid="1073744648"/>
   <tile gid="1073744649"/>
   <tile gid="1073744650"/>
   <tile gid="1073744651"/>
   <tile gid="1073744652"/>
   <tile gid="1073744653"/>
   <tile gid="1073744654"/>
   <tile gid="1073744655"/>
   <tile gid="1073744656"/>
   <tile gid="1073744657"/>
   <tile gid="1073744658"/>
   <tile gid="1073744659"/>
   <tile gid="1073744660"/>
   <tile gid="1073744661"/>
   <tile gid="1073744662"/>
   <tile gid="1073744663"/>
   <tile gid="1073744664"/>
   <tile gid="1073744665"/>
   <tile gid="1073744666"/>
   <tile gid="1073744667"/>
   <tile gid="1073744668"/>
   <tile gid="1073744669"/>
   <tile gid="1073744670"/>
   <tile gid="1073744671"/>
   <tile gid="1073744672"/>
   <tile gid="1073744673"/>
   <tile gid="1073744674"/>
   <tile gid="1073744675"/>
   <tile gid="1073744676"/>
   <tile gid="1073744677"/>
   <tile gid="1073744678"/>
   <tile gid="1073744679"/>
   <tile gid="1073744680"/>
   <tile gid="1073744681"/>
   <tile gid="1073744682"/>
   <tile gid="1073744683"/>
   <tile gid="1073744684"/>
   <tile gid="1073744595"/>
   <tile gid="1073744596"/>
   <tile gid="1073744597"/>
   <tile gid="1073744598"/>
   <tile gid="1073744599"/>
   <tile gid="1073744600"/>
   <tile gid="1073744601"/>
   <tile gid="1073744602"/>
   <tile gid="1073744603"/>
   <tile gid="1073744604"/>
   <tile gid="1073744605"/>
   <tile gid="1073744606"/>
   <tile gid="1073744607"/>
   <tile gid="1073744608"/>
   <tile gid="1073744609"/>
   <tile gid="1073744610"/>
   <tile gid="1073744611"/>
   <tile gid="1073744612"/>
   <tile gid="1073744613"/>
   <tile gid="1073744614"/>
   <tile gid="1073744615"/>
   <tile gid="1073744616"/>
   <tile gid="1073744617"/>
   <tile gid="1073744618"/>
   <tile gid="1073744619"/>
   <tile gid="1073744620"/>
   <tile gid="1073744621"/>
   <tile gid="1073744622"/>
   <tile gid="1073744623"/>
   <tile gid="1073744624"/>
   <tile gid="1073744625"/>
   <tile gid="1073744626"/>
   <tile gid="1073744627"/>
   <tile gid="1073744628"/>
   <tile gid="1073744629"/>
   <tile gid="1073744630"/>
   <tile gid="1073744631"/>
   <tile gid="1073744632"/>
   <tile gid="1073744633"/>
   <tile gid="1073744634"/>
   <tile gid="1073744635"/>
   <tile gid="1073744636"/>
   <tile gid="1073744637"/>
   <tile gid="1073744638"/>
   <tile gid="1073744639"/>
   <tile gid="1073744640"/>
   <tile gid="1073744641"/>
   <tile gid="1073744642"/>
   <tile gid="1073744643"/>
   <tile gid="1073744644"/>
   <tile gid="1073744595"/>
   <tile gid="1073744596"/>
   <tile gid="1073744597"/>
   <tile gid="1073744598"/>
   <tile gid="1073744599"/>
   <tile gid="1073744600"/>
   <tile gid="1073744601"/>
   <tile gid="1073744602"/>
   <tile gid="1073744603"/>
   <tile gid="1073744604"/>
   <tile gid="1073744605"/>
   <tile gid="1073744606"/>
   <tile gid="1073744607"/>
   <tile gid="1073744608"/>
   <tile gid="1073744609"/>
   <tile gid="1073744610"/>
   <tile gid="1073744611"/>
   <tile gid="1073744612"/>
   <tile gid="1073744613"/>
   <tile gid="1073744614"/>
   <tile gid="1073744615"/>
   <tile gid="1073744616"/>
   <tile gid="1073744617"/>
   <tile gid="1073744618"/>
   <tile gid="1073744619"/>
   <tile gid="1073744620"/>
   <tile gid="1073744621"/>
   <tile gid="1073744622"/>
   <tile gid="1073744623"/>
   <tile gid="1073744624"/>
   <tile gid="1073744625"/>
   <tile gid="1073744626"/>
   <tile gid="1073744627"/>
   <tile gid="1073744628"/>
   <tile gid="1073744629"/>
   <tile gid="1073744630"/>
   <tile gid="1073744631"/>
   <tile gid="1073744632"/>
   <tile gid="1073744633"/>
   <tile gid="1073744634"/>
   <tile gid="1073744545"/>
   <tile gid="1073744546"/>
   <tile gid="1073744547"/>
   <tile gid="1073744548"/>
   <tile gid="1073744549"/>
   <tile gid="1073744550"/>
   <tile gid="1073744551"/>
   <tile gid="1073744552"/>
   <tile gid="1073744553"/>
   <tile gid="1073744554"/>
   <tile gid="1073744555"/>
   <tile gid="1073744556"/>
   <tile gid="1073744557"/>
   <tile gid="1073744558"/>
   <tile gid="1073744559"/>
   <tile gid="1073744560"/>
   <tile gid="1073744561"/>
   <tile gid="1073744562"/>
   <tile gid="1073744563"/>
   <tile gid="1073744564"/>
   <tile gid="1073744565"/>
   <tile gid="1073744566"/>
   <tile gid="1073744567"/>
   <tile gid="1073744568"/>
   <tile gid="1073744569"/>
   <tile gid="1073744570"/>
   <tile gid="1073744571"/>
   <tile gid="1073744572"/>
   <tile gid="1073744573"/>
   <tile gid="1073744574"/>
   <tile gid="1073744575"/>
   <tile gid="1073744576"/>
   <tile gid="1073744577"/>
   <tile gid="1073744578"/>
   <tile gid="1073744579"/>
   <tile gid="1073744580"/>
   <tile gid="1073744581"/>
   <tile gid="1073744582"/>
   <tile gid="1073744583"/>
   <tile gid="1073744584"/>
   <tile gid="1073744585"/>
   <tile gid="1073744586"/>
   <tile gid="1073744587"/>
   <tile gid="1073744588"/>
   <tile gid="1073744589"/>
   <tile gid="1073744590"/>
   <tile gid="1073744591"/>
   <tile gid="1073744592"/>
   <tile gid="1073744593"/>
   <tile gid="1073744594"/>
   <tile gid="1073744545"/>
   <tile gid="1073744546"/>
   <tile gid="1073744547"/>
   <tile gid="1073744548"/>
   <tile gid="1073744549"/>
   <tile gid="1073744550"/>
   <tile gid="1073744551"/>
   <tile gid="1073744552"/>
   <tile gid="1073744553"/>
   <tile gid="1073744554"/>
   <tile gid="1073744555"/>
   <tile gid="1073744556"/>
   <tile gid="1073744557"/>
   <tile gid="1073744558"/>
   <tile gid="1073744559"/>
   <tile gid="1073744560"/>
   <tile gid="1073744561"/>
   <tile gid="1073744562"/>
   <tile gid="1073744563"/>
   <tile gid="1073744564"/>
   <tile gid="1073744565"/>
   <tile gid="1073744566"/>
   <tile gid="1073744567"/>
   <tile gid="1073744568"/>
   <tile gid="1073744569"/>
   <tile gid="1073744570"/>
   <tile gid="1073744571"/>
   <tile gid="1073744572"/>
   <tile gid="1073744573"/>
   <tile gid="1073744574"/>
   <tile gid="1073744575"/>
   <tile gid="1073744576"/>
   <tile gid="1073744577"/>
   <tile gid="1073744578"/>
   <tile gid="1073744579"/>
   <tile gid="1073744580"/>
   <tile gid="1073744581"/>
   <tile gid="1073744582"/>
   <tile gid="1073744583"/>
   <tile gid="1073744584"/>
   <tile gid="1073744495"/>
   <tile gid="1073744496"/>
   <tile gid="1073744497"/>
   <tile gid="1073744498"/>
   <tile gid="1073744499"/>
   <tile gid="1073744500"/>
   <tile gid="1073744501"/>
   <tile gid="1073744502"/>
   <tile gid="1073744503"/>
   <tile gid="1073744504"/>
   <tile gid="1073744505"/>
   <tile gid="1073744506"/>
   <tile gid="1073744507"/>
   <tile gid="1073744508"/>
   <tile gid="1073744509"/>
   <tile gid="1073744510"/>
   <tile gid="1073744511"/>
   <tile gid="1073744512"/>
   <tile gid="1073744513"/>
   <tile gid="1073744514"/>
   <tile gid="1073744515"/>
   <tile gid="1073744516"/>
   <tile gid="1073744517"/>
   <tile gid="1073744518"/>
   <tile gid="1073744519"/>
   <tile gid="1073744520"/>
   <tile gid="1073744521"/>
   <tile gid="1073744522"/>
   <tile gid="1073744523"/>
   <tile gid="1073744524"/>
   <tile gid="1073744525"/>
   <tile gid="1073744526"/>
   <tile gid="1073744527"/>
   <tile gid="1073744528"/>
   <tile gid="1073744529"/>
   <tile gid="1073744530"/>
   <tile gid="1073744531"/>
   <tile gid="1073744532"/>
   <tile gid="1073744533"/>
   <tile gid="1073744534"/>
   <tile gid="1073744535"/>
   <tile gid="1073744536"/>
   <tile gid="1073744537"/>
   <tile gid="1073744538"/>
   <tile gid="1073744539"/>
   <tile gid="1073744540"/>
   <tile gid="1073744541"/>
   <tile gid="1073744542"/>
   <tile gid="1073744543"/>
   <tile gid="1073744544"/>
   <tile gid="1073744495"/>
   <tile gid="1073744496"/>
   <tile gid="1073744497"/>
   <tile gid="1073744498"/>
   <tile gid="1073744499"/>
   <tile gid="1073744500"/>
   <tile gid="1073744501"/>
   <tile gid="1073744502"/>
   <tile gid="1073744503"/>
   <tile gid="1073744504"/>
   <tile gid="1073744505"/>
   <tile gid="1073744506"/>
   <tile gid="1073744507"/>
   <tile gid="1073744508"/>
   <tile gid="1073744509"/>
   <tile gid="1073744510"/>
   <tile gid="1073744511"/>
   <tile gid="1073744512"/>
   <tile gid="1073744513"/>
   <tile gid="1073744514"/>
   <tile gid="1073744515"/>
   <tile gid="1073744516"/>
   <tile gid="1073744517"/>
   <tile gid="1073744518"/>
   <tile gid="1073744519"/>
   <tile gid="1073744520"/>
   <tile gid="1073744521"/>
   <tile gid="1073744522"/>
   <tile gid="1073744523"/>
   <tile gid="1073744524"/>
   <tile gid="1073744525"/>
   <tile gid="1073744526"/>
   <tile gid="1073744527"/>
   <tile gid="1073744528"/>
   <tile gid="1073744529"/>
   <tile gid="1073744530"/>
   <tile gid="1073744531"/>
   <tile gid="1073744532"/>
   <tile gid="1073744533"/>
   <tile gid="1073744534"/>
   <tile gid="1073744445"/>
   <tile gid="1073744446"/>
   <tile gid="1073744447"/>
   <tile gid="1073744448"/>
   <tile gid="1073744449"/>
   <tile gid="1073744450"/>
   <tile gid="1073744451"/>
   <tile gid="1073744452"/>
   <tile gid="1073744453"/>
   <tile gid="1073744454"/>
   <tile gid="1073744455"/>
   <tile gid="1073744456"/>
   <tile gid="1073744457"/>
   <tile gid="1073744458"/>
   <tile gid="1073744459"/>
   <tile gid="1073744460"/>
   <tile gid="1073744461"/>
   <tile gid="1073744462"/>
   <tile gid="1073744463"/>
   <tile gid="1073744464"/>
   <tile gid="1073744465"/>
   <tile gid="1073744466"/>
   <tile gid="1073744467"/>
   <tile gid="1073744468"/>
   <tile gid="1073744469"/>
   <tile gid="1073744470"/>
   <tile gid="1073744471"/>
   <tile gid="1073744472"/>
   <tile gid="1073744473"/>
   <tile gid="1073744474"/>
   <tile gid="1073744475"/>
   <tile gid="1073744476"/>
   <tile gid="1073744477"/>
   <tile gid="1073744478"/>
   <tile gid="1073744479"/>
   <tile gid="1073744480"/>
   <tile gid="1073744481"/>
   <tile gid="1073744482"/>
   <tile gid="1073744483"/>
   <tile gid="1073744484"/>
   <tile gid="1073744485"/>
   <tile gid="1073744486"/>
   <tile gid="1073744487"/>
   <tile gid="1073744488"/>
   <tile gid="1073744489"/>
   <tile gid="1073744490"/>
   <tile gid="1073744491"/>
   <tile gid="1073744492"/>
   <tile gid="1073744493"/>
   <tile gid="1073744494"/>
   <tile gid="1073744445"/>
   <tile gid="1073744446"/>
   <tile gid="1073744447"/>
   <tile gid="1073744448"/>
   <tile gid="1073744449"/>
   <tile gid="1073744450"/>
   <tile gid="1073744451"/>
   <tile gid="1073744452"/>
   <tile gid="1073744453"/>
   <tile gid="1073744454"/>
   <tile gid="1073744455"/>
   <tile gid="1073744456"/>
   <tile gid="1073744457"/>
   <tile gid="1073744458"/>
   <tile gid="1073744459"/>
   <tile gid="1073744460"/>
   <tile gid="1073744461"/>
   <tile gid="1073744462"/>
   <tile gid="1073744463"/>
   <tile gid="1073744464"/>
   <tile gid="1073744465"/>
   <tile gid="1073744466"/>
   <tile gid="1073744467"/>
   <tile gid="1073744468"/>
   <tile gid="1073744469"/>
   <tile gid="1073744470"/>
   <tile gid="1073744471"/>
   <tile gid="1073744472"/>
   <tile gid="1073744473"/>
   <tile gid="1073744474"/>
   <tile gid="1073744475"/>
   <tile gid="1073744476"/>
   <tile gid="1073744477"/>
   <tile gid="1073744478"/>
   <tile gid="1073744479"/>
   <tile gid="1073744480"/>
   <tile gid="1073744481"/>
   <tile gid="1073744482"/>
   <tile gid="1073744483"/>
   <tile gid="1073744484"/>
   <tile gid="1073744395"/>
   <tile gid="1073744396"/>
   <tile gid="1073744397"/>
   <tile gid="1073744398"/>
   <tile gid="1073744399"/>
   <tile gid="1073744400"/>
   <tile gid="1073744401"/>
   <tile gid="1073744402"/>
   <tile gid="1073744403"/>
   <tile gid="1073744404"/>
   <tile gid="1073744405"/>
   <tile gid="1073744406"/>
   <tile gid="1073744407"/>
   <tile gid="1073744408"/>
   <tile gid="1073744409"/>
   <tile gid="1073744410"/>
   <tile gid="1073744411"/>
   <tile gid="1073744412"/>
   <tile gid="1073744413"/>
   <tile gid="1073744414"/>
   <tile gid="1073744415"/>
   <tile gid="1073744416"/>
   <tile gid="1073744417"/>
   <tile gid="1073744418"/>
   <tile gid="1073744419"/>
   <tile gid="1073744420"/>
   <tile gid="1073744421"/>
   <tile gid="1073744422"/>
   <tile gid="1073744423"/>
   <tile gid="1073744424"/>
   <tile gid="1073744425"/>
   <tile gid="1073744426"/>
   <tile gid="1073744427"/>
   <tile gid="1073744428"/>
   <tile gid="1073744429"/>
   <tile gid="1073744430"/>
   <tile gid="1073744431"/>
   <tile gid="1073744432"/>
   <tile gid="1073744433"/>
   <tile gid="1073744434"/>
   <tile gid="1073744435"/>
   <tile gid="1073744436"/>
   <tile gid="1073744437"/>
   <tile gid="1073744438"/>
   <tile gid="1073744439"/>
   <tile gid="1073744440"/>
   <tile gid="1073744441"/>
   <tile gid="1073744442"/>
   <tile gid="1073744443"/>
   <tile gid="1073744444"/>
   <tile gid="1073744395"/>
   <tile gid="1073744396"/>
   <tile gid="1073744397"/>
   <tile gid="1073744398"/>
   <tile gid="1073744399"/>
   <tile gid="1073744400"/>
   <tile gid="1073744401"/>
   <tile gid="1073744402"/>
   <tile gid="1073744403"/>
   <tile gid="1073744404"/>
   <tile gid="1073744405"/>
   <tile gid="1073744406"/>
   <tile gid="1073744407"/>
   <tile gid="1073744408"/>
   <tile gid="1073744409"/>
   <tile gid="1073744410"/>
   <tile gid="1073744411"/>
   <tile gid="1073744412"/>
   <tile gid="1073744413"/>
   <tile gid="1073744414"/>
   <tile gid="1073744415"/>
   <tile gid="1073744416"/>
   <tile gid="1073744417"/>
   <tile gid="1073744418"/>
   <tile gid="1073744419"/>
   <tile gid="1073744420"/>
   <tile gid="1073744421"/>
   <tile gid="1073744422"/>
   <tile gid="1073744423"/>
   <tile gid="1073744424"/>
   <tile gid="1073744425"/>
   <tile gid="1073744426"/>
   <tile gid="1073744427"/>
   <tile gid="1073744428"/>
   <tile gid="1073744429"/>
   <tile gid="1073744430"/>
   <tile gid="1073744431"/>
   <tile gid="1073744432"/>
   <tile gid="1073744433"/>
   <tile gid="1073744434"/>
   <tile gid="1073744345"/>
   <tile gid="1073744346"/>
   <tile gid="1073744347"/>
   <tile gid="1073744348"/>
   <tile gid="1073744349"/>
   <tile gid="1073744350"/>
   <tile gid="1073744351"/>
   <tile gid="1073744352"/>
   <tile gid="1073744353"/>
   <tile gid="1073744354"/>
   <tile gid="1073744355"/>
   <tile gid="1073744356"/>
   <tile gid="1073744357"/>
   <tile gid="1073744358"/>
   <tile gid="1073744359"/>
   <tile gid="1073744360"/>
   <tile gid="1073744361"/>
   <tile gid="1073744362"/>
   <tile gid="1073744363"/>
   <tile gid="1073744364"/>
   <tile gid="1073744365"/>
   <tile gid="1073744366"/>
   <tile gid="1073744367"/>
   <tile gid="1073744368"/>
   <tile gid="1073744369"/>
   <tile gid="1073744370"/>
   <tile gid="1073744371"/>
   <tile gid="1073744372"/>
   <tile gid="1073744373"/>
   <tile gid="1073744374"/>
   <tile gid="1073744375"/>
   <tile gid="1073744376"/>
   <tile gid="1073744377"/>
   <tile gid="1073744378"/>
   <tile gid="1073744379"/>
   <tile gid="1073744380"/>
   <tile gid="1073744381"/>
   <tile gid="1073744382"/>
   <tile gid="1073744383"/>
   <tile gid="1073744384"/>
   <tile gid="1073744385"/>
   <tile gid="1073744386"/>
   <tile gid="1073744387"/>
   <tile gid="1073744388"/>
   <tile gid="1073744389"/>
   <tile gid="1073744390"/>
   <tile gid="1073744391"/>
   <tile gid="1073744392"/>
   <tile gid="1073744393"/>
   <tile gid="1073744394"/>
   <tile gid="1073744345"/>
   <tile gid="1073744346"/>
   <tile gid="1073744347"/>
   <tile gid="1073744348"/>
   <tile gid="1073744349"/>
   <tile gid="1073744350"/>
   <tile gid="1073744351"/>
   <tile gid="1073744352"/>
   <tile gid="1073744353"/>
   <tile gid="1073744354"/>
   <tile gid="1073744355"/>
   <tile gid="1073744356"/>
   <tile gid="1073744357"/>
   <tile gid="1073744358"/>
   <tile gid="1073744359"/>
   <tile gid="1073744360"/>
   <tile gid="1073744361"/>
   <tile gid="1073744362"/>
   <tile gid="1073744363"/>
   <tile gid="1073744364"/>
   <tile gid="1073744365"/>
   <tile gid="1073744366"/>
   <tile gid="1073744367"/>
   <tile gid="1073744368"/>
   <tile gid="1073744369"/>
   <tile gid="1073744370"/>
   <tile gid="1073744371"/>
   <tile gid="1073744372"/>
   <tile gid="1073744373"/>
   <tile gid="1073744374"/>
   <tile gid="1073744375"/>
   <tile gid="1073744376"/>
   <tile gid="1073744377"/>
   <tile gid="1073744378"/>
   <tile gid="1073744379"/>
   <tile gid="1073744380"/>
   <tile gid="1073744381"/>
   <tile gid="1073744382"/>
   <tile gid="1073744383"/>
   <tile gid="1073744384"/>
   <tile gid="1073744295"/>
   <tile gid="1073744296"/>
   <tile gid="1073744297"/>
   <tile gid="1073744298"/>
   <tile gid="1073744299"/>
   <tile gid="1073744300"/>
   <tile gid="1073744301"/>
   <tile gid="1073744302"/>
   <tile gid="1073744303"/>
   <tile gid="1073744304"/>
   <tile gid="1073744305"/>
   <tile gid="1073744306"/>
   <tile gid="1073744307"/>
   <tile gid="1073744308"/>
   <tile gid="1073744309"/>
   <tile gid="1073744310"/>
   <tile gid="1073744311"/>
   <tile gid="1073744312"/>
   <tile gid="1073744313"/>
   <tile gid="1073744314"/>
   <tile gid="1073744315"/>
   <tile gid="1073744316"/>
   <tile gid="1073744317"/>
   <tile gid="1073744318"/>
   <tile gid="1073744319"/>
   <tile gid="1073744320"/>
   <tile gid="1073744321"/>
   <tile gid="1073744322"/>
   <tile gid="1073744323"/>
   <tile gid="1073744324"/>
   <tile gid="1073744325"/>
   <tile gid="1073744326"/>
   <tile gid="1073744327"/>
   <tile gid="1073744328"/>
   <tile gid="1073744329"/>
   <tile gid="1073744330"/>
   <tile gid="1073744331"/>
   <tile gid="1073744332"/>
   <tile gid="1073744333"/>
   <tile gid="1073744334"/>
   <tile gid="1073744335"/>
   <tile gid="1073744336"/>
   <tile gid="1073744337"/>
   <tile gid="1073744338"/>
   <tile gid="1073744339"/>
   <tile gid="1073744340"/>
   <tile gid="1073744341"/>
   <tile gid="1073744342"/>
   <tile gid="1073744343"/>
   <tile gid="1073744344"/>
   <tile gid="1073744295"/>
   <tile gid="1073744296"/>
   <tile gid="1073744297"/>
   <tile gid="1073744298"/>
   <tile gid="1073744299"/>
   <tile gid="1073744300"/>
   <tile gid="1073744301"/>
   <tile gid="1073744302"/>
   <tile gid="1073744303"/>
   <tile gid="1073744304"/>
   <tile gid="1073744305"/>
   <tile gid="1073744306"/>
   <tile gid="1073744307"/>
   <tile gid="1073744308"/>
   <tile gid="1073744309"/>
   <tile gid="1073744310"/>
   <tile gid="1073744311"/>
   <tile gid="1073744312"/>
   <tile gid="1073744313"/>
   <tile gid="1073744314"/>
   <tile gid="1073744315"/>
   <tile gid="1073744316"/>
   <tile gid="1073744317"/>
   <tile gid="1073744318"/>
   <tile gid="1073744319"/>
   <tile gid="1073744320"/>
   <tile gid="1073744321"/>
   <tile gid="1073744322"/>
   <tile gid="1073744323"/>
   <tile gid="1073744324"/>
   <tile gid="1073744325"/>
   <tile gid="1073744326"/>
   <tile gid="1073744327"/>
   <tile gid="1073744328"/>
   <tile gid="1073744329"/>
   <tile gid="1073744330"/>
   <tile gid="1073744331"/>
   <tile gid="1073744332"/>
   <tile gid="1073744333"/>
   <tile gid="1073744334"/>
   <tile gid="1073744245"/>
   <tile gid="1073744246"/>
   <tile gid="1073744247"/>
   <tile gid="1073744248"/>
   <tile gid="1073744249"/>
   <tile gid="1073744250"/>
   <tile gid="1073744251"/>
   <tile gid="1073744252"/>
   <tile gid="1073744253"/>
   <tile gid="1073744254"/>
   <tile gid="1073744255"/>
   <tile gid="1073744256"/>
   <tile gid="1073744257"/>
   <tile gid="1073744258"/>
   <tile gid="1073744259"/>
   <tile gid="1073744260"/>
   <tile gid="1073744261"/>
   <tile gid="1073744262"/>
   <tile gid="1073744263"/>
   <tile gid="1073744264"/>
   <tile gid="1073744265"/>
   <tile gid="1073744266"/>
   <tile gid="1073744267"/>
   <tile gid="1073744268"/>
   <tile gid="1073744269"/>
   <tile gid="1073744270"/>
   <tile gid="1073744271"/>
   <tile gid="1073744272"/>
   <tile gid="1073744273"/>
   <tile gid="1073744274"/>
   <tile gid="1073744275"/>
   <tile gid="1073744276"/>
   <tile gid="1073744277"/>
   <tile gid="1073744278"/>
   <tile gid="1073744279"/>
   <tile gid="1073744280"/>
   <tile gid="1073744281"/>
   <tile gid="1073744282"/>
   <tile gid="1073744283"/>
   <tile gid="1073744284"/>
   <tile gid="1073744285"/>
   <tile gid="1073744286"/>
   <tile gid="1073744287"/>
   <tile gid="1073744288"/>
   <tile gid="1073744289"/>
   <tile gid="1073744290"/>
   <tile gid="1073744291"/>
   <tile gid="1073744292"/>
   <tile gid="1073744293"/>
   <tile gid="1073744294"/>
   <tile gid="1073744245"/>
   <tile gid="1073744246"/>
   <tile gid="1073744247"/>
   <tile gid="1073744248"/>
   <tile gid="1073744249"/>
   <tile gid="1073744250"/>
   <tile gid="1073744251"/>
   <tile gid="1073744252"/>
   <tile gid="1073744253"/>
   <tile gid="1073744254"/>
   <tile gid="1073744255"/>
   <tile gid="1073744256"/>
   <tile gid="1073744257"/>
   <tile gid="1073744258"/>
   <tile gid="1073744259"/>
   <tile gid="1073744260"/>
   <tile gid="1073744261"/>
   <tile gid="1073744262"/>
   <tile gid="1073744263"/>
   <tile gid="1073744264"/>
   <tile gid="1073744265"/>
   <tile gid="1073744266"/>
   <tile gid="1073744267"/>
   <tile gid="1073744268"/>
   <tile gid="1073744269"/>
   <tile gid="1073744270"/>
   <tile gid="1073744271"/>
   <tile gid="1073744272"/>
   <tile gid="1073744273"/>
   <tile gid="1073744274"/>
   <tile gid="1073744275"/>
   <tile gid="1073744276"/>
   <tile gid="1073744277"/>
   <tile gid="1073744278"/>
   <tile gid="1073744279"/>
   <tile gid="1073744280"/>
   <tile gid="1073744281"/>
   <tile gid="1073744282"/>
   <tile gid="1073744283"/>
   <tile gid="1073744284"/>
   <tile gid="1073744195"/>
   <tile gid="1073744196"/>
   <tile gid="1073744197"/>
   <tile gid="1073744198"/>
   <tile gid="1073744199"/>
   <tile gid="1073744200"/>
   <tile gid="1073744201"/>
   <tile gid="1073744202"/>
   <tile gid="1073744203"/>
   <tile gid="1073744204"/>
   <tile gid="1073744205"/>
   <tile gid="1073744206"/>
   <tile gid="1073744207"/>
   <tile gid="1073744208"/>
   <tile gid="1073744209"/>
   <tile gid="1073744210"/>
   <tile gid="1073744211"/>
   <tile gid="1073744212"/>
   <tile gid="1073744213"/>
   <tile gid="1073744214"/>
   <tile gid="1073744215"/>
   <tile gid="1073744216"/>
   <tile gid="1073744217"/>
   <tile gid="1073744218"/>
   <tile gid="1073744219"/>
   <tile gid="1073744220"/>
   <tile gid="1073744221"/>
   <tile gid="1073744222"/>
   <tile gid="1073744223"/>
   <tile gid="1073744224"/>
   <tile gid="1073744225"/>
   <tile gid="1073744226"/>
   <tile gid="1073744227"/>
   <tile gid="1073744228"/>
   <tile gid="1073744229"/>
   <tile gid="1073744230"/>
   <tile gid="1073744231"/>
   <tile gid="1073744232"/>
   <tile gid="1073744233"/>
   <tile gid="1073744234"/>
   <tile gid="1073744235"/>
   <tile gid="1073744236"/>
   <tile gid="1073744237"/>
   <tile gid="1073744238"/>
   <tile gid="1073744239"/>
   <tile gid="1073744240"/>
   <tile gid="1073744241"/>
   <tile gid="1073744242"/>
   <tile gid="1073744243"/>
   <tile gid="1073744244"/>
   <tile gid="1073744195"/>
   <tile gid="1073744196"/>
   <tile gid="1073744197"/>
   <tile gid="1073744198"/>
   <tile gid="1073744199"/>
   <tile gid="1073744200"/>
   <tile gid="1073744201"/>
   <tile gid="1073744202"/>
   <tile gid="1073744203"/>
   <tile gid="1073744204"/>
   <tile gid="1073744205"/>
   <tile gid="1073744206"/>
   <tile gid="1073744207"/>
   <tile gid="1073744208"/>
   <tile gid="1073744209"/>
   <tile gid="1073744210"/>
   <tile gid="1073744211"/>
   <tile gid="1073744212"/>
   <tile gid="1073744213"/>
   <tile gid="1073744214"/>
   <tile gid="1073744215"/>
   <tile gid="1073744216"/>
   <tile gid="1073744217"/>
   <tile gid="1073744218"/>
   <tile gid="1073744219"/>
   <tile gid="1073744220"/>
   <tile gid="1073744221"/>
   <tile gid="1073744222"/>
   <tile gid="1073744223"/>
   <tile gid="1073744224"/>
   <tile gid="1073744225"/>
   <tile gid="1073744226"/>
   <tile gid="1073744227"/>
   <tile gid="1073744228"/>
   <tile gid="1073744229"/>
   <tile gid="1073744230"/>
   <tile gid="1073744231"/>
   <tile gid="1073744232"/>
   <tile gid="1073744233"/>
   <tile gid="1073744234"/>
   <tile gid="1073744145"/>
   <tile gid="1073744146"/>
   <tile gid="1073744147"/>
   <tile gid="1073744148"/>
   <tile gid="1073744149"/>
   <tile gid="1073744150"/>
   <tile gid="1073744151"/>
   <tile gid="1073744152"/>
   <tile gid="1073744153"/>
   <tile gid="1073744154"/>
   <tile gid="1073744155"/>
   <tile gid="1073744156"/>
   <tile gid="1073744157"/>
   <tile gid="1073744158"/>
   <tile gid="1073744159"/>
   <tile gid="1073744160"/>
   <tile gid="1073744161"/>
   <tile gid="1073744162"/>
   <tile gid="1073744163"/>
   <tile gid="1073744164"/>
   <tile gid="1073744165"/>
   <tile gid="1073744166"/>
   <tile gid="1073744167"/>
   <tile gid="1073744168"/>
   <tile gid="1073744169"/>
   <tile gid="1073744170"/>
   <tile gid="1073744171"/>
   <tile gid="1073744172"/>
   <tile gid="1073744173"/>
   <tile gid="1073744174"/>
   <tile gid="1073744175"/>
   <tile gid="1073744176"/>
   <tile gid="1073744177"/>
   <tile gid="1073744178"/>
   <tile gid="1073744179"/>
   <tile gid="1073744180"/>
   <tile gid="1073744181"/>
   <tile gid="1073744182"/>
   <tile gid="1073744183"/>
   <tile gid="1073744184"/>
   <tile gid="1073744185"/>
   <tile gid="1073744186"/>
   <tile gid="1073744187"/>
   <tile gid="1073744188"/>
   <tile gid="1073744189"/>
   <tile gid="1073744190"/>
   <tile gid="1073744191"/>
   <tile gid="1073744192"/>
   <tile gid="1073744193"/>
   <tile gid="1073744194"/>
   <tile gid="1073744145"/>
   <tile gid="1073744146"/>
   <tile gid="1073744147"/>
   <tile gid="1073744148"/>
   <tile gid="1073744149"/>
   <tile gid="1073744150"/>
   <tile gid="1073744151"/>
   <tile gid="1073744152"/>
   <tile gid="1073744153"/>
   <tile gid="1073744154"/>
   <tile gid="1073744155"/>
   <tile gid="1073744156"/>
   <tile gid="1073744157"/>
   <tile gid="1073744158"/>
   <tile gid="1073744159"/>
   <tile gid="1073744160"/>
   <tile gid="1073744161"/>
   <tile gid="1073744162"/>
   <tile gid="1073744163"/>
   <tile gid="1073744164"/>
   <tile gid="1073744165"/>
   <tile gid="1073744166"/>
   <tile gid="1073744167"/>
   <tile gid="1073744168"/>
   <tile gid="1073744169"/>
   <tile gid="1073744170"/>
   <tile gid="1073744171"/>
   <tile gid="1073744172"/>
   <tile gid="1073744173"/>
   <tile gid="1073744174"/>
   <tile gid="1073744175"/>
   <tile gid="1073744176"/>
   <tile gid="1073744177"/>
   <tile gid="1073744178"/>
   <tile gid="1073744179"/>
   <tile gid="1073744180"/>
   <tile gid="1073744181"/>
   <tile gid="1073744182"/>
   <tile gid="1073744183"/>
   <tile gid="1073744184"/>
   <tile gid="1073744095"/>
   <tile gid="1073744096"/>
   <tile gid="1073744097"/>
   <tile gid="1073744098"/>
   <tile gid="1073744099"/>
   <tile gid="1073744100"/>
   <tile gid="1073744101"/>
   <tile gid="1073744102"/>
   <tile gid="1073744103"/>
   <tile gid="1073744104"/>
   <tile gid="1073744105"/>
   <tile gid="1073744106"/>
   <tile gid="1073744107"/>
   <tile gid="1073744108"/>
   <tile gid="1073744109"/>
   <tile gid="1073744110"/>
   <tile gid="1073744111"/>
   <tile gid="1073744112"/>
   <tile gid="1073744113"/>
   <tile gid="1073744114"/>
   <tile gid="1073744115"/>
   <tile gid="1073744116"/>
   <tile gid="1073744117"/>
   <tile gid="1073744118"/>
   <tile gid="1073744119"/>
   <tile gid="1073744120"/>
   <tile gid="1073744121"/>
   <tile gid="1073744122"/>
   <tile gid="1073744123"/>
   <tile gid="1073744124"/>
   <tile gid="1073744125"/>
   <tile gid="1073744126"/>
   <tile gid="1073744127"/>
   <tile gid="1073744128"/>
   <tile gid="1073744129"/>
   <tile gid="1073744130"/>
   <tile gid="1073744131"/>
   <tile gid="1073744132"/>
   <tile gid="1073744133"/>
   <tile gid="1073744134"/>
   <tile gid="1073744135"/>
   <tile gid="1073744136"/>
   <tile gid="1073744137"/>
   <tile gid="1073744138"/>
   <tile gid="1073744139"/>
   <tile gid="1073744140"/>
   <tile gid="1073744141"/>
   <tile gid="1073744142"/>
   <tile gid="1073744143"/>
   <tile gid="1073744144"/>
   <tile gid="1073744095"/>
   <tile gid="1073744096"/>
   <tile gid="1073744097"/>
   <tile gid="1073744098"/>
   <tile gid="1073744099"/>
   <tile gid="1073744100"/>
   <tile gid="1073744101"/>
   <tile gid="1073744102"/>
   <tile gid="1073744103"/>
   <tile gid="1073744104"/>
   <tile gid="1073744105"/>
   <tile gid="1073744106"/>
   <tile gid="1073744107"/>
   <tile gid="1073744108"/>
   <tile gid="1073744109"/>
   <tile gid="1073744110"/>
   <tile gid="1073744111"/>
   <tile gid="1073744112"/>
   <tile gid="1073744113"/>
   <tile gid="1073744114"/>
   <tile gid="1073744115"/>
   <tile gid="1073744116"/>
   <tile gid="1073744117"/>
   <tile gid="1073744118"/>
   <tile gid="1073744119"/>
   <tile gid="1073744120"/>
   <tile gid="1073744121"/>
   <tile gid="1073744122"/>
   <tile gid="1073744123"/>
   <tile gid="1073744124"/>
   <tile gid="1073744125"/>
   <tile gid="1073744126"/>
   <tile gid="1073744127"/>
   <tile gid="1073744128"/>
   <tile gid="1073744129"/>
   <tile gid="1073744130"/>
   <tile gid="1073744131"/>
   <tile gid="1073744132"/>
   <tile gid="1073744133"/>
   <tile gid="1073744134"/>
   <tile gid="1073744045"/>
   <tile gid="1073744046"/>
   <tile gid="1073744047"/>
   <tile gid="1073744048"/>
   <tile gid="1073744049"/>
   <tile gid="1073744050"/>
   <tile gid="1073744051"/>
   <tile gid="1073744052"/>
   <tile gid="1073744053"/>
   <tile gid="1073744054"/>
   <tile gid="1073744055"/>
   <tile gid="1073744056"/>
   <tile gid="1073744057"/>
   <tile gid="1073744058"/>
   <tile gid="1073744059"/>
   <tile gid="1073744060"/>
   <tile gid="1073744061"/>
   <tile gid="1073744062"/>
   <tile gid="1073744063"/>
   <tile gid="1073744064"/>
   <tile gid="1073744065"/>
   <tile gid="1073744066"/>
   <tile gid="1073744067"/>
   <tile gid="1073744068"/>
   <tile gid="1073744069"/>
   <tile gid="1073744070"/>
   <tile gid="1073744071"/>
   <tile gid="1073744072"/>
   <tile gid="1073744073"/>
   <tile gid="1073744074"/>
   <tile gid="1073744075"/>
   <tile gid="1073744076"/>
   <tile gid="1073744077"/>
   <tile gid="1073744078"/>
   <tile gid="1073744079"/>
   <tile gid="1073744080"/>
   <tile gid="1073744081"/>
   <tile gid="1073744082"/>
   <tile gid="1073744083"/>
   <tile gid="1073744084"/>
   <tile gid="1073744085"/>
   <tile gid="1073744086"/>
   <tile gid="1073744087"/>
   <tile gid="1073744088"/>
   <tile gid="1073744089"/>
   <tile gid="1073744090"/>
   <tile gid="1073744091"/>
   <tile gid="1073744092"/>
   <tile gid="1073744093"/>
   <tile gid="1073744094"/>
   <tile gid="1073744045"/>
   <tile gid="1073744046"/>
   <tile gid="1073744047"/>
   <tile gid="1073744048"/>
   <tile gid="1073744049"/>
   <tile gid="1073744050"/>
   <tile gid="1073744051"/>
   <tile gid="1073744052"/>
   <tile gid="1073744053"/>
   <tile gid="1073744054"/>
   <tile gid="1073744055"/>
   <tile gid="1073744056"/>
   <tile gid="1073744057"/>
   <tile gid="1073744058"/>
   <tile gid="1073744059"/>
   <tile gid="1073744060"/>
   <tile gid="1073744061"/>
   <tile gid="1073744062"/>
   <tile gid="1073744063"/>
   <tile gid="1073744064"/>
   <tile gid="1073744065"/>
   <tile gid="1073744066"/>
   <tile gid="1073744067"/>
   <tile gid="1073744068"/>
   <tile gid="1073744069"/>
   <tile gid="1073744070"/>
   <tile gid="1073744071"/>
   <tile gid="1073744072"/>
   <tile gid="1073744073"/>
   <tile gid="1073744074"/>
   <tile gid="1073744075"/>
   <tile gid="1073744076"/>
   <tile gid="1073744077"/>
   <tile gid="1073744078"/>
   <tile gid="1073744079"/>
   <tile gid="1073744080"/>
   <tile gid="1073744081"/>
   <tile gid="1073744082"/>
   <tile gid="1073744083"/>
   <tile gid="1073744084"/>
   <tile gid="1073743995"/>
   <tile gid="1073743996"/>
   <tile gid="1073743997"/>
   <tile gid="1073743998"/>
   <tile gid="1073743999"/>
   <tile gid="1073744000"/>
   <tile gid="1073744001"/>
   <tile gid="1073744002"/>
   <tile gid="1073744003"/>
   <tile gid="1073744004"/>
   <tile gid="1073744005"/>
   <tile gid="1073744006"/>
   <tile gid="1073744007"/>
   <tile gid="1073744008"/>
   <tile gid="1073744009"/>
   <tile gid="1073744010"/>
   <tile gid="1073744011"/>
   <tile gid="1073744012"/>
   <tile gid="1073744013"/>
   <tile gid="1073744014"/>
   <tile gid="1073744015"/>
   <tile gid="1073744016"/>
   <tile gid="1073744017"/>
   <tile gid="1073744018"/>
   <tile gid="1073744019"/>
   <tile gid="1073744020"/>
   <tile gid="1073744021"/>
   <tile gid="1073744022"/>
   <tile gid="1073744023"/>
   <tile gid="1073744024"/>
   <tile gid="1073744025"/>
   <tile gid="1073744026"/>
   <tile gid="1073744027"/>
   <tile gid="1073744028"/>
   <tile gid="1073744029"/>
   <tile gid="1073744030"/>
   <tile gid="1073744031"/>
   <tile gid="1073744032"/>
   <tile gid="1073744033"/>
   <tile gid="1073744034"/>
   <tile gid="1073744035"/>
   <tile gid="1073744036"/>
   <tile gid="1073744037"/>
   <tile gid="1073744038"/>
   <tile gid="1073744039"/>
   <tile gid="1073744040"/>
   <tile gid="1073744041"/>
   <tile gid="1073744042"/>
   <tile gid="1073744043"/>
   <tile gid="1073744044"/>
   <tile gid="1073743995"/>
   <tile gid="1073743996"/>
   <tile gid="1073743997"/>
   <tile gid="1073743998"/>
   <tile gid="1073743999"/>
   <tile gid="1073744000"/>
   <tile gid="1073744001"/>
   <tile gid="1073744002"/>
   <tile gid="1073744003"/>
   <tile gid="1073744004"/>
   <tile gid="1073744005"/>
   <tile gid="1073744006"/>
   <tile gid="1073744007"/>
   <tile gid="1073744008"/>
   <tile gid="1073744009"/>
   <tile gid="1073744010"/>
   <tile gid="1073744011"/>
   <tile gid="1073744012"/>
   <tile gid="1073744013"/>
   <tile gid="1073744014"/>
   <tile gid="1073744015"/>
   <tile gid="1073744016"/>
   <tile gid="1073744017"/>
   <tile gid="1073744018"/>
   <tile gid="1073744019"/>
   <tile gid="1073744020"/>
   <tile gid="1073744021"/>
   <tile gid="1073744022"/>
   <tile gid="1073744023"/>
   <tile gid="1073744024"/>
   <tile gid="1073744025"/>
   <tile gid="1073744026"/>
   <tile gid="1073744027"/>
   <tile gid="1073744028"/>
   <tile gid="1073744029"/>
   <tile gid="1073744030"/>
   <tile gid="1073744031"/>
   <tile gid="1073744032"/>
   <tile gid="1073744033"/>
   <tile gid="1073744034"/>
   <tile gid="1073743945"/>
   <tile gid="1073743946"/>
   <tile gid="1073743947"/>
   <tile gid="1073743948"/>
   <tile gid="1073743949"/>
   <tile gid="1073743950"/>
   <tile gid="1073743951"/>
   <tile gid="1073743952"/>
   <tile gid="1073743953"/>
   <tile gid="1073743954"/>
   <tile gid="1073743955"/>
   <tile gid="1073743956"/>
   <tile gid="1073743957"/>
   <tile gid="1073743958"/>
   <tile gid="1073743959"/>
   <tile gid="1073743960"/>
   <tile gid="1073743961"/>
   <tile gid="1073743962"/>
   <tile gid="1073743963"/>
   <tile gid="1073743964"/>
   <tile gid="1073743965"/>
   <tile gid="1073743966"/>
   <tile gid="1073743967"/>
   <tile gid="1073743968"/>
   <tile gid="1073743969"/>
   <tile gid="1073743970"/>
   <tile gid="1073743971"/>
   <tile gid="1073743972"/>
   <tile gid="1073743973"/>
   <tile gid="1073743974"/>
   <tile gid="1073743975"/>
   <tile gid="1073743976"/>
   <tile gid="1073743977"/>
   <tile gid="1073743978"/>
   <tile gid="1073743979"/>
   <tile gid="1073743980"/>
   <tile gid="1073743981"/>
   <tile gid="1073743982"/>
   <tile gid="1073743983"/>
   <tile gid="1073743984"/>
   <tile gid="1073743985"/>
   <tile gid="1073743986"/>
   <tile gid="1073743987"/>
   <tile gid="1073743988"/>
   <tile gid="1073743989"/>
   <tile gid="1073743990"/>
   <tile gid="1073743991"/>
   <tile gid="1073743992"/>
   <tile gid="1073743993"/>
   <tile gid="1073743994"/>
   <tile gid="1073743945"/>
   <tile gid="1073743946"/>
   <tile gid="1073743947"/>
   <tile gid="1073743948"/>
   <tile gid="1073743949"/>
   <tile gid="1073743950"/>
   <tile gid="1073743951"/>
   <tile gid="1073743952"/>
   <tile gid="1073743953"/>
   <tile gid="1073743954"/>
   <tile gid="1073743955"/>
   <tile gid="1073743956"/>
   <tile gid="1073743957"/>
   <tile gid="1073743958"/>
   <tile gid="1073743959"/>
   <tile gid="1073743960"/>
   <tile gid="1073743961"/>
   <tile gid="1073743962"/>
   <tile gid="1073743963"/>
   <tile gid="1073743964"/>
   <tile gid="1073743965"/>
   <tile gid="1073743966"/>
   <tile gid="1073743967"/>
   <tile gid="1073743968"/>
   <tile gid="1073743969"/>
   <tile gid="1073743970"/>
   <tile gid="1073743971"/>
   <tile gid="1073743972"/>
   <tile gid="1073743973"/>
   <tile gid="1073743974"/>
   <tile gid="1073743975"/>
   <tile gid="1073743976"/>
   <tile gid="1073743977"/>
   <tile gid="1073743978"/>
   <tile gid="1073743979"/>
   <tile gid="1073743980"/>
   <tile gid="1073743981"/>
   <tile gid="1073743982"/>
   <tile gid="1073743983"/>
   <tile gid="1073743984"/>
   <tile gid="1073743895"/>
   <tile gid="1073743896"/>
   <tile gid="1073743897"/>
   <tile gid="1073743898"/>
   <tile gid="1073743899"/>
   <tile gid="1073743900"/>
   <tile gid="1073743901"/>
   <tile gid="1073743902"/>
   <tile gid="1073743903"/>
   <tile gid="1073743904"/>
   <tile gid="1073743905"/>
   <tile gid="1073743906"/>
   <tile gid="1073743907"/>
   <tile gid="1073743908"/>
   <tile gid="1073743909"/>
   <tile gid="1073743910"/>
   <tile gid="1073743911"/>
   <tile gid="1073743912"/>
   <tile gid="1073743913"/>
   <tile gid="1073743914"/>
   <tile gid="1073743915"/>
   <tile gid="1073743916"/>
   <tile gid="1073743917"/>
   <tile gid="1073743918"/>
   <tile gid="1073743919"/>
   <tile gid="1073743920"/>
   <tile gid="1073743921"/>
   <tile gid="1073743922"/>
   <tile gid="1073743923"/>
   <tile gid="1073743924"/>
   <tile gid="1073743925"/>
   <tile gid="1073743926"/>
   <tile gid="1073743927"/>
   <tile gid="1073743928"/>
   <tile gid="1073743929"/>
   <tile gid="1073743930"/>
   <tile gid="1073743931"/>
   <tile gid="1073743932"/>
   <tile gid="1073743933"/>
   <tile gid="1073743934"/>
   <tile gid="1073743935"/>
   <tile gid="1073743936"/>
   <tile gid="1073743937"/>
   <tile gid="1073743938"/>
   <tile gid="1073743939"/>
   <tile gid="1073743940"/>
   <tile gid="1073743941"/>
   <tile gid="1073743942"/>
   <tile gid="1073743943"/>
   <tile gid="1073743944"/>
   <tile gid="1073743895"/>
   <tile gid="1073743896"/>
   <tile gid="1073743897"/>
   <tile gid="1073743898"/>
   <tile gid="1073743899"/>
   <tile gid="1073743900"/>
   <tile gid="1073743901"/>
   <tile gid="1073743902"/>
   <tile gid="1073743903"/>
   <tile gid="1073743904"/>
   <tile gid="1073743905"/>
   <tile gid="1073743906"/>
   <tile gid="1073743907"/>
   <tile gid="1073743908"/>
   <tile gid="1073743909"/>
   <tile gid="1073743910"/>
   <tile gid="1073743911"/>
   <tile gid="1073743912"/>
   <tile gid="1073743913"/>
   <tile gid="1073743914"/>
   <tile gid="1073743915"/>
   <tile gid="1073743916"/>
   <tile gid="1073743917"/>
   <tile gid="1073743918"/>
   <tile gid="1073743919"/>
   <tile gid="1073743920"/>
   <tile gid="1073743921"/>
   <tile gid="1073743922"/>
   <tile gid="1073743923"/>
   <tile gid="1073743924"/>
   <tile gid="1073743925"/>
   <tile gid="1073743926"/>
   <tile gid="1073743927"/>
   <tile gid="1073743928"/>
   <tile gid="1073743929"/>
   <tile gid="1073743930"/>
   <tile gid="1073743931"/>
   <tile gid="1073743932"/>
   <tile gid="1073743933"/>
   <tile gid="1073743934"/>
   <tile gid="1073743845"/>
   <tile gid="1073743846"/>
   <tile gid="1073743847"/>
   <tile gid="1073743848"/>
   <tile gid="1073743849"/>
   <tile gid="1073743850"/>
   <tile gid="1073743851"/>
   <tile gid="1073743852"/>
   <tile gid="1073743853"/>
   <tile gid="1073743854"/>
   <tile gid="1073743855"/>
   <tile gid="1073743856"/>
   <tile gid="1073743857"/>
   <tile gid="1073743858"/>
   <tile gid="1073743859"/>
   <tile gid="1073743860"/>
   <tile gid="1073743861"/>
   <tile gid="1073743862"/>
   <tile gid="1073743863"/>
   <tile gid="1073743864"/>
   <tile gid="1073743865"/>
   <tile gid="1073743866"/>
   <tile gid="1073743867"/>
   <tile gid="1073743868"/>
   <tile gid="1073743869"/>
   <tile gid="1073743870"/>
   <tile gid="1073743871"/>
   <tile gid="1073743872"/>
   <tile gid="1073743873"/>
   <tile gid="1073743874"/>
   <tile gid="1073743875"/>
   <tile gid="1073743876"/>
   <tile gid="1073743877"/>
   <tile gid="1073743878"/>
   <tile gid="1073743879"/>
   <tile gid="1073743880"/>
   <tile gid="1073743881"/>
   <tile gid="1073743882"/>
   <tile gid="1073743883"/>
   <tile gid="1073743884"/>
   <tile gid="1073743885"/>
   <tile gid="1073743886"/>
   <tile gid="1073743887"/>
   <tile gid="1073743888"/>
   <tile gid="1073743889"/>
   <tile gid="1073743890"/>
   <tile gid="1073743891"/>
   <tile gid="1073743892"/>
   <tile gid="1073743893"/>
   <tile gid="1073743894"/>
   <tile gid="1073743845"/>
   <tile gid="1073743846"/>
   <tile gid="1073743847"/>
   <tile gid="1073743848"/>
   <tile gid="1073743849"/>
   <tile gid="1073743850"/>
   <tile gid="1073743851"/>
   <tile gid="1073743852"/>
   <tile gid="1073743853"/>
   <tile gid="1073743854"/>
   <tile gid="1073743855"/>
   <tile gid="1073743856"/>
   <tile gid="1073743857"/>
   <tile gid="1073743858"/>
   <tile gid="1073743859"/>
   <tile gid="1073743860"/>
   <tile gid="1073743861"/>
   <tile gid="1073743862"/>
   <tile gid="1073743863"/>
   <tile gid="1073743864"/>
   <tile gid="1073743865"/>
   <tile gid="1073743866"/>
   <tile gid="1073743867"/>
   <tile gid="1073743868"/>
   <tile gid="1073743869"/>
   <tile gid="1073743870"/>
   <tile gid="1073743871"/>
   <tile gid="1073743872"/>
   <tile gid="1073743873"/>
   <tile gid="1073743874"/>
   <tile gid="1073743875"/>
   <tile gid="1073743876"/>
   <tile gid="1073743877"/>
   <tile gid="1073743878"/>
   <tile gid="1073743879"/>
   <tile gid="1073743880"/>
   <tile gid="1073743881"/>
   <tile gid="1073743882"/>
   <tile gid="1073743883"/>
   <tile gid="1073743884"/>
   <tile gid="1073743795"/>
   <tile gid="1073743796"/>
   <tile gid="1073743797"/>
   <tile gid="1073743798"/>
   <tile gid="1073743799"/>
   <tile gid="1073743800"/>
   <tile gid="1073743801"/>
   <tile gid="1073743802"/>
   <tile gid="1073743803"/>
   <tile gid="1073743804"/>
   <tile gid="1073743805"/>
   <tile gid="1073743806"/>
   <tile gid="1073743807"/>
   <tile gid="1073743808"/>
   <tile gid="1073743809"/>
   <tile gid="1073743810"/>
   <tile gid="1073743811"/>
   <tile gid="1073743812"/>
   <tile gid="1073743813"/>
   <tile gid="1073743814"/>
   <tile gid="1073743815"/>
   <tile gid="1073743816"/>
   <tile gid="1073743817"/>
   <tile gid="1073743818"/>
   <tile gid="1073743819"/>
   <tile gid="1073743820"/>
   <tile gid="1073743821"/>
   <tile gid="1073743822"/>
   <tile gid="1073743823"/>
   <tile gid="1073743824"/>
   <tile gid="1073743825"/>
   <tile gid="1073743826"/>
   <tile gid="1073743827"/>
   <tile gid="1073743828"/>
   <tile gid="1073743829"/>
   <tile gid="1073743830"/>
   <tile gid="1073743831"/>
   <tile gid="1073743832"/>
   <tile gid="1073743833"/>
   <tile gid="1073743834"/>
   <tile gid="1073743835"/>
   <tile gid="1073743836"/>
   <tile gid="1073743837"/>
   <tile gid="1073743838"/>
   <tile gid="1073743839"/>
   <tile gid="1073743840"/>
   <tile gid="1073743841"/>
   <tile gid="1073743842"/>
   <tile gid="1073743843"/>
   <tile gid="1073743844"/>
   <tile gid="1073743795"/>
   <tile gid="1073743796"/>
   <tile gid="1073743797"/>
   <tile gid="1073743798"/>
   <tile gid="1073743799"/>
   <tile gid="1073743800"/>
   <tile gid="1073743801"/>
   <tile gid="1073743802"/>
   <tile gid="1073743803"/>
   <tile gid="1073743804"/>
   <tile gid="1073743805"/>
   <tile gid="1073743806"/>
   <tile gid="1073743807"/>
   <tile gid="1073743808"/>
   <tile gid="1073743809"/>
   <tile gid="1073743810"/>
   <tile gid="1073743811"/>
   <tile gid="1073743812"/>
   <tile gid="1073743813"/>
   <tile gid="1073743814"/>
   <tile gid="1073743815"/>
   <tile gid="1073743816"/>
   <tile gid="1073743817"/>
   <tile gid="1073743818"/>
   <tile gid="1073743819"/>
   <tile gid="1073743820"/>
   <tile gid="1073743821"/>
   <tile gid="1073743822"/>
   <tile gid="1073743823"/>
   <tile gid="1073743824"/>
   <tile gid="1073743825"/>
   <tile gid="1073743826"/>
   <tile gid="1073743827"/>
   <tile gid="1073743828"/>
   <tile gid="1073743829"/>
   <tile gid="1073743830"/>
   <tile gid="1073743831"/>
   <tile gid="1073743832"/>
   <tile gid="1073743833"/>
   <tile gid="1073743834"/>
  </data>
 </layer>
 <layer id="8" name="Middleground" width="90" height="68" visible="0">
  <properties>
   <property name="Draw" type="bool" value="true"/>
  </properties>
  <data>
   <tile/>
   <tile/>
   <tile/>
   <tile/>
   <tile/>
   <tile/>
   <tile/>
   <tile/>
   <tile/>
   <tile/>
   <tile/>
   <tile/>
   <tile/>
   <tile/>
   <tile/>
   <tile/>
   <tile/>
   <tile/>
   <tile/>
   <tile/>
   <tile/>
   <tile/>
   <tile/>
   <tile/>
   <tile/>
   <tile/>
   <tile/>
   <tile/>
   <tile/>
   <tile/>
   <tile/>
   <tile/>
   <tile/>
   <tile/>
   <tile/>
   <tile/>
   <tile/>
   <tile/>
   <tile/>
   <tile/>
   <tile/>
   <tile/>
   <tile/>
   <tile/>
   <tile/>
   <tile/>
   <tile/>
   <tile/>
   <tile/>
   <tile/>
   <tile/>
   <tile/>
   <tile/>
   <tile/>
   <tile/>
   <tile/>
   <tile/>
   <tile/>
   <tile/>
   <tile/>
   <tile/>
   <tile/>
   <tile/>
   <tile/>
   <tile/>
   <tile/>
   <tile/>
   <tile/>
   <tile/>
   <tile/>
   <tile/>
   <tile/>
   <tile/>
   <tile/>
   <tile/>
   <tile/>
   <tile/>
   <tile/>
   <tile/>
   <tile/>
   <tile/>
   <tile/>
   <tile/>
   <tile/>
   <tile/>
   <tile/>
   <tile/>
   <tile/>
   <tile/>
   <tile/>
   <tile/>
   <tile/>
   <tile/>
   <tile/>
   <tile/>
   <tile/>
   <tile/>
   <tile/>
   <tile/>
   <tile/>
   <tile/>
   <tile/>
   <tile/>
   <tile/>
   <tile/>
   <tile/>
   <tile/>
   <tile/>
   <tile/>
   <tile/>
   <tile/>
   <tile/>
   <tile/>
   <tile/>
   <tile/>
   <tile/>
   <tile/>
   <tile/>
   <tile/>
   <tile/>
   <tile/>
   <tile/>
   <tile/>
   <tile/>
   <tile/>
   <tile/>
   <tile/>
   <tile/>
   <tile/>
   <tile/>
   <tile/>
   <tile/>
   <tile/>
   <tile/>
   <tile/>
   <tile/>
   <tile/>
   <tile/>
   <tile/>
   <tile/>
   <tile/>
   <tile/>
   <tile/>
   <tile/>
   <tile/>
   <tile/>
   <tile/>
   <tile/>
   <tile/>
   <tile/>
   <tile/>
   <tile/>
   <tile/>
   <tile/>
   <tile/>
   <tile/>
   <tile/>
   <tile/>
   <tile/>
   <tile/>
   <tile/>
   <tile/>
   <tile/>
   <tile/>
   <tile/>
   <tile/>
   <tile/>
   <tile/>
   <tile/>
   <tile/>
   <tile/>
   <tile/>
   <tile/>
   <tile/>
   <tile/>
   <tile/>
   <tile/>
   <tile/>
   <tile/>
   <tile/>
   <tile/>
   <tile/>
   <tile/>
   <tile/>
   <tile/>
   <tile/>
   <tile/>
   <tile/>
   <tile/>
   <tile/>
   <tile/>
   <tile/>
   <tile/>
   <tile/>
   <tile/>
   <tile/>
   <tile/>
   <tile/>
   <tile/>
   <tile/>
   <tile/>
   <tile/>
   <tile/>
   <tile/>
   <tile/>
   <tile/>
   <tile/>
   <tile/>
   <tile/>
   <tile/>
   <tile/>
   <tile/>
   <tile/>
   <tile/>
   <tile/>
   <tile/>
   <tile/>
   <tile/>
   <tile/>
   <tile/>
   <tile/>
   <tile/>
   <tile/>
   <tile/>
   <tile/>
   <tile/>
   <tile/>
   <tile/>
   <tile/>
   <tile/>
   <tile/>
   <tile/>
   <tile/>
   <tile/>
   <tile/>
   <tile/>
   <tile/>
   <tile/>
   <tile/>
   <tile/>
   <tile/>
   <tile/>
   <tile/>
   <tile/>
   <tile/>
   <tile/>
   <tile/>
   <tile/>
   <tile/>
   <tile/>
   <tile/>
   <tile/>
   <tile/>
   <tile/>
   <tile/>
   <tile/>
   <tile/>
   <tile/>
   <tile/>
   <tile/>
   <tile/>
   <tile/>
   <tile/>
   <tile/>
   <tile/>
   <tile/>
   <tile/>
   <tile/>
   <tile/>
   <tile/>
   <tile/>
   <tile/>
   <tile/>
   <tile/>
   <tile/>
   <tile/>
   <tile/>
   <tile/>
   <tile/>
   <tile/>
   <tile/>
   <tile/>
   <tile/>
   <tile/>
   <tile/>
   <tile/>
   <tile/>
   <tile/>
   <tile/>
   <tile/>
   <tile/>
   <tile/>
   <tile/>
   <tile/>
   <tile/>
   <tile/>
   <tile/>
   <tile/>
   <tile/>
   <tile/>
   <tile/>
   <tile/>
   <tile/>
   <tile/>
   <tile/>
   <tile/>
   <tile/>
   <tile/>
   <tile/>
   <tile/>
   <tile/>
   <tile/>
   <tile/>
   <tile/>
   <tile/>
   <tile/>
   <tile/>
   <tile/>
   <tile/>
   <tile/>
   <tile/>
   <tile/>
   <tile/>
   <tile/>
   <tile/>
   <tile/>
   <tile/>
   <tile/>
   <tile/>
   <tile/>
   <tile/>
   <tile/>
   <tile/>
   <tile/>
   <tile/>
   <tile/>
   <tile/>
   <tile/>
   <tile/>
   <tile/>
   <tile/>
   <tile/>
   <tile/>
   <tile/>
   <tile/>
   <tile/>
   <tile/>
   <tile/>
   <tile/>
   <tile/>
   <tile/>
   <tile/>
   <tile/>
   <tile/>
   <tile/>
   <tile/>
   <tile/>
   <tile/>
   <tile/>
   <tile/>
   <tile/>
   <tile/>
   <tile/>
   <tile/>
   <tile/>
   <tile/>
   <tile/>
   <tile/>
   <tile/>
   <tile/>
   <tile/>
   <tile/>
   <tile/>
   <tile/>
   <tile/>
   <tile/>
   <tile/>
   <tile/>
   <tile/>
   <tile/>
   <tile/>
   <tile/>
   <tile/>
   <tile/>
   <tile/>
   <tile/>
   <tile/>
   <tile/>
   <tile/>
   <tile/>
   <tile/>
   <tile/>
   <tile/>
   <tile/>
   <tile/>
   <tile/>
   <tile/>
   <tile/>
   <tile/>
   <tile/>
   <tile/>
   <tile/>
   <tile/>
   <tile/>
   <tile/>
   <tile/>
   <tile/>
   <tile/>
   <tile/>
   <tile/>
   <tile/>
   <tile/>
   <tile/>
   <tile/>
   <tile/>
   <tile/>
   <tile/>
   <tile/>
   <tile/>
   <tile/>
   <tile/>
   <tile/>
   <tile/>
   <tile/>
   <tile/>
   <tile/>
   <tile/>
   <tile/>
   <tile/>
   <tile/>
   <tile/>
   <tile/>
   <tile/>
   <tile/>
   <tile/>
   <tile/>
   <tile/>
   <tile/>
   <tile/>
   <tile/>
   <tile/>
   <tile/>
   <tile/>
   <tile/>
   <tile/>
   <tile/>
   <tile/>
   <tile/>
   <tile/>
   <tile/>
   <tile/>
   <tile/>
   <tile/>
   <tile/>
   <tile/>
   <tile/>
   <tile/>
   <tile/>
   <tile/>
   <tile/>
   <tile/>
   <tile/>
   <tile/>
   <tile/>
   <tile/>
   <tile/>
   <tile/>
   <tile/>
   <tile/>
   <tile/>
   <tile/>
   <tile/>
   <tile/>
   <tile/>
   <tile/>
   <tile/>
   <tile/>
   <tile/>
   <tile/>
   <tile/>
   <tile/>
   <tile/>
   <tile/>
   <tile/>
   <tile/>
   <tile/>
   <tile/>
   <tile/>
   <tile/>
   <tile/>
   <tile/>
   <tile/>
   <tile/>
   <tile/>
   <tile/>
   <tile/>
   <tile/>
   <tile/>
   <tile/>
   <tile/>
   <tile/>
   <tile/>
   <tile/>
   <tile/>
   <tile/>
   <tile/>
   <tile/>
   <tile/>
   <tile/>
   <tile/>
   <tile/>
   <tile/>
   <tile/>
   <tile/>
   <tile/>
   <tile/>
   <tile/>
   <tile/>
   <tile/>
   <tile/>
   <tile/>
   <tile/>
   <tile/>
   <tile/>
   <tile/>
   <tile/>
   <tile/>
   <tile/>
   <tile/>
   <tile/>
   <tile/>
   <tile/>
   <tile/>
   <tile/>
   <tile/>
   <tile/>
   <tile/>
   <tile/>
   <tile/>
   <tile/>
   <tile/>
   <tile/>
   <tile/>
   <tile/>
   <tile/>
   <tile/>
   <tile/>
   <tile/>
   <tile/>
   <tile/>
   <tile/>
   <tile/>
   <tile/>
   <tile/>
   <tile/>
   <tile/>
   <tile/>
   <tile/>
   <tile/>
   <tile/>
   <tile/>
   <tile/>
   <tile/>
   <tile/>
   <tile/>
   <tile/>
   <tile/>
   <tile/>
   <tile/>
   <tile/>
   <tile/>
   <tile/>
   <tile/>
   <tile/>
   <tile/>
   <tile/>
   <tile/>
   <tile/>
   <tile/>
   <tile/>
   <tile/>
   <tile/>
   <tile/>
   <tile/>
   <tile/>
   <tile/>
   <tile/>
   <tile/>
   <tile/>
   <tile/>
   <tile/>
   <tile/>
   <tile/>
   <tile/>
   <tile/>
   <tile/>
   <tile/>
   <tile/>
   <tile/>
   <tile/>
   <tile/>
   <tile/>
   <tile/>
   <tile/>
   <tile/>
   <tile/>
   <tile/>
   <tile/>
   <tile/>
   <tile/>
   <tile/>
   <tile/>
   <tile/>
   <tile/>
   <tile/>
   <tile/>
   <tile/>
   <tile/>
   <tile/>
   <tile/>
   <tile/>
   <tile/>
   <tile/>
   <tile/>
   <tile/>
   <tile/>
   <tile/>
   <tile/>
   <tile/>
   <tile/>
   <tile/>
   <tile/>
   <tile/>
   <tile/>
   <tile/>
   <tile/>
   <tile/>
   <tile/>
   <tile/>
   <tile/>
   <tile/>
   <tile/>
   <tile/>
   <tile/>
   <tile/>
   <tile/>
   <tile/>
   <tile/>
   <tile/>
   <tile/>
   <tile/>
   <tile/>
   <tile/>
   <tile/>
   <tile/>
   <tile/>
   <tile/>
   <tile/>
   <tile/>
   <tile/>
   <tile/>
   <tile/>
   <tile/>
   <tile/>
   <tile/>
   <tile/>
   <tile/>
   <tile/>
   <tile/>
   <tile/>
   <tile/>
   <tile/>
   <tile/>
   <tile/>
   <tile/>
   <tile/>
   <tile/>
   <tile/>
   <tile/>
   <tile/>
   <tile/>
   <tile/>
   <tile/>
   <tile/>
   <tile/>
   <tile/>
   <tile/>
   <tile/>
   <tile/>
   <tile/>
   <tile/>
   <tile/>
   <tile/>
   <tile/>
   <tile/>
   <tile/>
   <tile/>
   <tile/>
   <tile/>
   <tile/>
   <tile/>
   <tile/>
   <tile/>
   <tile/>
   <tile/>
   <tile/>
   <tile/>
   <tile/>
   <tile/>
   <tile/>
   <tile/>
   <tile/>
   <tile/>
   <tile/>
   <tile/>
   <tile/>
   <tile/>
   <tile/>
   <tile/>
   <tile/>
   <tile/>
   <tile/>
   <tile/>
   <tile/>
   <tile/>
   <tile/>
   <tile/>
   <tile/>
   <tile/>
   <tile/>
   <tile/>
   <tile/>
   <tile/>
   <tile/>
   <tile/>
   <tile/>
   <tile/>
   <tile/>
   <tile/>
   <tile/>
   <tile/>
   <tile/>
   <tile/>
   <tile/>
   <tile/>
   <tile/>
   <tile/>
   <tile/>
   <tile/>
   <tile/>
   <tile/>
   <tile/>
   <tile/>
   <tile/>
   <tile/>
   <tile/>
   <tile/>
   <tile/>
   <tile/>
   <tile/>
   <tile/>
   <tile/>
   <tile/>
   <tile/>
   <tile/>
   <tile/>
   <tile/>
   <tile/>
   <tile/>
   <tile/>
   <tile/>
   <tile/>
   <tile/>
   <tile/>
   <tile/>
   <tile/>
   <tile/>
   <tile/>
   <tile/>
   <tile/>
   <tile/>
   <tile/>
   <tile/>
   <tile/>
   <tile/>
   <tile/>
   <tile/>
   <tile/>
   <tile/>
   <tile/>
   <tile/>
   <tile/>
   <tile/>
   <tile/>
   <tile/>
   <tile/>
   <tile/>
   <tile/>
   <tile/>
   <tile/>
   <tile/>
   <tile/>
   <tile/>
   <tile/>
   <tile/>
   <tile/>
   <tile/>
   <tile/>
   <tile/>
   <tile/>
   <tile/>
   <tile/>
   <tile/>
   <tile/>
   <tile/>
   <tile/>
   <tile/>
   <tile/>
   <tile/>
   <tile/>
   <tile/>
   <tile/>
   <tile/>
   <tile/>
   <tile/>
   <tile/>
   <tile/>
   <tile/>
   <tile/>
   <tile/>
   <tile/>
   <tile/>
   <tile/>
   <tile/>
   <tile/>
   <tile/>
   <tile/>
   <tile/>
   <tile/>
   <tile/>
   <tile/>
   <tile/>
   <tile/>
   <tile/>
   <tile/>
   <tile/>
   <tile/>
   <tile/>
   <tile/>
   <tile/>
   <tile/>
   <tile/>
   <tile/>
   <tile/>
   <tile/>
   <tile/>
   <tile/>
   <tile/>
   <tile/>
   <tile/>
   <tile/>
   <tile/>
   <tile/>
   <tile/>
   <tile/>
   <tile/>
   <tile/>
   <tile/>
   <tile/>
   <tile/>
   <tile/>
   <tile/>
   <tile/>
   <tile/>
   <tile/>
   <tile/>
   <tile/>
   <tile/>
   <tile/>
   <tile/>
   <tile/>
   <tile/>
   <tile/>
   <tile/>
   <tile/>
   <tile/>
   <tile/>
   <tile/>
   <tile/>
   <tile/>
   <tile/>
   <tile/>
   <tile/>
   <tile/>
   <tile/>
   <tile/>
   <tile/>
   <tile/>
   <tile/>
   <tile/>
   <tile/>
   <tile/>
   <tile/>
   <tile/>
   <tile/>
   <tile/>
   <tile/>
   <tile/>
   <tile/>
   <tile/>
   <tile/>
   <tile/>
   <tile/>
   <tile/>
   <tile/>
   <tile/>
   <tile/>
   <tile/>
   <tile/>
   <tile/>
   <tile/>
   <tile/>
   <tile/>
   <tile/>
   <tile/>
   <tile/>
   <tile/>
   <tile/>
   <tile/>
   <tile/>
   <tile/>
   <tile/>
   <tile/>
   <tile/>
   <tile/>
   <tile/>
   <tile/>
   <tile/>
   <tile/>
   <tile/>
   <tile/>
   <tile/>
   <tile/>
   <tile/>
   <tile/>
   <tile/>
   <tile/>
   <tile/>
   <tile/>
   <tile/>
   <tile/>
   <tile/>
   <tile/>
   <tile/>
   <tile/>
   <tile/>
   <tile/>
   <tile/>
   <tile/>
   <tile/>
   <tile/>
   <tile/>
   <tile/>
   <tile/>
   <tile/>
   <tile/>
   <tile/>
   <tile/>
   <tile/>
   <tile/>
   <tile/>
   <tile/>
   <tile/>
   <tile/>
   <tile/>
   <tile/>
   <tile/>
   <tile/>
   <tile/>
   <tile/>
   <tile/>
   <tile/>
   <tile/>
   <tile/>
   <tile/>
   <tile/>
   <tile/>
   <tile/>
   <tile/>
   <tile/>
   <tile/>
   <tile/>
   <tile/>
   <tile/>
   <tile/>
   <tile/>
   <tile/>
   <tile/>
   <tile/>
   <tile/>
   <tile/>
   <tile/>
   <tile/>
   <tile/>
   <tile/>
   <tile/>
   <tile/>
   <tile/>
   <tile/>
   <tile/>
   <tile/>
   <tile/>
   <tile/>
   <tile/>
   <tile/>
   <tile/>
   <tile/>
   <tile/>
   <tile/>
   <tile/>
   <tile/>
   <tile/>
   <tile/>
   <tile/>
   <tile/>
   <tile/>
   <tile/>
   <tile/>
   <tile/>
   <tile/>
   <tile/>
   <tile/>
   <tile/>
   <tile/>
   <tile/>
   <tile/>
   <tile/>
   <tile/>
   <tile/>
   <tile/>
   <tile/>
   <tile/>
   <tile/>
   <tile/>
   <tile/>
   <tile/>
   <tile/>
   <tile/>
   <tile/>
   <tile/>
   <tile/>
   <tile/>
   <tile/>
   <tile/>
   <tile/>
   <tile/>
   <tile/>
   <tile/>
   <tile/>
   <tile/>
   <tile/>
   <tile/>
   <tile/>
   <tile/>
   <tile/>
   <tile/>
   <tile/>
   <tile/>
   <tile/>
   <tile/>
   <tile/>
   <tile/>
   <tile/>
   <tile/>
   <tile/>
   <tile/>
   <tile/>
   <tile/>
   <tile/>
   <tile/>
   <tile/>
   <tile/>
   <tile/>
   <tile/>
   <tile/>
   <tile/>
   <tile/>
   <tile/>
   <tile/>
   <tile/>
   <tile/>
   <tile/>
   <tile/>
   <tile/>
   <tile/>
   <tile/>
   <tile/>
   <tile/>
   <tile/>
   <tile/>
   <tile/>
   <tile/>
   <tile/>
   <tile/>
   <tile/>
   <tile/>
   <tile/>
   <tile/>
   <tile/>
   <tile/>
   <tile/>
   <tile/>
   <tile/>
   <tile/>
   <tile/>
   <tile/>
   <tile/>
   <tile/>
   <tile/>
   <tile/>
   <tile/>
   <tile/>
   <tile/>
   <tile/>
   <tile/>
   <tile/>
   <tile/>
   <tile/>
   <tile/>
   <tile/>
   <tile/>
   <tile/>
   <tile/>
   <tile/>
   <tile/>
   <tile/>
   <tile/>
   <tile/>
   <tile/>
   <tile/>
   <tile/>
   <tile/>
   <tile/>
   <tile/>
   <tile/>
   <tile/>
   <tile/>
   <tile/>
   <tile/>
   <tile/>
   <tile/>
   <tile/>
   <tile/>
   <tile/>
   <tile/>
   <tile/>
   <tile/>
   <tile/>
   <tile/>
   <tile/>
   <tile/>
   <tile/>
   <tile/>
   <tile/>
   <tile/>
   <tile/>
   <tile/>
   <tile/>
   <tile/>
   <tile/>
   <tile/>
   <tile/>
   <tile/>
   <tile/>
   <tile/>
   <tile/>
   <tile/>
   <tile/>
   <tile/>
   <tile/>
   <tile/>
   <tile/>
   <tile/>
   <tile/>
   <tile/>
   <tile/>
   <tile/>
   <tile/>
   <tile/>
   <tile/>
   <tile/>
   <tile/>
   <tile/>
   <tile/>
   <tile/>
   <tile/>
   <tile/>
   <tile/>
   <tile/>
   <tile/>
   <tile/>
   <tile/>
   <tile/>
   <tile/>
   <tile/>
   <tile/>
   <tile/>
   <tile/>
   <tile/>
   <tile/>
   <tile/>
   <tile/>
   <tile/>
   <tile/>
   <tile/>
   <tile/>
   <tile/>
   <tile/>
   <tile/>
   <tile/>
   <tile/>
   <tile/>
   <tile/>
   <tile/>
   <tile/>
   <tile/>
   <tile/>
   <tile/>
   <tile/>
   <tile/>
   <tile/>
   <tile/>
   <tile/>
   <tile/>
   <tile/>
   <tile/>
   <tile/>
   <tile/>
   <tile/>
   <tile/>
   <tile/>
   <tile/>
   <tile/>
   <tile/>
   <tile/>
   <tile/>
   <tile/>
   <tile/>
   <tile/>
   <tile/>
   <tile/>
   <tile/>
   <tile/>
   <tile/>
   <tile/>
   <tile/>
   <tile/>
   <tile/>
   <tile/>
   <tile/>
   <tile/>
   <tile/>
   <tile/>
   <tile/>
   <tile/>
   <tile/>
   <tile/>
   <tile/>
   <tile/>
   <tile/>
   <tile/>
   <tile/>
   <tile/>
   <tile/>
   <tile/>
   <tile/>
   <tile/>
   <tile/>
   <tile/>
   <tile/>
   <tile/>
   <tile/>
   <tile/>
   <tile/>
   <tile/>
   <tile/>
   <tile/>
   <tile/>
   <tile/>
   <tile/>
   <tile/>
   <tile/>
   <tile/>
   <tile/>
   <tile/>
   <tile/>
   <tile/>
   <tile/>
   <tile/>
   <tile/>
   <tile/>
   <tile/>
   <tile/>
   <tile/>
   <tile/>
   <tile/>
   <tile/>
   <tile/>
   <tile/>
   <tile/>
   <tile/>
   <tile/>
   <tile/>
   <tile/>
   <tile/>
   <tile/>
   <tile/>
   <tile/>
   <tile/>
   <tile/>
   <tile/>
   <tile/>
   <tile/>
   <tile/>
   <tile/>
   <tile/>
   <tile/>
   <tile/>
   <tile/>
   <tile/>
   <tile/>
   <tile/>
   <tile/>
   <tile/>
   <tile/>
   <tile/>
   <tile/>
   <tile/>
   <tile/>
   <tile/>
   <tile/>
   <tile/>
   <tile/>
   <tile/>
   <tile/>
   <tile/>
   <tile/>
   <tile/>
   <tile/>
   <tile/>
   <tile/>
   <tile/>
   <tile/>
   <tile/>
   <tile/>
   <tile/>
   <tile/>
   <tile/>
   <tile/>
   <tile/>
   <tile/>
   <tile/>
   <tile/>
   <tile/>
   <tile/>
   <tile/>
   <tile/>
   <tile/>
   <tile/>
   <tile/>
   <tile/>
   <tile/>
   <tile/>
   <tile/>
   <tile/>
   <tile/>
   <tile/>
   <tile/>
   <tile/>
   <tile/>
   <tile/>
   <tile/>
   <tile/>
   <tile/>
   <tile/>
   <tile/>
   <tile/>
   <tile/>
   <tile/>
   <tile/>
   <tile/>
   <tile/>
   <tile/>
   <tile/>
   <tile/>
   <tile/>
   <tile/>
   <tile/>
   <tile/>
   <tile/>
   <tile/>
   <tile/>
   <tile/>
   <tile/>
   <tile/>
   <tile/>
   <tile/>
   <tile/>
   <tile/>
   <tile/>
   <tile/>
   <tile/>
   <tile/>
   <tile/>
   <tile/>
   <tile/>
   <tile/>
   <tile/>
   <tile/>
   <tile/>
   <tile/>
   <tile/>
   <tile/>
   <tile/>
   <tile/>
   <tile/>
   <tile/>
   <tile/>
   <tile/>
   <tile/>
   <tile/>
   <tile/>
   <tile/>
   <tile/>
   <tile/>
   <tile/>
   <tile/>
   <tile/>
   <tile/>
   <tile/>
   <tile/>
   <tile/>
   <tile/>
   <tile/>
   <tile/>
   <tile/>
   <tile/>
   <tile/>
   <tile/>
   <tile/>
   <tile/>
   <tile/>
   <tile/>
   <tile/>
   <tile/>
   <tile/>
   <tile/>
   <tile/>
   <tile/>
   <tile/>
   <tile/>
   <tile/>
   <tile/>
   <tile/>
   <tile/>
   <tile/>
   <tile/>
   <tile/>
   <tile/>
   <tile/>
   <tile/>
   <tile/>
   <tile/>
   <tile/>
   <tile/>
   <tile/>
   <tile/>
   <tile/>
   <tile/>
   <tile/>
   <tile/>
   <tile/>
   <tile/>
   <tile/>
   <tile/>
   <tile/>
   <tile/>
   <tile/>
   <tile/>
   <tile/>
   <tile/>
   <tile/>
   <tile/>
   <tile/>
   <tile/>
   <tile/>
   <tile/>
   <tile/>
   <tile/>
   <tile/>
   <tile/>
   <tile/>
   <tile/>
   <tile/>
   <tile/>
   <tile/>
   <tile/>
   <tile/>
   <tile/>
   <tile/>
   <tile/>
   <tile/>
   <tile/>
   <tile/>
   <tile/>
   <tile/>
   <tile/>
   <tile/>
   <tile/>
   <tile/>
   <tile/>
   <tile/>
   <tile/>
   <tile/>
   <tile/>
   <tile/>
   <tile/>
   <tile/>
   <tile/>
   <tile/>
   <tile/>
   <tile/>
   <tile/>
   <tile/>
   <tile/>
   <tile/>
   <tile/>
   <tile/>
   <tile/>
   <tile/>
   <tile/>
   <tile/>
   <tile/>
   <tile/>
   <tile/>
   <tile/>
   <tile/>
   <tile/>
   <tile/>
   <tile/>
   <tile/>
   <tile/>
   <tile/>
   <tile/>
   <tile/>
   <tile/>
   <tile/>
   <tile/>
   <tile/>
   <tile/>
   <tile/>
   <tile/>
   <tile/>
   <tile/>
   <tile/>
   <tile/>
   <tile/>
   <tile/>
   <tile/>
   <tile/>
   <tile/>
   <tile/>
   <tile/>
   <tile/>
   <tile/>
   <tile/>
   <tile/>
   <tile/>
   <tile/>
   <tile/>
   <tile/>
   <tile/>
   <tile/>
   <tile/>
   <tile/>
   <tile/>
   <tile/>
   <tile/>
   <tile/>
   <tile/>
   <tile/>
   <tile/>
   <tile/>
   <tile/>
   <tile/>
   <tile/>
   <tile/>
   <tile/>
   <tile/>
   <tile/>
   <tile/>
   <tile/>
   <tile/>
   <tile/>
   <tile/>
   <tile/>
   <tile/>
   <tile/>
   <tile/>
   <tile/>
   <tile/>
   <tile/>
   <tile/>
   <tile/>
   <tile/>
   <tile/>
   <tile/>
   <tile/>
   <tile/>
   <tile/>
   <tile/>
   <tile/>
   <tile/>
   <tile/>
   <tile/>
   <tile/>
   <tile/>
   <tile/>
   <tile/>
   <tile/>
   <tile/>
   <tile/>
   <tile/>
   <tile/>
   <tile/>
   <tile/>
   <tile/>
   <tile/>
   <tile/>
   <tile/>
   <tile/>
   <tile/>
   <tile/>
   <tile/>
   <tile/>
   <tile/>
   <tile/>
   <tile/>
   <tile/>
   <tile/>
   <tile/>
   <tile/>
   <tile/>
   <tile/>
   <tile/>
   <tile/>
   <tile/>
   <tile/>
   <tile/>
   <tile/>
   <tile/>
   <tile/>
   <tile/>
   <tile/>
   <tile/>
   <tile/>
   <tile/>
   <tile/>
   <tile/>
   <tile/>
   <tile/>
   <tile/>
   <tile/>
   <tile/>
   <tile/>
   <tile/>
   <tile/>
   <tile/>
   <tile/>
   <tile/>
   <tile/>
   <tile/>
   <tile/>
   <tile/>
   <tile/>
   <tile/>
   <tile/>
   <tile/>
   <tile/>
   <tile/>
   <tile/>
   <tile/>
   <tile/>
   <tile/>
   <tile/>
   <tile/>
   <tile/>
   <tile/>
   <tile/>
   <tile/>
   <tile/>
   <tile/>
   <tile/>
   <tile/>
   <tile/>
   <tile/>
   <tile/>
   <tile/>
   <tile/>
   <tile/>
   <tile/>
   <tile/>
   <tile/>
   <tile/>
   <tile/>
   <tile/>
   <tile/>
   <tile/>
   <tile/>
   <tile/>
   <tile/>
   <tile/>
   <tile/>
   <tile/>
   <tile/>
   <tile/>
   <tile/>
   <tile/>
   <tile/>
   <tile/>
   <tile/>
   <tile/>
   <tile/>
   <tile/>
   <tile/>
   <tile/>
   <tile/>
   <tile/>
   <tile/>
   <tile/>
   <tile/>
   <tile/>
   <tile/>
   <tile/>
   <tile/>
   <tile/>
   <tile/>
   <tile/>
   <tile/>
   <tile/>
   <tile/>
   <tile/>
   <tile/>
   <tile/>
   <tile/>
   <tile/>
   <tile/>
   <tile/>
   <tile/>
   <tile/>
   <tile/>
   <tile/>
   <tile/>
   <tile/>
   <tile/>
   <tile/>
   <tile/>
   <tile/>
   <tile/>
   <tile/>
   <tile/>
   <tile/>
   <tile/>
   <tile/>
   <tile/>
   <tile/>
   <tile/>
   <tile/>
   <tile/>
   <tile/>
   <tile/>
   <tile/>
   <tile/>
   <tile/>
   <tile/>
   <tile/>
   <tile/>
   <tile/>
   <tile/>
   <tile/>
   <tile/>
   <tile/>
   <tile/>
   <tile/>
   <tile/>
   <tile/>
   <tile/>
   <tile/>
   <tile/>
   <tile/>
   <tile/>
   <tile/>
   <tile/>
   <tile/>
   <tile/>
   <tile/>
   <tile/>
   <tile/>
   <tile/>
   <tile/>
   <tile/>
   <tile/>
   <tile/>
   <tile/>
   <tile/>
   <tile/>
   <tile/>
   <tile/>
   <tile/>
   <tile/>
   <tile/>
   <tile/>
   <tile/>
   <tile/>
   <tile/>
   <tile/>
   <tile/>
   <tile/>
   <tile/>
   <tile/>
   <tile/>
   <tile/>
   <tile/>
   <tile/>
   <tile/>
   <tile/>
   <tile/>
   <tile/>
   <tile/>
   <tile/>
   <tile/>
   <tile/>
   <tile/>
   <tile/>
   <tile/>
   <tile/>
   <tile/>
   <tile/>
   <tile/>
   <tile/>
   <tile/>
   <tile/>
   <tile/>
   <tile/>
   <tile/>
   <tile/>
   <tile/>
   <tile/>
   <tile/>
   <tile/>
   <tile/>
   <tile/>
   <tile/>
   <tile/>
   <tile/>
   <tile/>
   <tile/>
   <tile/>
   <tile/>
   <tile/>
   <tile/>
   <tile/>
   <tile/>
   <tile/>
   <tile/>
   <tile/>
   <tile/>
   <tile/>
   <tile/>
   <tile/>
   <tile/>
   <tile/>
   <tile/>
   <tile/>
   <tile/>
   <tile/>
   <tile/>
   <tile/>
   <tile/>
   <tile/>
   <tile/>
   <tile/>
   <tile/>
   <tile/>
   <tile/>
   <tile/>
   <tile/>
   <tile/>
   <tile/>
   <tile/>
   <tile/>
   <tile/>
   <tile/>
   <tile/>
   <tile/>
   <tile/>
   <tile/>
   <tile/>
   <tile/>
   <tile/>
   <tile/>
   <tile/>
   <tile/>
   <tile/>
   <tile/>
   <tile/>
   <tile/>
   <tile/>
   <tile/>
   <tile/>
   <tile/>
   <tile/>
   <tile/>
   <tile/>
   <tile/>
   <tile/>
   <tile/>
   <tile/>
   <tile/>
   <tile/>
   <tile/>
   <tile/>
   <tile/>
   <tile/>
   <tile/>
   <tile/>
   <tile/>
   <tile/>
   <tile/>
   <tile/>
   <tile/>
   <tile/>
   <tile/>
   <tile/>
   <tile/>
   <tile/>
   <tile/>
   <tile/>
   <tile/>
   <tile/>
   <tile/>
   <tile/>
   <tile/>
   <tile/>
   <tile/>
   <tile/>
   <tile/>
   <tile/>
   <tile/>
   <tile/>
   <tile/>
   <tile/>
   <tile/>
   <tile/>
   <tile/>
   <tile/>
   <tile/>
   <tile/>
   <tile/>
   <tile/>
   <tile/>
   <tile/>
   <tile/>
   <tile/>
   <tile/>
   <tile/>
   <tile/>
   <tile/>
   <tile/>
   <tile/>
   <tile/>
   <tile/>
   <tile/>
   <tile/>
   <tile/>
   <tile/>
   <tile/>
   <tile/>
   <tile/>
   <tile/>
   <tile/>
   <tile/>
   <tile/>
   <tile/>
   <tile/>
   <tile/>
   <tile/>
   <tile/>
   <tile/>
   <tile/>
   <tile/>
   <tile/>
   <tile/>
   <tile/>
   <tile/>
   <tile/>
   <tile/>
   <tile/>
   <tile/>
   <tile/>
   <tile/>
   <tile/>
   <tile/>
   <tile/>
   <tile/>
   <tile/>
   <tile/>
   <tile/>
   <tile/>
   <tile/>
   <tile/>
   <tile/>
   <tile/>
   <tile/>
   <tile/>
   <tile/>
   <tile/>
   <tile/>
   <tile/>
   <tile/>
   <tile/>
   <tile/>
   <tile/>
   <tile/>
   <tile/>
   <tile/>
   <tile/>
   <tile/>
   <tile/>
   <tile/>
   <tile/>
   <tile/>
   <tile/>
   <tile/>
   <tile/>
   <tile/>
   <tile/>
   <tile/>
   <tile/>
   <tile/>
   <tile/>
   <tile/>
   <tile/>
   <tile/>
   <tile/>
   <tile/>
   <tile/>
   <tile/>
   <tile/>
   <tile/>
   <tile/>
   <tile/>
   <tile/>
   <tile/>
   <tile/>
   <tile/>
   <tile/>
   <tile/>
   <tile/>
   <tile/>
   <tile/>
   <tile/>
   <tile/>
   <tile/>
   <tile/>
   <tile/>
   <tile/>
   <tile/>
   <tile/>
   <tile/>
   <tile/>
   <tile/>
   <tile/>
   <tile/>
   <tile/>
   <tile/>
   <tile/>
   <tile/>
   <tile/>
   <tile/>
   <tile/>
   <tile/>
   <tile/>
   <tile/>
   <tile/>
   <tile/>
   <tile/>
   <tile/>
   <tile/>
   <tile/>
   <tile/>
   <tile/>
   <tile/>
   <tile/>
   <tile/>
   <tile/>
   <tile/>
   <tile/>
   <tile/>
   <tile/>
   <tile/>
   <tile/>
   <tile/>
   <tile/>
   <tile/>
   <tile/>
   <tile/>
   <tile/>
   <tile/>
   <tile/>
   <tile/>
   <tile/>
   <tile/>
   <tile/>
   <tile/>
   <tile/>
   <tile/>
   <tile/>
   <tile/>
   <tile/>
   <tile/>
   <tile/>
   <tile/>
   <tile/>
   <tile/>
   <tile/>
   <tile/>
   <tile/>
   <tile/>
   <tile/>
   <tile/>
   <tile/>
   <tile/>
   <tile/>
   <tile/>
   <tile/>
   <tile/>
   <tile/>
   <tile/>
   <tile/>
   <tile/>
   <tile/>
   <tile/>
   <tile/>
   <tile/>
   <tile/>
   <tile/>
   <tile/>
   <tile/>
   <tile/>
   <tile/>
   <tile/>
   <tile/>
   <tile/>
   <tile/>
   <tile/>
   <tile/>
   <tile/>
   <tile/>
   <tile/>
   <tile/>
   <tile/>
   <tile/>
   <tile/>
   <tile/>
   <tile/>
   <tile/>
   <tile/>
   <tile/>
   <tile/>
   <tile/>
   <tile/>
   <tile/>
   <tile/>
   <tile/>
   <tile/>
   <tile/>
   <tile/>
   <tile/>
   <tile/>
   <tile/>
   <tile/>
   <tile/>
   <tile/>
   <tile/>
   <tile/>
   <tile/>
   <tile/>
   <tile/>
   <tile/>
   <tile/>
   <tile/>
   <tile/>
   <tile/>
   <tile/>
   <tile/>
   <tile/>
   <tile/>
   <tile/>
   <tile/>
   <tile/>
   <tile/>
   <tile/>
   <tile/>
   <tile/>
   <tile/>
   <tile/>
   <tile/>
   <tile/>
   <tile/>
   <tile/>
   <tile/>
   <tile/>
   <tile/>
   <tile/>
   <tile/>
   <tile/>
   <tile/>
   <tile/>
   <tile/>
   <tile/>
   <tile/>
   <tile/>
   <tile/>
   <tile/>
   <tile/>
   <tile/>
   <tile/>
   <tile/>
   <tile/>
   <tile/>
   <tile/>
   <tile/>
   <tile/>
   <tile/>
   <tile/>
   <tile/>
   <tile/>
   <tile/>
   <tile/>
   <tile/>
   <tile/>
   <tile/>
   <tile/>
   <tile/>
   <tile/>
   <tile/>
   <tile/>
   <tile/>
   <tile/>
   <tile/>
   <tile/>
   <tile/>
   <tile/>
   <tile/>
   <tile/>
   <tile/>
   <tile/>
   <tile/>
   <tile/>
   <tile/>
   <tile/>
   <tile/>
   <tile/>
   <tile/>
   <tile/>
   <tile/>
   <tile/>
   <tile/>
   <tile/>
   <tile/>
   <tile/>
   <tile/>
   <tile/>
   <tile/>
   <tile/>
   <tile/>
   <tile/>
   <tile/>
   <tile/>
   <tile/>
   <tile/>
   <tile/>
   <tile/>
   <tile/>
   <tile/>
   <tile/>
   <tile/>
   <tile/>
   <tile/>
   <tile/>
   <tile/>
   <tile/>
   <tile/>
   <tile/>
   <tile/>
   <tile/>
   <tile/>
   <tile/>
   <tile/>
   <tile/>
   <tile/>
   <tile/>
   <tile/>
   <tile/>
   <tile/>
   <tile/>
   <tile/>
   <tile/>
   <tile/>
   <tile/>
   <tile/>
   <tile/>
   <tile/>
   <tile/>
   <tile/>
   <tile/>
   <tile/>
   <tile/>
   <tile/>
   <tile/>
   <tile/>
   <tile/>
   <tile/>
   <tile/>
   <tile/>
   <tile/>
   <tile/>
   <tile/>
   <tile/>
   <tile/>
   <tile/>
   <tile/>
   <tile/>
   <tile/>
   <tile/>
   <tile/>
   <tile/>
   <tile/>
   <tile/>
   <tile/>
   <tile/>
   <tile/>
   <tile/>
   <tile/>
   <tile/>
   <tile/>
   <tile/>
   <tile/>
   <tile/>
   <tile/>
   <tile/>
   <tile/>
   <tile/>
   <tile/>
   <tile/>
   <tile/>
   <tile/>
   <tile/>
   <tile/>
   <tile/>
   <tile/>
   <tile/>
   <tile/>
   <tile/>
   <tile/>
   <tile/>
   <tile/>
   <tile/>
   <tile/>
   <tile/>
   <tile/>
   <tile/>
   <tile/>
   <tile/>
   <tile/>
   <tile/>
   <tile/>
   <tile/>
   <tile/>
   <tile/>
   <tile/>
   <tile/>
   <tile/>
   <tile/>
   <tile/>
   <tile/>
   <tile/>
   <tile/>
   <tile/>
   <tile/>
   <tile/>
   <tile/>
   <tile/>
   <tile/>
   <tile/>
   <tile/>
   <tile/>
   <tile/>
   <tile/>
   <tile/>
   <tile/>
   <tile/>
   <tile/>
   <tile/>
   <tile/>
   <tile/>
   <tile/>
   <tile/>
   <tile/>
   <tile/>
   <tile/>
   <tile/>
   <tile/>
   <tile/>
   <tile/>
   <tile/>
   <tile/>
   <tile/>
   <tile/>
   <tile/>
   <tile/>
   <tile/>
   <tile/>
   <tile/>
   <tile/>
   <tile/>
   <tile/>
   <tile/>
   <tile/>
   <tile/>
   <tile/>
   <tile/>
   <tile/>
   <tile/>
   <tile/>
   <tile/>
   <tile/>
   <tile/>
   <tile/>
   <tile/>
   <tile/>
   <tile/>
   <tile/>
   <tile/>
   <tile/>
   <tile/>
   <tile/>
   <tile/>
   <tile/>
   <tile/>
   <tile/>
   <tile/>
   <tile/>
   <tile/>
   <tile/>
   <tile/>
   <tile/>
   <tile/>
   <tile/>
   <tile/>
   <tile/>
   <tile/>
   <tile/>
   <tile/>
   <tile/>
   <tile/>
   <tile/>
   <tile/>
   <tile/>
   <tile/>
   <tile/>
   <tile/>
   <tile/>
   <tile/>
   <tile/>
   <tile/>
   <tile/>
   <tile/>
   <tile/>
   <tile/>
   <tile/>
   <tile/>
   <tile/>
   <tile/>
   <tile/>
   <tile/>
   <tile/>
   <tile/>
   <tile/>
   <tile/>
   <tile/>
   <tile/>
   <tile/>
   <tile/>
   <tile/>
   <tile/>
   <tile/>
   <tile/>
   <tile/>
   <tile/>
   <tile/>
   <tile/>
   <tile/>
   <tile/>
   <tile/>
   <tile/>
   <tile/>
   <tile/>
   <tile/>
   <tile/>
   <tile/>
   <tile/>
   <tile/>
   <tile/>
   <tile/>
   <tile/>
   <tile/>
   <tile/>
   <tile/>
   <tile/>
   <tile/>
   <tile/>
   <tile/>
   <tile/>
   <tile/>
   <tile/>
   <tile/>
   <tile/>
   <tile/>
   <tile/>
   <tile/>
   <tile/>
   <tile/>
   <tile/>
   <tile/>
   <tile/>
   <tile/>
   <tile/>
   <tile/>
   <tile/>
   <tile/>
   <tile/>
   <tile/>
   <tile/>
   <tile/>
   <tile/>
   <tile/>
   <tile/>
   <tile/>
   <tile/>
   <tile/>
   <tile/>
   <tile/>
   <tile/>
   <tile/>
   <tile/>
   <tile/>
   <tile/>
   <tile/>
   <tile/>
   <tile/>
   <tile/>
   <tile/>
   <tile/>
   <tile/>
   <tile/>
   <tile/>
   <tile/>
   <tile/>
   <tile/>
   <tile/>
   <tile/>
   <tile/>
   <tile/>
   <tile/>
   <tile/>
   <tile/>
   <tile/>
   <tile/>
   <tile/>
   <tile/>
   <tile/>
   <tile/>
   <tile/>
   <tile/>
   <tile/>
   <tile/>
   <tile/>
   <tile/>
   <tile/>
   <tile/>
   <tile/>
   <tile/>
   <tile/>
   <tile/>
   <tile/>
   <tile/>
   <tile/>
   <tile/>
   <tile/>
   <tile/>
   <tile/>
   <tile/>
   <tile/>
   <tile/>
   <tile/>
   <tile/>
   <tile/>
   <tile/>
   <tile/>
   <tile/>
   <tile/>
   <tile/>
   <tile/>
   <tile/>
   <tile/>
   <tile/>
   <tile/>
   <tile/>
   <tile/>
   <tile/>
   <tile/>
   <tile/>
   <tile/>
   <tile/>
   <tile/>
   <tile/>
   <tile/>
   <tile/>
   <tile/>
   <tile/>
   <tile/>
   <tile/>
   <tile/>
   <tile/>
   <tile/>
   <tile/>
   <tile/>
   <tile/>
   <tile/>
   <tile/>
   <tile/>
   <tile/>
   <tile/>
   <tile/>
   <tile/>
   <tile/>
   <tile/>
   <tile/>
   <tile/>
   <tile/>
   <tile/>
   <tile/>
   <tile/>
   <tile/>
   <tile/>
   <tile/>
   <tile/>
   <tile/>
   <tile/>
   <tile/>
   <tile/>
   <tile/>
   <tile/>
   <tile/>
   <tile/>
   <tile/>
   <tile/>
   <tile/>
   <tile/>
   <tile/>
   <tile/>
   <tile/>
   <tile/>
   <tile/>
   <tile/>
   <tile/>
   <tile/>
   <tile/>
   <tile/>
   <tile/>
   <tile/>
   <tile/>
   <tile/>
   <tile/>
   <tile/>
   <tile/>
   <tile/>
   <tile/>
   <tile/>
   <tile/>
   <tile/>
   <tile/>
   <tile/>
   <tile/>
   <tile/>
   <tile/>
   <tile/>
   <tile/>
   <tile/>
   <tile/>
   <tile/>
   <tile/>
   <tile/>
   <tile/>
   <tile/>
   <tile/>
   <tile/>
   <tile/>
   <tile/>
   <tile/>
   <tile/>
   <tile/>
   <tile/>
   <tile/>
   <tile/>
   <tile/>
   <tile/>
   <tile/>
   <tile/>
   <tile/>
   <tile/>
   <tile/>
   <tile/>
   <tile/>
   <tile/>
   <tile/>
   <tile/>
   <tile/>
   <tile/>
   <tile/>
   <tile/>
   <tile/>
   <tile/>
   <tile/>
   <tile/>
   <tile/>
   <tile/>
   <tile/>
   <tile/>
   <tile/>
   <tile/>
   <tile/>
   <tile/>
   <tile/>
   <tile/>
   <tile/>
   <tile/>
   <tile/>
   <tile/>
   <tile/>
   <tile/>
   <tile/>
   <tile/>
   <tile/>
   <tile/>
   <tile/>
   <tile/>
   <tile/>
   <tile/>
   <tile/>
   <tile/>
   <tile/>
   <tile/>
   <tile/>
   <tile/>
   <tile/>
   <tile/>
   <tile/>
   <tile/>
   <tile/>
   <tile/>
   <tile/>
   <tile/>
   <tile/>
   <tile/>
   <tile/>
   <tile/>
   <tile/>
   <tile/>
   <tile/>
   <tile/>
   <tile/>
   <tile/>
   <tile/>
   <tile/>
   <tile/>
   <tile/>
   <tile/>
   <tile/>
   <tile/>
   <tile/>
   <tile/>
   <tile/>
   <tile/>
   <tile/>
   <tile/>
   <tile/>
   <tile/>
   <tile/>
   <tile/>
   <tile/>
   <tile/>
   <tile/>
   <tile/>
   <tile/>
   <tile/>
   <tile/>
   <tile/>
   <tile/>
   <tile/>
   <tile/>
   <tile/>
   <tile/>
   <tile/>
   <tile/>
   <tile/>
   <tile/>
   <tile/>
   <tile/>
   <tile/>
   <tile/>
   <tile/>
   <tile/>
   <tile/>
   <tile/>
   <tile/>
   <tile/>
   <tile/>
   <tile/>
   <tile/>
   <tile/>
   <tile/>
   <tile/>
   <tile/>
   <tile/>
   <tile/>
   <tile/>
   <tile/>
   <tile/>
   <tile/>
   <tile/>
   <tile/>
   <tile/>
   <tile/>
   <tile/>
   <tile/>
   <tile/>
   <tile/>
   <tile/>
   <tile/>
   <tile/>
   <tile/>
   <tile/>
   <tile/>
   <tile/>
   <tile/>
   <tile/>
   <tile/>
   <tile/>
   <tile/>
   <tile/>
   <tile/>
   <tile/>
   <tile/>
   <tile/>
   <tile/>
   <tile/>
   <tile/>
   <tile/>
   <tile/>
   <tile/>
   <tile/>
   <tile/>
   <tile/>
   <tile/>
   <tile/>
   <tile/>
   <tile/>
   <tile/>
   <tile/>
   <tile/>
   <tile/>
   <tile/>
   <tile/>
   <tile/>
   <tile/>
   <tile/>
   <tile/>
   <tile/>
   <tile/>
   <tile/>
   <tile/>
   <tile/>
   <tile/>
   <tile/>
   <tile/>
   <tile/>
   <tile/>
   <tile/>
   <tile/>
   <tile/>
   <tile/>
   <tile/>
   <tile/>
   <tile/>
   <tile/>
   <tile/>
   <tile/>
   <tile/>
   <tile/>
   <tile/>
   <tile/>
   <tile/>
   <tile/>
   <tile/>
   <tile/>
   <tile/>
   <tile/>
   <tile/>
   <tile/>
   <tile/>
   <tile/>
   <tile/>
   <tile/>
   <tile/>
   <tile/>
   <tile/>
   <tile/>
   <tile/>
   <tile/>
   <tile/>
   <tile/>
   <tile/>
   <tile/>
   <tile/>
   <tile/>
   <tile/>
   <tile/>
   <tile/>
   <tile/>
   <tile/>
   <tile/>
   <tile/>
   <tile/>
   <tile/>
   <tile/>
   <tile/>
   <tile/>
   <tile/>
   <tile/>
   <tile/>
   <tile/>
   <tile/>
   <tile/>
   <tile/>
   <tile/>
   <tile/>
   <tile/>
   <tile/>
   <tile/>
   <tile/>
   <tile/>
   <tile/>
   <tile/>
   <tile/>
   <tile/>
   <tile/>
   <tile/>
   <tile/>
   <tile/>
   <tile/>
   <tile/>
   <tile/>
   <tile/>
   <tile/>
   <tile/>
   <tile/>
   <tile/>
   <tile/>
   <tile/>
   <tile/>
   <tile/>
   <tile/>
   <tile/>
   <tile/>
   <tile/>
   <tile/>
   <tile/>
   <tile/>
   <tile/>
   <tile/>
   <tile/>
   <tile/>
   <tile/>
   <tile/>
   <tile/>
   <tile/>
   <tile/>
   <tile/>
   <tile/>
   <tile/>
   <tile/>
   <tile/>
   <tile/>
   <tile/>
   <tile/>
   <tile/>
   <tile/>
   <tile/>
   <tile/>
   <tile/>
   <tile/>
   <tile/>
   <tile/>
   <tile/>
   <tile/>
   <tile/>
   <tile/>
   <tile/>
   <tile/>
   <tile/>
   <tile/>
   <tile/>
   <tile/>
   <tile/>
   <tile/>
   <tile/>
   <tile/>
   <tile/>
   <tile/>
   <tile/>
   <tile/>
   <tile/>
   <tile/>
   <tile/>
   <tile/>
   <tile/>
   <tile/>
   <tile/>
   <tile/>
   <tile/>
   <tile/>
   <tile/>
   <tile/>
   <tile/>
   <tile/>
   <tile/>
   <tile/>
   <tile/>
   <tile/>
   <tile/>
   <tile/>
   <tile/>
   <tile/>
   <tile/>
   <tile/>
   <tile/>
   <tile/>
   <tile/>
   <tile/>
   <tile/>
   <tile/>
   <tile/>
   <tile/>
   <tile/>
   <tile/>
   <tile/>
   <tile/>
   <tile/>
   <tile/>
   <tile/>
   <tile/>
   <tile/>
   <tile/>
   <tile/>
   <tile/>
   <tile/>
   <tile/>
   <tile/>
   <tile/>
   <tile/>
   <tile/>
   <tile/>
   <tile/>
   <tile/>
   <tile/>
   <tile/>
   <tile/>
   <tile/>
   <tile/>
   <tile/>
   <tile/>
   <tile/>
   <tile/>
   <tile/>
   <tile/>
   <tile/>
   <tile/>
   <tile/>
   <tile/>
   <tile/>
   <tile/>
   <tile/>
   <tile/>
   <tile/>
   <tile/>
   <tile/>
   <tile/>
   <tile/>
   <tile/>
   <tile/>
   <tile/>
   <tile/>
   <tile/>
   <tile/>
   <tile/>
   <tile/>
   <tile/>
   <tile/>
   <tile/>
   <tile/>
   <tile/>
   <tile/>
   <tile/>
   <tile/>
   <tile/>
   <tile/>
   <tile/>
   <tile/>
   <tile/>
   <tile/>
   <tile/>
   <tile/>
   <tile/>
   <tile/>
   <tile/>
   <tile/>
   <tile/>
   <tile/>
   <tile/>
   <tile/>
   <tile/>
   <tile/>
   <tile/>
   <tile/>
   <tile/>
   <tile/>
   <tile/>
   <tile/>
   <tile/>
   <tile/>
   <tile/>
   <tile/>
   <tile/>
   <tile/>
   <tile/>
   <tile/>
   <tile/>
   <tile/>
   <tile/>
   <tile/>
   <tile/>
   <tile/>
   <tile/>
   <tile/>
   <tile/>
   <tile/>
   <tile/>
   <tile/>
   <tile/>
   <tile/>
   <tile/>
   <tile/>
   <tile/>
   <tile/>
   <tile/>
   <tile/>
   <tile/>
   <tile/>
   <tile/>
   <tile/>
   <tile/>
   <tile/>
   <tile/>
   <tile/>
   <tile/>
   <tile/>
   <tile/>
   <tile/>
   <tile/>
   <tile/>
   <tile/>
   <tile/>
   <tile/>
   <tile/>
   <tile/>
   <tile/>
   <tile/>
   <tile/>
   <tile/>
   <tile/>
   <tile/>
   <tile/>
   <tile/>
   <tile/>
   <tile/>
   <tile/>
   <tile/>
   <tile/>
   <tile/>
   <tile/>
   <tile/>
   <tile/>
   <tile/>
   <tile/>
   <tile/>
   <tile/>
   <tile/>
   <tile/>
   <tile/>
   <tile/>
   <tile/>
   <tile/>
   <tile/>
   <tile/>
   <tile/>
   <tile/>
   <tile/>
   <tile/>
   <tile/>
   <tile/>
   <tile/>
   <tile/>
   <tile/>
   <tile/>
   <tile/>
   <tile/>
   <tile/>
   <tile/>
   <tile/>
   <tile/>
   <tile/>
   <tile/>
   <tile/>
   <tile/>
   <tile/>
   <tile/>
   <tile/>
   <tile/>
   <tile/>
   <tile/>
   <tile/>
   <tile/>
   <tile/>
   <tile/>
   <tile/>
   <tile/>
   <tile/>
   <tile/>
   <tile/>
   <tile/>
   <tile/>
   <tile/>
   <tile/>
   <tile/>
   <tile/>
   <tile/>
   <tile/>
   <tile/>
   <tile/>
   <tile/>
   <tile/>
   <tile/>
   <tile/>
   <tile/>
   <tile/>
   <tile/>
   <tile/>
   <tile/>
   <tile/>
   <tile/>
   <tile/>
   <tile/>
   <tile/>
   <tile/>
   <tile/>
   <tile/>
   <tile/>
   <tile/>
   <tile/>
   <tile/>
   <tile/>
   <tile/>
   <tile/>
   <tile/>
   <tile/>
   <tile/>
   <tile/>
   <tile/>
   <tile/>
   <tile/>
   <tile/>
   <tile/>
   <tile/>
   <tile/>
   <tile/>
   <tile/>
   <tile/>
   <tile/>
   <tile/>
   <tile/>
   <tile/>
   <tile/>
   <tile/>
   <tile/>
   <tile/>
   <tile/>
   <tile/>
   <tile/>
   <tile/>
   <tile/>
   <tile/>
   <tile/>
   <tile/>
   <tile/>
   <tile/>
   <tile/>
   <tile/>
   <tile/>
   <tile/>
   <tile/>
   <tile/>
   <tile/>
   <tile/>
   <tile/>
   <tile/>
   <tile/>
   <tile/>
   <tile/>
   <tile/>
   <tile/>
   <tile/>
   <tile/>
   <tile/>
   <tile/>
   <tile/>
   <tile/>
   <tile/>
   <tile/>
   <tile/>
   <tile/>
   <tile/>
   <tile/>
   <tile/>
   <tile/>
   <tile/>
   <tile/>
   <tile/>
   <tile/>
   <tile/>
   <tile/>
   <tile/>
   <tile/>
   <tile/>
   <tile/>
   <tile/>
   <tile/>
   <tile/>
   <tile/>
   <tile/>
   <tile/>
   <tile/>
   <tile/>
   <tile/>
   <tile/>
   <tile/>
   <tile/>
   <tile/>
   <tile/>
   <tile/>
   <tile/>
   <tile/>
   <tile/>
   <tile/>
   <tile/>
   <tile/>
   <tile/>
   <tile/>
   <tile/>
   <tile/>
   <tile/>
   <tile/>
   <tile/>
   <tile/>
   <tile/>
   <tile/>
   <tile/>
   <tile/>
   <tile/>
   <tile/>
   <tile/>
   <tile/>
   <tile/>
   <tile/>
   <tile/>
   <tile/>
   <tile/>
   <tile/>
   <tile/>
   <tile/>
   <tile/>
   <tile/>
   <tile/>
   <tile/>
   <tile/>
   <tile/>
   <tile/>
   <tile/>
   <tile/>
   <tile/>
   <tile/>
   <tile/>
   <tile/>
   <tile/>
   <tile/>
   <tile/>
   <tile/>
   <tile/>
   <tile/>
   <tile/>
   <tile/>
   <tile/>
   <tile/>
   <tile/>
   <tile/>
   <tile/>
   <tile/>
   <tile/>
   <tile/>
   <tile/>
   <tile/>
   <tile/>
   <tile/>
   <tile/>
   <tile/>
   <tile/>
   <tile/>
   <tile/>
   <tile/>
   <tile/>
   <tile/>
   <tile/>
   <tile/>
   <tile/>
   <tile/>
   <tile/>
   <tile/>
   <tile/>
   <tile/>
   <tile/>
   <tile/>
   <tile/>
   <tile/>
   <tile/>
   <tile/>
   <tile/>
   <tile/>
   <tile/>
   <tile/>
   <tile/>
   <tile/>
   <tile/>
   <tile/>
   <tile/>
   <tile/>
   <tile/>
   <tile/>
   <tile/>
   <tile/>
   <tile/>
   <tile/>
   <tile/>
   <tile/>
   <tile/>
   <tile/>
   <tile/>
   <tile/>
   <tile/>
   <tile/>
   <tile/>
   <tile/>
   <tile/>
   <tile/>
   <tile/>
   <tile/>
   <tile/>
   <tile/>
   <tile/>
   <tile/>
   <tile/>
   <tile/>
   <tile/>
   <tile/>
   <tile/>
   <tile/>
   <tile/>
   <tile/>
   <tile/>
   <tile/>
   <tile/>
   <tile/>
   <tile/>
   <tile/>
   <tile/>
   <tile/>
   <tile/>
   <tile/>
   <tile/>
   <tile/>
   <tile/>
   <tile/>
   <tile/>
   <tile/>
   <tile/>
   <tile/>
   <tile/>
   <tile/>
   <tile/>
   <tile/>
   <tile/>
   <tile/>
   <tile/>
   <tile/>
   <tile/>
   <tile/>
   <tile/>
   <tile/>
   <tile/>
   <tile/>
   <tile/>
   <tile/>
   <tile/>
   <tile/>
   <tile/>
   <tile/>
   <tile/>
   <tile/>
   <tile/>
   <tile/>
   <tile/>
   <tile/>
   <tile/>
   <tile/>
   <tile/>
   <tile/>
   <tile/>
   <tile/>
   <tile/>
   <tile/>
   <tile/>
   <tile/>
   <tile/>
   <tile/>
   <tile/>
   <tile/>
   <tile/>
   <tile/>
   <tile/>
   <tile/>
   <tile/>
   <tile/>
   <tile/>
   <tile/>
   <tile/>
   <tile/>
   <tile/>
   <tile/>
   <tile/>
   <tile/>
   <tile/>
   <tile/>
   <tile/>
   <tile/>
   <tile/>
   <tile/>
   <tile/>
   <tile/>
   <tile/>
   <tile/>
   <tile/>
   <tile/>
   <tile/>
   <tile/>
   <tile/>
   <tile/>
   <tile/>
   <tile/>
   <tile/>
   <tile/>
   <tile/>
   <tile/>
   <tile/>
   <tile/>
   <tile/>
   <tile/>
   <tile/>
   <tile/>
   <tile/>
   <tile/>
   <tile/>
   <tile/>
   <tile/>
   <tile/>
   <tile/>
   <tile/>
   <tile/>
   <tile/>
   <tile/>
   <tile/>
   <tile/>
   <tile/>
   <tile/>
   <tile/>
   <tile/>
   <tile/>
   <tile/>
   <tile/>
   <tile/>
   <tile/>
   <tile/>
   <tile/>
   <tile/>
   <tile/>
   <tile/>
   <tile/>
   <tile/>
   <tile/>
   <tile/>
   <tile/>
   <tile/>
   <tile/>
   <tile/>
   <tile/>
   <tile/>
   <tile/>
   <tile/>
   <tile/>
   <tile/>
   <tile/>
   <tile/>
   <tile/>
   <tile/>
   <tile/>
   <tile/>
   <tile/>
   <tile/>
   <tile/>
   <tile/>
   <tile/>
   <tile/>
   <tile/>
   <tile/>
   <tile/>
   <tile/>
   <tile/>
   <tile/>
   <tile/>
   <tile/>
   <tile/>
   <tile/>
   <tile/>
   <tile/>
   <tile/>
   <tile/>
   <tile/>
   <tile/>
   <tile/>
   <tile/>
   <tile/>
   <tile/>
   <tile/>
   <tile/>
   <tile/>
   <tile/>
   <tile/>
   <tile/>
   <tile/>
   <tile/>
   <tile/>
   <tile/>
   <tile/>
   <tile/>
   <tile/>
   <tile/>
   <tile/>
   <tile/>
   <tile/>
   <tile/>
   <tile/>
   <tile/>
   <tile/>
   <tile/>
   <tile/>
   <tile/>
   <tile/>
   <tile/>
   <tile/>
   <tile/>
   <tile/>
   <tile/>
   <tile/>
   <tile/>
   <tile/>
   <tile/>
   <tile/>
   <tile/>
   <tile/>
   <tile/>
   <tile/>
   <tile/>
   <tile/>
   <tile/>
   <tile/>
   <tile/>
   <tile/>
   <tile/>
   <tile/>
   <tile/>
   <tile/>
   <tile/>
   <tile/>
   <tile/>
   <tile/>
   <tile/>
   <tile/>
   <tile/>
   <tile/>
   <tile/>
   <tile/>
   <tile/>
   <tile/>
   <tile/>
   <tile/>
   <tile/>
   <tile/>
   <tile/>
   <tile/>
   <tile/>
   <tile/>
   <tile/>
   <tile/>
   <tile/>
   <tile/>
   <tile/>
   <tile/>
   <tile/>
   <tile/>
   <tile/>
   <tile/>
   <tile/>
   <tile/>
   <tile/>
   <tile/>
   <tile/>
   <tile/>
   <tile/>
   <tile/>
   <tile/>
   <tile/>
   <tile/>
   <tile/>
   <tile/>
   <tile/>
   <tile/>
   <tile/>
   <tile/>
   <tile/>
   <tile/>
   <tile/>
   <tile/>
   <tile/>
   <tile/>
   <tile/>
   <tile/>
   <tile/>
   <tile/>
   <tile/>
   <tile/>
   <tile/>
   <tile/>
   <tile/>
   <tile/>
   <tile/>
   <tile/>
   <tile/>
   <tile/>
   <tile/>
   <tile/>
   <tile/>
   <tile/>
   <tile/>
   <tile/>
   <tile/>
   <tile/>
   <tile/>
   <tile/>
   <tile/>
   <tile/>
   <tile/>
   <tile/>
   <tile/>
   <tile/>
   <tile/>
   <tile/>
   <tile/>
   <tile/>
   <tile/>
   <tile/>
   <tile/>
   <tile/>
   <tile/>
   <tile/>
   <tile/>
   <tile/>
   <tile/>
   <tile/>
   <tile/>
   <tile/>
   <tile/>
   <tile/>
   <tile/>
   <tile/>
   <tile/>
   <tile/>
   <tile/>
   <tile/>
   <tile/>
   <tile/>
   <tile/>
   <tile/>
   <tile/>
   <tile/>
   <tile/>
   <tile/>
   <tile/>
   <tile/>
   <tile/>
   <tile/>
   <tile/>
   <tile/>
   <tile/>
   <tile/>
   <tile/>
   <tile/>
   <tile/>
   <tile/>
   <tile/>
   <tile/>
   <tile/>
   <tile/>
   <tile/>
   <tile/>
   <tile/>
   <tile/>
   <tile/>
   <tile/>
   <tile/>
   <tile/>
   <tile/>
   <tile/>
   <tile/>
   <tile/>
   <tile/>
   <tile/>
   <tile/>
   <tile/>
   <tile/>
   <tile/>
   <tile/>
   <tile/>
   <tile/>
   <tile/>
   <tile/>
   <tile/>
   <tile/>
   <tile/>
   <tile/>
   <tile/>
   <tile/>
   <tile/>
   <tile/>
   <tile/>
   <tile/>
   <tile/>
   <tile/>
   <tile/>
   <tile/>
   <tile/>
   <tile/>
   <tile/>
   <tile/>
   <tile/>
   <tile/>
   <tile/>
   <tile/>
   <tile/>
   <tile/>
   <tile/>
   <tile/>
   <tile/>
   <tile/>
   <tile/>
   <tile/>
   <tile/>
   <tile/>
   <tile/>
   <tile/>
   <tile/>
   <tile/>
   <tile/>
   <tile/>
   <tile/>
   <tile/>
   <tile/>
   <tile/>
   <tile/>
   <tile/>
   <tile/>
   <tile/>
   <tile/>
   <tile/>
   <tile/>
   <tile/>
   <tile/>
   <tile/>
   <tile/>
   <tile/>
   <tile/>
   <tile/>
   <tile/>
   <tile/>
   <tile/>
   <tile/>
   <tile/>
   <tile/>
   <tile/>
   <tile/>
   <tile/>
   <tile/>
   <tile/>
   <tile/>
   <tile/>
   <tile/>
   <tile/>
   <tile/>
   <tile/>
   <tile/>
   <tile/>
   <tile/>
   <tile/>
   <tile/>
   <tile/>
   <tile/>
   <tile/>
   <tile/>
   <tile/>
   <tile/>
   <tile/>
   <tile/>
   <tile/>
   <tile/>
   <tile/>
   <tile/>
   <tile/>
   <tile/>
   <tile/>
   <tile/>
   <tile/>
   <tile/>
   <tile/>
   <tile/>
   <tile/>
   <tile/>
   <tile/>
   <tile/>
   <tile/>
   <tile/>
   <tile/>
   <tile/>
   <tile/>
   <tile/>
   <tile/>
   <tile/>
   <tile/>
   <tile/>
   <tile/>
   <tile/>
   <tile/>
   <tile/>
   <tile/>
   <tile/>
   <tile/>
   <tile/>
   <tile/>
   <tile/>
   <tile/>
   <tile/>
   <tile/>
   <tile/>
   <tile/>
   <tile/>
   <tile/>
   <tile/>
   <tile/>
   <tile/>
   <tile/>
   <tile/>
   <tile/>
   <tile/>
   <tile/>
   <tile/>
   <tile/>
   <tile/>
   <tile/>
   <tile/>
   <tile/>
   <tile/>
   <tile/>
   <tile/>
   <tile/>
   <tile/>
   <tile/>
   <tile/>
   <tile/>
   <tile/>
   <tile/>
   <tile/>
   <tile/>
   <tile/>
   <tile/>
   <tile/>
   <tile/>
   <tile/>
   <tile/>
   <tile/>
   <tile/>
   <tile/>
   <tile/>
   <tile/>
   <tile/>
   <tile/>
   <tile/>
   <tile/>
   <tile/>
   <tile/>
   <tile/>
   <tile/>
   <tile/>
   <tile/>
   <tile/>
   <tile/>
   <tile/>
   <tile/>
   <tile/>
   <tile/>
   <tile/>
   <tile/>
   <tile/>
   <tile/>
   <tile/>
   <tile/>
   <tile/>
   <tile/>
   <tile/>
   <tile/>
   <tile/>
   <tile/>
   <tile/>
   <tile/>
   <tile/>
   <tile/>
   <tile/>
   <tile/>
   <tile/>
   <tile/>
   <tile/>
   <tile/>
   <tile/>
   <tile/>
   <tile/>
   <tile/>
   <tile/>
   <tile/>
   <tile/>
   <tile/>
   <tile/>
   <tile/>
   <tile/>
   <tile/>
   <tile/>
   <tile/>
   <tile/>
   <tile/>
   <tile/>
   <tile/>
   <tile/>
   <tile/>
   <tile/>
   <tile/>
   <tile/>
   <tile/>
   <tile/>
   <tile/>
   <tile/>
   <tile/>
   <tile/>
   <tile/>
   <tile/>
   <tile/>
   <tile/>
   <tile/>
   <tile/>
   <tile/>
   <tile/>
   <tile/>
   <tile/>
   <tile/>
   <tile/>
   <tile/>
   <tile/>
   <tile/>
   <tile/>
   <tile/>
   <tile/>
   <tile/>
   <tile/>
   <tile/>
   <tile/>
   <tile/>
   <tile/>
   <tile/>
   <tile/>
   <tile/>
   <tile/>
   <tile/>
   <tile/>
   <tile/>
   <tile/>
   <tile/>
   <tile/>
   <tile/>
   <tile/>
   <tile/>
   <tile/>
   <tile/>
   <tile/>
   <tile/>
   <tile/>
   <tile/>
   <tile/>
   <tile/>
   <tile/>
   <tile/>
   <tile/>
   <tile/>
   <tile/>
   <tile/>
   <tile/>
   <tile/>
   <tile/>
   <tile/>
   <tile/>
   <tile/>
   <tile/>
   <tile/>
   <tile/>
   <tile/>
   <tile/>
   <tile/>
   <tile/>
   <tile/>
   <tile/>
   <tile/>
   <tile/>
   <tile/>
   <tile/>
   <tile/>
   <tile/>
   <tile/>
   <tile/>
   <tile/>
   <tile/>
   <tile/>
   <tile/>
   <tile/>
   <tile/>
   <tile/>
   <tile/>
   <tile/>
   <tile/>
   <tile/>
   <tile/>
   <tile/>
   <tile/>
   <tile/>
   <tile/>
   <tile/>
   <tile/>
   <tile/>
   <tile/>
   <tile/>
   <tile/>
   <tile/>
   <tile/>
   <tile/>
   <tile/>
   <tile/>
   <tile/>
   <tile/>
   <tile/>
   <tile/>
   <tile/>
   <tile/>
   <tile/>
   <tile/>
   <tile/>
   <tile/>
   <tile/>
   <tile/>
   <tile/>
   <tile/>
   <tile/>
   <tile/>
   <tile/>
   <tile/>
   <tile/>
   <tile/>
   <tile/>
   <tile/>
   <tile/>
   <tile/>
   <tile/>
   <tile/>
   <tile/>
   <tile/>
   <tile/>
   <tile/>
   <tile/>
   <tile/>
   <tile/>
   <tile/>
   <tile/>
   <tile/>
   <tile/>
   <tile/>
   <tile/>
   <tile/>
   <tile/>
   <tile/>
   <tile/>
   <tile/>
   <tile/>
   <tile/>
   <tile/>
   <tile/>
   <tile/>
   <tile/>
   <tile/>
   <tile/>
   <tile/>
   <tile/>
   <tile/>
   <tile/>
   <tile/>
   <tile/>
   <tile/>
   <tile/>
   <tile/>
   <tile/>
   <tile/>
   <tile/>
   <tile/>
   <tile/>
   <tile/>
   <tile/>
   <tile/>
   <tile/>
   <tile/>
   <tile/>
   <tile/>
   <tile/>
   <tile/>
   <tile/>
   <tile/>
   <tile/>
   <tile/>
   <tile/>
   <tile/>
   <tile/>
   <tile/>
   <tile/>
   <tile/>
   <tile/>
   <tile/>
   <tile/>
   <tile/>
   <tile/>
   <tile/>
   <tile/>
   <tile/>
   <tile/>
   <tile/>
   <tile/>
   <tile/>
   <tile/>
   <tile/>
   <tile/>
   <tile/>
   <tile/>
   <tile/>
   <tile/>
   <tile/>
   <tile/>
   <tile/>
   <tile/>
   <tile/>
   <tile/>
   <tile/>
   <tile/>
   <tile/>
   <tile/>
   <tile/>
   <tile/>
   <tile/>
   <tile/>
   <tile/>
   <tile/>
   <tile/>
   <tile/>
   <tile/>
   <tile/>
   <tile/>
   <tile/>
   <tile/>
   <tile/>
   <tile/>
   <tile/>
   <tile/>
   <tile/>
   <tile/>
   <tile/>
   <tile/>
   <tile/>
   <tile/>
   <tile/>
   <tile/>
   <tile/>
   <tile/>
   <tile/>
   <tile/>
   <tile/>
   <tile/>
   <tile/>
   <tile/>
   <tile/>
   <tile/>
   <tile/>
   <tile/>
   <tile/>
   <tile/>
   <tile/>
   <tile/>
   <tile/>
   <tile/>
   <tile/>
   <tile/>
   <tile/>
   <tile/>
   <tile/>
   <tile/>
   <tile/>
   <tile/>
   <tile/>
   <tile/>
   <tile/>
   <tile/>
   <tile/>
   <tile/>
   <tile/>
   <tile/>
   <tile/>
   <tile/>
   <tile/>
   <tile/>
   <tile/>
   <tile/>
   <tile/>
   <tile/>
   <tile/>
   <tile/>
   <tile/>
   <tile/>
   <tile/>
   <tile/>
   <tile/>
   <tile/>
   <tile/>
   <tile/>
   <tile/>
   <tile/>
   <tile/>
   <tile/>
   <tile/>
   <tile/>
   <tile/>
   <tile/>
   <tile/>
   <tile/>
   <tile/>
   <tile/>
   <tile/>
   <tile/>
   <tile/>
   <tile/>
   <tile/>
   <tile/>
   <tile/>
   <tile/>
   <tile/>
   <tile/>
   <tile/>
   <tile/>
   <tile/>
   <tile/>
   <tile/>
   <tile/>
   <tile/>
   <tile/>
   <tile/>
   <tile/>
   <tile/>
   <tile/>
   <tile/>
   <tile/>
   <tile/>
   <tile/>
   <tile/>
   <tile/>
   <tile/>
   <tile/>
   <tile/>
   <tile/>
   <tile/>
   <tile/>
   <tile/>
   <tile/>
   <tile/>
   <tile/>
   <tile/>
   <tile/>
   <tile/>
   <tile/>
   <tile/>
   <tile/>
   <tile/>
   <tile/>
   <tile/>
   <tile/>
   <tile/>
   <tile/>
   <tile/>
   <tile/>
   <tile/>
   <tile/>
   <tile/>
   <tile/>
   <tile/>
   <tile/>
   <tile/>
   <tile/>
   <tile/>
   <tile/>
   <tile/>
   <tile/>
   <tile/>
   <tile/>
   <tile/>
   <tile/>
   <tile/>
   <tile/>
   <tile/>
   <tile/>
   <tile/>
   <tile/>
   <tile/>
   <tile/>
   <tile/>
   <tile/>
   <tile/>
   <tile/>
   <tile/>
   <tile/>
   <tile/>
   <tile/>
   <tile/>
   <tile/>
   <tile/>
   <tile/>
   <tile/>
   <tile/>
   <tile/>
   <tile/>
   <tile/>
   <tile/>
   <tile/>
   <tile/>
   <tile/>
   <tile/>
   <tile/>
   <tile/>
   <tile/>
   <tile/>
   <tile/>
   <tile/>
   <tile/>
   <tile/>
   <tile/>
   <tile/>
   <tile/>
   <tile/>
   <tile/>
   <tile/>
   <tile/>
   <tile/>
   <tile/>
   <tile/>
   <tile/>
   <tile/>
   <tile/>
   <tile/>
   <tile/>
   <tile/>
   <tile/>
   <tile/>
   <tile/>
   <tile/>
   <tile/>
   <tile/>
   <tile/>
   <tile/>
   <tile/>
   <tile/>
   <tile/>
   <tile/>
   <tile/>
   <tile/>
   <tile/>
   <tile/>
   <tile/>
   <tile/>
   <tile/>
   <tile/>
   <tile/>
   <tile/>
   <tile/>
   <tile/>
   <tile/>
   <tile/>
   <tile/>
   <tile/>
   <tile/>
   <tile/>
   <tile/>
   <tile/>
   <tile/>
   <tile/>
   <tile/>
   <tile/>
   <tile/>
   <tile/>
   <tile/>
   <tile/>
   <tile/>
   <tile/>
   <tile/>
   <tile/>
   <tile/>
   <tile/>
   <tile/>
   <tile/>
   <tile/>
   <tile/>
   <tile/>
   <tile/>
   <tile/>
   <tile/>
   <tile/>
   <tile/>
   <tile/>
   <tile/>
   <tile/>
   <tile/>
   <tile/>
   <tile/>
   <tile/>
   <tile/>
   <tile/>
   <tile/>
   <tile/>
   <tile/>
   <tile/>
   <tile/>
   <tile/>
   <tile/>
   <tile/>
   <tile/>
   <tile/>
   <tile/>
   <tile/>
   <tile/>
   <tile/>
   <tile/>
   <tile/>
   <tile/>
   <tile/>
   <tile/>
   <tile/>
   <tile/>
   <tile/>
   <tile/>
   <tile/>
   <tile/>
   <tile/>
   <tile/>
   <tile/>
   <tile/>
   <tile/>
   <tile/>
   <tile/>
   <tile/>
   <tile/>
   <tile/>
   <tile/>
   <tile/>
   <tile/>
   <tile/>
   <tile/>
   <tile/>
   <tile/>
   <tile/>
   <tile/>
   <tile/>
   <tile/>
   <tile/>
   <tile/>
   <tile/>
   <tile/>
   <tile/>
   <tile/>
   <tile/>
   <tile/>
   <tile/>
   <tile/>
   <tile/>
   <tile/>
   <tile/>
   <tile/>
   <tile/>
   <tile/>
   <tile/>
   <tile/>
   <tile/>
   <tile/>
   <tile/>
   <tile/>
   <tile/>
   <tile/>
   <tile/>
   <tile/>
   <tile/>
   <tile/>
   <tile/>
   <tile/>
   <tile/>
   <tile/>
   <tile/>
   <tile/>
   <tile/>
   <tile/>
   <tile/>
   <tile/>
   <tile/>
   <tile/>
   <tile/>
   <tile/>
   <tile/>
   <tile/>
   <tile/>
   <tile/>
   <tile/>
   <tile/>
   <tile/>
   <tile/>
   <tile/>
   <tile/>
   <tile/>
   <tile/>
   <tile/>
   <tile/>
   <tile/>
   <tile/>
   <tile/>
   <tile/>
   <tile/>
   <tile/>
   <tile/>
   <tile/>
   <tile/>
   <tile/>
   <tile/>
   <tile/>
   <tile/>
   <tile/>
   <tile/>
   <tile/>
   <tile/>
   <tile/>
   <tile/>
   <tile/>
   <tile/>
   <tile/>
   <tile/>
   <tile/>
   <tile/>
   <tile/>
   <tile/>
   <tile/>
   <tile/>
   <tile/>
   <tile/>
   <tile/>
   <tile/>
   <tile/>
   <tile/>
   <tile/>
   <tile/>
   <tile/>
   <tile/>
   <tile/>
   <tile/>
   <tile/>
   <tile/>
   <tile/>
   <tile/>
   <tile/>
   <tile/>
   <tile/>
   <tile/>
   <tile/>
   <tile/>
   <tile/>
   <tile/>
   <tile/>
   <tile/>
   <tile/>
   <tile/>
   <tile/>
   <tile/>
   <tile/>
   <tile/>
   <tile/>
   <tile/>
   <tile/>
   <tile/>
   <tile/>
   <tile/>
   <tile/>
   <tile/>
   <tile/>
   <tile/>
   <tile/>
   <tile/>
   <tile/>
   <tile/>
   <tile/>
   <tile/>
   <tile/>
   <tile/>
   <tile/>
   <tile/>
   <tile/>
   <tile/>
   <tile/>
   <tile/>
   <tile/>
   <tile/>
   <tile/>
   <tile/>
   <tile/>
   <tile/>
   <tile/>
   <tile/>
   <tile/>
   <tile/>
   <tile/>
   <tile/>
   <tile/>
   <tile/>
   <tile/>
   <tile/>
   <tile/>
   <tile/>
   <tile/>
   <tile/>
   <tile/>
   <tile/>
   <tile/>
   <tile/>
   <tile/>
   <tile/>
   <tile/>
   <tile/>
   <tile/>
   <tile/>
   <tile/>
   <tile/>
   <tile/>
   <tile/>
   <tile/>
   <tile/>
   <tile/>
   <tile/>
   <tile/>
   <tile/>
   <tile/>
   <tile/>
   <tile/>
   <tile/>
   <tile/>
   <tile/>
   <tile/>
   <tile/>
   <tile/>
   <tile/>
   <tile/>
   <tile/>
   <tile/>
   <tile/>
   <tile/>
   <tile/>
   <tile/>
   <tile/>
   <tile/>
   <tile/>
   <tile/>
   <tile/>
   <tile/>
   <tile/>
   <tile/>
   <tile/>
   <tile/>
   <tile/>
   <tile/>
   <tile/>
   <tile/>
   <tile/>
   <tile/>
   <tile/>
   <tile/>
   <tile/>
   <tile/>
   <tile/>
   <tile/>
   <tile/>
   <tile/>
   <tile/>
   <tile/>
   <tile/>
   <tile/>
   <tile/>
   <tile/>
   <tile/>
   <tile/>
   <tile/>
   <tile/>
   <tile/>
   <tile/>
   <tile/>
   <tile/>
   <tile/>
   <tile/>
   <tile/>
   <tile/>
   <tile/>
   <tile/>
   <tile/>
   <tile/>
   <tile/>
   <tile/>
   <tile/>
   <tile/>
   <tile/>
   <tile/>
   <tile/>
   <tile/>
   <tile/>
   <tile/>
   <tile/>
   <tile/>
   <tile/>
   <tile/>
   <tile/>
   <tile/>
   <tile/>
   <tile/>
   <tile/>
   <tile/>
   <tile/>
   <tile/>
   <tile/>
   <tile/>
   <tile/>
   <tile/>
   <tile/>
   <tile/>
   <tile/>
   <tile/>
   <tile/>
   <tile/>
   <tile/>
   <tile/>
   <tile/>
   <tile/>
   <tile/>
   <tile/>
   <tile/>
   <tile/>
   <tile/>
   <tile/>
   <tile/>
   <tile/>
   <tile/>
   <tile/>
   <tile/>
   <tile/>
   <tile/>
   <tile/>
   <tile/>
   <tile/>
   <tile/>
   <tile/>
   <tile/>
   <tile/>
   <tile/>
   <tile/>
   <tile/>
   <tile/>
   <tile/>
   <tile/>
   <tile/>
   <tile/>
   <tile/>
   <tile/>
   <tile/>
   <tile/>
   <tile/>
   <tile/>
   <tile/>
   <tile/>
   <tile/>
   <tile/>
   <tile/>
   <tile/>
   <tile/>
   <tile/>
   <tile/>
   <tile/>
   <tile/>
   <tile/>
   <tile/>
   <tile/>
   <tile/>
   <tile/>
   <tile/>
   <tile/>
   <tile/>
   <tile/>
   <tile/>
   <tile/>
   <tile/>
   <tile/>
   <tile/>
   <tile/>
   <tile/>
   <tile/>
   <tile/>
   <tile/>
   <tile/>
   <tile/>
   <tile/>
   <tile/>
   <tile/>
   <tile/>
   <tile/>
   <tile/>
   <tile/>
   <tile/>
   <tile/>
   <tile/>
   <tile/>
   <tile/>
   <tile/>
   <tile/>
   <tile/>
   <tile/>
   <tile/>
   <tile/>
   <tile/>
   <tile/>
   <tile/>
   <tile/>
   <tile/>
   <tile/>
   <tile/>
   <tile/>
   <tile/>
   <tile/>
   <tile/>
   <tile/>
   <tile/>
   <tile/>
   <tile/>
   <tile/>
   <tile/>
   <tile/>
   <tile/>
   <tile/>
   <tile/>
   <tile/>
   <tile/>
   <tile/>
   <tile/>
   <tile/>
   <tile/>
   <tile/>
   <tile/>
   <tile/>
   <tile/>
   <tile/>
   <tile/>
   <tile/>
   <tile/>
   <tile/>
   <tile/>
   <tile/>
   <tile/>
   <tile/>
   <tile/>
   <tile/>
   <tile/>
   <tile/>
   <tile/>
   <tile/>
   <tile/>
   <tile/>
   <tile/>
   <tile/>
   <tile/>
   <tile/>
   <tile/>
   <tile/>
   <tile/>
   <tile/>
   <tile/>
   <tile/>
   <tile/>
   <tile/>
   <tile/>
   <tile/>
   <tile/>
   <tile/>
   <tile/>
   <tile/>
   <tile/>
   <tile/>
   <tile/>
   <tile/>
   <tile/>
   <tile/>
   <tile/>
   <tile/>
   <tile/>
   <tile/>
   <tile/>
   <tile/>
   <tile/>
   <tile/>
   <tile/>
   <tile/>
   <tile/>
   <tile/>
   <tile/>
   <tile/>
   <tile/>
   <tile/>
   <tile/>
   <tile/>
   <tile/>
   <tile/>
   <tile/>
   <tile/>
   <tile/>
   <tile/>
   <tile/>
   <tile/>
   <tile/>
   <tile/>
   <tile/>
   <tile/>
   <tile/>
   <tile/>
   <tile/>
   <tile/>
   <tile/>
   <tile/>
   <tile/>
   <tile/>
   <tile/>
   <tile/>
   <tile/>
   <tile/>
   <tile/>
   <tile/>
   <tile/>
   <tile/>
   <tile/>
   <tile/>
   <tile/>
   <tile/>
   <tile/>
   <tile/>
   <tile/>
   <tile/>
   <tile/>
   <tile/>
   <tile/>
   <tile/>
   <tile/>
   <tile/>
   <tile/>
   <tile/>
   <tile/>
   <tile/>
   <tile/>
   <tile/>
   <tile/>
   <tile/>
   <tile/>
   <tile/>
   <tile/>
   <tile/>
   <tile/>
   <tile/>
   <tile/>
   <tile/>
   <tile/>
   <tile/>
   <tile/>
   <tile/>
   <tile/>
   <tile/>
   <tile/>
   <tile/>
   <tile/>
   <tile/>
   <tile/>
   <tile/>
   <tile/>
   <tile/>
   <tile/>
   <tile/>
   <tile/>
   <tile/>
   <tile/>
   <tile/>
   <tile/>
   <tile/>
   <tile/>
   <tile/>
   <tile/>
   <tile/>
   <tile/>
   <tile/>
   <tile/>
   <tile/>
   <tile/>
   <tile/>
   <tile/>
   <tile/>
   <tile/>
   <tile/>
   <tile/>
   <tile/>
   <tile/>
   <tile/>
   <tile/>
   <tile/>
   <tile/>
   <tile/>
   <tile/>
   <tile/>
   <tile/>
   <tile/>
   <tile/>
   <tile/>
   <tile/>
   <tile/>
   <tile/>
   <tile/>
   <tile/>
   <tile/>
   <tile/>
   <tile/>
   <tile/>
   <tile/>
   <tile/>
   <tile/>
   <tile/>
   <tile/>
   <tile/>
   <tile/>
   <tile/>
   <tile/>
   <tile/>
   <tile/>
   <tile/>
   <tile/>
   <tile/>
   <tile/>
   <tile/>
   <tile/>
   <tile/>
   <tile/>
   <tile/>
   <tile/>
   <tile/>
   <tile/>
   <tile/>
   <tile/>
   <tile/>
   <tile/>
   <tile/>
   <tile/>
   <tile/>
   <tile/>
   <tile/>
   <tile/>
   <tile/>
   <tile/>
   <tile/>
   <tile/>
   <tile/>
   <tile/>
   <tile/>
   <tile/>
   <tile/>
   <tile/>
   <tile/>
   <tile/>
   <tile/>
   <tile/>
   <tile/>
   <tile/>
   <tile/>
   <tile/>
   <tile/>
   <tile/>
   <tile/>
   <tile/>
   <tile/>
   <tile/>
   <tile/>
   <tile/>
   <tile/>
   <tile/>
   <tile/>
   <tile/>
   <tile/>
   <tile/>
   <tile/>
   <tile/>
   <tile/>
   <tile/>
   <tile/>
   <tile/>
   <tile/>
   <tile/>
   <tile/>
   <tile/>
   <tile/>
   <tile/>
   <tile/>
   <tile/>
   <tile/>
   <tile/>
   <tile/>
   <tile/>
   <tile/>
   <tile/>
   <tile/>
   <tile/>
   <tile/>
   <tile/>
   <tile/>
   <tile/>
   <tile/>
   <tile/>
   <tile/>
   <tile/>
   <tile/>
   <tile/>
   <tile/>
   <tile/>
   <tile/>
   <tile/>
   <tile/>
   <tile/>
   <tile/>
   <tile/>
   <tile/>
   <tile/>
   <tile/>
   <tile/>
   <tile/>
   <tile/>
   <tile/>
   <tile/>
   <tile/>
   <tile/>
   <tile/>
   <tile/>
   <tile/>
   <tile/>
   <tile/>
   <tile/>
   <tile/>
   <tile/>
   <tile/>
   <tile/>
   <tile/>
   <tile/>
   <tile/>
   <tile/>
   <tile/>
   <tile/>
   <tile/>
   <tile/>
   <tile/>
   <tile/>
   <tile/>
   <tile/>
   <tile/>
   <tile/>
   <tile/>
   <tile/>
   <tile/>
   <tile/>
   <tile/>
   <tile/>
   <tile/>
   <tile/>
   <tile/>
   <tile/>
   <tile/>
   <tile/>
   <tile/>
   <tile/>
   <tile/>
   <tile/>
   <tile/>
   <tile/>
   <tile/>
   <tile/>
   <tile/>
   <tile/>
   <tile/>
   <tile/>
   <tile/>
   <tile/>
   <tile/>
   <tile/>
   <tile/>
   <tile/>
   <tile/>
   <tile/>
   <tile/>
   <tile/>
   <tile/>
   <tile/>
   <tile/>
   <tile/>
   <tile/>
   <tile/>
   <tile/>
   <tile/>
   <tile/>
   <tile/>
   <tile/>
   <tile/>
   <tile/>
   <tile/>
   <tile/>
   <tile/>
   <tile/>
   <tile/>
   <tile/>
   <tile/>
   <tile/>
   <tile/>
   <tile/>
   <tile/>
   <tile/>
   <tile/>
   <tile/>
   <tile/>
   <tile/>
   <tile/>
   <tile/>
   <tile/>
   <tile/>
   <tile/>
   <tile/>
   <tile/>
   <tile/>
   <tile/>
   <tile/>
   <tile/>
   <tile/>
   <tile/>
   <tile/>
   <tile/>
   <tile/>
   <tile/>
   <tile/>
   <tile/>
   <tile/>
   <tile/>
   <tile/>
   <tile/>
   <tile/>
   <tile/>
   <tile/>
   <tile/>
   <tile/>
   <tile/>
   <tile/>
   <tile/>
   <tile/>
   <tile/>
   <tile/>
   <tile/>
   <tile/>
   <tile/>
   <tile/>
   <tile/>
   <tile/>
   <tile/>
   <tile/>
   <tile/>
   <tile/>
   <tile/>
   <tile/>
   <tile/>
   <tile/>
   <tile/>
   <tile/>
   <tile/>
   <tile/>
   <tile/>
   <tile/>
   <tile/>
   <tile/>
   <tile/>
   <tile/>
   <tile/>
   <tile/>
   <tile/>
   <tile/>
   <tile/>
   <tile/>
   <tile/>
   <tile/>
   <tile/>
   <tile/>
   <tile/>
   <tile/>
   <tile/>
   <tile/>
   <tile/>
   <tile/>
   <tile/>
   <tile/>
   <tile/>
   <tile/>
   <tile/>
   <tile/>
   <tile/>
   <tile/>
   <tile/>
   <tile/>
   <tile/>
   <tile/>
   <tile/>
   <tile/>
   <tile/>
   <tile/>
   <tile/>
   <tile/>
   <tile/>
   <tile/>
   <tile/>
   <tile/>
   <tile/>
   <tile/>
   <tile/>
   <tile/>
   <tile/>
   <tile/>
   <tile/>
   <tile/>
   <tile/>
   <tile/>
   <tile/>
   <tile/>
   <tile/>
   <tile/>
   <tile/>
   <tile/>
   <tile/>
   <tile/>
   <tile/>
   <tile/>
   <tile/>
   <tile/>
   <tile/>
   <tile/>
   <tile/>
   <tile/>
   <tile/>
   <tile/>
   <tile/>
   <tile/>
   <tile/>
   <tile/>
   <tile/>
   <tile/>
   <tile/>
   <tile/>
   <tile/>
   <tile/>
   <tile/>
   <tile/>
   <tile/>
   <tile/>
   <tile/>
   <tile/>
   <tile/>
   <tile/>
   <tile/>
   <tile/>
   <tile/>
   <tile/>
   <tile/>
   <tile/>
   <tile/>
   <tile/>
   <tile/>
   <tile/>
   <tile/>
   <tile/>
   <tile/>
   <tile/>
   <tile/>
   <tile/>
   <tile/>
   <tile/>
   <tile/>
   <tile/>
   <tile/>
   <tile/>
   <tile/>
   <tile/>
   <tile/>
   <tile/>
   <tile/>
   <tile/>
   <tile/>
   <tile/>
   <tile/>
   <tile/>
   <tile/>
   <tile/>
   <tile/>
   <tile/>
   <tile/>
   <tile/>
   <tile/>
   <tile/>
   <tile/>
   <tile/>
   <tile/>
   <tile/>
   <tile/>
   <tile/>
   <tile/>
   <tile/>
   <tile/>
   <tile/>
   <tile/>
   <tile/>
   <tile/>
   <tile/>
   <tile/>
   <tile/>
   <tile/>
   <tile/>
   <tile/>
   <tile/>
   <tile/>
   <tile/>
   <tile/>
   <tile/>
   <tile/>
   <tile/>
   <tile/>
   <tile/>
   <tile/>
   <tile/>
   <tile/>
   <tile/>
   <tile/>
   <tile/>
   <tile/>
   <tile/>
   <tile/>
   <tile/>
   <tile/>
   <tile/>
   <tile/>
   <tile/>
   <tile/>
   <tile/>
   <tile/>
   <tile/>
   <tile/>
   <tile/>
   <tile/>
   <tile/>
   <tile/>
   <tile/>
   <tile/>
   <tile/>
   <tile/>
   <tile/>
   <tile/>
   <tile/>
   <tile/>
   <tile/>
   <tile/>
   <tile/>
   <tile/>
   <tile/>
   <tile/>
   <tile/>
   <tile/>
   <tile/>
   <tile/>
   <tile/>
   <tile/>
   <tile/>
   <tile/>
   <tile/>
   <tile/>
   <tile/>
   <tile/>
   <tile/>
   <tile/>
   <tile/>
   <tile/>
   <tile/>
   <tile/>
   <tile/>
   <tile/>
   <tile/>
   <tile/>
   <tile/>
   <tile/>
   <tile/>
   <tile/>
   <tile/>
   <tile/>
   <tile/>
   <tile/>
   <tile/>
   <tile/>
   <tile/>
   <tile/>
   <tile/>
   <tile/>
   <tile/>
   <tile/>
   <tile/>
   <tile/>
   <tile/>
   <tile/>
   <tile/>
   <tile/>
   <tile/>
   <tile/>
   <tile/>
   <tile/>
   <tile/>
   <tile/>
   <tile/>
   <tile/>
   <tile/>
   <tile/>
   <tile/>
   <tile/>
   <tile/>
   <tile/>
   <tile/>
   <tile/>
   <tile/>
   <tile/>
   <tile/>
   <tile/>
   <tile/>
   <tile/>
   <tile/>
   <tile/>
   <tile/>
   <tile/>
   <tile/>
   <tile/>
   <tile/>
   <tile/>
   <tile/>
   <tile/>
   <tile/>
   <tile/>
   <tile/>
   <tile/>
   <tile/>
   <tile/>
   <tile/>
   <tile/>
   <tile/>
   <tile/>
   <tile/>
   <tile/>
   <tile/>
   <tile/>
   <tile/>
   <tile/>
   <tile/>
   <tile/>
   <tile/>
   <tile/>
   <tile/>
   <tile/>
   <tile/>
   <tile/>
   <tile/>
   <tile/>
   <tile/>
   <tile/>
   <tile/>
   <tile/>
   <tile/>
   <tile/>
   <tile/>
   <tile/>
   <tile/>
   <tile/>
   <tile/>
   <tile/>
   <tile/>
   <tile/>
   <tile/>
   <tile/>
   <tile/>
   <tile/>
   <tile/>
   <tile/>
   <tile/>
   <tile/>
   <tile/>
   <tile/>
   <tile/>
   <tile/>
   <tile/>
   <tile/>
   <tile/>
   <tile/>
   <tile/>
   <tile/>
   <tile/>
   <tile/>
   <tile/>
   <tile/>
   <tile/>
   <tile/>
   <tile/>
   <tile/>
   <tile/>
   <tile/>
   <tile/>
   <tile/>
   <tile/>
   <tile/>
   <tile/>
   <tile/>
   <tile/>
   <tile/>
   <tile/>
   <tile/>
   <tile/>
   <tile/>
   <tile/>
   <tile/>
   <tile/>
   <tile/>
   <tile/>
   <tile/>
   <tile/>
   <tile/>
   <tile/>
   <tile/>
   <tile/>
   <tile/>
   <tile/>
   <tile/>
   <tile/>
   <tile/>
   <tile/>
   <tile/>
   <tile/>
   <tile/>
   <tile/>
   <tile/>
   <tile/>
   <tile/>
   <tile/>
   <tile/>
   <tile/>
   <tile/>
   <tile/>
   <tile/>
   <tile/>
   <tile/>
   <tile/>
   <tile/>
   <tile/>
   <tile/>
   <tile/>
   <tile/>
   <tile/>
   <tile/>
   <tile/>
   <tile/>
   <tile/>
   <tile/>
   <tile/>
   <tile/>
   <tile/>
   <tile/>
   <tile/>
   <tile/>
   <tile/>
   <tile/>
   <tile/>
   <tile/>
   <tile/>
   <tile/>
   <tile/>
   <tile/>
   <tile/>
   <tile/>
   <tile/>
   <tile/>
   <tile/>
   <tile/>
   <tile/>
   <tile/>
   <tile/>
   <tile/>
   <tile/>
   <tile/>
   <tile/>
   <tile/>
   <tile/>
   <tile/>
   <tile/>
   <tile/>
   <tile/>
   <tile/>
   <tile/>
   <tile/>
   <tile/>
   <tile/>
   <tile/>
   <tile/>
   <tile/>
   <tile/>
   <tile/>
   <tile/>
   <tile/>
   <tile/>
   <tile/>
   <tile/>
   <tile/>
   <tile/>
   <tile/>
   <tile/>
   <tile/>
   <tile/>
   <tile/>
   <tile/>
   <tile/>
   <tile/>
   <tile/>
   <tile/>
   <tile/>
   <tile/>
   <tile/>
   <tile/>
   <tile/>
   <tile/>
   <tile/>
   <tile/>
   <tile/>
   <tile/>
   <tile/>
   <tile/>
   <tile/>
   <tile/>
   <tile/>
   <tile/>
   <tile/>
   <tile/>
   <tile/>
   <tile/>
   <tile/>
   <tile/>
   <tile/>
   <tile/>
   <tile/>
   <tile/>
   <tile/>
   <tile/>
   <tile/>
   <tile/>
   <tile/>
   <tile/>
   <tile/>
   <tile/>
   <tile/>
   <tile/>
   <tile/>
   <tile/>
   <tile/>
   <tile/>
   <tile/>
   <tile/>
   <tile/>
   <tile/>
   <tile/>
   <tile/>
   <tile/>
   <tile/>
   <tile/>
   <tile/>
   <tile/>
   <tile/>
   <tile/>
   <tile/>
   <tile/>
   <tile/>
   <tile/>
   <tile/>
   <tile/>
   <tile/>
   <tile/>
   <tile/>
   <tile/>
   <tile/>
   <tile/>
   <tile/>
   <tile/>
   <tile/>
   <tile/>
   <tile/>
   <tile/>
   <tile/>
   <tile/>
   <tile/>
   <tile/>
   <tile/>
   <tile/>
   <tile/>
   <tile/>
   <tile/>
   <tile/>
   <tile/>
   <tile/>
   <tile/>
   <tile/>
   <tile gid="3071"/>
   <tile/>
   <tile/>
   <tile/>
   <tile/>
   <tile/>
   <tile/>
   <tile/>
   <tile/>
   <tile/>
   <tile/>
   <tile/>
   <tile/>
   <tile/>
   <tile/>
   <tile/>
   <tile/>
   <tile/>
   <tile/>
   <tile/>
   <tile/>
   <tile/>
   <tile/>
   <tile/>
   <tile/>
   <tile/>
   <tile/>
   <tile/>
   <tile/>
   <tile/>
   <tile/>
   <tile/>
   <tile/>
   <tile/>
   <tile/>
   <tile/>
   <tile/>
   <tile/>
   <tile/>
   <tile/>
   <tile/>
   <tile/>
   <tile/>
   <tile/>
   <tile/>
   <tile/>
   <tile/>
   <tile/>
   <tile/>
   <tile/>
   <tile/>
   <tile/>
   <tile/>
   <tile/>
   <tile/>
   <tile/>
   <tile/>
   <tile/>
   <tile/>
   <tile/>
   <tile/>
   <tile/>
   <tile/>
   <tile/>
   <tile/>
   <tile/>
   <tile/>
   <tile/>
   <tile/>
   <tile/>
   <tile/>
   <tile/>
   <tile/>
   <tile/>
   <tile/>
   <tile/>
   <tile/>
   <tile/>
   <tile/>
   <tile/>
   <tile/>
   <tile/>
   <tile/>
   <tile/>
   <tile/>
   <tile/>
   <tile/>
   <tile/>
   <tile/>
   <tile/>
  </data>
 </layer>
 <layer id="1" name="Solid" width="90" height="68">
  <properties>
   <property name="Draw" type="bool" value="true"/>
  </properties>
  <data>
   <tile gid="592"/>
   <tile/>
   <tile gid="572"/>
   <tile/>
   <tile gid="572"/>
   <tile/>
   <tile gid="572"/>
   <tile/>
   <tile gid="572"/>
   <tile/>
   <tile gid="572"/>
   <tile/>
   <tile gid="572"/>
   <tile/>
   <tile gid="572"/>
   <tile/>
   <tile gid="572"/>
   <tile/>
   <tile gid="572"/>
   <tile/>
   <tile gid="572"/>
   <tile/>
   <tile gid="572"/>
   <tile/>
   <tile gid="572"/>
   <tile/>
   <tile gid="572"/>
   <tile/>
   <tile gid="572"/>
   <tile/>
   <tile gid="572"/>
   <tile/>
   <tile gid="572"/>
   <tile/>
   <tile gid="572"/>
   <tile/>
   <tile gid="572"/>
   <tile/>
   <tile gid="572"/>
   <tile/>
   <tile gid="572"/>
   <tile/>
   <tile gid="572"/>
   <tile/>
   <tile gid="572"/>
   <tile/>
   <tile gid="572"/>
   <tile/>
   <tile gid="572"/>
   <tile/>
   <tile gid="572"/>
   <tile/>
   <tile gid="572"/>
   <tile/>
   <tile gid="572"/>
   <tile/>
   <tile gid="572"/>
   <tile/>
   <tile gid="572"/>
   <tile/>
   <tile gid="572"/>
   <tile/>
   <tile gid="572"/>
   <tile/>
   <tile gid="572"/>
   <tile/>
   <tile gid="572"/>
   <tile/>
   <tile gid="572"/>
   <tile/>
   <tile gid="572"/>
   <tile/>
   <tile gid="572"/>
   <tile/>
   <tile gid="572"/>
   <tile/>
   <tile gid="572"/>
   <tile/>
   <tile gid="572"/>
   <tile/>
   <tile gid="572"/>
   <tile/>
   <tile gid="591"/>
   <tile gid="557"/>
   <tile/>
   <tile/>
   <tile/>
   <tile/>
   <tile/>
   <tile gid="555"/>
   <tile gid="557"/>
   <tile/>
   <tile/>
   <tile/>
   <tile/>
   <tile/>
   <tile/>
   <tile/>
   <tile/>
   <tile/>
   <tile/>
   <tile/>
   <tile/>
   <tile/>
   <tile/>
   <tile/>
   <tile/>
   <tile/>
   <tile/>
   <tile/>
   <tile/>
   <tile/>
   <tile/>
   <tile/>
   <tile/>
   <tile/>
   <tile/>
   <tile/>
   <tile/>
   <tile/>
   <tile/>
   <tile/>
   <tile/>
   <tile/>
   <tile/>
   <tile/>
   <tile/>
   <tile/>
   <tile/>
   <tile/>
   <tile/>
   <tile/>
   <tile/>
   <tile/>
   <tile/>
   <tile/>
   <tile/>
   <tile/>
   <tile/>
   <tile/>
   <tile/>
   <tile/>
   <tile/>
   <tile/>
   <tile/>
   <tile/>
   <tile/>
   <tile/>
   <tile/>
   <tile/>
   <tile/>
   <tile/>
   <tile/>
   <tile/>
   <tile/>
   <tile/>
   <tile/>
   <tile/>
   <tile/>
   <tile/>
   <tile/>
   <tile/>
   <tile/>
   <tile/>
   <tile/>
   <tile/>
   <tile/>
   <tile/>
   <tile/>
   <tile/>
   <tile/>
   <tile/>
   <tile gid="555"/>
   <tile gid="557"/>
   <tile/>
   <tile/>
   <tile/>
   <tile/>
   <tile/>
   <tile gid="555"/>
   <tile gid="557"/>
   <tile/>
   <tile/>
   <tile/>
   <tile/>
   <tile/>
   <tile/>
   <tile/>
   <tile/>
   <tile/>
   <tile/>
   <tile/>
   <tile/>
   <tile/>
   <tile/>
   <tile/>
   <tile/>
   <tile/>
   <tile/>
   <tile/>
   <tile/>
   <tile/>
   <tile/>
   <tile/>
   <tile/>
   <tile/>
   <tile/>
   <tile/>
   <tile/>
   <tile/>
   <tile/>
   <tile/>
   <tile/>
   <tile/>
   <tile/>
   <tile/>
   <tile/>
   <tile/>
   <tile/>
   <tile/>
   <tile/>
   <tile/>
   <tile/>
   <tile/>
   <tile/>
   <tile/>
   <tile/>
   <tile/>
   <tile/>
   <tile/>
   <tile/>
   <tile/>
   <tile/>
   <tile/>
   <tile/>
   <tile/>
   <tile/>
   <tile/>
   <tile/>
   <tile/>
   <tile/>
   <tile/>
   <tile/>
   <tile/>
   <tile/>
   <tile/>
   <tile/>
   <tile/>
   <tile/>
   <tile/>
   <tile/>
   <tile/>
   <tile/>
   <tile/>
   <tile/>
   <tile/>
   <tile/>
   <tile/>
   <tile/>
   <tile/>
   <tile/>
   <tile/>
   <tile gid="571"/>
   <tile gid="557"/>
   <tile/>
   <tile/>
   <tile/>
   <tile/>
   <tile/>
   <tile gid="555"/>
   <tile gid="557"/>
   <tile/>
   <tile/>
   <tile/>
   <tile/>
   <tile/>
   <tile/>
   <tile/>
   <tile/>
   <tile/>
   <tile/>
   <tile/>
   <tile/>
   <tile/>
   <tile/>
   <tile/>
   <tile/>
   <tile/>
   <tile/>
   <tile/>
   <tile/>
   <tile/>
   <tile/>
   <tile/>
   <tile/>
   <tile/>
   <tile/>
   <tile/>
   <tile/>
   <tile/>
   <tile/>
   <tile/>
   <tile/>
   <tile/>
   <tile/>
   <tile/>
   <tile/>
   <tile/>
   <tile/>
   <tile/>
   <tile/>
   <tile/>
   <tile/>
   <tile/>
   <tile/>
   <tile/>
   <tile/>
   <tile/>
   <tile/>
   <tile/>
   <tile/>
   <tile/>
   <tile/>
   <tile/>
   <tile/>
   <tile/>
   <tile/>
   <tile/>
   <tile/>
   <tile/>
   <tile/>
   <tile/>
   <tile/>
   <tile/>
   <tile/>
   <tile/>
   <tile/>
   <tile/>
   <tile/>
   <tile/>
   <tile/>
   <tile/>
   <tile/>
   <tile/>
   <tile/>
   <tile/>
   <tile/>
   <tile/>
   <tile/>
   <tile/>
   <tile/>
   <tile/>
   <tile/>
   <tile gid="573"/>
   <tile/>
   <tile/>
   <tile/>
   <tile/>
   <tile/>
   <tile gid="555"/>
   <tile gid="557"/>
   <tile/>
   <tile/>
   <tile/>
   <tile/>
   <tile/>
   <tile/>
   <tile/>
   <tile/>
   <tile/>
   <tile/>
   <tile/>
   <tile/>
   <tile/>
   <tile/>
   <tile/>
   <tile/>
   <tile/>
   <tile/>
   <tile/>
   <tile/>
   <tile/>
   <tile/>
   <tile/>
   <tile/>
   <tile/>
   <tile/>
   <tile/>
   <tile/>
   <tile/>
   <tile/>
   <tile/>
   <tile/>
   <tile/>
   <tile/>
   <tile/>
   <tile/>
   <tile/>
   <tile/>
   <tile/>
   <tile/>
   <tile/>
   <tile/>
   <tile/>
   <tile/>
   <tile/>
   <tile/>
   <tile/>
   <tile/>
   <tile/>
   <tile/>
   <tile/>
   <tile/>
   <tile/>
   <tile/>
   <tile/>
   <tile/>
   <tile/>
   <tile/>
   <tile/>
   <tile/>
   <tile/>
   <tile/>
   <tile/>
   <tile/>
   <tile/>
   <tile/>
   <tile/>
   <tile/>
   <tile/>
   <tile/>
   <tile/>
   <tile/>
   <tile/>
   <tile/>
   <tile/>
   <tile/>
   <tile/>
   <tile/>
   <tile/>
   <tile/>
   <tile/>
   <tile/>
   <tile/>
   <tile/>
   <tile/>
   <tile/>
   <tile/>
   <tile/>
   <tile gid="555"/>
   <tile gid="557"/>
   <tile/>
   <tile/>
   <tile/>
   <tile/>
   <tile/>
   <tile/>
   <tile/>
   <tile/>
   <tile/>
   <tile/>
   <tile/>
   <tile/>
   <tile/>
   <tile/>
   <tile/>
   <tile/>
   <tile/>
   <tile/>
   <tile/>
   <tile/>
   <tile/>
   <tile/>
   <tile/>
   <tile/>
   <tile/>
   <tile/>
   <tile/>
   <tile/>
   <tile/>
   <tile/>
   <tile/>
   <tile/>
   <tile/>
   <tile/>
   <tile/>
   <tile/>
   <tile/>
   <tile/>
   <tile/>
   <tile/>
   <tile/>
   <tile/>
   <tile/>
   <tile/>
   <tile/>
   <tile/>
   <tile/>
   <tile/>
   <tile/>
   <tile/>
   <tile/>
   <tile/>
   <tile/>
   <tile/>
   <tile/>
   <tile/>
   <tile/>
   <tile/>
   <tile/>
   <tile/>
   <tile/>
   <tile/>
   <tile/>
   <tile/>
   <tile/>
   <tile/>
   <tile/>
   <tile/>
   <tile/>
   <tile/>
   <tile/>
   <tile/>
   <tile/>
   <tile/>
   <tile/>
   <tile/>
   <tile/>
   <tile/>
   <tile/>
   <tile/>
   <tile/>
   <tile/>
   <tile/>
   <tile/>
   <tile/>
   <tile/>
   <tile/>
   <tile/>
   <tile gid="555"/>
   <tile gid="557"/>
   <tile/>
   <tile/>
   <tile/>
   <tile/>
   <tile/>
   <tile/>
   <tile/>
   <tile/>
   <tile/>
   <tile/>
   <tile/>
   <tile/>
   <tile/>
   <tile/>
   <tile/>
   <tile/>
   <tile/>
   <tile/>
   <tile/>
   <tile/>
   <tile/>
   <tile/>
   <tile/>
   <tile/>
   <tile/>
   <tile/>
   <tile/>
   <tile/>
   <tile/>
   <tile/>
   <tile/>
   <tile/>
   <tile/>
   <tile/>
   <tile/>
   <tile/>
   <tile/>
   <tile/>
   <tile/>
   <tile/>
   <tile/>
   <tile/>
   <tile/>
   <tile/>
   <tile gid="603"/>
   <tile gid="604"/>
   <tile gid="605"/>
   <tile/>
   <tile/>
   <tile/>
   <tile/>
   <tile/>
   <tile/>
   <tile/>
   <tile/>
   <tile/>
   <tile/>
   <tile/>
   <tile/>
   <tile/>
   <tile/>
   <tile/>
   <tile/>
   <tile/>
   <tile/>
   <tile/>
   <tile/>
   <tile/>
   <tile/>
   <tile/>
   <tile/>
   <tile/>
   <tile/>
   <tile/>
   <tile/>
   <tile/>
   <tile/>
   <tile/>
   <tile/>
   <tile/>
   <tile/>
   <tile/>
   <tile/>
   <tile/>
   <tile/>
   <tile/>
   <tile/>
   <tile/>
   <tile gid="555"/>
   <tile gid="557"/>
   <tile/>
   <tile/>
   <tile/>
   <tile/>
   <tile/>
   <tile/>
   <tile/>
   <tile/>
   <tile/>
   <tile/>
   <tile/>
   <tile/>
   <tile/>
   <tile/>
   <tile/>
   <tile/>
   <tile/>
   <tile/>
   <tile/>
   <tile/>
   <tile/>
   <tile/>
   <tile/>
   <tile/>
   <tile/>
   <tile/>
   <tile/>
   <tile/>
   <tile/>
   <tile/>
   <tile/>
   <tile/>
   <tile/>
   <tile/>
   <tile/>
   <tile/>
   <tile/>
   <tile/>
   <tile/>
   <tile/>
   <tile/>
   <tile/>
   <tile/>
   <tile/>
   <tile gid="619"/>
   <tile gid="556"/>
   <tile gid="621"/>
   <tile/>
   <tile/>
   <tile/>
   <tile/>
   <tile/>
   <tile/>
   <tile/>
   <tile/>
   <tile/>
   <tile/>
   <tile/>
   <tile/>
   <tile/>
   <tile/>
   <tile/>
   <tile/>
   <tile/>
   <tile/>
   <tile/>
   <tile/>
   <tile/>
   <tile/>
   <tile/>
   <tile/>
   <tile/>
   <tile/>
   <tile/>
   <tile/>
   <tile/>
   <tile/>
   <tile/>
   <tile/>
   <tile/>
   <tile/>
   <tile/>
   <tile/>
   <tile/>
   <tile/>
   <tile/>
   <tile/>
   <tile/>
   <tile gid="555"/>
   <tile gid="557"/>
   <tile/>
   <tile/>
   <tile/>
   <tile/>
   <tile/>
   <tile/>
   <tile/>
   <tile/>
   <tile/>
   <tile/>
   <tile/>
   <tile/>
   <tile/>
   <tile/>
   <tile/>
   <tile/>
   <tile/>
   <tile/>
   <tile/>
   <tile/>
   <tile/>
   <tile/>
   <tile/>
   <tile/>
   <tile/>
   <tile/>
   <tile/>
   <tile/>
   <tile/>
   <tile/>
   <tile/>
   <tile/>
   <tile/>
   <tile/>
   <tile/>
   <tile/>
   <tile/>
   <tile/>
   <tile/>
   <tile/>
   <tile/>
   <tile/>
   <tile/>
   <tile/>
   <tile gid="619"/>
   <tile gid="556"/>
   <tile gid="621"/>
   <tile/>
   <tile/>
   <tile/>
   <tile/>
   <tile/>
   <tile/>
   <tile/>
   <tile/>
   <tile/>
   <tile/>
   <tile/>
   <tile/>
   <tile/>
   <tile/>
   <tile/>
   <tile/>
   <tile/>
   <tile/>
   <tile/>
   <tile/>
   <tile/>
   <tile/>
   <tile/>
   <tile/>
   <tile/>
   <tile/>
   <tile/>
   <tile/>
   <tile/>
   <tile/>
   <tile/>
   <tile/>
   <tile/>
   <tile/>
   <tile/>
   <tile/>
   <tile/>
   <tile/>
   <tile/>
   <tile/>
   <tile/>
   <tile gid="555"/>
   <tile gid="557"/>
   <tile/>
   <tile/>
   <tile/>
   <tile/>
   <tile/>
   <tile/>
   <tile/>
   <tile/>
   <tile gid="603"/>
   <tile gid="604"/>
   <tile gid="604"/>
   <tile gid="604"/>
   <tile gid="604"/>
   <tile gid="604"/>
   <tile gid="604"/>
   <tile gid="604"/>
   <tile gid="604"/>
   <tile gid="605"/>
   <tile/>
   <tile/>
   <tile/>
   <tile/>
   <tile/>
   <tile/>
   <tile/>
   <tile/>
   <tile/>
   <tile/>
   <tile/>
   <tile/>
   <tile/>
   <tile/>
   <tile/>
   <tile/>
   <tile/>
   <tile/>
   <tile/>
   <tile/>
   <tile/>
   <tile/>
   <tile/>
   <tile/>
   <tile/>
   <tile/>
   <tile gid="619"/>
   <tile gid="556"/>
   <tile gid="621"/>
   <tile/>
   <tile/>
   <tile/>
   <tile/>
   <tile/>
   <tile/>
   <tile/>
   <tile/>
   <tile/>
   <tile/>
   <tile/>
   <tile/>
   <tile/>
   <tile/>
   <tile/>
   <tile/>
   <tile/>
   <tile/>
   <tile/>
   <tile/>
   <tile/>
   <tile/>
   <tile/>
   <tile/>
   <tile/>
   <tile/>
   <tile/>
   <tile/>
   <tile/>
   <tile/>
   <tile/>
   <tile/>
   <tile/>
   <tile/>
   <tile/>
   <tile/>
   <tile/>
   <tile/>
   <tile/>
   <tile/>
   <tile/>
   <tile gid="555"/>
   <tile gid="557"/>
   <tile/>
   <tile/>
   <tile/>
   <tile/>
   <tile/>
   <tile/>
   <tile/>
   <tile/>
   <tile/>
   <tile/>
   <tile gid="635"/>
   <tile gid="636"/>
   <tile gid="636"/>
   <tile gid="636"/>
   <tile gid="636"/>
   <tile gid="637"/>
   <tile/>
   <tile/>
   <tile/>
   <tile/>
   <tile/>
   <tile/>
   <tile/>
   <tile/>
   <tile/>
   <tile/>
   <tile/>
   <tile/>
   <tile/>
   <tile/>
   <tile/>
   <tile/>
   <tile/>
   <tile/>
   <tile/>
   <tile/>
   <tile/>
   <tile/>
   <tile/>
   <tile/>
   <tile/>
   <tile/>
   <tile/>
   <tile/>
   <tile gid="619"/>
   <tile gid="556"/>
   <tile gid="621"/>
   <tile/>
   <tile/>
   <tile/>
   <tile/>
   <tile/>
   <tile/>
   <tile/>
   <tile/>
   <tile/>
   <tile/>
   <tile/>
   <tile/>
   <tile/>
   <tile/>
   <tile/>
   <tile/>
   <tile/>
   <tile/>
   <tile/>
   <tile/>
   <tile/>
   <tile/>
   <tile/>
   <tile/>
   <tile/>
   <tile/>
   <tile/>
   <tile/>
   <tile/>
   <tile/>
   <tile/>
   <tile/>
   <tile/>
   <tile/>
   <tile/>
   <tile/>
   <tile/>
   <tile/>
   <tile/>
   <tile/>
   <tile/>
   <tile gid="555"/>
   <tile gid="557"/>
   <tile/>
   <tile/>
   <tile/>
   <tile/>
   <tile/>
   <tile/>
   <tile/>
   <tile/>
   <tile/>
   <tile/>
   <tile/>
   <tile/>
   <tile/>
   <tile/>
   <tile/>
   <tile/>
   <tile/>
   <tile/>
   <tile/>
   <tile/>
   <tile gid="603"/>
   <tile gid="604"/>
   <tile gid="604"/>
   <tile gid="604"/>
   <tile gid="604"/>
   <tile gid="604"/>
   <tile gid="604"/>
   <tile gid="604"/>
   <tile gid="605"/>
   <tile/>
   <tile/>
   <tile/>
   <tile/>
   <tile/>
   <tile/>
   <tile/>
   <tile/>
   <tile/>
   <tile/>
   <tile/>
   <tile/>
   <tile/>
   <tile/>
   <tile/>
   <tile gid="619"/>
   <tile gid="556"/>
   <tile gid="672"/>
   <tile gid="604"/>
   <tile gid="604"/>
   <tile gid="604"/>
   <tile gid="604"/>
   <tile gid="604"/>
   <tile gid="604"/>
   <tile gid="605"/>
   <tile/>
   <tile/>
   <tile/>
   <tile/>
   <tile/>
   <tile/>
   <tile/>
   <tile/>
   <tile/>
   <tile/>
   <tile/>
   <tile/>
   <tile/>
   <tile/>
   <tile/>
   <tile/>
   <tile/>
   <tile/>
   <tile/>
   <tile/>
   <tile/>
   <tile/>
   <tile/>
   <tile/>
   <tile/>
   <tile/>
   <tile/>
   <tile/>
   <tile/>
   <tile/>
   <tile/>
   <tile/>
   <tile/>
   <tile/>
   <tile gid="555"/>
   <tile gid="557"/>
   <tile/>
   <tile/>
   <tile/>
   <tile/>
   <tile/>
   <tile/>
   <tile/>
   <tile/>
   <tile/>
   <tile/>
   <tile/>
   <tile/>
   <tile/>
   <tile/>
   <tile/>
   <tile/>
   <tile/>
   <tile/>
   <tile/>
   <tile/>
   <tile/>
   <tile/>
   <tile gid="635"/>
   <tile gid="636"/>
   <tile gid="636"/>
   <tile gid="636"/>
   <tile gid="636"/>
   <tile gid="637"/>
   <tile/>
   <tile/>
   <tile/>
   <tile/>
   <tile/>
   <tile/>
   <tile/>
   <tile/>
   <tile/>
   <tile/>
   <tile/>
   <tile/>
   <tile/>
   <tile/>
   <tile/>
   <tile/>
   <tile gid="619"/>
   <tile gid="556"/>
   <tile gid="556"/>
   <tile gid="556"/>
   <tile gid="556"/>
   <tile gid="556"/>
   <tile gid="556"/>
   <tile gid="556"/>
   <tile gid="556"/>
   <tile gid="621"/>
   <tile/>
   <tile/>
   <tile/>
   <tile/>
   <tile/>
   <tile/>
   <tile/>
   <tile/>
   <tile/>
   <tile/>
   <tile/>
   <tile/>
   <tile/>
   <tile/>
   <tile/>
   <tile/>
   <tile/>
   <tile/>
   <tile/>
   <tile/>
   <tile/>
   <tile/>
   <tile/>
   <tile/>
   <tile/>
   <tile/>
   <tile gid="539"/>
   <tile gid="540"/>
   <tile gid="540"/>
   <tile gid="540"/>
   <tile gid="540"/>
   <tile gid="540"/>
   <tile gid="540"/>
   <tile gid="540"/>
   <tile gid="575"/>
   <tile gid="557"/>
   <tile/>
   <tile/>
   <tile/>
   <tile/>
   <tile/>
   <tile/>
   <tile/>
   <tile/>
   <tile/>
   <tile/>
   <tile/>
   <tile/>
   <tile/>
   <tile/>
   <tile/>
   <tile/>
   <tile/>
   <tile/>
   <tile/>
   <tile/>
   <tile/>
   <tile/>
   <tile/>
   <tile/>
   <tile/>
   <tile/>
   <tile/>
   <tile/>
   <tile/>
   <tile/>
   <tile/>
   <tile/>
   <tile/>
   <tile/>
   <tile/>
   <tile/>
   <tile/>
   <tile/>
   <tile/>
   <tile/>
   <tile/>
   <tile/>
   <tile/>
   <tile/>
   <tile gid="619"/>
   <tile gid="556"/>
   <tile gid="556"/>
   <tile gid="556"/>
   <tile gid="556"/>
   <tile gid="556"/>
   <tile gid="556"/>
   <tile gid="556"/>
   <tile gid="556"/>
   <tile gid="621"/>
   <tile/>
   <tile/>
   <tile/>
   <tile/>
   <tile/>
   <tile/>
   <tile/>
   <tile/>
   <tile/>
   <tile/>
   <tile/>
   <tile/>
   <tile/>
   <tile/>
   <tile/>
   <tile/>
   <tile/>
   <tile/>
   <tile/>
   <tile/>
   <tile/>
   <tile/>
   <tile/>
   <tile/>
   <tile/>
   <tile/>
   <tile/>
   <tile/>
   <tile gid="571"/>
   <tile gid="572"/>
   <tile gid="572"/>
   <tile gid="591"/>
   <tile gid="556"/>
   <tile gid="556"/>
   <tile gid="556"/>
   <tile gid="557"/>
   <tile/>
   <tile/>
   <tile/>
   <tile/>
   <tile/>
   <tile/>
   <tile/>
   <tile/>
   <tile/>
   <tile/>
   <tile/>
   <tile/>
   <tile/>
   <tile/>
   <tile/>
   <tile/>
   <tile/>
   <tile/>
   <tile/>
   <tile/>
   <tile/>
   <tile/>
   <tile/>
   <tile/>
   <tile/>
   <tile/>
   <tile/>
   <tile/>
   <tile/>
   <tile/>
   <tile/>
   <tile/>
   <tile/>
   <tile/>
   <tile/>
   <tile/>
   <tile/>
   <tile/>
   <tile gid="603"/>
   <tile gid="605"/>
   <tile/>
   <tile gid="603"/>
   <tile gid="604"/>
   <tile gid="604"/>
   <tile gid="671"/>
   <tile gid="556"/>
   <tile gid="556"/>
   <tile gid="556"/>
   <tile gid="556"/>
   <tile gid="556"/>
   <tile gid="556"/>
   <tile gid="556"/>
   <tile gid="556"/>
   <tile gid="672"/>
   <tile gid="604"/>
   <tile gid="604"/>
   <tile gid="605"/>
   <tile/>
   <tile/>
   <tile/>
   <tile/>
   <tile/>
   <tile/>
   <tile/>
   <tile/>
   <tile/>
   <tile/>
   <tile/>
   <tile/>
   <tile/>
   <tile/>
   <tile/>
   <tile/>
   <tile/>
   <tile/>
   <tile/>
   <tile/>
   <tile/>
   <tile/>
   <tile/>
   <tile/>
   <tile/>
   <tile/>
   <tile/>
   <tile/>
   <tile gid="571"/>
   <tile gid="572"/>
   <tile gid="591"/>
   <tile gid="556"/>
   <tile gid="557"/>
   <tile/>
   <tile/>
   <tile/>
   <tile/>
   <tile/>
   <tile/>
   <tile/>
   <tile/>
   <tile/>
   <tile/>
   <tile/>
   <tile/>
   <tile/>
   <tile/>
   <tile/>
   <tile/>
   <tile/>
   <tile/>
   <tile/>
   <tile/>
   <tile/>
   <tile/>
   <tile/>
   <tile/>
   <tile/>
   <tile/>
   <tile/>
   <tile/>
   <tile/>
   <tile/>
   <tile/>
   <tile/>
   <tile/>
   <tile/>
   <tile/>
   <tile/>
   <tile/>
   <tile gid="603"/>
   <tile gid="671"/>
   <tile gid="672"/>
   <tile gid="604"/>
   <tile gid="671"/>
   <tile gid="556"/>
   <tile gid="556"/>
   <tile gid="556"/>
   <tile gid="556"/>
   <tile gid="556"/>
   <tile gid="556"/>
   <tile gid="556"/>
   <tile gid="556"/>
   <tile gid="556"/>
   <tile gid="556"/>
   <tile gid="556"/>
   <tile gid="556"/>
   <tile gid="556"/>
   <tile gid="556"/>
   <tile gid="621"/>
   <tile/>
   <tile/>
   <tile/>
   <tile/>
   <tile/>
   <tile/>
   <tile/>
   <tile/>
   <tile/>
   <tile/>
   <tile/>
   <tile/>
   <tile/>
   <tile/>
   <tile/>
   <tile/>
   <tile/>
   <tile/>
   <tile/>
   <tile/>
   <tile/>
   <tile/>
   <tile/>
   <tile/>
   <tile/>
   <tile/>
   <tile/>
   <tile/>
   <tile/>
   <tile/>
   <tile gid="571"/>
   <tile gid="591"/>
   <tile gid="557"/>
   <tile/>
   <tile/>
   <tile/>
   <tile/>
   <tile/>
   <tile/>
   <tile/>
   <tile/>
   <tile/>
   <tile/>
   <tile/>
   <tile/>
   <tile/>
   <tile/>
   <tile/>
   <tile/>
   <tile/>
   <tile/>
   <tile/>
   <tile/>
   <tile/>
   <tile/>
   <tile/>
   <tile/>
   <tile/>
   <tile/>
   <tile/>
   <tile/>
   <tile/>
   <tile/>
   <tile/>
   <tile/>
   <tile/>
   <tile/>
   <tile/>
   <tile gid="603"/>
   <tile gid="604"/>
   <tile gid="671"/>
   <tile gid="556"/>
   <tile gid="556"/>
   <tile gid="556"/>
   <tile gid="556"/>
   <tile gid="556"/>
   <tile gid="556"/>
   <tile gid="556"/>
   <tile gid="556"/>
   <tile gid="556"/>
   <tile gid="556"/>
   <tile gid="556"/>
   <tile gid="556"/>
   <tile gid="556"/>
   <tile gid="556"/>
   <tile gid="556"/>
   <tile gid="556"/>
   <tile gid="556"/>
   <tile gid="556"/>
   <tile gid="621"/>
   <tile/>
   <tile/>
   <tile/>
   <tile/>
   <tile/>
   <tile/>
   <tile/>
   <tile/>
   <tile/>
   <tile/>
   <tile/>
   <tile/>
   <tile/>
   <tile/>
   <tile/>
   <tile/>
   <tile/>
   <tile/>
   <tile/>
   <tile/>
   <tile/>
   <tile/>
   <tile/>
   <tile/>
   <tile/>
   <tile/>
   <tile/>
   <tile/>
   <tile/>
   <tile/>
   <tile/>
   <tile gid="555"/>
   <tile gid="557"/>
   <tile/>
   <tile/>
   <tile/>
   <tile/>
   <tile/>
   <tile/>
   <tile/>
   <tile/>
   <tile/>
   <tile/>
   <tile/>
   <tile/>
   <tile/>
   <tile/>
   <tile/>
   <tile/>
   <tile/>
   <tile/>
   <tile/>
   <tile/>
   <tile/>
   <tile/>
   <tile/>
   <tile/>
   <tile/>
   <tile/>
   <tile/>
   <tile/>
   <tile/>
   <tile/>
   <tile/>
   <tile/>
   <tile gid="603"/>
   <tile gid="604"/>
   <tile gid="604"/>
   <tile gid="671"/>
   <tile gid="556"/>
   <tile gid="556"/>
   <tile gid="556"/>
   <tile gid="556"/>
   <tile gid="556"/>
   <tile gid="556"/>
   <tile gid="556"/>
   <tile gid="556"/>
   <tile gid="556"/>
   <tile gid="556"/>
   <tile gid="556"/>
   <tile gid="556"/>
   <tile gid="556"/>
   <tile gid="556"/>
   <tile gid="556"/>
   <tile gid="556"/>
   <tile gid="556"/>
   <tile gid="556"/>
   <tile gid="556"/>
   <tile gid="556"/>
   <tile gid="672"/>
   <tile gid="605"/>
   <tile/>
   <tile/>
   <tile/>
   <tile/>
   <tile/>
   <tile/>
   <tile/>
   <tile/>
   <tile/>
   <tile/>
   <tile/>
   <tile/>
   <tile/>
   <tile/>
   <tile/>
   <tile/>
   <tile/>
   <tile/>
   <tile/>
   <tile/>
   <tile/>
   <tile/>
   <tile/>
   <tile/>
   <tile/>
   <tile/>
   <tile/>
   <tile/>
   <tile/>
   <tile/>
   <tile gid="555"/>
   <tile gid="557"/>
   <tile/>
   <tile/>
   <tile/>
   <tile/>
   <tile/>
   <tile/>
   <tile/>
   <tile/>
   <tile/>
   <tile/>
   <tile/>
   <tile/>
   <tile/>
   <tile/>
   <tile/>
   <tile/>
   <tile/>
   <tile/>
   <tile/>
   <tile/>
   <tile/>
   <tile/>
   <tile/>
   <tile/>
   <tile/>
   <tile/>
   <tile/>
   <tile/>
   <tile/>
   <tile/>
   <tile/>
   <tile gid="603"/>
   <tile gid="671"/>
   <tile gid="556"/>
   <tile gid="556"/>
   <tile gid="556"/>
   <tile gid="556"/>
   <tile gid="556"/>
   <tile gid="556"/>
   <tile gid="688"/>
   <tile gid="636"/>
   <tile gid="636"/>
   <tile gid="636"/>
   <tile gid="636"/>
   <tile gid="636"/>
   <tile gid="687"/>
   <tile gid="556"/>
   <tile gid="556"/>
   <tile gid="556"/>
   <tile gid="556"/>
   <tile gid="688"/>
   <tile gid="636"/>
   <tile gid="636"/>
   <tile gid="687"/>
   <tile gid="556"/>
   <tile gid="556"/>
   <tile gid="556"/>
   <tile gid="672"/>
   <tile gid="605"/>
   <tile/>
   <tile/>
   <tile/>
   <tile/>
   <tile/>
   <tile/>
   <tile/>
   <tile/>
   <tile/>
   <tile/>
   <tile/>
   <tile/>
   <tile/>
   <tile/>
   <tile/>
   <tile/>
   <tile/>
   <tile/>
   <tile/>
   <tile/>
   <tile/>
   <tile/>
   <tile/>
   <tile/>
   <tile/>
   <tile/>
   <tile/>
   <tile/>
   <tile/>
   <tile gid="555"/>
   <tile gid="557"/>
   <tile/>
   <tile/>
   <tile/>
   <tile/>
   <tile/>
   <tile/>
   <tile/>
   <tile/>
   <tile/>
   <tile/>
   <tile/>
   <tile/>
   <tile/>
   <tile/>
   <tile/>
   <tile/>
   <tile/>
   <tile/>
   <tile/>
   <tile/>
   <tile/>
   <tile/>
   <tile/>
   <tile/>
   <tile/>
   <tile/>
   <tile/>
   <tile/>
   <tile/>
   <tile/>
   <tile/>
   <tile gid="619"/>
   <tile gid="556"/>
   <tile gid="556"/>
   <tile gid="556"/>
   <tile gid="688"/>
   <tile gid="636"/>
   <tile gid="636"/>
   <tile gid="636"/>
   <tile gid="637"/>
   <tile/>
   <tile/>
   <tile/>
   <tile/>
   <tile/>
   <tile gid="635"/>
   <tile gid="687"/>
   <tile gid="556"/>
   <tile gid="556"/>
   <tile gid="556"/>
   <tile gid="621"/>
   <tile/>
   <tile/>
   <tile gid="635"/>
   <tile gid="636"/>
   <tile gid="636"/>
   <tile gid="687"/>
   <tile gid="556"/>
   <tile gid="621"/>
   <tile/>
   <tile/>
   <tile/>
   <tile/>
   <tile/>
   <tile/>
   <tile/>
   <tile/>
   <tile/>
   <tile/>
   <tile/>
   <tile/>
   <tile/>
   <tile/>
   <tile gid="603"/>
   <tile gid="604"/>
   <tile gid="604"/>
   <tile gid="604"/>
   <tile gid="604"/>
   <tile gid="604"/>
   <tile gid="605"/>
   <tile/>
   <tile/>
   <tile/>
   <tile/>
   <tile/>
   <tile/>
   <tile/>
   <tile/>
   <tile gid="555"/>
   <tile gid="557"/>
   <tile/>
   <tile/>
   <tile/>
   <tile/>
   <tile/>
   <tile/>
   <tile/>
   <tile/>
   <tile/>
   <tile/>
   <tile/>
   <tile/>
   <tile/>
   <tile/>
   <tile/>
   <tile/>
   <tile/>
   <tile/>
   <tile/>
   <tile/>
   <tile/>
   <tile/>
   <tile/>
   <tile/>
   <tile/>
   <tile/>
   <tile/>
   <tile/>
   <tile gid="603"/>
   <tile gid="604"/>
   <tile gid="604"/>
   <tile gid="671"/>
   <tile gid="688"/>
   <tile gid="636"/>
   <tile gid="636"/>
   <tile gid="637"/>
   <tile/>
   <tile/>
   <tile/>
   <tile/>
   <tile/>
   <tile/>
   <tile/>
   <tile/>
   <tile/>
   <tile/>
   <tile gid="619"/>
   <tile gid="556"/>
   <tile gid="556"/>
   <tile gid="688"/>
   <tile gid="637"/>
   <tile/>
   <tile/>
   <tile/>
   <tile/>
   <tile/>
   <tile gid="635"/>
   <tile gid="687"/>
   <tile gid="672"/>
   <tile gid="604"/>
   <tile gid="605"/>
   <tile/>
   <tile/>
   <tile/>
   <tile/>
   <tile/>
   <tile/>
   <tile/>
   <tile/>
   <tile/>
   <tile/>
   <tile/>
   <tile/>
   <tile/>
   <tile gid="635"/>
   <tile gid="687"/>
   <tile gid="556"/>
   <tile gid="688"/>
   <tile gid="637"/>
   <tile/>
   <tile/>
   <tile/>
   <tile/>
   <tile/>
   <tile/>
   <tile/>
   <tile/>
   <tile/>
   <tile gid="555"/>
   <tile gid="557"/>
   <tile/>
   <tile/>
   <tile/>
   <tile/>
   <tile/>
   <tile/>
   <tile/>
   <tile/>
   <tile/>
   <tile/>
   <tile/>
   <tile/>
   <tile/>
   <tile/>
   <tile/>
   <tile/>
   <tile/>
   <tile/>
   <tile/>
   <tile/>
   <tile/>
   <tile/>
   <tile/>
   <tile/>
   <tile/>
   <tile/>
   <tile/>
   <tile gid="603"/>
   <tile gid="671"/>
   <tile gid="556"/>
   <tile gid="688"/>
   <tile gid="636"/>
   <tile gid="637"/>
   <tile/>
   <tile/>
   <tile/>
   <tile/>
   <tile/>
   <tile/>
   <tile/>
   <tile/>
   <tile/>
   <tile/>
   <tile/>
   <tile/>
   <tile/>
   <tile gid="635"/>
   <tile gid="687"/>
   <tile gid="556"/>
   <tile gid="621"/>
   <tile/>
   <tile/>
   <tile/>
   <tile/>
   <tile/>
   <tile/>
   <tile/>
   <tile gid="635"/>
   <tile gid="687"/>
   <tile gid="556"/>
   <tile gid="621"/>
   <tile/>
   <tile/>
   <tile/>
   <tile/>
   <tile/>
   <tile/>
   <tile/>
   <tile/>
   <tile/>
   <tile/>
   <tile/>
   <tile/>
   <tile/>
   <tile/>
   <tile gid="635"/>
   <tile gid="636"/>
   <tile gid="637"/>
   <tile/>
   <tile/>
   <tile/>
   <tile/>
   <tile/>
   <tile/>
   <tile/>
   <tile/>
   <tile/>
   <tile/>
   <tile gid="555"/>
   <tile gid="557"/>
   <tile/>
   <tile/>
   <tile/>
   <tile/>
   <tile/>
   <tile/>
   <tile/>
   <tile/>
   <tile/>
   <tile/>
   <tile/>
   <tile/>
   <tile/>
   <tile/>
   <tile/>
   <tile/>
   <tile/>
   <tile/>
   <tile/>
   <tile/>
   <tile/>
   <tile/>
   <tile/>
   <tile/>
   <tile/>
   <tile/>
   <tile gid="603"/>
   <tile gid="636"/>
   <tile gid="636"/>
   <tile gid="636"/>
   <tile gid="637"/>
   <tile/>
   <tile/>
   <tile/>
   <tile/>
   <tile/>
   <tile/>
   <tile/>
   <tile/>
   <tile/>
   <tile/>
   <tile/>
   <tile/>
   <tile/>
   <tile/>
   <tile/>
   <tile/>
   <tile gid="619"/>
   <tile gid="688"/>
   <tile gid="637"/>
   <tile/>
   <tile/>
   <tile/>
   <tile/>
   <tile/>
   <tile/>
   <tile/>
   <tile/>
   <tile gid="619"/>
   <tile gid="556"/>
   <tile gid="621"/>
   <tile/>
   <tile/>
   <tile/>
   <tile/>
   <tile/>
   <tile/>
   <tile/>
   <tile/>
   <tile/>
   <tile/>
   <tile/>
   <tile/>
   <tile/>
   <tile/>
   <tile/>
   <tile/>
   <tile/>
   <tile/>
   <tile/>
   <tile/>
   <tile/>
   <tile/>
   <tile/>
   <tile/>
   <tile/>
   <tile/>
   <tile/>
   <tile gid="555"/>
   <tile gid="557"/>
   <tile/>
   <tile/>
   <tile/>
   <tile/>
   <tile/>
   <tile/>
   <tile/>
   <tile/>
   <tile/>
   <tile/>
   <tile/>
   <tile/>
   <tile/>
   <tile/>
   <tile/>
   <tile/>
   <tile/>
   <tile/>
   <tile/>
   <tile/>
   <tile/>
   <tile/>
   <tile/>
   <tile/>
   <tile/>
   <tile/>
   <tile/>
   <tile/>
   <tile/>
   <tile/>
   <tile/>
   <tile/>
   <tile/>
   <tile/>
   <tile/>
   <tile/>
   <tile/>
   <tile/>
   <tile/>
   <tile/>
   <tile/>
   <tile/>
   <tile/>
   <tile/>
   <tile/>
   <tile/>
   <tile/>
   <tile gid="619"/>
   <tile gid="621"/>
   <tile/>
   <tile/>
   <tile/>
   <tile/>
   <tile/>
   <tile/>
   <tile/>
   <tile/>
   <tile/>
   <tile gid="619"/>
   <tile gid="556"/>
   <tile gid="621"/>
   <tile/>
   <tile/>
   <tile/>
   <tile/>
   <tile/>
   <tile/>
   <tile/>
   <tile/>
   <tile/>
   <tile/>
   <tile/>
   <tile/>
   <tile/>
   <tile/>
   <tile/>
   <tile/>
   <tile/>
   <tile/>
   <tile/>
   <tile/>
   <tile/>
   <tile/>
   <tile/>
   <tile/>
   <tile/>
   <tile/>
   <tile/>
   <tile gid="555"/>
   <tile gid="557"/>
   <tile/>
   <tile/>
   <tile/>
   <tile/>
   <tile/>
   <tile/>
   <tile/>
   <tile/>
   <tile/>
   <tile/>
   <tile/>
   <tile/>
   <tile/>
   <tile/>
   <tile/>
   <tile/>
   <tile/>
   <tile/>
   <tile/>
   <tile/>
   <tile/>
   <tile/>
   <tile/>
   <tile/>
   <tile/>
   <tile/>
   <tile/>
   <tile/>
   <tile/>
   <tile/>
   <tile/>
   <tile/>
   <tile/>
   <tile/>
   <tile/>
   <tile/>
   <tile/>
   <tile/>
   <tile/>
   <tile/>
   <tile/>
   <tile/>
   <tile/>
   <tile/>
   <tile/>
   <tile/>
   <tile/>
   <tile gid="619"/>
   <tile gid="621"/>
   <tile/>
   <tile/>
   <tile/>
   <tile/>
   <tile/>
   <tile/>
   <tile/>
   <tile/>
   <tile/>
   <tile gid="619"/>
   <tile gid="556"/>
   <tile gid="621"/>
   <tile/>
   <tile/>
   <tile/>
   <tile/>
   <tile/>
   <tile/>
   <tile/>
   <tile/>
   <tile/>
   <tile/>
   <tile/>
   <tile/>
   <tile/>
   <tile/>
   <tile/>
   <tile/>
   <tile/>
   <tile/>
   <tile/>
   <tile/>
   <tile/>
   <tile/>
   <tile/>
   <tile/>
   <tile/>
   <tile/>
   <tile/>
   <tile gid="555"/>
   <tile gid="557"/>
   <tile/>
   <tile/>
   <tile/>
   <tile/>
   <tile/>
   <tile/>
   <tile/>
   <tile/>
   <tile/>
   <tile/>
   <tile/>
   <tile/>
   <tile/>
   <tile/>
   <tile/>
   <tile/>
   <tile/>
   <tile/>
   <tile/>
   <tile/>
   <tile/>
   <tile/>
   <tile/>
   <tile/>
   <tile/>
   <tile/>
   <tile/>
   <tile/>
   <tile/>
   <tile/>
   <tile/>
   <tile/>
   <tile/>
   <tile/>
   <tile/>
   <tile/>
   <tile/>
   <tile/>
   <tile/>
   <tile/>
   <tile/>
   <tile/>
   <tile/>
   <tile/>
   <tile/>
   <tile/>
   <tile/>
   <tile gid="619"/>
   <tile gid="621"/>
   <tile/>
   <tile/>
   <tile/>
   <tile/>
   <tile/>
   <tile/>
   <tile/>
   <tile/>
   <tile/>
   <tile gid="635"/>
   <tile gid="687"/>
   <tile gid="672"/>
   <tile gid="604"/>
   <tile gid="605"/>
   <tile/>
   <tile/>
   <tile/>
   <tile/>
   <tile/>
   <tile/>
   <tile/>
   <tile/>
   <tile/>
   <tile/>
   <tile/>
   <tile/>
   <tile/>
   <tile/>
   <tile/>
   <tile/>
   <tile/>
   <tile/>
   <tile/>
   <tile/>
   <tile/>
   <tile/>
   <tile/>
   <tile/>
   <tile/>
   <tile gid="555"/>
   <tile gid="557"/>
   <tile/>
   <tile/>
   <tile/>
   <tile/>
   <tile/>
   <tile/>
   <tile/>
   <tile/>
   <tile/>
   <tile/>
   <tile/>
   <tile/>
   <tile/>
   <tile/>
   <tile/>
   <tile/>
   <tile/>
   <tile/>
   <tile/>
   <tile/>
   <tile/>
   <tile/>
   <tile/>
   <tile/>
   <tile/>
   <tile/>
   <tile/>
   <tile/>
   <tile/>
   <tile/>
   <tile/>
   <tile/>
   <tile/>
   <tile/>
   <tile/>
   <tile/>
   <tile/>
   <tile/>
   <tile/>
   <tile/>
   <tile/>
   <tile/>
   <tile/>
   <tile/>
   <tile/>
   <tile/>
   <tile/>
   <tile gid="619"/>
   <tile gid="621"/>
   <tile/>
   <tile/>
   <tile/>
   <tile/>
   <tile/>
   <tile/>
   <tile/>
   <tile/>
   <tile/>
   <tile/>
   <tile gid="635"/>
   <tile gid="636"/>
   <tile gid="687"/>
   <tile gid="672"/>
   <tile gid="604"/>
   <tile gid="604"/>
   <tile gid="605"/>
   <tile/>
   <tile/>
   <tile/>
   <tile/>
   <tile/>
   <tile/>
   <tile/>
   <tile/>
   <tile/>
   <tile/>
   <tile/>
   <tile/>
   <tile/>
   <tile/>
   <tile/>
   <tile/>
   <tile/>
   <tile/>
   <tile/>
   <tile/>
   <tile/>
   <tile/>
   <tile gid="555"/>
   <tile gid="557"/>
   <tile/>
   <tile/>
   <tile/>
   <tile/>
   <tile/>
   <tile/>
   <tile/>
   <tile/>
   <tile/>
   <tile/>
   <tile/>
   <tile/>
   <tile/>
   <tile/>
   <tile/>
   <tile/>
   <tile/>
   <tile/>
   <tile/>
   <tile/>
   <tile/>
   <tile/>
   <tile/>
   <tile/>
   <tile/>
   <tile/>
   <tile/>
   <tile/>
   <tile/>
   <tile/>
   <tile/>
   <tile/>
   <tile/>
   <tile/>
   <tile/>
   <tile/>
   <tile/>
   <tile/>
   <tile/>
   <tile/>
   <tile/>
   <tile/>
   <tile/>
   <tile/>
   <tile/>
   <tile/>
   <tile/>
   <tile gid="635"/>
   <tile gid="637"/>
   <tile/>
   <tile/>
   <tile/>
   <tile/>
   <tile/>
   <tile/>
   <tile/>
   <tile/>
   <tile/>
   <tile/>
   <tile/>
   <tile/>
   <tile gid="635"/>
   <tile gid="636"/>
   <tile gid="636"/>
   <tile gid="636"/>
   <tile gid="637"/>
   <tile/>
   <tile/>
   <tile/>
   <tile/>
   <tile/>
   <tile/>
   <tile/>
   <tile/>
   <tile/>
   <tile/>
   <tile/>
   <tile/>
   <tile/>
   <tile/>
   <tile/>
   <tile/>
   <tile/>
   <tile/>
   <tile/>
   <tile/>
   <tile/>
   <tile/>
   <tile gid="555"/>
   <tile gid="557"/>
   <tile/>
   <tile/>
   <tile/>
   <tile/>
   <tile/>
   <tile/>
   <tile/>
   <tile/>
   <tile/>
   <tile/>
   <tile/>
   <tile/>
   <tile/>
   <tile/>
   <tile/>
   <tile/>
   <tile/>
   <tile/>
   <tile/>
   <tile/>
   <tile/>
   <tile/>
   <tile/>
   <tile/>
   <tile/>
   <tile/>
   <tile/>
   <tile/>
   <tile/>
   <tile/>
   <tile/>
   <tile/>
   <tile/>
   <tile/>
   <tile/>
   <tile/>
   <tile/>
   <tile/>
   <tile/>
   <tile/>
   <tile/>
   <tile/>
   <tile/>
   <tile/>
   <tile/>
   <tile/>
   <tile/>
   <tile/>
   <tile/>
   <tile/>
   <tile/>
   <tile/>
   <tile/>
   <tile/>
   <tile/>
   <tile/>
   <tile/>
   <tile/>
   <tile/>
   <tile/>
   <tile/>
   <tile/>
   <tile/>
   <tile/>
   <tile/>
   <tile/>
   <tile/>
   <tile/>
   <tile/>
   <tile/>
   <tile/>
   <tile/>
   <tile/>
   <tile/>
   <tile/>
   <tile/>
   <tile/>
   <tile/>
   <tile/>
   <tile/>
   <tile/>
   <tile/>
   <tile/>
   <tile/>
   <tile/>
   <tile/>
   <tile/>
   <tile/>
   <tile gid="555"/>
   <tile gid="557"/>
   <tile/>
   <tile/>
   <tile/>
   <tile/>
   <tile/>
   <tile/>
   <tile/>
   <tile/>
   <tile/>
   <tile/>
   <tile/>
   <tile/>
   <tile/>
   <tile/>
   <tile/>
   <tile/>
   <tile/>
   <tile/>
   <tile/>
   <tile/>
   <tile/>
   <tile/>
   <tile/>
   <tile/>
   <tile/>
   <tile/>
   <tile/>
   <tile/>
   <tile/>
   <tile/>
   <tile/>
   <tile/>
   <tile/>
   <tile/>
   <tile/>
   <tile/>
   <tile/>
   <tile/>
   <tile/>
   <tile/>
   <tile/>
   <tile/>
   <tile/>
   <tile/>
   <tile/>
   <tile/>
   <tile/>
   <tile/>
   <tile/>
   <tile/>
   <tile/>
   <tile/>
   <tile/>
   <tile/>
   <tile/>
   <tile/>
   <tile/>
   <tile/>
   <tile/>
   <tile/>
   <tile/>
   <tile/>
   <tile/>
   <tile/>
   <tile/>
   <tile/>
   <tile/>
   <tile/>
   <tile/>
   <tile/>
   <tile/>
   <tile/>
   <tile/>
   <tile/>
   <tile/>
   <tile/>
   <tile/>
   <tile/>
   <tile/>
   <tile/>
   <tile gid="539"/>
   <tile gid="540"/>
   <tile gid="540"/>
   <tile gid="540"/>
   <tile gid="540"/>
   <tile gid="540"/>
   <tile gid="540"/>
   <tile gid="540"/>
   <tile gid="575"/>
   <tile gid="557"/>
   <tile/>
   <tile/>
   <tile/>
   <tile/>
   <tile/>
   <tile/>
   <tile/>
   <tile/>
   <tile/>
   <tile/>
   <tile/>
   <tile/>
   <tile/>
   <tile/>
   <tile/>
   <tile/>
   <tile/>
   <tile/>
   <tile/>
   <tile/>
   <tile/>
   <tile/>
   <tile/>
   <tile/>
   <tile/>
   <tile/>
   <tile/>
   <tile/>
   <tile/>
   <tile/>
   <tile/>
   <tile/>
   <tile/>
   <tile/>
   <tile/>
   <tile/>
   <tile/>
   <tile/>
   <tile/>
   <tile/>
   <tile/>
   <tile/>
   <tile/>
   <tile/>
   <tile/>
   <tile/>
   <tile/>
   <tile/>
   <tile/>
   <tile/>
   <tile/>
   <tile/>
   <tile/>
   <tile/>
   <tile/>
   <tile/>
   <tile/>
   <tile/>
   <tile/>
   <tile/>
   <tile/>
   <tile/>
   <tile/>
   <tile/>
   <tile/>
   <tile/>
   <tile/>
   <tile/>
   <tile/>
   <tile/>
   <tile/>
   <tile/>
   <tile/>
   <tile/>
   <tile/>
   <tile/>
   <tile/>
   <tile/>
   <tile/>
   <tile/>
   <tile/>
   <tile/>
   <tile gid="571"/>
   <tile gid="572"/>
   <tile gid="572"/>
   <tile gid="591"/>
   <tile gid="556"/>
   <tile gid="556"/>
   <tile gid="556"/>
   <tile gid="557"/>
   <tile/>
   <tile/>
   <tile/>
   <tile/>
   <tile/>
   <tile/>
   <tile/>
   <tile/>
   <tile/>
   <tile/>
   <tile/>
   <tile/>
   <tile/>
   <tile/>
   <tile/>
   <tile/>
   <tile/>
   <tile/>
   <tile/>
   <tile/>
   <tile/>
   <tile/>
   <tile/>
   <tile/>
   <tile/>
   <tile/>
   <tile/>
   <tile/>
   <tile/>
   <tile/>
   <tile/>
   <tile/>
   <tile/>
   <tile/>
   <tile/>
   <tile/>
   <tile/>
   <tile/>
   <tile/>
   <tile/>
   <tile/>
   <tile/>
   <tile/>
   <tile/>
   <tile/>
   <tile/>
   <tile/>
   <tile/>
   <tile/>
   <tile/>
   <tile/>
   <tile/>
   <tile/>
   <tile/>
   <tile/>
   <tile/>
   <tile/>
   <tile/>
   <tile/>
   <tile/>
   <tile/>
   <tile/>
   <tile/>
   <tile/>
   <tile/>
   <tile/>
   <tile/>
   <tile/>
   <tile gid="603"/>
   <tile gid="604"/>
   <tile gid="604"/>
   <tile gid="604"/>
   <tile gid="604"/>
   <tile gid="604"/>
   <tile gid="604"/>
   <tile gid="604"/>
   <tile gid="605"/>
   <tile/>
   <tile/>
   <tile/>
   <tile/>
   <tile/>
   <tile/>
   <tile/>
   <tile/>
   <tile gid="571"/>
   <tile gid="591"/>
   <tile gid="556"/>
   <tile gid="556"/>
   <tile gid="557"/>
   <tile/>
   <tile/>
   <tile gid="603"/>
   <tile gid="604"/>
   <tile gid="604"/>
   <tile gid="604"/>
   <tile gid="604"/>
   <tile gid="604"/>
   <tile gid="604"/>
   <tile gid="604"/>
   <tile gid="604"/>
   <tile gid="605"/>
   <tile/>
   <tile/>
   <tile/>
   <tile/>
   <tile/>
   <tile/>
   <tile/>
   <tile/>
   <tile/>
   <tile/>
   <tile/>
   <tile/>
   <tile/>
   <tile/>
   <tile/>
   <tile/>
   <tile/>
   <tile/>
   <tile/>
   <tile/>
   <tile/>
   <tile/>
   <tile/>
   <tile/>
   <tile/>
   <tile/>
   <tile/>
   <tile/>
   <tile/>
   <tile/>
   <tile gid="603"/>
   <tile/>
   <tile/>
   <tile/>
   <tile/>
   <tile/>
   <tile/>
   <tile/>
   <tile/>
   <tile/>
   <tile/>
   <tile/>
   <tile gid="605"/>
   <tile/>
   <tile/>
   <tile/>
   <tile/>
   <tile/>
   <tile/>
   <tile/>
   <tile/>
   <tile/>
   <tile/>
   <tile/>
   <tile/>
   <tile/>
   <tile/>
   <tile gid="635"/>
   <tile gid="687"/>
   <tile gid="556"/>
   <tile gid="556"/>
   <tile gid="556"/>
   <tile gid="688"/>
   <tile gid="637"/>
   <tile/>
   <tile/>
   <tile/>
   <tile/>
   <tile/>
   <tile/>
   <tile/>
   <tile/>
   <tile/>
   <tile/>
   <tile gid="555"/>
   <tile gid="556"/>
   <tile gid="556"/>
   <tile gid="557"/>
   <tile/>
   <tile/>
   <tile/>
   <tile gid="635"/>
   <tile gid="636"/>
   <tile gid="636"/>
   <tile gid="636"/>
   <tile gid="636"/>
   <tile gid="636"/>
   <tile gid="636"/>
   <tile gid="637"/>
   <tile/>
   <tile/>
   <tile/>
   <tile/>
   <tile/>
   <tile/>
   <tile/>
   <tile/>
   <tile/>
   <tile/>
   <tile/>
   <tile/>
   <tile/>
   <tile/>
   <tile/>
   <tile/>
   <tile/>
   <tile/>
   <tile/>
   <tile/>
   <tile/>
   <tile/>
   <tile/>
   <tile/>
   <tile/>
   <tile/>
   <tile/>
   <tile/>
   <tile/>
   <tile/>
   <tile/>
   <tile gid="619"/>
   <tile/>
   <tile/>
   <tile/>
   <tile/>
   <tile/>
   <tile/>
   <tile/>
   <tile/>
   <tile/>
   <tile/>
   <tile/>
   <tile gid="621"/>
   <tile/>
   <tile/>
   <tile gid="603"/>
   <tile gid="604"/>
   <tile gid="604"/>
   <tile gid="604"/>
   <tile gid="604"/>
   <tile gid="604"/>
   <tile gid="605"/>
   <tile/>
   <tile/>
   <tile/>
   <tile/>
   <tile/>
   <tile/>
   <tile gid="635"/>
   <tile gid="636"/>
   <tile gid="636"/>
   <tile gid="636"/>
   <tile gid="637"/>
   <tile/>
   <tile/>
   <tile/>
   <tile/>
   <tile/>
   <tile/>
   <tile/>
   <tile/>
   <tile/>
   <tile/>
   <tile/>
   <tile gid="571"/>
   <tile gid="591"/>
   <tile gid="556"/>
   <tile gid="557"/>
   <tile/>
   <tile/>
   <tile/>
   <tile/>
   <tile/>
   <tile/>
   <tile/>
   <tile/>
   <tile/>
   <tile/>
   <tile/>
   <tile/>
   <tile/>
   <tile/>
   <tile/>
   <tile/>
   <tile/>
   <tile/>
   <tile/>
   <tile/>
   <tile/>
   <tile/>
   <tile/>
   <tile/>
   <tile/>
   <tile/>
   <tile/>
   <tile/>
   <tile/>
   <tile/>
   <tile/>
   <tile/>
   <tile/>
   <tile/>
   <tile/>
   <tile/>
   <tile/>
   <tile/>
   <tile/>
   <tile/>
   <tile/>
   <tile/>
   <tile gid="619"/>
   <tile gid="605"/>
   <tile/>
   <tile/>
   <tile/>
   <tile/>
   <tile/>
   <tile/>
   <tile/>
   <tile/>
   <tile/>
   <tile gid="603"/>
   <tile gid="621"/>
   <tile/>
   <tile/>
   <tile/>
   <tile gid="635"/>
   <tile gid="636"/>
   <tile gid="636"/>
   <tile gid="636"/>
   <tile gid="637"/>
   <tile/>
   <tile/>
   <tile/>
   <tile/>
   <tile/>
   <tile/>
   <tile/>
   <tile/>
   <tile/>
   <tile/>
   <tile/>
   <tile/>
   <tile/>
   <tile/>
   <tile/>
   <tile/>
   <tile/>
   <tile/>
   <tile/>
   <tile/>
   <tile/>
   <tile/>
   <tile/>
   <tile/>
   <tile gid="571"/>
   <tile gid="591"/>
   <tile gid="557"/>
   <tile/>
   <tile/>
   <tile/>
   <tile/>
   <tile/>
   <tile/>
   <tile/>
   <tile/>
   <tile/>
   <tile/>
   <tile/>
   <tile/>
   <tile/>
   <tile/>
   <tile/>
   <tile/>
   <tile/>
   <tile/>
   <tile/>
   <tile/>
   <tile/>
   <tile/>
   <tile/>
   <tile/>
   <tile/>
   <tile/>
   <tile/>
   <tile/>
   <tile/>
   <tile/>
   <tile/>
   <tile/>
   <tile/>
   <tile/>
   <tile/>
   <tile/>
   <tile/>
   <tile/>
   <tile/>
   <tile/>
   <tile/>
   <tile/>
   <tile gid="619"/>
   <tile gid="621"/>
   <tile/>
   <tile/>
   <tile/>
   <tile/>
   <tile/>
   <tile/>
   <tile/>
   <tile/>
   <tile/>
   <tile gid="619"/>
   <tile gid="621"/>
   <tile/>
   <tile/>
   <tile/>
   <tile/>
   <tile/>
   <tile/>
   <tile/>
   <tile/>
   <tile/>
   <tile/>
   <tile/>
   <tile/>
   <tile/>
   <tile/>
   <tile/>
   <tile/>
   <tile/>
   <tile/>
   <tile/>
   <tile/>
   <tile/>
   <tile/>
   <tile/>
   <tile/>
   <tile/>
   <tile/>
   <tile/>
   <tile/>
   <tile/>
   <tile/>
   <tile/>
   <tile/>
   <tile/>
   <tile gid="555"/>
   <tile gid="557"/>
   <tile/>
   <tile/>
   <tile/>
   <tile/>
   <tile/>
   <tile/>
   <tile/>
   <tile/>
   <tile/>
   <tile/>
   <tile/>
   <tile/>
   <tile/>
   <tile/>
   <tile/>
   <tile/>
   <tile/>
   <tile/>
   <tile/>
   <tile/>
   <tile/>
   <tile/>
   <tile/>
   <tile/>
   <tile/>
   <tile/>
   <tile/>
   <tile/>
   <tile/>
   <tile/>
   <tile/>
   <tile/>
   <tile/>
   <tile/>
   <tile/>
   <tile/>
   <tile/>
   <tile/>
   <tile/>
   <tile/>
   <tile/>
   <tile/>
   <tile gid="635"/>
   <tile gid="636"/>
   <tile gid="604"/>
   <tile gid="604"/>
   <tile gid="605"/>
   <tile/>
   <tile/>
   <tile/>
   <tile gid="603"/>
   <tile gid="604"/>
   <tile gid="604"/>
   <tile gid="636"/>
   <tile gid="637"/>
   <tile/>
   <tile/>
   <tile/>
   <tile/>
   <tile/>
   <tile/>
   <tile/>
   <tile/>
   <tile/>
   <tile/>
   <tile/>
   <tile/>
   <tile/>
   <tile/>
   <tile/>
   <tile/>
   <tile/>
   <tile/>
   <tile/>
   <tile/>
   <tile/>
   <tile/>
   <tile/>
   <tile/>
   <tile/>
   <tile/>
   <tile/>
   <tile/>
   <tile/>
   <tile/>
   <tile/>
   <tile/>
   <tile/>
   <tile gid="555"/>
   <tile gid="557"/>
   <tile/>
   <tile/>
   <tile/>
   <tile/>
   <tile/>
   <tile/>
   <tile/>
   <tile/>
   <tile/>
   <tile/>
   <tile/>
   <tile/>
   <tile/>
   <tile/>
   <tile/>
   <tile/>
   <tile/>
   <tile/>
   <tile/>
   <tile/>
   <tile/>
   <tile/>
   <tile/>
   <tile/>
   <tile/>
   <tile/>
   <tile/>
   <tile/>
   <tile/>
   <tile/>
   <tile/>
   <tile/>
   <tile/>
   <tile/>
   <tile/>
   <tile/>
   <tile/>
   <tile/>
   <tile/>
   <tile/>
   <tile/>
   <tile/>
   <tile/>
   <tile/>
   <tile gid="635"/>
   <tile gid="636"/>
   <tile gid="687"/>
   <tile gid="605"/>
   <tile/>
   <tile gid="603"/>
   <tile gid="688"/>
   <tile gid="636"/>
   <tile gid="637"/>
   <tile/>
   <tile/>
   <tile/>
   <tile/>
   <tile/>
   <tile/>
   <tile/>
   <tile/>
   <tile/>
   <tile/>
   <tile/>
   <tile/>
   <tile/>
   <tile/>
   <tile/>
   <tile/>
   <tile/>
   <tile/>
   <tile/>
   <tile/>
   <tile/>
   <tile/>
   <tile/>
   <tile/>
   <tile/>
   <tile/>
   <tile/>
   <tile/>
   <tile/>
   <tile/>
   <tile/>
   <tile/>
   <tile/>
   <tile/>
   <tile/>
   <tile gid="555"/>
   <tile gid="557"/>
   <tile/>
   <tile/>
   <tile/>
   <tile/>
   <tile/>
   <tile/>
   <tile/>
   <tile/>
   <tile/>
   <tile/>
   <tile/>
   <tile/>
   <tile/>
   <tile/>
   <tile/>
   <tile/>
   <tile/>
   <tile/>
   <tile/>
   <tile/>
   <tile/>
   <tile/>
   <tile/>
   <tile/>
   <tile/>
   <tile/>
   <tile/>
   <tile/>
   <tile/>
   <tile/>
   <tile/>
   <tile/>
   <tile/>
   <tile/>
   <tile/>
   <tile/>
   <tile/>
   <tile/>
   <tile/>
   <tile/>
   <tile/>
   <tile/>
   <tile/>
   <tile/>
   <tile/>
   <tile/>
   <tile gid="619"/>
   <tile gid="672"/>
   <tile gid="604"/>
   <tile gid="671"/>
   <tile gid="621"/>
   <tile/>
   <tile/>
   <tile/>
   <tile/>
   <tile/>
   <tile/>
   <tile/>
   <tile/>
   <tile/>
   <tile/>
   <tile/>
   <tile/>
   <tile/>
   <tile/>
   <tile/>
   <tile/>
   <tile/>
   <tile/>
   <tile/>
   <tile/>
   <tile/>
   <tile/>
   <tile/>
   <tile/>
   <tile/>
   <tile/>
   <tile/>
   <tile/>
   <tile/>
   <tile/>
   <tile/>
   <tile/>
   <tile/>
   <tile/>
   <tile/>
   <tile/>
   <tile/>
   <tile gid="555"/>
   <tile gid="557"/>
   <tile/>
   <tile/>
   <tile/>
   <tile/>
   <tile/>
   <tile/>
   <tile/>
   <tile/>
   <tile/>
   <tile gid="603"/>
   <tile gid="604"/>
   <tile gid="604"/>
   <tile gid="604"/>
   <tile gid="604"/>
   <tile gid="605"/>
   <tile/>
   <tile/>
   <tile/>
   <tile/>
   <tile/>
   <tile/>
   <tile/>
   <tile/>
   <tile/>
   <tile/>
   <tile/>
   <tile/>
   <tile/>
   <tile/>
   <tile/>
   <tile/>
   <tile/>
   <tile/>
   <tile/>
   <tile/>
   <tile/>
   <tile/>
   <tile/>
   <tile/>
   <tile/>
   <tile/>
   <tile/>
   <tile/>
   <tile/>
   <tile/>
   <tile/>
   <tile gid="635"/>
   <tile gid="687"/>
   <tile gid="556"/>
   <tile gid="688"/>
   <tile gid="637"/>
   <tile/>
   <tile/>
   <tile/>
   <tile/>
   <tile/>
   <tile/>
   <tile/>
   <tile/>
   <tile/>
   <tile/>
   <tile/>
   <tile/>
   <tile/>
   <tile/>
   <tile/>
   <tile/>
   <tile/>
   <tile/>
   <tile/>
   <tile/>
   <tile/>
   <tile/>
   <tile/>
   <tile/>
   <tile/>
   <tile/>
   <tile/>
   <tile/>
   <tile/>
   <tile/>
   <tile/>
   <tile/>
   <tile/>
   <tile/>
   <tile/>
   <tile/>
   <tile/>
   <tile gid="555"/>
   <tile gid="557"/>
   <tile/>
   <tile/>
   <tile/>
   <tile/>
   <tile/>
   <tile/>
   <tile/>
   <tile/>
   <tile/>
   <tile gid="619"/>
   <tile gid="556"/>
   <tile gid="688"/>
   <tile gid="636"/>
   <tile gid="637"/>
   <tile/>
   <tile/>
   <tile/>
   <tile/>
   <tile/>
   <tile/>
   <tile/>
   <tile/>
   <tile/>
   <tile/>
   <tile/>
   <tile/>
   <tile/>
   <tile/>
   <tile/>
   <tile/>
   <tile/>
   <tile/>
   <tile/>
   <tile/>
   <tile/>
   <tile/>
   <tile/>
   <tile/>
   <tile/>
   <tile/>
   <tile/>
   <tile/>
   <tile/>
   <tile/>
   <tile/>
   <tile/>
   <tile/>
   <tile gid="635"/>
   <tile gid="636"/>
   <tile gid="637"/>
   <tile/>
   <tile/>
   <tile/>
   <tile/>
   <tile/>
   <tile/>
   <tile/>
   <tile/>
   <tile/>
   <tile/>
   <tile/>
   <tile/>
   <tile/>
   <tile/>
   <tile/>
   <tile/>
   <tile/>
   <tile/>
   <tile/>
   <tile/>
   <tile/>
   <tile/>
   <tile/>
   <tile/>
   <tile/>
   <tile/>
   <tile/>
   <tile/>
   <tile/>
   <tile/>
   <tile/>
   <tile/>
   <tile/>
   <tile/>
   <tile/>
   <tile/>
   <tile/>
   <tile/>
   <tile gid="555"/>
   <tile gid="557"/>
   <tile/>
   <tile/>
   <tile/>
   <tile/>
   <tile/>
   <tile/>
   <tile/>
   <tile/>
   <tile/>
   <tile gid="619"/>
   <tile gid="688"/>
   <tile gid="637"/>
   <tile/>
   <tile/>
   <tile/>
   <tile/>
   <tile/>
   <tile/>
   <tile/>
   <tile/>
   <tile/>
   <tile/>
   <tile/>
   <tile/>
   <tile/>
   <tile/>
   <tile/>
   <tile/>
   <tile/>
   <tile/>
   <tile/>
   <tile/>
   <tile/>
   <tile/>
   <tile/>
   <tile/>
   <tile/>
   <tile/>
   <tile/>
   <tile/>
   <tile/>
   <tile/>
   <tile/>
   <tile/>
   <tile/>
   <tile/>
   <tile/>
   <tile/>
   <tile/>
   <tile/>
   <tile/>
   <tile/>
   <tile/>
   <tile/>
   <tile/>
   <tile/>
   <tile/>
   <tile/>
   <tile/>
   <tile/>
   <tile/>
   <tile/>
   <tile/>
   <tile/>
   <tile/>
   <tile/>
   <tile/>
   <tile/>
   <tile/>
   <tile/>
   <tile/>
   <tile/>
   <tile/>
   <tile/>
   <tile/>
   <tile/>
   <tile/>
   <tile/>
   <tile/>
   <tile/>
   <tile/>
   <tile/>
   <tile/>
   <tile/>
   <tile/>
   <tile/>
   <tile/>
   <tile/>
   <tile gid="555"/>
   <tile gid="557"/>
   <tile/>
   <tile/>
   <tile/>
   <tile/>
   <tile/>
   <tile/>
   <tile/>
   <tile/>
   <tile/>
   <tile gid="619"/>
   <tile gid="621"/>
   <tile/>
   <tile/>
   <tile/>
   <tile/>
   <tile/>
   <tile/>
   <tile/>
   <tile/>
   <tile/>
   <tile/>
   <tile/>
   <tile/>
   <tile/>
   <tile/>
   <tile/>
   <tile/>
   <tile/>
   <tile/>
   <tile/>
   <tile/>
   <tile/>
   <tile/>
   <tile/>
   <tile/>
   <tile/>
   <tile/>
   <tile/>
   <tile/>
   <tile/>
   <tile/>
   <tile/>
   <tile/>
   <tile/>
   <tile/>
   <tile/>
   <tile/>
   <tile/>
   <tile/>
   <tile/>
   <tile/>
   <tile/>
   <tile/>
   <tile/>
   <tile/>
   <tile/>
   <tile/>
   <tile/>
   <tile/>
   <tile/>
   <tile/>
   <tile/>
   <tile/>
   <tile/>
   <tile/>
   <tile/>
   <tile/>
   <tile/>
   <tile/>
   <tile/>
   <tile/>
   <tile/>
   <tile/>
   <tile/>
   <tile/>
   <tile/>
   <tile/>
   <tile/>
   <tile/>
   <tile/>
   <tile/>
   <tile/>
   <tile/>
   <tile/>
   <tile/>
   <tile/>
   <tile/>
   <tile/>
   <tile gid="555"/>
   <tile gid="557"/>
   <tile/>
   <tile/>
   <tile/>
   <tile/>
   <tile/>
   <tile/>
   <tile/>
   <tile/>
   <tile/>
   <tile gid="619"/>
   <tile gid="621"/>
   <tile/>
   <tile/>
   <tile/>
   <tile/>
   <tile/>
   <tile/>
   <tile/>
   <tile/>
   <tile/>
   <tile/>
   <tile/>
   <tile/>
   <tile/>
   <tile/>
   <tile/>
   <tile/>
   <tile/>
   <tile/>
   <tile/>
   <tile/>
   <tile/>
   <tile/>
   <tile/>
   <tile/>
   <tile/>
   <tile/>
   <tile/>
   <tile/>
   <tile/>
   <tile/>
   <tile/>
   <tile/>
   <tile/>
   <tile/>
   <tile/>
   <tile/>
   <tile/>
   <tile/>
   <tile/>
   <tile/>
   <tile/>
   <tile/>
   <tile/>
   <tile/>
   <tile/>
   <tile/>
   <tile/>
   <tile/>
   <tile/>
   <tile/>
   <tile/>
   <tile/>
   <tile/>
   <tile/>
   <tile/>
   <tile/>
   <tile/>
   <tile/>
   <tile/>
   <tile/>
   <tile/>
   <tile/>
   <tile/>
   <tile/>
   <tile/>
   <tile/>
   <tile/>
   <tile/>
   <tile/>
   <tile/>
   <tile/>
   <tile/>
   <tile/>
   <tile/>
   <tile/>
   <tile/>
   <tile/>
   <tile gid="555"/>
   <tile gid="557"/>
   <tile/>
   <tile/>
   <tile/>
   <tile/>
   <tile/>
   <tile/>
   <tile/>
   <tile/>
   <tile/>
   <tile gid="635"/>
   <tile gid="637"/>
   <tile/>
   <tile/>
   <tile/>
   <tile/>
   <tile/>
   <tile/>
   <tile/>
   <tile/>
   <tile/>
   <tile/>
   <tile/>
   <tile/>
   <tile/>
   <tile/>
   <tile/>
   <tile/>
   <tile/>
   <tile/>
   <tile/>
   <tile/>
   <tile/>
   <tile/>
   <tile/>
   <tile/>
   <tile/>
   <tile/>
   <tile/>
   <tile/>
   <tile/>
   <tile/>
   <tile/>
   <tile/>
   <tile gid="605"/>
   <tile/>
   <tile/>
   <tile/>
   <tile/>
   <tile/>
   <tile/>
   <tile/>
   <tile/>
   <tile/>
   <tile gid="603"/>
   <tile/>
   <tile/>
   <tile/>
   <tile/>
   <tile/>
   <tile/>
   <tile/>
   <tile/>
   <tile/>
   <tile/>
   <tile/>
   <tile/>
   <tile/>
   <tile/>
   <tile/>
   <tile/>
   <tile/>
   <tile/>
   <tile/>
   <tile/>
   <tile/>
   <tile/>
   <tile/>
   <tile/>
   <tile/>
   <tile/>
   <tile/>
   <tile/>
   <tile/>
   <tile/>
   <tile/>
   <tile/>
   <tile/>
   <tile/>
   <tile gid="555"/>
   <tile gid="557"/>
   <tile/>
   <tile/>
   <tile/>
   <tile/>
   <tile/>
   <tile/>
   <tile/>
   <tile/>
   <tile/>
   <tile/>
   <tile/>
   <tile/>
   <tile/>
   <tile/>
   <tile/>
   <tile/>
   <tile/>
   <tile/>
   <tile/>
   <tile/>
   <tile/>
   <tile/>
   <tile/>
   <tile/>
   <tile/>
   <tile/>
   <tile/>
   <tile/>
   <tile/>
   <tile/>
   <tile/>
   <tile/>
   <tile/>
   <tile/>
   <tile/>
   <tile/>
   <tile/>
   <tile/>
   <tile/>
   <tile/>
   <tile/>
   <tile/>
   <tile gid="603"/>
   <tile gid="621"/>
   <tile/>
   <tile/>
   <tile/>
   <tile/>
   <tile/>
   <tile/>
   <tile/>
   <tile/>
   <tile/>
   <tile gid="619"/>
   <tile gid="605"/>
   <tile/>
   <tile/>
   <tile/>
   <tile/>
   <tile/>
   <tile/>
   <tile/>
   <tile/>
   <tile/>
   <tile/>
   <tile/>
   <tile/>
   <tile/>
   <tile/>
   <tile/>
   <tile/>
   <tile/>
   <tile/>
   <tile/>
   <tile/>
   <tile/>
   <tile/>
   <tile/>
   <tile/>
   <tile/>
   <tile/>
   <tile/>
   <tile/>
   <tile/>
   <tile/>
   <tile/>
   <tile/>
   <tile/>
   <tile gid="555"/>
   <tile gid="557"/>
   <tile/>
   <tile/>
   <tile/>
   <tile/>
   <tile/>
   <tile/>
   <tile/>
   <tile/>
   <tile/>
   <tile/>
   <tile/>
   <tile/>
   <tile/>
   <tile/>
   <tile/>
   <tile/>
   <tile/>
   <tile/>
   <tile/>
   <tile/>
   <tile/>
   <tile/>
   <tile/>
   <tile/>
   <tile/>
   <tile/>
   <tile/>
   <tile/>
   <tile/>
   <tile/>
   <tile/>
   <tile/>
   <tile/>
   <tile/>
   <tile/>
   <tile/>
   <tile/>
   <tile/>
   <tile/>
   <tile/>
   <tile/>
   <tile/>
   <tile gid="619"/>
   <tile gid="621"/>
   <tile/>
   <tile/>
   <tile/>
   <tile/>
   <tile/>
   <tile/>
   <tile/>
   <tile/>
   <tile/>
   <tile gid="619"/>
   <tile gid="621"/>
   <tile/>
   <tile/>
   <tile/>
   <tile/>
   <tile/>
   <tile/>
   <tile/>
   <tile/>
   <tile/>
   <tile/>
   <tile/>
   <tile/>
   <tile/>
   <tile/>
   <tile/>
   <tile/>
   <tile/>
   <tile/>
   <tile/>
   <tile/>
   <tile/>
   <tile/>
   <tile/>
   <tile/>
   <tile/>
   <tile/>
   <tile/>
   <tile/>
   <tile/>
   <tile/>
   <tile/>
   <tile/>
   <tile/>
   <tile gid="555"/>
   <tile gid="557"/>
   <tile/>
   <tile/>
   <tile/>
   <tile/>
   <tile/>
   <tile/>
   <tile/>
   <tile/>
   <tile/>
   <tile/>
   <tile/>
   <tile/>
   <tile/>
   <tile/>
   <tile/>
   <tile/>
   <tile/>
   <tile/>
   <tile/>
   <tile/>
   <tile/>
   <tile/>
   <tile/>
   <tile/>
   <tile/>
   <tile/>
   <tile/>
   <tile/>
   <tile/>
   <tile/>
   <tile/>
   <tile/>
   <tile/>
   <tile/>
   <tile/>
   <tile/>
   <tile/>
   <tile/>
   <tile/>
   <tile/>
   <tile/>
   <tile/>
   <tile gid="619"/>
   <tile gid="621"/>
   <tile/>
   <tile/>
   <tile/>
   <tile/>
   <tile/>
   <tile/>
   <tile/>
   <tile/>
   <tile/>
   <tile gid="619"/>
   <tile gid="621"/>
   <tile/>
   <tile/>
   <tile/>
   <tile/>
   <tile/>
   <tile/>
   <tile gid="603"/>
   <tile gid="604"/>
   <tile gid="604"/>
   <tile gid="604"/>
   <tile gid="604"/>
   <tile gid="604"/>
   <tile gid="604"/>
   <tile gid="604"/>
   <tile gid="604"/>
   <tile gid="605"/>
   <tile/>
   <tile/>
   <tile/>
   <tile/>
   <tile/>
   <tile/>
   <tile/>
   <tile/>
   <tile/>
   <tile/>
   <tile/>
   <tile/>
   <tile/>
   <tile/>
   <tile/>
   <tile/>
   <tile/>
   <tile gid="555"/>
   <tile gid="557"/>
   <tile/>
   <tile/>
   <tile/>
   <tile/>
   <tile/>
   <tile/>
   <tile/>
   <tile/>
   <tile/>
   <tile/>
   <tile/>
   <tile/>
   <tile/>
   <tile/>
   <tile/>
   <tile/>
   <tile/>
   <tile/>
   <tile/>
   <tile/>
   <tile/>
   <tile/>
   <tile/>
   <tile/>
   <tile/>
   <tile/>
   <tile/>
   <tile/>
   <tile/>
   <tile/>
   <tile/>
   <tile/>
   <tile/>
   <tile/>
   <tile/>
   <tile/>
   <tile/>
   <tile/>
   <tile/>
   <tile/>
   <tile/>
   <tile/>
   <tile gid="619"/>
   <tile gid="621"/>
   <tile/>
   <tile/>
   <tile/>
   <tile/>
   <tile/>
   <tile/>
   <tile/>
   <tile/>
   <tile/>
   <tile gid="619"/>
   <tile gid="621"/>
   <tile/>
   <tile/>
   <tile/>
   <tile/>
   <tile/>
   <tile/>
   <tile/>
   <tile gid="635"/>
   <tile gid="636"/>
   <tile gid="636"/>
   <tile gid="636"/>
   <tile gid="636"/>
   <tile gid="636"/>
   <tile gid="636"/>
   <tile gid="637"/>
   <tile/>
   <tile/>
   <tile/>
   <tile/>
   <tile/>
   <tile/>
   <tile/>
   <tile/>
   <tile/>
   <tile/>
   <tile/>
   <tile/>
   <tile/>
   <tile/>
   <tile/>
   <tile/>
   <tile/>
   <tile/>
   <tile gid="555"/>
   <tile gid="576"/>
   <tile gid="540"/>
   <tile gid="540"/>
   <tile gid="540"/>
   <tile gid="540"/>
   <tile gid="540"/>
   <tile gid="540"/>
   <tile gid="540"/>
   <tile gid="540"/>
   <tile gid="540"/>
   <tile gid="540"/>
   <tile gid="540"/>
   <tile gid="540"/>
   <tile gid="540"/>
   <tile gid="540"/>
   <tile gid="541"/>
   <tile/>
   <tile/>
   <tile/>
   <tile/>
   <tile/>
   <tile/>
   <tile/>
   <tile/>
   <tile/>
   <tile/>
   <tile gid="603"/>
   <tile gid="604"/>
   <tile gid="604"/>
   <tile gid="604"/>
   <tile gid="604"/>
   <tile gid="604"/>
   <tile gid="604"/>
   <tile gid="604"/>
   <tile gid="604"/>
   <tile gid="604"/>
   <tile gid="604"/>
   <tile gid="605"/>
   <tile/>
   <tile/>
   <tile/>
   <tile/>
   <tile/>
   <tile gid="619"/>
   <tile gid="621"/>
   <tile/>
   <tile/>
   <tile gid="603"/>
   <tile gid="604"/>
   <tile gid="604"/>
   <tile gid="604"/>
   <tile gid="605"/>
   <tile/>
   <tile/>
   <tile gid="619"/>
   <tile gid="621"/>
   <tile/>
   <tile/>
   <tile/>
   <tile/>
   <tile/>
   <tile/>
   <tile/>
   <tile/>
   <tile/>
   <tile/>
   <tile/>
   <tile/>
   <tile/>
   <tile/>
   <tile/>
   <tile/>
   <tile/>
   <tile/>
   <tile/>
   <tile/>
   <tile gid="603"/>
   <tile gid="604"/>
   <tile gid="604"/>
   <tile gid="604"/>
   <tile gid="604"/>
   <tile gid="604"/>
   <tile gid="604"/>
   <tile gid="605"/>
   <tile/>
   <tile/>
   <tile/>
   <tile/>
   <tile/>
   <tile gid="555"/>
   <tile gid="556"/>
   <tile gid="556"/>
   <tile gid="556"/>
   <tile gid="556"/>
   <tile gid="556"/>
   <tile gid="556"/>
   <tile gid="556"/>
   <tile gid="556"/>
   <tile gid="592"/>
   <tile gid="572"/>
   <tile gid="573"/>
   <tile/>
   <tile/>
   <tile/>
   <tile/>
   <tile/>
   <tile/>
   <tile/>
   <tile/>
   <tile/>
   <tile/>
   <tile/>
   <tile/>
   <tile/>
   <tile/>
   <tile/>
   <tile/>
   <tile gid="635"/>
   <tile gid="636"/>
   <tile gid="687"/>
   <tile gid="556"/>
   <tile gid="556"/>
   <tile gid="556"/>
   <tile gid="556"/>
   <tile gid="688"/>
   <tile gid="636"/>
   <tile gid="637"/>
   <tile/>
   <tile/>
   <tile/>
   <tile/>
   <tile/>
   <tile/>
   <tile gid="635"/>
   <tile gid="621"/>
   <tile/>
   <tile/>
   <tile/>
   <tile gid="635"/>
   <tile gid="636"/>
   <tile gid="637"/>
   <tile/>
   <tile/>
   <tile/>
   <tile gid="619"/>
   <tile gid="637"/>
   <tile/>
   <tile/>
   <tile/>
   <tile/>
   <tile/>
   <tile/>
   <tile/>
   <tile/>
   <tile/>
   <tile/>
   <tile/>
   <tile/>
   <tile/>
   <tile/>
   <tile/>
   <tile/>
   <tile/>
   <tile/>
   <tile/>
   <tile/>
   <tile/>
   <tile/>
   <tile gid="635"/>
   <tile gid="636"/>
   <tile gid="636"/>
   <tile gid="687"/>
   <tile gid="556"/>
   <tile gid="621"/>
   <tile/>
   <tile/>
   <tile/>
   <tile/>
   <tile/>
   <tile gid="555"/>
   <tile gid="556"/>
   <tile gid="556"/>
   <tile gid="556"/>
   <tile gid="556"/>
   <tile gid="556"/>
   <tile gid="556"/>
   <tile gid="556"/>
   <tile gid="592"/>
   <tile gid="573"/>
   <tile/>
   <tile/>
   <tile/>
   <tile/>
   <tile/>
   <tile/>
   <tile/>
   <tile/>
   <tile/>
   <tile/>
   <tile/>
   <tile/>
   <tile/>
   <tile/>
   <tile/>
   <tile/>
   <tile/>
   <tile/>
   <tile/>
   <tile/>
   <tile gid="635"/>
   <tile gid="636"/>
   <tile gid="636"/>
   <tile gid="636"/>
   <tile gid="636"/>
   <tile gid="637"/>
   <tile/>
   <tile/>
   <tile/>
   <tile/>
   <tile/>
   <tile/>
   <tile/>
   <tile/>
   <tile/>
   <tile gid="637"/>
   <tile/>
   <tile/>
   <tile/>
   <tile/>
   <tile/>
   <tile/>
   <tile/>
   <tile/>
   <tile/>
   <tile gid="635"/>
   <tile/>
   <tile/>
   <tile/>
   <tile/>
   <tile/>
   <tile/>
   <tile/>
   <tile/>
   <tile/>
   <tile/>
   <tile/>
   <tile/>
   <tile/>
   <tile/>
   <tile/>
   <tile/>
   <tile/>
   <tile/>
   <tile/>
   <tile/>
   <tile/>
   <tile/>
   <tile/>
   <tile/>
   <tile/>
   <tile/>
   <tile gid="635"/>
   <tile gid="687"/>
   <tile gid="621"/>
   <tile/>
   <tile/>
   <tile/>
   <tile/>
   <tile/>
   <tile gid="555"/>
   <tile gid="556"/>
   <tile gid="556"/>
   <tile gid="556"/>
   <tile gid="556"/>
   <tile gid="556"/>
   <tile gid="592"/>
   <tile gid="572"/>
   <tile gid="573"/>
   <tile/>
   <tile/>
   <tile/>
   <tile/>
   <tile/>
   <tile/>
   <tile/>
   <tile/>
   <tile/>
   <tile/>
   <tile/>
   <tile/>
   <tile/>
   <tile/>
   <tile/>
   <tile/>
   <tile/>
   <tile/>
   <tile/>
   <tile/>
   <tile/>
   <tile/>
   <tile/>
   <tile/>
   <tile/>
   <tile/>
   <tile/>
   <tile/>
   <tile/>
   <tile/>
   <tile/>
   <tile/>
   <tile/>
   <tile/>
   <tile/>
   <tile/>
   <tile/>
   <tile/>
   <tile/>
   <tile/>
   <tile/>
   <tile/>
   <tile/>
   <tile/>
   <tile/>
   <tile/>
   <tile/>
   <tile/>
   <tile/>
   <tile/>
   <tile/>
   <tile/>
   <tile/>
   <tile/>
   <tile/>
   <tile/>
   <tile/>
   <tile/>
   <tile/>
   <tile/>
   <tile/>
   <tile/>
   <tile/>
   <tile/>
   <tile/>
   <tile/>
   <tile/>
   <tile/>
   <tile/>
   <tile/>
   <tile/>
   <tile/>
   <tile/>
   <tile/>
   <tile gid="619"/>
   <tile gid="621"/>
   <tile/>
   <tile/>
   <tile/>
   <tile/>
   <tile/>
   <tile gid="555"/>
   <tile gid="556"/>
   <tile gid="556"/>
   <tile gid="556"/>
   <tile gid="556"/>
   <tile gid="592"/>
   <tile gid="573"/>
   <tile/>
   <tile/>
   <tile/>
   <tile/>
   <tile/>
   <tile/>
   <tile/>
   <tile/>
   <tile/>
   <tile/>
   <tile/>
   <tile/>
   <tile/>
   <tile/>
   <tile/>
   <tile/>
   <tile/>
   <tile/>
   <tile/>
   <tile/>
   <tile/>
   <tile/>
   <tile/>
   <tile/>
   <tile/>
   <tile/>
   <tile/>
   <tile/>
   <tile/>
   <tile/>
   <tile/>
   <tile/>
   <tile/>
   <tile/>
   <tile/>
   <tile/>
   <tile/>
   <tile/>
   <tile/>
   <tile/>
   <tile/>
   <tile/>
   <tile/>
   <tile/>
   <tile/>
   <tile/>
   <tile/>
   <tile/>
   <tile/>
   <tile/>
   <tile/>
   <tile/>
   <tile/>
   <tile/>
   <tile/>
   <tile/>
   <tile/>
   <tile/>
   <tile/>
   <tile/>
   <tile/>
   <tile/>
   <tile/>
   <tile/>
   <tile/>
   <tile/>
   <tile/>
   <tile/>
   <tile/>
   <tile/>
   <tile/>
   <tile/>
   <tile/>
   <tile/>
   <tile/>
   <tile/>
   <tile gid="635"/>
   <tile gid="621"/>
   <tile/>
   <tile/>
   <tile/>
   <tile/>
   <tile/>
   <tile gid="555"/>
   <tile gid="556"/>
   <tile gid="556"/>
   <tile gid="556"/>
   <tile gid="592"/>
   <tile gid="573"/>
   <tile/>
   <tile/>
   <tile/>
   <tile/>
   <tile/>
   <tile/>
   <tile/>
   <tile/>
   <tile/>
   <tile/>
   <tile/>
   <tile/>
   <tile/>
   <tile/>
   <tile/>
   <tile/>
   <tile/>
   <tile/>
   <tile/>
   <tile/>
   <tile/>
   <tile/>
   <tile/>
   <tile/>
   <tile/>
   <tile/>
   <tile/>
   <tile/>
   <tile/>
   <tile/>
   <tile/>
   <tile/>
   <tile/>
   <tile/>
   <tile/>
   <tile/>
   <tile/>
   <tile/>
   <tile/>
   <tile/>
   <tile/>
   <tile/>
   <tile/>
   <tile/>
   <tile/>
   <tile/>
   <tile/>
   <tile/>
   <tile/>
   <tile/>
   <tile/>
   <tile/>
   <tile/>
   <tile/>
   <tile/>
   <tile/>
   <tile/>
   <tile/>
   <tile/>
   <tile/>
   <tile/>
   <tile/>
   <tile/>
   <tile/>
   <tile/>
   <tile/>
   <tile/>
   <tile/>
   <tile/>
   <tile/>
   <tile/>
   <tile/>
   <tile/>
   <tile/>
   <tile/>
   <tile/>
   <tile/>
   <tile/>
   <tile gid="621"/>
   <tile/>
   <tile/>
   <tile/>
   <tile/>
   <tile/>
   <tile gid="555"/>
   <tile gid="556"/>
   <tile gid="556"/>
   <tile gid="556"/>
   <tile gid="557"/>
   <tile/>
   <tile/>
   <tile/>
   <tile/>
   <tile/>
   <tile/>
   <tile/>
   <tile/>
   <tile/>
   <tile/>
   <tile/>
   <tile/>
   <tile/>
   <tile/>
   <tile/>
   <tile/>
   <tile/>
   <tile/>
   <tile/>
   <tile/>
   <tile/>
   <tile/>
   <tile/>
   <tile/>
   <tile/>
   <tile/>
   <tile/>
   <tile/>
   <tile/>
   <tile/>
   <tile/>
   <tile/>
   <tile/>
   <tile/>
   <tile/>
   <tile/>
   <tile/>
   <tile/>
   <tile/>
   <tile/>
   <tile/>
   <tile/>
   <tile/>
   <tile/>
   <tile/>
   <tile/>
   <tile/>
   <tile/>
   <tile/>
   <tile/>
   <tile gid="603"/>
   <tile gid="604"/>
   <tile gid="604"/>
   <tile gid="604"/>
   <tile gid="604"/>
   <tile gid="604"/>
   <tile gid="604"/>
   <tile gid="604"/>
   <tile gid="604"/>
   <tile gid="605"/>
   <tile/>
   <tile/>
   <tile/>
   <tile/>
   <tile/>
   <tile/>
   <tile/>
   <tile/>
   <tile/>
   <tile/>
   <tile/>
   <tile/>
   <tile/>
   <tile/>
   <tile/>
   <tile/>
   <tile/>
   <tile/>
   <tile/>
   <tile gid="637"/>
   <tile/>
   <tile/>
   <tile/>
   <tile/>
   <tile/>
   <tile gid="555"/>
   <tile gid="556"/>
   <tile gid="556"/>
   <tile gid="556"/>
   <tile gid="557"/>
   <tile/>
   <tile/>
   <tile/>
   <tile/>
   <tile/>
   <tile/>
   <tile/>
   <tile/>
   <tile/>
   <tile/>
   <tile/>
   <tile/>
   <tile/>
   <tile/>
   <tile/>
   <tile/>
   <tile/>
   <tile/>
   <tile/>
   <tile/>
   <tile/>
   <tile/>
   <tile/>
   <tile/>
   <tile/>
   <tile/>
   <tile/>
   <tile/>
   <tile/>
   <tile/>
   <tile/>
   <tile/>
   <tile/>
   <tile/>
   <tile/>
   <tile/>
   <tile/>
   <tile/>
   <tile/>
   <tile/>
   <tile/>
   <tile/>
   <tile/>
   <tile/>
   <tile/>
   <tile/>
   <tile/>
   <tile/>
   <tile/>
   <tile/>
   <tile/>
   <tile gid="635"/>
   <tile gid="687"/>
   <tile gid="556"/>
   <tile gid="556"/>
   <tile gid="556"/>
   <tile gid="556"/>
   <tile gid="688"/>
   <tile gid="637"/>
   <tile/>
   <tile/>
   <tile/>
   <tile/>
   <tile/>
   <tile/>
   <tile/>
   <tile/>
   <tile/>
   <tile/>
   <tile/>
   <tile/>
   <tile/>
   <tile/>
   <tile/>
   <tile/>
   <tile/>
   <tile/>
   <tile/>
   <tile/>
   <tile/>
   <tile/>
   <tile/>
   <tile/>
   <tile/>
   <tile/>
   <tile gid="555"/>
   <tile gid="556"/>
   <tile gid="556"/>
   <tile gid="592"/>
   <tile gid="573"/>
   <tile/>
   <tile/>
   <tile/>
   <tile/>
   <tile/>
   <tile/>
   <tile/>
   <tile/>
   <tile/>
   <tile/>
   <tile/>
   <tile/>
   <tile/>
   <tile/>
   <tile/>
   <tile/>
   <tile/>
   <tile/>
   <tile/>
   <tile/>
   <tile/>
   <tile/>
   <tile/>
   <tile/>
   <tile/>
   <tile/>
   <tile/>
   <tile/>
   <tile/>
   <tile/>
   <tile gid="603"/>
   <tile gid="604"/>
   <tile gid="604"/>
   <tile gid="604"/>
   <tile gid="604"/>
   <tile gid="604"/>
   <tile gid="605"/>
   <tile/>
   <tile/>
   <tile/>
   <tile/>
   <tile/>
   <tile/>
   <tile/>
   <tile/>
   <tile/>
   <tile/>
   <tile/>
   <tile/>
   <tile/>
   <tile/>
   <tile/>
   <tile gid="635"/>
   <tile gid="636"/>
   <tile gid="636"/>
   <tile gid="636"/>
   <tile gid="636"/>
   <tile gid="637"/>
   <tile/>
   <tile/>
   <tile/>
   <tile/>
   <tile/>
   <tile/>
   <tile/>
   <tile/>
   <tile/>
   <tile/>
   <tile/>
   <tile/>
   <tile/>
   <tile/>
   <tile/>
   <tile/>
   <tile/>
   <tile/>
   <tile/>
   <tile/>
   <tile/>
   <tile/>
   <tile/>
   <tile/>
   <tile/>
   <tile/>
   <tile/>
   <tile gid="555"/>
   <tile gid="556"/>
   <tile gid="556"/>
   <tile gid="557"/>
   <tile/>
   <tile/>
   <tile/>
   <tile/>
   <tile/>
   <tile/>
   <tile/>
   <tile/>
   <tile/>
   <tile/>
   <tile/>
   <tile/>
   <tile/>
   <tile/>
   <tile/>
   <tile/>
   <tile/>
   <tile/>
   <tile/>
   <tile/>
   <tile/>
   <tile/>
   <tile/>
   <tile/>
   <tile/>
   <tile/>
   <tile/>
   <tile/>
   <tile/>
   <tile/>
   <tile/>
   <tile gid="619"/>
   <tile gid="688"/>
   <tile gid="636"/>
   <tile gid="636"/>
   <tile gid="636"/>
   <tile/>
   <tile/>
   <tile/>
   <tile/>
   <tile/>
   <tile/>
   <tile/>
   <tile/>
   <tile/>
   <tile/>
   <tile/>
   <tile/>
   <tile/>
   <tile/>
   <tile/>
   <tile/>
   <tile/>
   <tile/>
   <tile/>
   <tile/>
   <tile/>
   <tile/>
   <tile/>
   <tile/>
   <tile/>
   <tile/>
   <tile/>
   <tile/>
   <tile/>
   <tile/>
   <tile/>
   <tile/>
   <tile/>
   <tile/>
   <tile/>
   <tile/>
   <tile/>
   <tile/>
   <tile/>
   <tile/>
   <tile/>
   <tile/>
   <tile/>
   <tile/>
   <tile/>
   <tile/>
   <tile/>
   <tile/>
   <tile/>
   <tile/>
   <tile gid="555"/>
   <tile gid="556"/>
   <tile gid="592"/>
   <tile gid="573"/>
   <tile/>
   <tile/>
   <tile/>
   <tile/>
   <tile/>
   <tile/>
   <tile/>
   <tile/>
   <tile/>
   <tile/>
   <tile/>
   <tile/>
   <tile/>
   <tile/>
   <tile/>
   <tile/>
   <tile/>
   <tile/>
   <tile/>
   <tile/>
   <tile/>
   <tile/>
   <tile/>
   <tile/>
   <tile/>
   <tile/>
   <tile/>
   <tile/>
   <tile/>
   <tile/>
   <tile/>
   <tile gid="619"/>
   <tile gid="621"/>
   <tile/>
   <tile/>
   <tile/>
   <tile/>
   <tile/>
   <tile/>
   <tile/>
   <tile/>
   <tile/>
   <tile/>
   <tile/>
   <tile/>
   <tile/>
   <tile/>
   <tile/>
   <tile/>
   <tile/>
   <tile/>
   <tile/>
   <tile/>
   <tile/>
   <tile/>
   <tile/>
   <tile/>
   <tile/>
   <tile/>
   <tile/>
   <tile/>
   <tile/>
   <tile/>
   <tile/>
   <tile/>
   <tile/>
   <tile/>
   <tile/>
   <tile/>
   <tile/>
   <tile/>
   <tile/>
   <tile/>
   <tile/>
   <tile/>
   <tile/>
   <tile/>
   <tile/>
   <tile gid="539"/>
   <tile gid="540"/>
   <tile gid="541"/>
   <tile/>
   <tile/>
   <tile/>
   <tile gid="539"/>
   <tile gid="540"/>
   <tile gid="575"/>
   <tile gid="556"/>
   <tile gid="557"/>
   <tile/>
   <tile/>
   <tile/>
   <tile/>
   <tile/>
   <tile/>
   <tile/>
   <tile/>
   <tile/>
   <tile/>
   <tile/>
   <tile/>
   <tile/>
   <tile/>
   <tile/>
   <tile/>
   <tile/>
   <tile/>
   <tile/>
   <tile/>
   <tile/>
   <tile/>
   <tile/>
   <tile/>
   <tile/>
   <tile/>
   <tile/>
   <tile/>
   <tile/>
   <tile/>
   <tile/>
   <tile/>
   <tile gid="619"/>
   <tile gid="621"/>
   <tile/>
   <tile/>
   <tile/>
   <tile/>
   <tile/>
   <tile/>
   <tile/>
   <tile/>
   <tile/>
   <tile/>
   <tile/>
   <tile/>
   <tile/>
   <tile gid="603"/>
   <tile gid="604"/>
   <tile gid="604"/>
   <tile gid="604"/>
   <tile gid="604"/>
   <tile gid="604"/>
   <tile gid="604"/>
   <tile gid="605"/>
   <tile/>
   <tile/>
   <tile/>
   <tile/>
   <tile/>
   <tile/>
   <tile/>
   <tile/>
   <tile/>
   <tile/>
   <tile/>
   <tile/>
   <tile/>
   <tile/>
   <tile/>
   <tile/>
   <tile/>
   <tile/>
   <tile/>
   <tile/>
   <tile/>
   <tile/>
   <tile/>
   <tile/>
   <tile gid="555"/>
   <tile gid="556"/>
   <tile gid="557"/>
   <tile/>
   <tile/>
   <tile/>
   <tile gid="555"/>
   <tile gid="556"/>
   <tile gid="556"/>
   <tile gid="592"/>
   <tile gid="573"/>
   <tile/>
   <tile/>
   <tile/>
   <tile/>
   <tile/>
   <tile/>
   <tile/>
   <tile/>
   <tile/>
   <tile/>
   <tile/>
   <tile/>
   <tile/>
   <tile/>
   <tile/>
   <tile/>
   <tile/>
   <tile/>
   <tile/>
   <tile/>
   <tile/>
   <tile/>
   <tile/>
   <tile/>
   <tile/>
   <tile/>
   <tile/>
   <tile/>
   <tile/>
   <tile/>
   <tile/>
   <tile/>
   <tile gid="619"/>
   <tile gid="621"/>
   <tile/>
   <tile/>
   <tile/>
   <tile/>
   <tile/>
   <tile/>
   <tile/>
   <tile/>
   <tile/>
   <tile/>
   <tile/>
   <tile/>
   <tile/>
   <tile/>
   <tile gid="635"/>
   <tile gid="636"/>
   <tile gid="636"/>
   <tile gid="636"/>
   <tile gid="636"/>
   <tile gid="637"/>
   <tile/>
   <tile/>
   <tile/>
   <tile/>
   <tile/>
   <tile/>
   <tile/>
   <tile/>
   <tile/>
   <tile/>
   <tile/>
   <tile/>
   <tile/>
   <tile/>
   <tile/>
   <tile/>
   <tile/>
   <tile/>
   <tile/>
   <tile/>
   <tile/>
   <tile/>
   <tile/>
   <tile gid="539"/>
   <tile gid="540"/>
   <tile gid="574"/>
   <tile gid="556"/>
   <tile gid="557"/>
   <tile/>
   <tile/>
   <tile/>
   <tile gid="555"/>
   <tile gid="556"/>
   <tile gid="556"/>
   <tile gid="557"/>
   <tile/>
   <tile/>
   <tile/>
   <tile/>
   <tile/>
   <tile/>
   <tile/>
   <tile/>
   <tile/>
   <tile/>
   <tile/>
   <tile/>
   <tile/>
   <tile/>
   <tile/>
   <tile/>
   <tile/>
   <tile/>
   <tile/>
   <tile/>
   <tile/>
   <tile/>
   <tile/>
   <tile/>
   <tile/>
   <tile/>
   <tile/>
   <tile/>
   <tile/>
   <tile/>
   <tile/>
   <tile/>
   <tile/>
   <tile gid="635"/>
   <tile gid="637"/>
   <tile/>
   <tile/>
   <tile/>
   <tile/>
   <tile/>
   <tile/>
   <tile/>
   <tile/>
   <tile/>
   <tile/>
   <tile/>
   <tile/>
   <tile/>
   <tile/>
   <tile/>
   <tile/>
   <tile/>
   <tile/>
   <tile/>
   <tile/>
   <tile/>
   <tile/>
   <tile/>
   <tile/>
   <tile/>
   <tile/>
   <tile/>
   <tile/>
   <tile/>
   <tile/>
   <tile/>
   <tile/>
   <tile/>
   <tile/>
   <tile/>
   <tile/>
   <tile/>
   <tile/>
   <tile/>
   <tile/>
   <tile/>
   <tile/>
   <tile/>
   <tile gid="555"/>
   <tile gid="556"/>
   <tile gid="556"/>
   <tile gid="556"/>
   <tile gid="557"/>
   <tile/>
   <tile/>
   <tile/>
   <tile gid="555"/>
   <tile gid="556"/>
   <tile gid="556"/>
   <tile gid="557"/>
   <tile/>
   <tile/>
   <tile/>
   <tile/>
   <tile/>
   <tile/>
   <tile/>
   <tile/>
   <tile/>
   <tile/>
   <tile/>
   <tile/>
   <tile/>
   <tile/>
   <tile/>
   <tile/>
   <tile/>
   <tile/>
   <tile/>
   <tile/>
   <tile/>
   <tile/>
   <tile/>
   <tile/>
   <tile/>
   <tile/>
   <tile/>
   <tile/>
   <tile/>
   <tile/>
   <tile/>
   <tile/>
   <tile/>
   <tile/>
   <tile/>
   <tile/>
   <tile/>
   <tile/>
   <tile/>
   <tile/>
   <tile/>
   <tile/>
   <tile/>
   <tile/>
   <tile/>
   <tile/>
   <tile/>
   <tile/>
   <tile/>
   <tile/>
   <tile/>
   <tile/>
   <tile/>
   <tile/>
   <tile/>
   <tile/>
   <tile/>
   <tile/>
   <tile/>
   <tile/>
   <tile/>
   <tile/>
   <tile/>
   <tile/>
   <tile/>
   <tile/>
   <tile/>
   <tile/>
   <tile/>
   <tile/>
   <tile/>
   <tile/>
   <tile/>
   <tile/>
   <tile/>
   <tile gid="539"/>
   <tile gid="540"/>
   <tile gid="540"/>
   <tile gid="574"/>
   <tile gid="556"/>
   <tile gid="556"/>
   <tile gid="556"/>
   <tile gid="557"/>
   <tile/>
   <tile/>
   <tile/>
   <tile gid="555"/>
   <tile gid="556"/>
   <tile gid="556"/>
   <tile gid="557"/>
   <tile/>
   <tile/>
   <tile/>
   <tile/>
   <tile/>
   <tile/>
   <tile/>
   <tile/>
   <tile/>
   <tile/>
   <tile/>
   <tile/>
   <tile/>
   <tile/>
   <tile/>
   <tile/>
   <tile/>
   <tile/>
   <tile/>
   <tile gid="603"/>
   <tile gid="604"/>
   <tile gid="604"/>
   <tile gid="604"/>
   <tile gid="604"/>
   <tile gid="604"/>
   <tile gid="604"/>
   <tile gid="604"/>
   <tile gid="604"/>
   <tile gid="604"/>
   <tile gid="604"/>
   <tile gid="604"/>
   <tile gid="605"/>
   <tile/>
   <tile/>
   <tile/>
   <tile/>
   <tile/>
   <tile/>
   <tile/>
   <tile/>
   <tile/>
   <tile/>
   <tile/>
   <tile/>
   <tile/>
   <tile/>
   <tile/>
   <tile/>
   <tile/>
   <tile/>
   <tile/>
   <tile/>
   <tile/>
   <tile/>
   <tile/>
   <tile/>
   <tile/>
   <tile/>
   <tile/>
   <tile/>
   <tile/>
   <tile/>
   <tile/>
   <tile/>
   <tile/>
   <tile/>
   <tile/>
   <tile/>
   <tile/>
   <tile/>
   <tile/>
   <tile/>
   <tile/>
   <tile/>
   <tile/>
   <tile gid="555"/>
   <tile gid="556"/>
   <tile gid="556"/>
   <tile gid="556"/>
   <tile gid="556"/>
   <tile gid="556"/>
   <tile gid="556"/>
   <tile gid="557"/>
   <tile/>
   <tile/>
   <tile/>
   <tile gid="555"/>
   <tile gid="556"/>
   <tile gid="556"/>
   <tile gid="557"/>
   <tile/>
   <tile/>
   <tile/>
   <tile/>
   <tile/>
   <tile/>
   <tile/>
   <tile/>
   <tile/>
   <tile/>
   <tile/>
   <tile/>
   <tile/>
   <tile/>
   <tile/>
   <tile/>
   <tile/>
   <tile/>
   <tile/>
   <tile/>
   <tile gid="635"/>
   <tile gid="636"/>
   <tile gid="636"/>
   <tile gid="636"/>
   <tile gid="636"/>
   <tile gid="636"/>
   <tile gid="636"/>
   <tile gid="636"/>
   <tile gid="636"/>
   <tile gid="636"/>
   <tile gid="637"/>
   <tile/>
   <tile/>
   <tile/>
   <tile/>
   <tile/>
   <tile/>
   <tile/>
   <tile/>
   <tile/>
   <tile/>
   <tile/>
   <tile/>
   <tile/>
   <tile/>
   <tile/>
   <tile/>
   <tile/>
   <tile/>
   <tile/>
   <tile/>
   <tile/>
   <tile/>
   <tile/>
   <tile/>
   <tile/>
   <tile/>
   <tile/>
   <tile/>
   <tile/>
   <tile/>
   <tile/>
   <tile/>
   <tile gid="539"/>
   <tile gid="540"/>
   <tile gid="540"/>
   <tile gid="540"/>
   <tile gid="540"/>
   <tile gid="540"/>
   <tile gid="540"/>
   <tile gid="540"/>
   <tile gid="540"/>
   <tile gid="541"/>
   <tile/>
   <tile/>
   <tile gid="555"/>
   <tile gid="556"/>
   <tile gid="556"/>
   <tile gid="556"/>
   <tile gid="556"/>
   <tile gid="556"/>
   <tile gid="556"/>
   <tile gid="557"/>
   <tile/>
   <tile/>
   <tile/>
   <tile gid="555"/>
   <tile gid="556"/>
   <tile gid="556"/>
   <tile gid="557"/>
   <tile/>
   <tile/>
   <tile/>
   <tile/>
   <tile/>
   <tile/>
   <tile/>
   <tile/>
   <tile/>
   <tile/>
   <tile/>
   <tile/>
   <tile/>
   <tile/>
   <tile/>
   <tile/>
   <tile/>
   <tile/>
   <tile/>
   <tile/>
   <tile/>
   <tile/>
   <tile/>
   <tile/>
   <tile/>
   <tile/>
   <tile/>
   <tile/>
   <tile/>
   <tile/>
   <tile/>
   <tile/>
   <tile/>
   <tile/>
   <tile/>
   <tile/>
   <tile/>
   <tile/>
   <tile/>
   <tile/>
   <tile/>
   <tile/>
   <tile/>
   <tile/>
   <tile/>
   <tile/>
   <tile/>
   <tile/>
   <tile/>
   <tile/>
   <tile/>
   <tile/>
   <tile/>
   <tile/>
   <tile/>
   <tile/>
   <tile/>
   <tile/>
   <tile/>
   <tile/>
   <tile/>
   <tile/>
   <tile/>
   <tile/>
   <tile gid="555"/>
   <tile gid="556"/>
   <tile gid="556"/>
   <tile gid="556"/>
   <tile gid="556"/>
   <tile gid="556"/>
   <tile gid="556"/>
   <tile gid="557"/>
   <tile/>
   <tile/>
   <tile/>
   <tile gid="555"/>
   <tile gid="556"/>
   <tile gid="556"/>
   <tile gid="556"/>
   <tile gid="556"/>
   <tile gid="556"/>
   <tile gid="556"/>
   <tile gid="557"/>
   <tile/>
   <tile/>
   <tile/>
   <tile gid="555"/>
   <tile gid="556"/>
   <tile gid="556"/>
   <tile gid="576"/>
   <tile gid="540"/>
   <tile gid="540"/>
   <tile gid="540"/>
   <tile gid="541"/>
   <tile/>
   <tile/>
   <tile/>
   <tile/>
   <tile/>
   <tile gid="539"/>
   <tile gid="540"/>
   <tile gid="540"/>
   <tile gid="540"/>
   <tile gid="540"/>
   <tile gid="540"/>
   <tile gid="540"/>
   <tile gid="540"/>
   <tile gid="540"/>
   <tile gid="540"/>
   <tile gid="540"/>
   <tile gid="540"/>
   <tile gid="540"/>
   <tile gid="540"/>
   <tile gid="540"/>
   <tile gid="540"/>
   <tile gid="540"/>
   <tile gid="540"/>
   <tile gid="540"/>
   <tile gid="540"/>
   <tile gid="540"/>
   <tile gid="540"/>
   <tile gid="540"/>
   <tile gid="540"/>
   <tile gid="540"/>
   <tile gid="540"/>
   <tile gid="540"/>
   <tile gid="540"/>
   <tile gid="540"/>
   <tile gid="540"/>
   <tile gid="540"/>
   <tile gid="540"/>
   <tile gid="540"/>
   <tile gid="540"/>
   <tile gid="540"/>
   <tile gid="540"/>
   <tile gid="540"/>
   <tile gid="540"/>
   <tile gid="540"/>
   <tile gid="540"/>
   <tile gid="540"/>
   <tile gid="540"/>
   <tile gid="540"/>
   <tile gid="540"/>
   <tile gid="540"/>
   <tile gid="540"/>
   <tile gid="540"/>
   <tile gid="540"/>
   <tile gid="540"/>
   <tile gid="540"/>
   <tile gid="540"/>
   <tile gid="540"/>
   <tile gid="540"/>
   <tile gid="540"/>
   <tile gid="540"/>
   <tile gid="575"/>
   <tile gid="556"/>
   <tile gid="556"/>
   <tile gid="556"/>
   <tile gid="556"/>
   <tile gid="556"/>
   <tile gid="556"/>
   <tile gid="576"/>
   <tile gid="540"/>
   <tile gid="540"/>
   <tile gid="540"/>
   <tile gid="575"/>
   <tile gid="556"/>
   <tile gid="556"/>
   <tile gid="556"/>
   <tile gid="556"/>
   <tile gid="556"/>
   <tile gid="556"/>
   <tile gid="576"/>
   <tile gid="540"/>
   <tile gid="540"/>
   <tile gid="540"/>
   <tile gid="575"/>
   <tile gid="556"/>
   <tile gid="556"/>
  </data>
 </layer>
 <layer id="6" name="Navigation" width="90" height="68">
  <properties>
   <property name="Navigation" type="bool" value="true"/>
  </properties>
  <data>
   <tile/>
   <tile/>
   <tile/>
   <tile/>
   <tile/>
   <tile/>
   <tile/>
   <tile/>
   <tile/>
   <tile/>
   <tile/>
   <tile/>
   <tile/>
   <tile/>
   <tile/>
   <tile/>
   <tile/>
   <tile/>
   <tile/>
   <tile/>
   <tile/>
   <tile/>
   <tile/>
   <tile/>
   <tile/>
   <tile/>
   <tile/>
   <tile/>
   <tile/>
   <tile/>
   <tile/>
   <tile/>
   <tile/>
   <tile/>
   <tile/>
   <tile/>
   <tile/>
   <tile/>
   <tile/>
   <tile/>
   <tile/>
   <tile/>
   <tile/>
   <tile/>
   <tile/>
   <tile/>
   <tile/>
   <tile/>
   <tile/>
   <tile/>
   <tile/>
   <tile/>
   <tile/>
   <tile/>
   <tile/>
   <tile/>
   <tile/>
   <tile/>
   <tile/>
   <tile/>
   <tile/>
   <tile/>
   <tile/>
   <tile/>
   <tile/>
   <tile/>
   <tile/>
   <tile/>
   <tile/>
   <tile/>
   <tile/>
   <tile/>
   <tile/>
   <tile/>
   <tile/>
   <tile/>
   <tile/>
   <tile/>
   <tile/>
   <tile/>
   <tile/>
   <tile/>
   <tile/>
   <tile/>
   <tile/>
   <tile/>
   <tile/>
   <tile/>
   <tile/>
   <tile/>
   <tile/>
   <tile/>
   <tile/>
   <tile/>
   <tile/>
   <tile/>
   <tile/>
   <tile/>
   <tile/>
   <tile/>
   <tile/>
   <tile/>
   <tile/>
   <tile/>
   <tile/>
   <tile/>
   <tile/>
   <tile/>
   <tile/>
   <tile/>
   <tile/>
   <tile/>
   <tile/>
   <tile/>
   <tile/>
   <tile/>
   <tile/>
   <tile/>
   <tile/>
   <tile/>
   <tile/>
   <tile/>
   <tile/>
   <tile/>
   <tile/>
   <tile/>
   <tile/>
   <tile/>
   <tile/>
   <tile/>
   <tile/>
   <tile/>
   <tile/>
   <tile/>
   <tile/>
   <tile/>
   <tile/>
   <tile/>
   <tile/>
   <tile/>
   <tile/>
   <tile/>
   <tile/>
   <tile/>
   <tile/>
   <tile/>
   <tile/>
   <tile/>
   <tile/>
   <tile/>
   <tile/>
   <tile/>
   <tile/>
   <tile/>
   <tile/>
   <tile/>
   <tile/>
   <tile/>
   <tile/>
   <tile/>
   <tile/>
   <tile/>
   <tile/>
   <tile/>
   <tile/>
   <tile/>
   <tile/>
   <tile/>
   <tile/>
   <tile/>
   <tile/>
   <tile/>
   <tile/>
   <tile/>
   <tile/>
   <tile/>
   <tile/>
   <tile/>
   <tile/>
   <tile/>
   <tile/>
   <tile/>
   <tile/>
   <tile/>
   <tile/>
   <tile/>
   <tile/>
   <tile/>
   <tile/>
   <tile/>
   <tile/>
   <tile/>
   <tile/>
   <tile/>
   <tile/>
   <tile/>
   <tile/>
   <tile/>
   <tile/>
   <tile/>
   <tile/>
   <tile/>
   <tile/>
   <tile/>
   <tile/>
   <tile/>
   <tile/>
   <tile/>
   <tile/>
   <tile/>
   <tile/>
   <tile/>
   <tile/>
   <tile/>
   <tile/>
   <tile/>
   <tile/>
   <tile/>
   <tile/>
   <tile/>
   <tile/>
   <tile/>
   <tile/>
   <tile/>
   <tile/>
   <tile/>
   <tile/>
   <tile/>
   <tile/>
   <tile/>
   <tile/>
   <tile/>
   <tile/>
   <tile/>
   <tile/>
   <tile/>
   <tile/>
   <tile/>
   <tile/>
   <tile/>
   <tile/>
   <tile/>
   <tile/>
   <tile/>
   <tile/>
   <tile/>
   <tile/>
   <tile/>
   <tile/>
   <tile/>
   <tile/>
   <tile/>
   <tile/>
   <tile/>
   <tile/>
   <tile/>
   <tile/>
   <tile/>
   <tile/>
   <tile/>
   <tile/>
   <tile/>
   <tile/>
   <tile/>
   <tile/>
   <tile/>
   <tile/>
   <tile/>
   <tile/>
   <tile/>
   <tile/>
   <tile/>
   <tile/>
   <tile/>
   <tile/>
   <tile/>
   <tile/>
   <tile/>
   <tile/>
   <tile/>
   <tile/>
   <tile/>
   <tile/>
   <tile/>
   <tile/>
   <tile/>
   <tile/>
   <tile/>
   <tile/>
   <tile/>
   <tile/>
   <tile/>
   <tile/>
   <tile/>
   <tile/>
   <tile/>
   <tile/>
   <tile/>
   <tile/>
   <tile/>
   <tile/>
   <tile/>
   <tile/>
   <tile/>
   <tile/>
   <tile/>
   <tile/>
   <tile/>
   <tile/>
   <tile/>
   <tile/>
   <tile/>
   <tile/>
   <tile/>
   <tile/>
   <tile/>
   <tile/>
   <tile/>
   <tile/>
   <tile/>
   <tile/>
   <tile/>
   <tile/>
   <tile/>
   <tile/>
   <tile/>
   <tile/>
   <tile/>
   <tile/>
   <tile/>
   <tile/>
   <tile/>
   <tile/>
   <tile/>
   <tile/>
   <tile/>
   <tile/>
   <tile/>
   <tile/>
   <tile/>
   <tile/>
   <tile/>
   <tile/>
   <tile/>
   <tile/>
   <tile/>
   <tile/>
   <tile/>
   <tile/>
   <tile/>
   <tile/>
   <tile/>
   <tile/>
   <tile/>
   <tile/>
   <tile/>
   <tile/>
   <tile/>
   <tile/>
   <tile/>
   <tile/>
   <tile/>
   <tile/>
   <tile/>
   <tile/>
   <tile/>
   <tile/>
   <tile/>
   <tile/>
   <tile/>
   <tile/>
   <tile/>
   <tile/>
   <tile/>
   <tile/>
   <tile/>
   <tile/>
   <tile/>
   <tile/>
   <tile/>
   <tile/>
   <tile/>
   <tile/>
   <tile/>
   <tile/>
   <tile/>
   <tile/>
   <tile/>
   <tile/>
   <tile/>
   <tile/>
   <tile/>
   <tile/>
   <tile/>
   <tile/>
   <tile/>
   <tile/>
   <tile/>
   <tile/>
   <tile/>
   <tile/>
   <tile/>
   <tile/>
   <tile/>
   <tile/>
   <tile/>
   <tile/>
   <tile/>
   <tile/>
   <tile/>
   <tile/>
   <tile/>
   <tile/>
   <tile/>
   <tile/>
   <tile/>
   <tile/>
   <tile/>
   <tile/>
   <tile/>
   <tile/>
   <tile/>
   <tile/>
   <tile/>
   <tile/>
   <tile/>
   <tile/>
   <tile/>
   <tile/>
   <tile/>
   <tile/>
   <tile/>
   <tile/>
   <tile/>
   <tile/>
   <tile/>
   <tile/>
   <tile/>
   <tile/>
   <tile/>
   <tile/>
   <tile/>
   <tile/>
   <tile/>
   <tile/>
   <tile/>
   <tile/>
   <tile/>
   <tile/>
   <tile/>
   <tile/>
   <tile/>
   <tile/>
   <tile/>
   <tile/>
   <tile/>
   <tile/>
   <tile/>
   <tile/>
   <tile/>
   <tile/>
   <tile/>
   <tile/>
   <tile/>
   <tile/>
   <tile/>
   <tile/>
   <tile/>
   <tile/>
   <tile/>
   <tile/>
   <tile/>
   <tile/>
   <tile/>
   <tile/>
   <tile/>
   <tile/>
   <tile/>
   <tile/>
   <tile/>
   <tile/>
   <tile/>
   <tile/>
   <tile/>
   <tile/>
   <tile/>
   <tile/>
   <tile/>
   <tile/>
   <tile/>
   <tile/>
   <tile/>
   <tile/>
   <tile/>
   <tile/>
   <tile/>
   <tile/>
   <tile/>
   <tile/>
   <tile/>
   <tile/>
   <tile/>
   <tile/>
   <tile/>
   <tile/>
   <tile/>
   <tile/>
   <tile/>
   <tile/>
   <tile/>
   <tile/>
   <tile/>
   <tile/>
   <tile/>
   <tile/>
   <tile/>
   <tile/>
   <tile/>
   <tile/>
   <tile/>
   <tile/>
   <tile/>
   <tile/>
   <tile/>
   <tile/>
   <tile/>
   <tile/>
   <tile/>
   <tile/>
   <tile/>
   <tile/>
   <tile/>
   <tile/>
   <tile/>
   <tile/>
   <tile/>
   <tile/>
   <tile/>
   <tile/>
   <tile/>
   <tile/>
   <tile/>
   <tile/>
   <tile/>
   <tile/>
   <tile/>
   <tile/>
   <tile/>
   <tile/>
   <tile/>
   <tile/>
   <tile/>
   <tile/>
   <tile/>
   <tile/>
   <tile/>
   <tile/>
   <tile/>
   <tile/>
   <tile/>
   <tile/>
   <tile/>
   <tile/>
   <tile/>
   <tile/>
   <tile/>
   <tile/>
   <tile/>
   <tile/>
   <tile/>
   <tile/>
   <tile/>
   <tile/>
   <tile/>
   <tile/>
   <tile/>
   <tile/>
   <tile/>
   <tile/>
   <tile/>
   <tile/>
   <tile/>
   <tile/>
   <tile/>
   <tile/>
   <tile/>
   <tile/>
   <tile/>
   <tile/>
   <tile/>
   <tile/>
   <tile/>
   <tile/>
   <tile/>
   <tile/>
   <tile/>
   <tile/>
   <tile/>
   <tile/>
   <tile/>
   <tile/>
   <tile/>
   <tile/>
   <tile/>
   <tile/>
   <tile/>
   <tile/>
   <tile/>
   <tile/>
   <tile/>
   <tile/>
   <tile/>
   <tile/>
   <tile/>
   <tile/>
   <tile/>
   <tile/>
   <tile/>
   <tile/>
   <tile/>
   <tile/>
   <tile/>
   <tile/>
   <tile/>
   <tile/>
   <tile/>
   <tile/>
   <tile/>
   <tile/>
   <tile/>
   <tile/>
   <tile/>
   <tile/>
   <tile/>
   <tile/>
   <tile/>
   <tile/>
   <tile/>
   <tile/>
   <tile/>
   <tile/>
   <tile/>
   <tile/>
   <tile/>
   <tile/>
   <tile/>
   <tile/>
   <tile/>
   <tile/>
   <tile/>
   <tile/>
   <tile/>
   <tile/>
   <tile/>
   <tile/>
   <tile/>
   <tile/>
   <tile/>
   <tile/>
   <tile/>
   <tile/>
   <tile/>
   <tile/>
   <tile/>
   <tile/>
   <tile/>
   <tile/>
   <tile/>
   <tile/>
   <tile/>
   <tile/>
   <tile/>
   <tile/>
   <tile/>
   <tile/>
   <tile/>
   <tile/>
   <tile/>
   <tile/>
   <tile/>
   <tile/>
   <tile/>
   <tile/>
   <tile/>
   <tile/>
   <tile/>
   <tile/>
   <tile/>
   <tile/>
   <tile/>
   <tile/>
   <tile/>
   <tile/>
   <tile/>
   <tile/>
   <tile/>
   <tile/>
   <tile/>
   <tile/>
   <tile/>
   <tile/>
   <tile/>
   <tile/>
   <tile/>
   <tile/>
   <tile/>
   <tile/>
   <tile/>
   <tile/>
   <tile/>
   <tile/>
   <tile/>
   <tile/>
   <tile/>
   <tile/>
   <tile/>
   <tile/>
   <tile/>
   <tile/>
   <tile/>
   <tile/>
   <tile/>
   <tile/>
   <tile/>
   <tile/>
   <tile/>
   <tile/>
   <tile/>
   <tile/>
   <tile/>
   <tile/>
   <tile/>
   <tile/>
   <tile/>
   <tile/>
   <tile/>
   <tile/>
   <tile/>
   <tile/>
   <tile/>
   <tile/>
   <tile/>
   <tile/>
   <tile/>
   <tile/>
   <tile/>
   <tile/>
   <tile/>
   <tile/>
   <tile/>
   <tile/>
   <tile/>
   <tile/>
   <tile/>
   <tile/>
   <tile/>
   <tile/>
   <tile/>
   <tile/>
   <tile/>
   <tile/>
   <tile/>
   <tile/>
   <tile/>
   <tile/>
   <tile/>
   <tile/>
   <tile/>
   <tile/>
   <tile/>
   <tile/>
   <tile/>
   <tile/>
   <tile/>
   <tile/>
   <tile/>
   <tile/>
   <tile/>
   <tile/>
   <tile/>
   <tile/>
   <tile/>
   <tile/>
   <tile/>
   <tile/>
   <tile/>
   <tile/>
   <tile/>
   <tile/>
   <tile/>
   <tile/>
   <tile/>
   <tile/>
   <tile/>
   <tile/>
   <tile/>
   <tile/>
   <tile/>
   <tile/>
   <tile/>
   <tile/>
   <tile/>
   <tile/>
   <tile/>
   <tile/>
   <tile/>
   <tile/>
   <tile/>
   <tile/>
   <tile/>
   <tile/>
   <tile/>
   <tile/>
   <tile/>
   <tile/>
   <tile/>
   <tile/>
   <tile/>
   <tile/>
   <tile/>
   <tile/>
   <tile/>
   <tile/>
   <tile/>
   <tile/>
   <tile/>
   <tile/>
   <tile/>
   <tile/>
   <tile/>
   <tile/>
   <tile/>
   <tile/>
   <tile/>
   <tile/>
   <tile/>
   <tile/>
   <tile/>
   <tile/>
   <tile/>
   <tile/>
   <tile/>
   <tile/>
   <tile/>
   <tile/>
   <tile/>
   <tile/>
   <tile/>
   <tile/>
   <tile/>
   <tile/>
   <tile/>
   <tile/>
   <tile/>
   <tile/>
   <tile/>
   <tile/>
   <tile/>
   <tile/>
   <tile/>
   <tile/>
   <tile/>
   <tile/>
   <tile/>
   <tile/>
   <tile/>
   <tile/>
   <tile/>
   <tile/>
   <tile/>
   <tile/>
   <tile/>
   <tile/>
   <tile/>
   <tile/>
   <tile/>
   <tile/>
   <tile/>
   <tile/>
   <tile/>
   <tile/>
   <tile/>
   <tile/>
   <tile/>
   <tile/>
   <tile/>
   <tile/>
   <tile/>
   <tile/>
   <tile/>
   <tile/>
   <tile/>
   <tile/>
   <tile/>
   <tile/>
   <tile/>
   <tile/>
   <tile/>
   <tile/>
   <tile/>
   <tile/>
   <tile/>
   <tile/>
   <tile/>
   <tile/>
   <tile/>
   <tile/>
   <tile/>
   <tile/>
   <tile/>
   <tile/>
   <tile/>
   <tile/>
   <tile/>
   <tile/>
   <tile/>
   <tile/>
   <tile/>
   <tile/>
   <tile/>
   <tile/>
   <tile/>
   <tile/>
   <tile/>
   <tile/>
   <tile/>
   <tile/>
   <tile/>
   <tile/>
   <tile/>
   <tile/>
   <tile/>
   <tile/>
   <tile/>
   <tile/>
   <tile/>
   <tile/>
   <tile/>
   <tile/>
   <tile/>
   <tile/>
   <tile/>
   <tile/>
   <tile/>
   <tile/>
   <tile/>
   <tile/>
   <tile/>
   <tile/>
   <tile/>
   <tile/>
   <tile/>
   <tile/>
   <tile/>
   <tile/>
   <tile/>
   <tile/>
   <tile/>
   <tile/>
   <tile/>
   <tile/>
   <tile/>
   <tile/>
   <tile/>
   <tile/>
   <tile/>
   <tile/>
   <tile/>
   <tile/>
   <tile/>
   <tile/>
   <tile/>
   <tile/>
   <tile/>
   <tile/>
   <tile/>
   <tile/>
   <tile/>
   <tile/>
   <tile/>
   <tile/>
   <tile/>
   <tile/>
   <tile/>
   <tile/>
   <tile/>
   <tile/>
   <tile/>
   <tile/>
   <tile/>
   <tile/>
   <tile/>
   <tile/>
   <tile/>
   <tile/>
   <tile/>
   <tile/>
   <tile/>
   <tile/>
   <tile/>
   <tile/>
   <tile/>
   <tile/>
   <tile/>
   <tile/>
   <tile/>
   <tile/>
   <tile/>
   <tile/>
   <tile/>
   <tile/>
   <tile/>
   <tile/>
   <tile/>
   <tile/>
   <tile/>
   <tile/>
   <tile/>
   <tile/>
   <tile/>
   <tile/>
   <tile/>
   <tile/>
   <tile/>
   <tile/>
   <tile/>
   <tile/>
   <tile/>
   <tile/>
   <tile/>
   <tile/>
   <tile/>
   <tile/>
   <tile/>
   <tile/>
   <tile/>
   <tile/>
   <tile/>
   <tile/>
   <tile/>
   <tile/>
   <tile/>
   <tile/>
   <tile/>
   <tile/>
   <tile/>
   <tile/>
   <tile/>
   <tile/>
   <tile/>
   <tile/>
   <tile/>
   <tile/>
   <tile/>
   <tile/>
   <tile/>
   <tile/>
   <tile/>
   <tile/>
   <tile/>
   <tile/>
   <tile/>
   <tile/>
   <tile/>
   <tile/>
   <tile/>
   <tile/>
   <tile/>
   <tile/>
   <tile/>
   <tile/>
   <tile/>
   <tile/>
   <tile/>
   <tile/>
   <tile/>
   <tile/>
   <tile/>
   <tile/>
   <tile/>
   <tile/>
   <tile/>
   <tile/>
   <tile/>
   <tile/>
   <tile/>
   <tile/>
   <tile/>
   <tile/>
   <tile/>
   <tile/>
   <tile/>
   <tile/>
   <tile/>
   <tile/>
   <tile/>
   <tile/>
   <tile/>
   <tile/>
   <tile/>
   <tile/>
   <tile/>
   <tile/>
   <tile/>
   <tile/>
   <tile/>
   <tile/>
   <tile/>
   <tile/>
   <tile/>
   <tile/>
   <tile/>
   <tile/>
   <tile/>
   <tile/>
   <tile/>
   <tile/>
   <tile/>
   <tile/>
   <tile/>
   <tile/>
   <tile/>
   <tile/>
   <tile/>
   <tile/>
   <tile/>
   <tile/>
   <tile/>
   <tile/>
   <tile/>
   <tile/>
   <tile/>
   <tile/>
   <tile/>
   <tile/>
   <tile/>
   <tile/>
   <tile/>
   <tile/>
   <tile/>
   <tile/>
   <tile/>
   <tile/>
   <tile/>
   <tile/>
   <tile/>
   <tile/>
   <tile/>
   <tile/>
   <tile/>
   <tile/>
   <tile/>
   <tile/>
   <tile/>
   <tile/>
   <tile/>
   <tile/>
   <tile/>
   <tile/>
   <tile/>
   <tile/>
   <tile/>
   <tile/>
   <tile/>
   <tile/>
   <tile/>
   <tile/>
   <tile/>
   <tile/>
   <tile/>
   <tile/>
   <tile/>
   <tile/>
   <tile/>
   <tile/>
   <tile/>
   <tile/>
   <tile/>
   <tile/>
   <tile/>
   <tile/>
   <tile/>
   <tile/>
   <tile/>
   <tile/>
   <tile/>
   <tile/>
   <tile/>
   <tile/>
   <tile/>
   <tile/>
   <tile/>
   <tile/>
   <tile/>
   <tile/>
   <tile/>
   <tile/>
   <tile/>
   <tile/>
   <tile/>
   <tile/>
   <tile/>
   <tile/>
   <tile/>
   <tile/>
   <tile/>
   <tile/>
   <tile/>
   <tile/>
   <tile/>
   <tile/>
   <tile/>
   <tile/>
   <tile/>
   <tile/>
   <tile/>
   <tile/>
   <tile/>
   <tile/>
   <tile/>
   <tile/>
   <tile/>
   <tile/>
   <tile/>
   <tile/>
   <tile/>
   <tile/>
   <tile/>
   <tile/>
   <tile/>
   <tile/>
   <tile/>
   <tile/>
   <tile/>
   <tile/>
   <tile/>
   <tile/>
   <tile/>
   <tile/>
   <tile/>
   <tile/>
   <tile/>
   <tile/>
   <tile/>
   <tile/>
   <tile/>
   <tile/>
   <tile/>
   <tile/>
   <tile/>
   <tile/>
   <tile/>
   <tile/>
   <tile/>
   <tile/>
   <tile/>
   <tile/>
   <tile/>
   <tile/>
   <tile/>
   <tile/>
   <tile/>
   <tile/>
   <tile/>
   <tile/>
   <tile/>
   <tile/>
   <tile/>
   <tile/>
   <tile/>
   <tile/>
   <tile/>
   <tile/>
   <tile/>
   <tile/>
   <tile/>
   <tile/>
   <tile/>
   <tile/>
   <tile/>
   <tile/>
   <tile/>
   <tile/>
   <tile/>
   <tile/>
   <tile/>
   <tile/>
   <tile/>
   <tile/>
   <tile/>
   <tile/>
   <tile/>
   <tile/>
   <tile/>
   <tile/>
   <tile/>
   <tile/>
   <tile/>
   <tile/>
   <tile/>
   <tile/>
   <tile/>
   <tile/>
   <tile/>
   <tile/>
   <tile/>
   <tile/>
   <tile/>
   <tile/>
   <tile/>
   <tile/>
   <tile/>
   <tile/>
   <tile/>
   <tile/>
   <tile/>
   <tile/>
   <tile/>
   <tile/>
   <tile/>
   <tile/>
   <tile/>
   <tile/>
   <tile/>
   <tile/>
   <tile/>
   <tile/>
   <tile/>
   <tile/>
   <tile/>
   <tile/>
   <tile/>
   <tile/>
   <tile/>
   <tile/>
   <tile/>
   <tile/>
   <tile/>
   <tile/>
   <tile/>
   <tile/>
   <tile/>
   <tile/>
   <tile/>
   <tile/>
   <tile/>
   <tile/>
   <tile/>
   <tile/>
   <tile/>
   <tile/>
   <tile/>
   <tile/>
   <tile/>
   <tile/>
   <tile/>
   <tile/>
   <tile/>
   <tile/>
   <tile/>
   <tile/>
   <tile/>
   <tile/>
   <tile/>
   <tile/>
   <tile/>
   <tile/>
   <tile/>
   <tile/>
   <tile/>
   <tile/>
   <tile/>
   <tile/>
   <tile/>
   <tile/>
   <tile/>
   <tile/>
   <tile/>
   <tile/>
   <tile/>
   <tile/>
   <tile/>
   <tile/>
   <tile/>
   <tile/>
   <tile/>
   <tile/>
   <tile/>
   <tile/>
   <tile/>
   <tile/>
   <tile/>
   <tile/>
   <tile/>
   <tile/>
   <tile/>
   <tile/>
   <tile/>
   <tile/>
   <tile/>
   <tile/>
   <tile/>
   <tile/>
   <tile/>
   <tile/>
   <tile/>
   <tile/>
   <tile/>
   <tile/>
   <tile/>
   <tile/>
   <tile/>
   <tile/>
   <tile/>
   <tile/>
   <tile/>
   <tile/>
   <tile/>
   <tile/>
   <tile/>
   <tile/>
   <tile/>
   <tile/>
   <tile/>
   <tile/>
   <tile/>
   <tile/>
   <tile/>
   <tile/>
   <tile/>
   <tile/>
   <tile/>
   <tile/>
   <tile/>
   <tile/>
   <tile/>
   <tile/>
   <tile/>
   <tile/>
   <tile/>
   <tile/>
   <tile/>
   <tile/>
   <tile/>
   <tile/>
   <tile/>
   <tile/>
   <tile/>
   <tile/>
   <tile/>
   <tile/>
   <tile/>
   <tile/>
   <tile/>
   <tile/>
   <tile/>
   <tile/>
   <tile/>
   <tile/>
   <tile/>
   <tile/>
   <tile/>
   <tile/>
   <tile/>
   <tile/>
   <tile/>
   <tile/>
   <tile/>
   <tile/>
   <tile/>
   <tile/>
   <tile/>
   <tile/>
   <tile/>
   <tile/>
   <tile/>
   <tile/>
   <tile/>
   <tile/>
   <tile/>
   <tile/>
   <tile/>
   <tile/>
   <tile/>
   <tile/>
   <tile/>
   <tile/>
   <tile/>
   <tile/>
   <tile/>
   <tile/>
   <tile/>
   <tile/>
   <tile/>
   <tile/>
   <tile/>
   <tile/>
   <tile/>
   <tile/>
   <tile/>
   <tile/>
   <tile/>
   <tile/>
   <tile/>
   <tile/>
   <tile/>
   <tile/>
   <tile/>
   <tile/>
   <tile/>
   <tile/>
   <tile/>
   <tile/>
   <tile/>
   <tile/>
   <tile/>
   <tile/>
   <tile/>
   <tile/>
   <tile/>
   <tile/>
   <tile/>
   <tile/>
   <tile/>
   <tile/>
   <tile/>
   <tile/>
   <tile/>
   <tile/>
   <tile/>
   <tile/>
   <tile/>
   <tile/>
   <tile/>
   <tile/>
   <tile/>
   <tile/>
   <tile/>
   <tile/>
   <tile/>
   <tile/>
   <tile/>
   <tile/>
   <tile/>
   <tile/>
   <tile/>
   <tile/>
   <tile/>
   <tile/>
   <tile/>
   <tile/>
   <tile/>
   <tile/>
   <tile/>
   <tile/>
   <tile/>
   <tile/>
   <tile/>
   <tile/>
   <tile/>
   <tile/>
   <tile/>
   <tile/>
   <tile/>
   <tile/>
   <tile/>
   <tile/>
   <tile/>
   <tile/>
   <tile/>
   <tile/>
   <tile/>
   <tile/>
   <tile/>
   <tile/>
   <tile/>
   <tile/>
   <tile/>
   <tile/>
   <tile/>
   <tile/>
   <tile/>
   <tile/>
   <tile/>
   <tile/>
   <tile/>
   <tile/>
   <tile/>
   <tile/>
   <tile/>
   <tile/>
   <tile/>
   <tile/>
   <tile/>
   <tile/>
   <tile/>
   <tile/>
   <tile/>
   <tile/>
   <tile/>
   <tile/>
   <tile/>
   <tile/>
   <tile/>
   <tile/>
   <tile/>
   <tile/>
   <tile/>
   <tile/>
   <tile/>
   <tile/>
   <tile/>
   <tile/>
   <tile/>
   <tile/>
   <tile/>
   <tile/>
   <tile/>
   <tile/>
   <tile/>
   <tile/>
   <tile/>
   <tile/>
   <tile/>
   <tile/>
   <tile/>
   <tile/>
   <tile/>
   <tile/>
   <tile/>
   <tile/>
   <tile/>
   <tile/>
   <tile/>
   <tile/>
   <tile/>
   <tile/>
   <tile/>
   <tile/>
   <tile/>
   <tile/>
   <tile/>
   <tile/>
   <tile/>
   <tile/>
   <tile/>
   <tile/>
   <tile/>
   <tile/>
   <tile/>
   <tile/>
   <tile/>
   <tile/>
   <tile/>
   <tile/>
   <tile/>
   <tile/>
   <tile/>
   <tile/>
   <tile/>
   <tile/>
   <tile/>
   <tile/>
   <tile/>
   <tile/>
   <tile/>
   <tile/>
   <tile/>
   <tile/>
   <tile/>
   <tile/>
   <tile/>
   <tile/>
   <tile/>
   <tile/>
   <tile/>
   <tile/>
   <tile/>
   <tile/>
   <tile/>
   <tile/>
   <tile/>
   <tile/>
   <tile/>
   <tile/>
   <tile/>
   <tile/>
   <tile/>
   <tile/>
   <tile/>
   <tile/>
   <tile/>
   <tile/>
   <tile/>
   <tile/>
   <tile/>
   <tile/>
   <tile/>
   <tile/>
   <tile/>
   <tile/>
   <tile/>
   <tile/>
   <tile/>
   <tile/>
   <tile/>
   <tile/>
   <tile/>
   <tile/>
   <tile/>
   <tile/>
   <tile/>
   <tile/>
   <tile/>
   <tile/>
   <tile/>
   <tile/>
   <tile/>
   <tile/>
   <tile/>
   <tile/>
   <tile/>
   <tile/>
   <tile/>
   <tile/>
   <tile/>
   <tile/>
   <tile/>
   <tile/>
   <tile/>
   <tile/>
   <tile/>
   <tile/>
   <tile/>
   <tile/>
   <tile/>
   <tile/>
   <tile/>
   <tile/>
   <tile/>
   <tile/>
   <tile/>
   <tile/>
   <tile/>
   <tile/>
   <tile/>
   <tile/>
   <tile/>
   <tile/>
   <tile/>
   <tile/>
   <tile/>
   <tile/>
   <tile/>
   <tile/>
   <tile/>
   <tile/>
   <tile/>
   <tile/>
   <tile/>
   <tile/>
   <tile/>
   <tile/>
   <tile/>
   <tile/>
   <tile/>
   <tile/>
   <tile/>
   <tile/>
   <tile/>
   <tile/>
   <tile/>
   <tile/>
   <tile/>
   <tile/>
   <tile/>
   <tile/>
   <tile/>
   <tile/>
   <tile/>
   <tile/>
   <tile/>
   <tile/>
   <tile/>
   <tile/>
   <tile/>
   <tile/>
   <tile/>
   <tile/>
   <tile/>
   <tile/>
   <tile/>
   <tile/>
   <tile/>
   <tile/>
   <tile/>
   <tile/>
   <tile/>
   <tile/>
   <tile/>
   <tile/>
   <tile/>
   <tile/>
   <tile/>
   <tile/>
   <tile/>
   <tile/>
   <tile/>
   <tile/>
   <tile/>
   <tile/>
   <tile/>
   <tile/>
   <tile/>
   <tile/>
   <tile/>
   <tile/>
   <tile/>
   <tile/>
   <tile/>
   <tile/>
   <tile/>
   <tile/>
   <tile/>
   <tile/>
   <tile/>
   <tile/>
   <tile/>
   <tile/>
   <tile/>
   <tile/>
   <tile/>
   <tile/>
   <tile/>
   <tile/>
   <tile/>
   <tile/>
   <tile/>
   <tile/>
   <tile/>
   <tile/>
   <tile/>
   <tile/>
   <tile/>
   <tile/>
   <tile/>
   <tile/>
   <tile/>
   <tile/>
   <tile/>
   <tile/>
   <tile/>
   <tile/>
   <tile/>
   <tile/>
   <tile/>
   <tile/>
   <tile/>
   <tile/>
   <tile/>
   <tile/>
   <tile/>
   <tile/>
   <tile/>
   <tile/>
   <tile/>
   <tile/>
   <tile/>
   <tile/>
   <tile/>
   <tile/>
   <tile/>
   <tile/>
   <tile/>
   <tile/>
   <tile/>
   <tile/>
   <tile/>
   <tile/>
   <tile/>
   <tile/>
   <tile/>
   <tile/>
   <tile/>
   <tile/>
   <tile/>
   <tile/>
   <tile/>
   <tile/>
   <tile/>
   <tile/>
   <tile/>
   <tile/>
   <tile/>
   <tile/>
   <tile/>
   <tile/>
   <tile/>
   <tile/>
   <tile/>
   <tile/>
   <tile/>
   <tile/>
   <tile/>
   <tile/>
   <tile/>
   <tile/>
   <tile/>
   <tile/>
   <tile/>
   <tile/>
   <tile/>
   <tile/>
   <tile/>
   <tile/>
   <tile/>
   <tile/>
   <tile/>
   <tile/>
   <tile/>
   <tile/>
   <tile/>
   <tile/>
   <tile/>
   <tile/>
   <tile/>
   <tile/>
   <tile/>
   <tile/>
   <tile/>
   <tile/>
   <tile/>
   <tile/>
   <tile/>
   <tile/>
   <tile/>
   <tile/>
   <tile/>
   <tile/>
   <tile/>
   <tile/>
   <tile/>
   <tile/>
   <tile/>
   <tile/>
   <tile/>
   <tile/>
   <tile/>
   <tile/>
   <tile/>
   <tile/>
   <tile/>
   <tile/>
   <tile/>
   <tile/>
   <tile/>
   <tile/>
   <tile/>
   <tile/>
   <tile/>
   <tile/>
   <tile/>
   <tile/>
   <tile/>
   <tile/>
   <tile/>
   <tile/>
   <tile/>
   <tile/>
   <tile/>
   <tile/>
   <tile/>
   <tile/>
   <tile/>
   <tile/>
   <tile/>
   <tile/>
   <tile/>
   <tile/>
   <tile/>
   <tile/>
   <tile/>
   <tile/>
   <tile/>
   <tile/>
   <tile/>
   <tile/>
   <tile/>
   <tile/>
   <tile/>
   <tile/>
   <tile/>
   <tile/>
   <tile/>
   <tile/>
   <tile/>
   <tile/>
   <tile/>
   <tile/>
   <tile/>
   <tile/>
   <tile/>
   <tile/>
   <tile/>
   <tile/>
   <tile/>
   <tile/>
   <tile/>
   <tile/>
   <tile/>
   <tile/>
   <tile/>
   <tile/>
   <tile/>
   <tile/>
   <tile/>
   <tile/>
   <tile/>
   <tile/>
   <tile/>
   <tile/>
   <tile/>
   <tile/>
   <tile/>
   <tile/>
   <tile/>
   <tile/>
   <tile/>
   <tile/>
   <tile/>
   <tile/>
   <tile/>
   <tile/>
   <tile/>
   <tile/>
   <tile/>
   <tile/>
   <tile/>
   <tile/>
   <tile/>
   <tile/>
   <tile/>
   <tile/>
   <tile/>
   <tile/>
   <tile/>
   <tile/>
   <tile/>
   <tile/>
   <tile/>
   <tile/>
   <tile/>
   <tile/>
   <tile/>
   <tile/>
   <tile/>
   <tile/>
   <tile/>
   <tile/>
   <tile/>
   <tile/>
   <tile/>
   <tile/>
   <tile/>
   <tile/>
   <tile/>
   <tile/>
   <tile/>
   <tile/>
   <tile/>
   <tile/>
   <tile/>
   <tile/>
   <tile/>
   <tile/>
   <tile/>
   <tile/>
   <tile/>
   <tile/>
   <tile/>
   <tile/>
   <tile/>
   <tile/>
   <tile/>
   <tile/>
   <tile/>
   <tile/>
   <tile/>
   <tile/>
   <tile/>
   <tile/>
   <tile/>
   <tile/>
   <tile/>
   <tile/>
   <tile/>
   <tile/>
   <tile/>
   <tile/>
   <tile/>
   <tile/>
   <tile/>
   <tile/>
   <tile/>
   <tile/>
   <tile/>
   <tile/>
   <tile/>
   <tile/>
   <tile/>
   <tile/>
   <tile/>
   <tile/>
   <tile/>
   <tile/>
   <tile/>
   <tile/>
   <tile/>
   <tile/>
   <tile/>
   <tile/>
   <tile/>
   <tile/>
   <tile/>
   <tile/>
   <tile/>
   <tile/>
   <tile/>
   <tile/>
   <tile/>
   <tile/>
   <tile/>
   <tile/>
   <tile/>
   <tile/>
   <tile/>
   <tile/>
   <tile/>
   <tile/>
   <tile/>
   <tile/>
   <tile/>
   <tile/>
   <tile/>
   <tile/>
   <tile/>
   <tile/>
   <tile/>
   <tile/>
   <tile/>
   <tile/>
   <tile/>
   <tile/>
   <tile/>
   <tile/>
   <tile/>
   <tile/>
   <tile/>
   <tile/>
   <tile/>
   <tile/>
   <tile/>
   <tile/>
   <tile/>
   <tile/>
   <tile/>
   <tile/>
   <tile/>
   <tile/>
   <tile/>
   <tile/>
   <tile/>
   <tile/>
   <tile/>
   <tile/>
   <tile/>
   <tile/>
   <tile/>
   <tile/>
   <tile/>
   <tile/>
   <tile/>
   <tile/>
   <tile/>
   <tile/>
   <tile/>
   <tile/>
   <tile/>
   <tile/>
   <tile/>
   <tile/>
   <tile/>
   <tile/>
   <tile/>
   <tile/>
   <tile/>
   <tile/>
   <tile/>
   <tile/>
   <tile/>
   <tile/>
   <tile/>
   <tile/>
   <tile/>
   <tile/>
   <tile/>
   <tile/>
   <tile/>
   <tile/>
   <tile/>
   <tile/>
   <tile/>
   <tile/>
   <tile/>
   <tile/>
   <tile/>
   <tile/>
   <tile/>
   <tile/>
   <tile/>
   <tile/>
   <tile/>
   <tile/>
   <tile/>
   <tile/>
   <tile/>
   <tile/>
   <tile/>
   <tile/>
   <tile/>
   <tile/>
   <tile/>
   <tile/>
   <tile/>
   <tile/>
   <tile/>
   <tile/>
   <tile/>
   <tile/>
   <tile/>
   <tile/>
   <tile/>
   <tile/>
   <tile/>
   <tile/>
   <tile/>
   <tile/>
   <tile/>
   <tile/>
   <tile/>
   <tile/>
   <tile/>
   <tile/>
   <tile/>
   <tile/>
   <tile/>
   <tile/>
   <tile/>
   <tile/>
   <tile/>
   <tile/>
   <tile/>
   <tile/>
   <tile/>
   <tile/>
   <tile/>
   <tile/>
   <tile/>
   <tile/>
   <tile/>
   <tile/>
   <tile/>
   <tile/>
   <tile/>
   <tile/>
   <tile/>
   <tile/>
   <tile/>
   <tile/>
   <tile/>
   <tile/>
   <tile/>
   <tile/>
   <tile/>
   <tile/>
   <tile/>
   <tile/>
   <tile/>
   <tile/>
   <tile/>
   <tile/>
   <tile/>
   <tile/>
   <tile/>
   <tile/>
   <tile/>
   <tile/>
   <tile/>
   <tile/>
   <tile/>
   <tile/>
   <tile/>
   <tile/>
   <tile/>
   <tile/>
   <tile/>
   <tile/>
   <tile/>
   <tile/>
   <tile/>
   <tile/>
   <tile/>
   <tile/>
   <tile/>
   <tile/>
   <tile/>
   <tile/>
   <tile/>
   <tile/>
   <tile/>
   <tile/>
   <tile/>
   <tile/>
   <tile/>
   <tile/>
   <tile/>
   <tile/>
   <tile/>
   <tile/>
   <tile/>
   <tile/>
   <tile/>
   <tile/>
   <tile/>
   <tile/>
   <tile/>
   <tile/>
   <tile/>
   <tile/>
   <tile/>
   <tile/>
   <tile/>
   <tile/>
   <tile/>
   <tile/>
   <tile/>
   <tile/>
   <tile/>
   <tile/>
   <tile/>
   <tile/>
   <tile/>
   <tile/>
   <tile/>
   <tile/>
   <tile/>
   <tile/>
   <tile/>
   <tile/>
   <tile/>
   <tile/>
   <tile/>
   <tile/>
   <tile/>
   <tile/>
   <tile/>
   <tile/>
   <tile/>
   <tile/>
   <tile/>
   <tile/>
   <tile/>
   <tile/>
   <tile/>
   <tile/>
   <tile/>
   <tile/>
   <tile/>
   <tile/>
   <tile/>
   <tile/>
   <tile/>
   <tile/>
   <tile/>
   <tile/>
   <tile/>
   <tile/>
   <tile/>
   <tile/>
   <tile/>
   <tile/>
   <tile/>
   <tile/>
   <tile/>
   <tile/>
   <tile/>
   <tile/>
   <tile/>
   <tile/>
   <tile/>
   <tile/>
   <tile/>
   <tile/>
   <tile/>
   <tile/>
   <tile/>
   <tile/>
   <tile/>
   <tile/>
   <tile/>
   <tile/>
   <tile/>
   <tile/>
   <tile/>
   <tile/>
   <tile/>
   <tile/>
   <tile/>
   <tile/>
   <tile/>
   <tile/>
   <tile/>
   <tile/>
   <tile/>
   <tile/>
   <tile/>
   <tile/>
   <tile/>
   <tile/>
   <tile/>
   <tile/>
   <tile/>
   <tile/>
   <tile/>
   <tile/>
   <tile/>
   <tile/>
   <tile/>
   <tile/>
   <tile/>
   <tile/>
   <tile/>
   <tile/>
   <tile/>
   <tile/>
   <tile/>
   <tile/>
   <tile/>
   <tile/>
   <tile/>
   <tile/>
   <tile/>
   <tile/>
   <tile/>
   <tile/>
   <tile/>
   <tile/>
   <tile/>
   <tile/>
   <tile/>
   <tile/>
   <tile/>
   <tile/>
   <tile/>
   <tile/>
   <tile/>
   <tile/>
   <tile/>
   <tile/>
   <tile/>
   <tile/>
   <tile/>
   <tile/>
   <tile/>
   <tile/>
   <tile/>
   <tile/>
   <tile/>
   <tile/>
   <tile/>
   <tile/>
   <tile/>
   <tile/>
   <tile/>
   <tile/>
   <tile/>
   <tile/>
   <tile/>
   <tile/>
   <tile/>
   <tile/>
   <tile/>
   <tile/>
   <tile/>
   <tile/>
   <tile/>
   <tile/>
   <tile/>
   <tile/>
   <tile/>
   <tile/>
   <tile/>
   <tile/>
   <tile/>
   <tile/>
   <tile/>
   <tile/>
   <tile/>
   <tile/>
   <tile/>
   <tile/>
   <tile/>
   <tile/>
   <tile/>
   <tile/>
   <tile/>
   <tile/>
   <tile/>
   <tile/>
   <tile/>
   <tile/>
   <tile/>
   <tile/>
   <tile/>
   <tile/>
   <tile/>
   <tile/>
   <tile/>
   <tile/>
   <tile/>
   <tile/>
   <tile/>
   <tile/>
   <tile/>
   <tile/>
   <tile/>
   <tile/>
   <tile/>
   <tile/>
   <tile/>
   <tile/>
   <tile/>
   <tile/>
   <tile/>
   <tile/>
   <tile/>
   <tile/>
   <tile/>
   <tile/>
   <tile/>
   <tile/>
   <tile/>
   <tile/>
   <tile/>
   <tile/>
   <tile/>
   <tile/>
   <tile/>
   <tile/>
   <tile/>
   <tile/>
   <tile/>
   <tile/>
   <tile/>
   <tile/>
   <tile/>
   <tile/>
   <tile/>
   <tile/>
   <tile/>
   <tile/>
   <tile/>
   <tile/>
   <tile/>
   <tile/>
   <tile/>
   <tile/>
   <tile/>
   <tile/>
   <tile/>
   <tile/>
   <tile/>
   <tile/>
   <tile/>
   <tile/>
   <tile/>
   <tile/>
   <tile/>
   <tile/>
   <tile/>
   <tile/>
   <tile/>
   <tile/>
   <tile/>
   <tile/>
   <tile/>
   <tile/>
   <tile/>
   <tile/>
   <tile/>
   <tile/>
   <tile/>
   <tile/>
   <tile/>
   <tile/>
   <tile/>
   <tile/>
   <tile/>
   <tile/>
   <tile/>
   <tile/>
   <tile/>
   <tile/>
   <tile/>
   <tile/>
   <tile/>
   <tile/>
   <tile/>
   <tile/>
   <tile/>
   <tile/>
   <tile/>
   <tile/>
   <tile/>
   <tile/>
   <tile/>
   <tile/>
   <tile/>
   <tile/>
   <tile/>
   <tile/>
   <tile/>
   <tile/>
   <tile/>
   <tile/>
   <tile/>
   <tile/>
   <tile/>
   <tile/>
   <tile/>
   <tile/>
   <tile/>
   <tile/>
   <tile/>
   <tile/>
   <tile/>
   <tile/>
   <tile/>
   <tile/>
   <tile/>
   <tile/>
   <tile/>
   <tile/>
   <tile/>
   <tile/>
   <tile/>
   <tile/>
   <tile/>
   <tile/>
   <tile/>
   <tile/>
   <tile/>
   <tile/>
   <tile/>
   <tile/>
   <tile/>
   <tile/>
   <tile/>
   <tile/>
   <tile/>
   <tile/>
   <tile/>
   <tile/>
   <tile/>
   <tile/>
   <tile/>
   <tile/>
   <tile/>
   <tile/>
   <tile/>
   <tile/>
   <tile/>
   <tile/>
   <tile/>
   <tile/>
   <tile/>
   <tile/>
   <tile/>
   <tile/>
   <tile/>
   <tile/>
   <tile/>
   <tile/>
   <tile/>
   <tile/>
   <tile/>
   <tile/>
   <tile/>
   <tile/>
   <tile/>
   <tile/>
   <tile/>
   <tile/>
   <tile/>
   <tile/>
   <tile/>
   <tile/>
   <tile/>
   <tile/>
   <tile/>
   <tile/>
   <tile/>
   <tile/>
   <tile/>
   <tile/>
   <tile/>
   <tile/>
   <tile/>
   <tile/>
   <tile/>
   <tile/>
   <tile/>
   <tile/>
   <tile/>
   <tile/>
   <tile/>
   <tile/>
   <tile/>
   <tile/>
   <tile/>
   <tile/>
   <tile/>
   <tile/>
   <tile/>
   <tile/>
   <tile/>
   <tile/>
   <tile/>
   <tile/>
   <tile/>
   <tile/>
   <tile/>
   <tile/>
   <tile/>
   <tile/>
   <tile/>
   <tile/>
   <tile/>
   <tile/>
   <tile/>
   <tile/>
   <tile/>
   <tile/>
   <tile/>
   <tile/>
   <tile/>
   <tile/>
   <tile/>
   <tile/>
   <tile/>
   <tile/>
   <tile/>
   <tile/>
   <tile/>
   <tile/>
   <tile/>
   <tile/>
   <tile/>
   <tile/>
   <tile/>
   <tile/>
   <tile/>
   <tile/>
   <tile/>
   <tile/>
   <tile/>
   <tile/>
   <tile/>
   <tile/>
   <tile/>
   <tile/>
   <tile/>
   <tile/>
   <tile/>
   <tile/>
   <tile/>
   <tile/>
   <tile/>
   <tile/>
   <tile/>
   <tile/>
   <tile/>
   <tile/>
   <tile/>
   <tile/>
   <tile/>
   <tile/>
   <tile/>
   <tile/>
   <tile/>
   <tile/>
   <tile/>
   <tile/>
   <tile/>
   <tile/>
   <tile/>
   <tile/>
   <tile/>
   <tile/>
   <tile/>
   <tile/>
   <tile/>
   <tile/>
   <tile/>
   <tile/>
   <tile/>
   <tile/>
   <tile/>
   <tile/>
   <tile/>
   <tile/>
   <tile/>
   <tile/>
   <tile/>
   <tile/>
   <tile/>
   <tile/>
   <tile/>
   <tile/>
   <tile/>
   <tile/>
   <tile/>
   <tile/>
   <tile/>
   <tile/>
   <tile/>
   <tile/>
   <tile/>
   <tile/>
   <tile/>
   <tile/>
   <tile/>
   <tile/>
   <tile/>
   <tile/>
   <tile/>
   <tile/>
   <tile/>
   <tile/>
   <tile/>
   <tile/>
   <tile/>
   <tile/>
   <tile/>
   <tile/>
   <tile/>
   <tile/>
   <tile/>
   <tile/>
   <tile/>
   <tile/>
   <tile/>
   <tile/>
   <tile/>
   <tile/>
   <tile/>
   <tile/>
   <tile/>
   <tile/>
   <tile/>
   <tile/>
   <tile/>
   <tile/>
   <tile/>
   <tile/>
   <tile/>
   <tile/>
   <tile/>
   <tile/>
   <tile/>
   <tile/>
   <tile/>
   <tile/>
   <tile/>
   <tile/>
   <tile/>
   <tile/>
   <tile/>
   <tile/>
   <tile/>
   <tile/>
   <tile/>
   <tile/>
   <tile/>
   <tile/>
   <tile/>
   <tile/>
   <tile/>
   <tile/>
   <tile/>
   <tile/>
   <tile/>
   <tile/>
   <tile/>
   <tile/>
   <tile/>
   <tile/>
   <tile/>
   <tile/>
   <tile/>
   <tile/>
   <tile/>
   <tile/>
   <tile/>
   <tile/>
   <tile/>
   <tile/>
   <tile/>
   <tile/>
   <tile/>
   <tile/>
   <tile/>
   <tile/>
   <tile/>
   <tile/>
   <tile/>
   <tile/>
   <tile/>
   <tile/>
   <tile/>
   <tile/>
   <tile/>
   <tile/>
   <tile/>
   <tile/>
   <tile/>
   <tile/>
   <tile/>
   <tile/>
   <tile/>
   <tile/>
   <tile/>
   <tile/>
   <tile/>
   <tile/>
   <tile/>
   <tile/>
   <tile/>
   <tile/>
   <tile/>
   <tile/>
   <tile/>
   <tile/>
   <tile/>
   <tile/>
   <tile/>
   <tile/>
   <tile/>
   <tile/>
   <tile/>
   <tile/>
   <tile/>
   <tile/>
   <tile/>
   <tile/>
   <tile/>
   <tile/>
   <tile/>
   <tile/>
   <tile/>
   <tile/>
   <tile/>
   <tile/>
   <tile/>
   <tile/>
   <tile/>
   <tile/>
   <tile/>
   <tile/>
   <tile/>
   <tile/>
   <tile/>
   <tile/>
   <tile/>
   <tile/>
   <tile/>
   <tile/>
   <tile/>
   <tile/>
   <tile/>
   <tile/>
   <tile/>
   <tile/>
   <tile/>
   <tile/>
   <tile/>
   <tile/>
   <tile/>
   <tile/>
   <tile/>
   <tile/>
   <tile/>
   <tile/>
   <tile/>
   <tile/>
   <tile/>
   <tile/>
   <tile/>
   <tile/>
   <tile/>
   <tile/>
   <tile/>
   <tile/>
   <tile/>
   <tile/>
   <tile/>
   <tile/>
   <tile/>
   <tile/>
   <tile/>
   <tile/>
   <tile/>
   <tile/>
   <tile/>
   <tile/>
   <tile/>
   <tile/>
   <tile/>
   <tile/>
   <tile/>
   <tile/>
   <tile/>
   <tile/>
   <tile/>
   <tile/>
   <tile/>
   <tile/>
   <tile/>
   <tile/>
   <tile/>
   <tile/>
   <tile/>
   <tile/>
   <tile/>
   <tile/>
   <tile/>
   <tile/>
   <tile/>
   <tile/>
   <tile/>
   <tile/>
   <tile/>
   <tile/>
   <tile/>
   <tile/>
   <tile/>
   <tile/>
   <tile/>
   <tile/>
   <tile/>
   <tile/>
   <tile/>
   <tile/>
   <tile/>
   <tile/>
   <tile/>
   <tile/>
   <tile/>
   <tile/>
   <tile/>
   <tile/>
   <tile/>
   <tile/>
   <tile/>
   <tile/>
   <tile/>
   <tile/>
   <tile/>
   <tile/>
   <tile/>
   <tile/>
   <tile/>
   <tile/>
   <tile/>
   <tile/>
   <tile/>
   <tile/>
   <tile/>
   <tile/>
   <tile/>
   <tile/>
   <tile/>
   <tile/>
   <tile/>
   <tile/>
   <tile/>
   <tile/>
   <tile/>
   <tile/>
   <tile/>
   <tile/>
   <tile/>
   <tile/>
   <tile/>
   <tile/>
   <tile/>
   <tile/>
   <tile/>
   <tile/>
   <tile/>
   <tile/>
   <tile/>
   <tile/>
   <tile/>
   <tile/>
   <tile/>
   <tile/>
   <tile/>
   <tile/>
   <tile/>
   <tile/>
   <tile/>
   <tile/>
   <tile/>
   <tile/>
   <tile/>
   <tile/>
   <tile/>
   <tile/>
   <tile/>
   <tile/>
   <tile/>
   <tile/>
   <tile/>
   <tile/>
   <tile/>
   <tile/>
   <tile/>
   <tile/>
   <tile/>
   <tile/>
   <tile/>
   <tile/>
   <tile/>
   <tile/>
   <tile/>
   <tile/>
   <tile/>
   <tile/>
   <tile/>
   <tile/>
   <tile/>
   <tile/>
   <tile/>
   <tile/>
   <tile/>
   <tile/>
   <tile/>
   <tile/>
   <tile/>
   <tile/>
   <tile/>
   <tile/>
   <tile/>
   <tile/>
   <tile/>
   <tile/>
   <tile/>
   <tile/>
   <tile/>
   <tile/>
   <tile/>
   <tile/>
   <tile/>
   <tile/>
   <tile/>
   <tile/>
   <tile/>
   <tile/>
   <tile/>
   <tile/>
   <tile/>
   <tile/>
   <tile/>
   <tile/>
   <tile/>
   <tile/>
   <tile/>
   <tile/>
   <tile/>
   <tile/>
   <tile/>
   <tile/>
   <tile/>
   <tile/>
   <tile/>
   <tile/>
   <tile/>
   <tile/>
   <tile/>
   <tile/>
   <tile/>
   <tile/>
   <tile/>
   <tile/>
   <tile/>
   <tile/>
   <tile/>
   <tile/>
   <tile/>
   <tile/>
   <tile/>
   <tile/>
   <tile/>
   <tile/>
   <tile/>
   <tile/>
   <tile/>
   <tile/>
   <tile/>
   <tile/>
   <tile/>
   <tile/>
   <tile/>
   <tile/>
   <tile/>
   <tile/>
   <tile/>
   <tile/>
   <tile/>
   <tile/>
   <tile/>
   <tile/>
   <tile/>
   <tile/>
   <tile/>
   <tile/>
   <tile/>
   <tile/>
   <tile/>
   <tile/>
   <tile/>
   <tile/>
   <tile/>
   <tile/>
   <tile/>
   <tile/>
   <tile/>
   <tile/>
   <tile/>
   <tile/>
   <tile/>
   <tile/>
   <tile/>
   <tile/>
   <tile/>
   <tile/>
   <tile/>
   <tile/>
   <tile/>
   <tile/>
   <tile/>
   <tile/>
   <tile/>
   <tile/>
   <tile/>
   <tile/>
   <tile/>
   <tile/>
   <tile/>
   <tile/>
   <tile/>
   <tile/>
   <tile/>
   <tile/>
   <tile/>
   <tile/>
   <tile/>
   <tile/>
   <tile/>
   <tile/>
   <tile/>
   <tile/>
   <tile/>
   <tile/>
   <tile/>
   <tile/>
   <tile/>
   <tile/>
   <tile/>
   <tile/>
   <tile/>
   <tile/>
   <tile/>
   <tile/>
   <tile/>
   <tile/>
   <tile/>
   <tile/>
   <tile/>
   <tile/>
   <tile/>
   <tile/>
   <tile/>
   <tile/>
   <tile/>
   <tile/>
   <tile/>
   <tile/>
   <tile/>
   <tile/>
   <tile/>
   <tile/>
   <tile/>
   <tile/>
   <tile/>
   <tile/>
   <tile/>
   <tile/>
   <tile/>
   <tile/>
   <tile/>
   <tile/>
   <tile/>
   <tile/>
   <tile/>
   <tile/>
   <tile/>
   <tile/>
   <tile/>
   <tile/>
   <tile/>
   <tile/>
   <tile/>
   <tile/>
   <tile/>
   <tile/>
   <tile/>
   <tile/>
   <tile/>
   <tile/>
   <tile/>
   <tile/>
   <tile/>
   <tile/>
   <tile/>
   <tile/>
   <tile/>
   <tile/>
   <tile/>
   <tile/>
   <tile/>
   <tile/>
   <tile/>
   <tile/>
   <tile/>
   <tile/>
   <tile/>
   <tile/>
   <tile/>
   <tile/>
   <tile/>
   <tile/>
   <tile/>
   <tile/>
   <tile/>
   <tile/>
   <tile/>
   <tile/>
   <tile/>
   <tile/>
   <tile/>
   <tile/>
   <tile/>
   <tile/>
   <tile/>
   <tile/>
   <tile/>
   <tile/>
   <tile/>
   <tile/>
   <tile/>
   <tile/>
   <tile/>
   <tile/>
   <tile/>
   <tile/>
   <tile/>
   <tile/>
   <tile/>
   <tile/>
   <tile/>
   <tile/>
   <tile/>
   <tile/>
   <tile/>
   <tile/>
   <tile/>
   <tile/>
   <tile/>
   <tile/>
   <tile/>
   <tile/>
   <tile/>
   <tile/>
   <tile/>
   <tile/>
   <tile/>
   <tile/>
   <tile/>
   <tile/>
   <tile/>
   <tile/>
   <tile/>
   <tile/>
   <tile/>
   <tile/>
   <tile/>
   <tile/>
   <tile/>
   <tile/>
   <tile/>
   <tile/>
   <tile/>
   <tile/>
   <tile/>
   <tile/>
   <tile/>
   <tile/>
   <tile/>
   <tile/>
   <tile/>
   <tile/>
   <tile/>
   <tile/>
   <tile/>
   <tile/>
   <tile/>
   <tile/>
   <tile/>
   <tile/>
   <tile/>
   <tile/>
   <tile/>
   <tile/>
   <tile/>
   <tile/>
   <tile/>
   <tile/>
   <tile/>
   <tile/>
   <tile/>
   <tile/>
   <tile/>
   <tile/>
   <tile/>
   <tile/>
   <tile/>
   <tile/>
   <tile/>
   <tile/>
   <tile/>
   <tile/>
   <tile/>
   <tile/>
   <tile/>
   <tile/>
   <tile/>
   <tile/>
   <tile/>
   <tile/>
   <tile/>
   <tile/>
   <tile/>
   <tile/>
   <tile/>
   <tile/>
   <tile/>
   <tile/>
   <tile/>
   <tile/>
   <tile/>
   <tile/>
   <tile/>
   <tile/>
   <tile/>
   <tile/>
   <tile/>
   <tile/>
   <tile/>
   <tile/>
   <tile/>
   <tile/>
   <tile/>
   <tile/>
   <tile/>
   <tile/>
   <tile/>
   <tile/>
   <tile/>
   <tile/>
   <tile/>
   <tile/>
   <tile/>
   <tile/>
   <tile/>
   <tile/>
   <tile/>
   <tile/>
   <tile/>
   <tile/>
   <tile/>
   <tile/>
   <tile/>
   <tile/>
   <tile/>
   <tile/>
   <tile/>
   <tile/>
   <tile/>
   <tile/>
   <tile/>
   <tile/>
   <tile/>
   <tile/>
   <tile/>
   <tile/>
   <tile/>
   <tile/>
   <tile/>
   <tile/>
   <tile/>
   <tile/>
   <tile/>
   <tile/>
   <tile/>
   <tile/>
   <tile/>
   <tile/>
   <tile/>
   <tile/>
   <tile/>
   <tile/>
   <tile/>
   <tile/>
   <tile/>
   <tile/>
   <tile/>
   <tile/>
   <tile/>
   <tile/>
   <tile/>
   <tile/>
   <tile/>
   <tile/>
   <tile/>
   <tile/>
   <tile/>
   <tile/>
   <tile/>
   <tile/>
   <tile/>
   <tile/>
   <tile/>
   <tile/>
   <tile/>
   <tile/>
   <tile/>
   <tile/>
   <tile/>
   <tile/>
   <tile/>
   <tile/>
   <tile/>
   <tile/>
   <tile/>
   <tile/>
   <tile/>
   <tile/>
   <tile/>
   <tile/>
   <tile/>
   <tile/>
   <tile/>
   <tile/>
   <tile/>
   <tile/>
   <tile/>
   <tile/>
   <tile/>
   <tile/>
   <tile/>
   <tile/>
   <tile/>
   <tile/>
   <tile/>
   <tile/>
   <tile/>
   <tile/>
   <tile/>
   <tile/>
   <tile/>
   <tile/>
   <tile/>
   <tile/>
   <tile/>
   <tile/>
   <tile/>
   <tile/>
   <tile/>
   <tile/>
   <tile/>
   <tile/>
   <tile/>
   <tile/>
   <tile/>
   <tile/>
   <tile/>
   <tile/>
   <tile/>
   <tile/>
   <tile/>
   <tile/>
   <tile/>
   <tile/>
   <tile/>
   <tile/>
   <tile/>
   <tile/>
   <tile/>
   <tile/>
   <tile/>
   <tile/>
   <tile/>
   <tile/>
   <tile/>
   <tile/>
   <tile/>
   <tile/>
   <tile/>
   <tile/>
   <tile/>
   <tile/>
   <tile/>
   <tile/>
   <tile/>
   <tile/>
   <tile/>
   <tile/>
   <tile/>
   <tile/>
   <tile/>
   <tile/>
   <tile/>
   <tile/>
   <tile/>
   <tile/>
   <tile/>
   <tile/>
   <tile/>
   <tile/>
   <tile/>
   <tile/>
   <tile/>
   <tile/>
   <tile/>
   <tile/>
   <tile/>
   <tile/>
   <tile/>
   <tile/>
   <tile/>
   <tile/>
   <tile/>
   <tile/>
   <tile/>
   <tile/>
   <tile/>
   <tile/>
   <tile/>
   <tile/>
   <tile/>
   <tile/>
   <tile/>
   <tile/>
   <tile/>
   <tile/>
   <tile/>
   <tile/>
   <tile/>
   <tile/>
   <tile/>
   <tile/>
   <tile/>
   <tile/>
   <tile/>
   <tile/>
   <tile/>
   <tile/>
   <tile/>
   <tile/>
   <tile/>
   <tile/>
   <tile/>
   <tile/>
   <tile/>
   <tile/>
   <tile/>
   <tile/>
   <tile/>
   <tile/>
   <tile/>
   <tile/>
   <tile/>
   <tile/>
   <tile/>
   <tile/>
   <tile/>
   <tile/>
   <tile/>
   <tile/>
   <tile/>
   <tile/>
   <tile/>
   <tile/>
   <tile/>
   <tile/>
   <tile/>
   <tile/>
   <tile/>
   <tile/>
   <tile/>
   <tile/>
   <tile/>
   <tile/>
   <tile/>
   <tile/>
   <tile/>
   <tile/>
   <tile/>
   <tile/>
   <tile/>
   <tile/>
   <tile/>
   <tile/>
   <tile/>
   <tile/>
   <tile/>
   <tile/>
   <tile/>
   <tile/>
   <tile/>
   <tile/>
   <tile/>
   <tile/>
   <tile/>
   <tile/>
   <tile/>
   <tile/>
   <tile/>
   <tile/>
   <tile/>
   <tile/>
   <tile/>
   <tile/>
   <tile/>
   <tile/>
   <tile/>
   <tile/>
   <tile/>
   <tile/>
   <tile/>
   <tile/>
   <tile/>
   <tile/>
   <tile/>
   <tile/>
   <tile/>
   <tile/>
   <tile/>
   <tile/>
   <tile/>
   <tile/>
   <tile/>
   <tile/>
   <tile/>
   <tile/>
   <tile/>
   <tile/>
   <tile/>
   <tile/>
   <tile/>
   <tile/>
   <tile/>
   <tile/>
   <tile/>
   <tile/>
   <tile/>
   <tile/>
   <tile/>
   <tile/>
   <tile/>
   <tile/>
   <tile/>
   <tile/>
   <tile/>
   <tile/>
   <tile/>
   <tile/>
   <tile/>
   <tile/>
   <tile/>
   <tile/>
   <tile/>
   <tile/>
   <tile/>
   <tile/>
   <tile/>
   <tile/>
   <tile/>
   <tile/>
   <tile/>
   <tile/>
   <tile/>
   <tile/>
   <tile/>
   <tile/>
   <tile/>
   <tile/>
   <tile/>
   <tile/>
   <tile/>
   <tile/>
   <tile/>
   <tile/>
   <tile/>
   <tile/>
   <tile/>
   <tile/>
   <tile/>
   <tile/>
   <tile/>
   <tile/>
   <tile/>
   <tile/>
   <tile/>
   <tile/>
   <tile/>
   <tile/>
   <tile/>
   <tile/>
   <tile/>
   <tile/>
   <tile/>
   <tile/>
   <tile/>
   <tile/>
   <tile/>
   <tile/>
   <tile/>
   <tile/>
   <tile/>
   <tile/>
   <tile/>
   <tile/>
   <tile/>
   <tile/>
   <tile/>
   <tile/>
   <tile/>
   <tile/>
   <tile/>
   <tile/>
   <tile/>
   <tile/>
   <tile/>
   <tile/>
   <tile/>
   <tile/>
   <tile/>
   <tile/>
   <tile/>
   <tile/>
   <tile/>
   <tile/>
   <tile/>
   <tile/>
   <tile/>
   <tile/>
   <tile/>
   <tile/>
   <tile/>
   <tile/>
   <tile/>
   <tile/>
   <tile/>
   <tile/>
   <tile/>
   <tile/>
   <tile/>
   <tile/>
   <tile/>
   <tile/>
   <tile/>
   <tile/>
   <tile/>
   <tile/>
   <tile/>
   <tile/>
   <tile/>
   <tile/>
   <tile/>
   <tile/>
   <tile/>
   <tile/>
   <tile/>
   <tile/>
   <tile/>
   <tile/>
   <tile/>
   <tile/>
   <tile/>
   <tile/>
   <tile/>
   <tile/>
   <tile/>
   <tile/>
   <tile/>
   <tile/>
   <tile/>
   <tile/>
   <tile/>
   <tile/>
   <tile/>
   <tile/>
   <tile/>
   <tile/>
   <tile/>
   <tile/>
   <tile/>
   <tile/>
   <tile/>
   <tile/>
   <tile/>
   <tile/>
   <tile/>
   <tile/>
   <tile/>
   <tile/>
   <tile/>
   <tile/>
   <tile/>
   <tile/>
   <tile/>
   <tile/>
   <tile/>
   <tile/>
   <tile/>
   <tile/>
   <tile/>
   <tile/>
   <tile/>
   <tile/>
   <tile/>
   <tile/>
   <tile/>
   <tile/>
   <tile/>
   <tile/>
   <tile/>
   <tile/>
   <tile/>
   <tile/>
   <tile/>
   <tile/>
   <tile/>
   <tile/>
   <tile/>
   <tile/>
   <tile/>
   <tile/>
   <tile/>
   <tile/>
   <tile/>
   <tile/>
   <tile/>
   <tile/>
   <tile/>
   <tile/>
   <tile/>
   <tile/>
   <tile/>
   <tile/>
   <tile/>
   <tile/>
   <tile/>
   <tile/>
   <tile/>
   <tile/>
   <tile/>
   <tile/>
   <tile/>
   <tile/>
   <tile/>
   <tile/>
   <tile/>
   <tile/>
   <tile/>
   <tile/>
   <tile/>
   <tile/>
   <tile/>
   <tile/>
   <tile/>
   <tile/>
   <tile/>
   <tile/>
   <tile/>
   <tile/>
   <tile/>
   <tile/>
   <tile/>
   <tile/>
   <tile/>
   <tile/>
   <tile/>
   <tile/>
   <tile/>
   <tile/>
   <tile/>
   <tile/>
   <tile/>
   <tile/>
   <tile/>
   <tile/>
   <tile/>
   <tile/>
   <tile/>
   <tile/>
   <tile/>
   <tile/>
   <tile/>
   <tile/>
   <tile/>
   <tile/>
   <tile/>
   <tile/>
   <tile/>
   <tile/>
   <tile/>
   <tile/>
   <tile/>
   <tile/>
   <tile/>
   <tile/>
   <tile/>
   <tile/>
   <tile/>
   <tile/>
   <tile/>
   <tile/>
   <tile/>
   <tile/>
   <tile/>
   <tile/>
   <tile/>
   <tile/>
   <tile/>
   <tile/>
   <tile/>
   <tile/>
   <tile/>
   <tile/>
   <tile/>
   <tile/>
   <tile/>
   <tile/>
   <tile/>
   <tile/>
   <tile/>
   <tile/>
   <tile/>
   <tile/>
   <tile/>
   <tile/>
   <tile/>
   <tile/>
   <tile/>
   <tile/>
   <tile/>
   <tile/>
   <tile/>
   <tile/>
   <tile/>
   <tile/>
   <tile/>
   <tile/>
   <tile/>
   <tile/>
   <tile/>
   <tile/>
   <tile/>
   <tile/>
   <tile/>
   <tile/>
   <tile/>
   <tile/>
   <tile/>
   <tile/>
   <tile/>
   <tile/>
   <tile/>
   <tile/>
   <tile/>
   <tile/>
   <tile/>
   <tile/>
   <tile/>
   <tile/>
   <tile/>
   <tile/>
   <tile/>
   <tile/>
   <tile/>
   <tile/>
   <tile/>
   <tile/>
   <tile/>
   <tile/>
   <tile/>
   <tile/>
   <tile/>
   <tile/>
   <tile/>
   <tile/>
   <tile/>
   <tile/>
   <tile/>
   <tile/>
   <tile/>
   <tile/>
   <tile/>
   <tile/>
   <tile/>
   <tile/>
   <tile/>
   <tile/>
   <tile/>
   <tile/>
   <tile/>
   <tile/>
   <tile/>
   <tile/>
   <tile/>
   <tile/>
   <tile/>
   <tile/>
   <tile/>
   <tile/>
   <tile/>
   <tile/>
   <tile/>
   <tile/>
   <tile/>
   <tile/>
   <tile/>
   <tile/>
   <tile/>
   <tile/>
   <tile/>
   <tile/>
   <tile/>
   <tile/>
   <tile/>
   <tile/>
   <tile/>
   <tile/>
   <tile/>
   <tile/>
   <tile/>
   <tile/>
   <tile/>
   <tile/>
   <tile/>
   <tile/>
   <tile/>
   <tile/>
   <tile/>
   <tile/>
   <tile/>
   <tile/>
   <tile/>
   <tile/>
   <tile/>
   <tile/>
   <tile/>
   <tile/>
   <tile/>
   <tile/>
   <tile/>
   <tile/>
   <tile/>
   <tile/>
   <tile/>
   <tile/>
   <tile/>
   <tile/>
   <tile/>
   <tile/>
   <tile/>
   <tile/>
   <tile/>
   <tile/>
   <tile/>
   <tile/>
   <tile/>
   <tile/>
   <tile/>
   <tile/>
   <tile/>
   <tile/>
   <tile/>
   <tile/>
   <tile/>
   <tile/>
   <tile/>
   <tile/>
   <tile/>
   <tile/>
   <tile/>
   <tile/>
   <tile/>
   <tile/>
   <tile/>
   <tile/>
   <tile/>
   <tile/>
   <tile/>
   <tile/>
   <tile/>
   <tile/>
   <tile/>
   <tile/>
   <tile/>
   <tile/>
   <tile/>
   <tile/>
   <tile/>
   <tile/>
   <tile/>
   <tile/>
   <tile/>
   <tile/>
   <tile/>
   <tile/>
   <tile/>
   <tile/>
   <tile/>
   <tile/>
   <tile/>
   <tile/>
   <tile/>
   <tile/>
   <tile/>
   <tile/>
   <tile/>
   <tile/>
   <tile/>
   <tile/>
   <tile/>
   <tile/>
   <tile/>
   <tile/>
   <tile/>
   <tile/>
   <tile/>
   <tile/>
   <tile/>
   <tile/>
   <tile/>
   <tile/>
   <tile/>
   <tile/>
   <tile/>
   <tile/>
   <tile/>
   <tile/>
   <tile/>
   <tile/>
   <tile/>
   <tile/>
   <tile/>
   <tile/>
   <tile/>
   <tile/>
   <tile/>
   <tile/>
   <tile/>
   <tile/>
   <tile/>
   <tile/>
   <tile/>
   <tile/>
   <tile/>
   <tile/>
   <tile/>
   <tile/>
   <tile/>
   <tile/>
   <tile/>
   <tile/>
   <tile/>
   <tile/>
   <tile/>
   <tile/>
   <tile/>
   <tile/>
   <tile/>
   <tile/>
   <tile/>
   <tile/>
   <tile/>
   <tile/>
   <tile/>
   <tile/>
   <tile/>
   <tile/>
   <tile/>
   <tile/>
   <tile/>
   <tile/>
   <tile/>
   <tile/>
   <tile/>
   <tile/>
   <tile/>
   <tile/>
   <tile/>
   <tile/>
   <tile/>
   <tile/>
   <tile/>
   <tile/>
   <tile/>
   <tile/>
   <tile/>
   <tile/>
   <tile/>
   <tile/>
   <tile/>
   <tile/>
   <tile/>
   <tile/>
   <tile/>
   <tile/>
   <tile/>
   <tile/>
   <tile/>
   <tile/>
   <tile/>
   <tile/>
   <tile/>
   <tile/>
   <tile/>
   <tile/>
   <tile/>
   <tile/>
   <tile/>
   <tile/>
   <tile/>
   <tile/>
   <tile/>
   <tile/>
   <tile/>
   <tile/>
   <tile/>
   <tile/>
   <tile/>
   <tile/>
   <tile/>
   <tile/>
   <tile/>
   <tile/>
   <tile/>
   <tile/>
   <tile/>
   <tile/>
   <tile/>
   <tile/>
   <tile/>
   <tile/>
   <tile/>
   <tile/>
   <tile/>
   <tile/>
   <tile/>
   <tile/>
   <tile/>
   <tile/>
   <tile/>
   <tile/>
   <tile/>
   <tile/>
   <tile/>
   <tile/>
   <tile/>
   <tile/>
   <tile/>
   <tile/>
   <tile/>
   <tile/>
   <tile/>
   <tile/>
   <tile/>
   <tile/>
   <tile/>
   <tile/>
   <tile/>
   <tile/>
   <tile/>
   <tile/>
   <tile/>
   <tile/>
   <tile/>
   <tile/>
   <tile/>
   <tile/>
   <tile/>
   <tile/>
   <tile/>
   <tile/>
   <tile/>
   <tile/>
   <tile/>
   <tile/>
   <tile/>
   <tile/>
   <tile/>
   <tile/>
   <tile/>
   <tile/>
   <tile/>
   <tile/>
   <tile/>
   <tile/>
   <tile/>
   <tile/>
   <tile/>
   <tile/>
   <tile/>
   <tile/>
   <tile/>
   <tile/>
   <tile/>
   <tile/>
   <tile/>
   <tile/>
   <tile/>
   <tile/>
   <tile/>
   <tile/>
   <tile/>
   <tile/>
   <tile/>
   <tile/>
   <tile/>
   <tile/>
   <tile/>
   <tile/>
   <tile/>
   <tile/>
   <tile/>
   <tile/>
   <tile/>
   <tile/>
   <tile/>
   <tile/>
   <tile/>
   <tile/>
   <tile/>
   <tile/>
   <tile/>
   <tile/>
   <tile/>
   <tile/>
   <tile/>
   <tile/>
   <tile/>
   <tile/>
   <tile/>
   <tile/>
   <tile/>
   <tile/>
   <tile/>
   <tile/>
   <tile/>
   <tile/>
   <tile/>
   <tile/>
   <tile/>
   <tile/>
   <tile/>
   <tile/>
   <tile/>
   <tile/>
   <tile/>
   <tile/>
   <tile/>
   <tile/>
   <tile/>
   <tile/>
   <tile/>
   <tile/>
   <tile/>
   <tile/>
   <tile/>
   <tile/>
   <tile/>
   <tile/>
   <tile/>
   <tile/>
   <tile/>
   <tile/>
   <tile/>
   <tile/>
   <tile/>
   <tile/>
   <tile/>
   <tile/>
   <tile/>
   <tile/>
   <tile/>
   <tile/>
   <tile/>
   <tile/>
   <tile/>
   <tile/>
   <tile/>
   <tile/>
   <tile/>
   <tile/>
   <tile/>
   <tile/>
   <tile/>
   <tile/>
   <tile/>
   <tile/>
   <tile/>
   <tile/>
   <tile/>
   <tile/>
   <tile/>
   <tile/>
   <tile/>
   <tile/>
   <tile/>
   <tile/>
   <tile/>
   <tile/>
   <tile/>
   <tile/>
   <tile/>
   <tile/>
   <tile/>
   <tile/>
   <tile/>
   <tile/>
   <tile/>
   <tile/>
   <tile/>
   <tile/>
   <tile/>
   <tile/>
   <tile/>
   <tile/>
   <tile/>
   <tile/>
   <tile/>
   <tile/>
   <tile/>
   <tile/>
   <tile/>
   <tile/>
   <tile/>
   <tile/>
   <tile/>
   <tile/>
   <tile/>
   <tile/>
   <tile/>
   <tile/>
   <tile/>
   <tile/>
   <tile/>
   <tile/>
   <tile/>
   <tile/>
   <tile/>
   <tile/>
   <tile/>
   <tile/>
   <tile/>
   <tile/>
   <tile/>
   <tile/>
   <tile/>
   <tile/>
   <tile/>
   <tile/>
   <tile/>
   <tile/>
   <tile/>
   <tile/>
   <tile/>
   <tile/>
   <tile/>
   <tile/>
   <tile/>
   <tile/>
   <tile/>
   <tile/>
   <tile/>
   <tile/>
   <tile/>
   <tile/>
   <tile/>
   <tile/>
   <tile/>
   <tile/>
   <tile/>
   <tile/>
   <tile/>
   <tile/>
   <tile/>
   <tile/>
   <tile/>
   <tile/>
   <tile/>
   <tile/>
   <tile/>
   <tile/>
   <tile/>
   <tile/>
   <tile/>
   <tile/>
   <tile/>
   <tile/>
   <tile/>
   <tile/>
   <tile/>
   <tile/>
   <tile/>
   <tile/>
   <tile/>
   <tile/>
   <tile/>
   <tile/>
   <tile/>
   <tile/>
   <tile/>
   <tile/>
   <tile/>
   <tile/>
   <tile/>
   <tile/>
   <tile/>
   <tile/>
   <tile/>
   <tile/>
   <tile/>
   <tile/>
   <tile/>
   <tile/>
   <tile/>
   <tile/>
   <tile/>
   <tile/>
   <tile/>
   <tile/>
   <tile/>
   <tile/>
   <tile/>
   <tile/>
   <tile/>
   <tile/>
   <tile/>
   <tile/>
   <tile/>
   <tile/>
   <tile/>
   <tile/>
   <tile/>
   <tile/>
   <tile/>
   <tile/>
   <tile/>
   <tile/>
   <tile/>
   <tile/>
   <tile/>
   <tile/>
   <tile/>
   <tile/>
   <tile/>
   <tile/>
   <tile/>
   <tile/>
   <tile/>
   <tile/>
   <tile/>
   <tile/>
   <tile/>
   <tile/>
   <tile/>
   <tile/>
   <tile/>
   <tile/>
   <tile/>
   <tile/>
   <tile/>
   <tile/>
   <tile/>
   <tile/>
   <tile/>
   <tile/>
   <tile/>
   <tile/>
   <tile/>
   <tile/>
   <tile/>
   <tile/>
   <tile/>
   <tile/>
   <tile/>
   <tile/>
   <tile/>
   <tile/>
   <tile/>
   <tile/>
   <tile/>
   <tile/>
   <tile/>
   <tile/>
   <tile/>
   <tile/>
   <tile/>
   <tile/>
   <tile/>
   <tile/>
   <tile/>
   <tile/>
   <tile/>
   <tile/>
   <tile/>
   <tile/>
   <tile/>
   <tile/>
   <tile/>
   <tile/>
   <tile/>
   <tile/>
   <tile/>
   <tile/>
   <tile/>
   <tile/>
   <tile/>
   <tile/>
   <tile/>
   <tile/>
   <tile/>
   <tile/>
   <tile/>
   <tile/>
   <tile/>
   <tile/>
   <tile/>
   <tile/>
   <tile/>
   <tile/>
   <tile/>
   <tile/>
   <tile/>
   <tile/>
   <tile/>
   <tile/>
   <tile/>
   <tile/>
   <tile/>
   <tile/>
   <tile/>
   <tile/>
   <tile/>
   <tile/>
   <tile/>
   <tile/>
   <tile/>
   <tile/>
   <tile/>
   <tile/>
   <tile/>
   <tile/>
   <tile/>
   <tile/>
   <tile/>
   <tile/>
   <tile/>
   <tile/>
   <tile/>
   <tile/>
   <tile/>
   <tile/>
   <tile/>
   <tile/>
   <tile/>
   <tile/>
   <tile/>
   <tile/>
   <tile/>
   <tile/>
   <tile/>
   <tile/>
   <tile/>
   <tile/>
   <tile/>
   <tile/>
   <tile/>
   <tile/>
   <tile/>
   <tile/>
   <tile/>
   <tile/>
   <tile/>
   <tile/>
   <tile/>
   <tile/>
   <tile/>
   <tile/>
   <tile/>
   <tile/>
   <tile/>
   <tile/>
   <tile/>
   <tile/>
   <tile/>
   <tile/>
   <tile/>
   <tile/>
   <tile/>
   <tile/>
   <tile/>
   <tile/>
   <tile/>
   <tile/>
   <tile/>
   <tile/>
   <tile/>
   <tile/>
   <tile/>
   <tile/>
   <tile/>
   <tile/>
   <tile/>
   <tile/>
   <tile/>
   <tile/>
   <tile/>
   <tile/>
   <tile/>
   <tile/>
   <tile/>
   <tile/>
   <tile/>
   <tile/>
   <tile/>
   <tile/>
   <tile/>
   <tile/>
   <tile/>
   <tile/>
   <tile/>
   <tile/>
   <tile/>
   <tile/>
   <tile/>
   <tile/>
   <tile/>
   <tile/>
   <tile/>
   <tile/>
   <tile/>
   <tile/>
   <tile/>
   <tile/>
   <tile/>
   <tile/>
   <tile/>
   <tile/>
   <tile/>
   <tile/>
   <tile/>
   <tile/>
   <tile/>
   <tile/>
   <tile/>
   <tile/>
   <tile/>
   <tile/>
   <tile/>
   <tile/>
   <tile/>
   <tile/>
   <tile/>
   <tile/>
   <tile/>
   <tile/>
   <tile/>
   <tile/>
   <tile/>
   <tile/>
   <tile/>
   <tile/>
   <tile/>
   <tile/>
   <tile/>
   <tile/>
   <tile/>
   <tile/>
   <tile/>
   <tile/>
   <tile/>
   <tile/>
   <tile/>
   <tile/>
   <tile/>
   <tile/>
   <tile/>
   <tile/>
   <tile/>
   <tile/>
   <tile/>
   <tile/>
   <tile/>
   <tile/>
   <tile/>
   <tile/>
   <tile/>
   <tile/>
   <tile/>
   <tile/>
   <tile/>
   <tile/>
   <tile/>
   <tile/>
   <tile/>
   <tile/>
   <tile/>
   <tile/>
   <tile/>
   <tile/>
   <tile/>
   <tile/>
   <tile/>
   <tile/>
   <tile/>
   <tile/>
   <tile/>
   <tile/>
   <tile/>
   <tile/>
   <tile/>
   <tile/>
   <tile/>
   <tile/>
   <tile/>
   <tile/>
   <tile/>
   <tile/>
   <tile/>
   <tile/>
   <tile/>
   <tile/>
   <tile/>
   <tile/>
   <tile/>
   <tile/>
   <tile/>
   <tile/>
   <tile/>
   <tile/>
   <tile/>
   <tile/>
   <tile/>
   <tile/>
   <tile/>
   <tile/>
   <tile/>
   <tile/>
   <tile/>
   <tile/>
   <tile/>
   <tile/>
   <tile/>
   <tile/>
   <tile/>
   <tile/>
   <tile/>
   <tile/>
   <tile/>
   <tile/>
   <tile/>
   <tile/>
   <tile/>
   <tile/>
   <tile/>
   <tile/>
   <tile/>
   <tile/>
   <tile/>
   <tile/>
   <tile/>
   <tile/>
   <tile/>
   <tile/>
   <tile/>
   <tile/>
   <tile/>
   <tile/>
   <tile/>
   <tile/>
   <tile/>
   <tile/>
   <tile/>
   <tile/>
   <tile/>
   <tile/>
   <tile/>
   <tile/>
   <tile/>
   <tile/>
   <tile/>
   <tile/>
   <tile/>
   <tile/>
   <tile/>
   <tile/>
   <tile/>
   <tile/>
   <tile/>
   <tile/>
   <tile/>
   <tile/>
   <tile/>
   <tile/>
   <tile/>
   <tile/>
   <tile/>
   <tile/>
   <tile/>
   <tile/>
   <tile/>
   <tile/>
   <tile/>
   <tile/>
   <tile/>
   <tile/>
   <tile/>
   <tile/>
   <tile/>
   <tile/>
   <tile/>
   <tile/>
   <tile/>
   <tile/>
   <tile/>
   <tile/>
   <tile/>
   <tile/>
   <tile/>
   <tile/>
   <tile/>
   <tile/>
   <tile/>
   <tile/>
   <tile/>
   <tile/>
   <tile/>
   <tile/>
   <tile/>
   <tile/>
   <tile/>
   <tile/>
   <tile/>
   <tile/>
   <tile/>
   <tile/>
   <tile/>
   <tile/>
   <tile/>
   <tile/>
   <tile/>
   <tile/>
   <tile/>
   <tile/>
   <tile/>
   <tile/>
   <tile/>
   <tile/>
   <tile/>
   <tile/>
   <tile/>
   <tile/>
   <tile/>
   <tile/>
   <tile/>
   <tile/>
   <tile/>
   <tile/>
   <tile/>
   <tile/>
   <tile/>
   <tile/>
   <tile/>
   <tile/>
   <tile/>
   <tile/>
   <tile/>
   <tile/>
   <tile/>
   <tile/>
   <tile/>
   <tile/>
   <tile/>
   <tile/>
   <tile/>
   <tile/>
   <tile/>
   <tile/>
   <tile/>
   <tile/>
   <tile/>
   <tile/>
   <tile/>
   <tile/>
   <tile/>
   <tile/>
   <tile/>
   <tile/>
   <tile/>
   <tile/>
   <tile/>
   <tile/>
   <tile/>
   <tile/>
   <tile/>
   <tile/>
   <tile/>
   <tile/>
   <tile/>
   <tile/>
   <tile/>
   <tile/>
   <tile/>
   <tile/>
   <tile/>
   <tile/>
   <tile/>
   <tile/>
   <tile/>
   <tile/>
   <tile/>
   <tile/>
   <tile/>
   <tile/>
   <tile/>
   <tile/>
   <tile/>
   <tile/>
   <tile/>
   <tile/>
   <tile/>
   <tile/>
   <tile/>
   <tile/>
   <tile/>
   <tile/>
   <tile/>
   <tile/>
   <tile/>
   <tile/>
   <tile/>
   <tile/>
   <tile/>
   <tile/>
   <tile/>
   <tile/>
   <tile/>
   <tile/>
   <tile/>
   <tile/>
   <tile/>
   <tile/>
   <tile/>
   <tile/>
   <tile/>
   <tile/>
   <tile/>
   <tile/>
   <tile/>
   <tile/>
   <tile/>
   <tile/>
   <tile/>
   <tile/>
   <tile/>
   <tile/>
   <tile/>
   <tile/>
   <tile/>
   <tile/>
   <tile/>
   <tile/>
   <tile/>
   <tile/>
   <tile/>
   <tile/>
   <tile/>
   <tile/>
   <tile/>
   <tile/>
   <tile/>
   <tile/>
   <tile/>
   <tile/>
   <tile/>
   <tile/>
   <tile/>
   <tile/>
   <tile/>
   <tile/>
   <tile/>
   <tile/>
   <tile/>
   <tile/>
   <tile/>
   <tile/>
   <tile/>
   <tile/>
   <tile/>
   <tile/>
   <tile/>
   <tile/>
   <tile/>
   <tile/>
   <tile/>
   <tile/>
   <tile/>
   <tile/>
   <tile/>
   <tile/>
   <tile/>
   <tile/>
   <tile/>
   <tile/>
   <tile/>
   <tile/>
   <tile/>
   <tile/>
   <tile/>
   <tile/>
   <tile/>
   <tile/>
   <tile/>
   <tile/>
   <tile/>
   <tile/>
   <tile/>
   <tile/>
   <tile/>
   <tile/>
   <tile/>
   <tile/>
   <tile/>
   <tile/>
   <tile/>
   <tile/>
   <tile/>
   <tile/>
   <tile/>
   <tile/>
   <tile/>
   <tile/>
   <tile/>
   <tile/>
   <tile/>
   <tile/>
   <tile/>
   <tile/>
   <tile/>
   <tile/>
   <tile/>
   <tile/>
   <tile/>
   <tile/>
   <tile/>
   <tile/>
   <tile/>
   <tile/>
   <tile/>
   <tile/>
   <tile/>
   <tile/>
   <tile/>
   <tile/>
   <tile/>
   <tile/>
   <tile/>
   <tile/>
   <tile/>
   <tile/>
   <tile/>
   <tile/>
   <tile/>
   <tile/>
   <tile/>
   <tile/>
   <tile/>
   <tile/>
   <tile/>
   <tile/>
   <tile/>
   <tile/>
   <tile/>
   <tile/>
   <tile/>
   <tile/>
   <tile/>
   <tile/>
   <tile/>
   <tile/>
   <tile/>
   <tile/>
   <tile/>
   <tile/>
   <tile/>
   <tile/>
   <tile/>
   <tile/>
   <tile/>
   <tile/>
   <tile/>
   <tile/>
   <tile/>
   <tile/>
   <tile/>
   <tile/>
   <tile/>
   <tile/>
   <tile/>
   <tile/>
   <tile/>
   <tile/>
   <tile/>
   <tile/>
   <tile/>
   <tile/>
   <tile/>
   <tile/>
   <tile/>
   <tile/>
   <tile/>
   <tile/>
   <tile/>
   <tile/>
   <tile/>
   <tile/>
   <tile/>
   <tile/>
   <tile/>
   <tile/>
   <tile/>
   <tile/>
   <tile/>
   <tile/>
   <tile/>
   <tile/>
   <tile/>
   <tile/>
   <tile/>
   <tile/>
   <tile/>
   <tile/>
   <tile/>
   <tile/>
   <tile/>
   <tile/>
   <tile/>
   <tile/>
   <tile/>
   <tile/>
   <tile/>
   <tile/>
   <tile/>
   <tile/>
   <tile/>
   <tile/>
   <tile/>
   <tile/>
   <tile/>
   <tile/>
   <tile/>
   <tile/>
   <tile/>
   <tile/>
   <tile/>
   <tile/>
   <tile/>
   <tile/>
   <tile/>
   <tile/>
   <tile/>
   <tile/>
   <tile/>
   <tile/>
   <tile/>
   <tile/>
   <tile/>
   <tile/>
   <tile/>
   <tile/>
   <tile/>
   <tile/>
   <tile/>
   <tile/>
   <tile/>
   <tile/>
   <tile/>
   <tile/>
   <tile/>
   <tile/>
   <tile/>
   <tile/>
   <tile/>
   <tile/>
   <tile/>
   <tile/>
   <tile/>
   <tile/>
   <tile/>
   <tile/>
   <tile/>
   <tile/>
   <tile/>
   <tile/>
   <tile/>
   <tile/>
   <tile/>
   <tile/>
   <tile/>
   <tile/>
   <tile/>
   <tile/>
   <tile/>
   <tile/>
   <tile/>
   <tile/>
   <tile/>
   <tile/>
   <tile/>
   <tile/>
   <tile/>
   <tile/>
   <tile/>
   <tile/>
   <tile/>
   <tile/>
   <tile/>
   <tile/>
   <tile/>
   <tile/>
   <tile/>
   <tile/>
   <tile/>
   <tile/>
   <tile/>
   <tile/>
   <tile/>
   <tile/>
   <tile/>
   <tile/>
   <tile/>
   <tile/>
   <tile/>
   <tile/>
   <tile/>
   <tile/>
   <tile/>
   <tile/>
   <tile/>
   <tile/>
   <tile/>
   <tile/>
   <tile/>
   <tile/>
   <tile/>
   <tile/>
   <tile/>
   <tile/>
   <tile/>
   <tile/>
   <tile/>
   <tile/>
   <tile/>
   <tile/>
   <tile/>
   <tile/>
   <tile/>
   <tile/>
   <tile/>
   <tile/>
   <tile/>
   <tile/>
   <tile/>
   <tile/>
   <tile/>
   <tile/>
   <tile/>
   <tile/>
   <tile/>
   <tile/>
   <tile/>
   <tile/>
   <tile/>
   <tile/>
   <tile/>
   <tile/>
   <tile/>
   <tile/>
   <tile/>
   <tile/>
   <tile/>
   <tile/>
   <tile/>
   <tile/>
   <tile/>
   <tile/>
   <tile/>
   <tile/>
   <tile/>
   <tile/>
   <tile/>
   <tile/>
   <tile/>
   <tile/>
   <tile/>
   <tile/>
   <tile/>
   <tile/>
   <tile/>
   <tile/>
   <tile/>
   <tile/>
   <tile/>
   <tile/>
   <tile/>
   <tile/>
   <tile/>
   <tile/>
   <tile/>
   <tile/>
   <tile/>
   <tile/>
   <tile/>
   <tile/>
   <tile/>
   <tile/>
   <tile/>
   <tile/>
   <tile/>
   <tile/>
   <tile/>
   <tile/>
   <tile/>
   <tile/>
   <tile/>
   <tile/>
   <tile/>
   <tile/>
   <tile/>
   <tile/>
   <tile/>
   <tile/>
   <tile/>
   <tile/>
   <tile/>
   <tile/>
   <tile/>
   <tile/>
   <tile/>
   <tile/>
   <tile/>
   <tile/>
   <tile/>
   <tile/>
   <tile/>
   <tile/>
   <tile/>
   <tile/>
   <tile/>
   <tile/>
   <tile/>
   <tile/>
   <tile/>
   <tile/>
   <tile/>
   <tile/>
   <tile/>
   <tile/>
   <tile/>
   <tile/>
   <tile/>
   <tile/>
   <tile/>
   <tile/>
   <tile/>
   <tile/>
   <tile/>
   <tile/>
   <tile/>
   <tile/>
   <tile/>
   <tile/>
   <tile/>
   <tile/>
   <tile/>
   <tile/>
   <tile/>
   <tile/>
   <tile/>
   <tile/>
   <tile/>
   <tile/>
   <tile/>
   <tile/>
   <tile/>
   <tile/>
   <tile/>
   <tile/>
   <tile/>
   <tile/>
   <tile/>
   <tile/>
   <tile/>
   <tile/>
   <tile/>
   <tile/>
   <tile/>
   <tile/>
   <tile/>
   <tile/>
   <tile/>
   <tile/>
   <tile/>
   <tile/>
   <tile/>
   <tile/>
   <tile/>
   <tile/>
   <tile/>
   <tile/>
   <tile/>
   <tile/>
   <tile/>
   <tile/>
   <tile/>
   <tile/>
   <tile/>
   <tile/>
   <tile/>
   <tile/>
   <tile/>
   <tile/>
   <tile/>
   <tile/>
   <tile/>
   <tile/>
   <tile/>
   <tile/>
   <tile/>
   <tile/>
   <tile/>
   <tile/>
   <tile/>
   <tile/>
   <tile/>
   <tile/>
   <tile/>
   <tile/>
   <tile/>
   <tile/>
   <tile/>
   <tile/>
   <tile/>
   <tile/>
   <tile/>
   <tile/>
   <tile/>
   <tile/>
   <tile/>
   <tile/>
   <tile/>
   <tile/>
   <tile/>
   <tile/>
   <tile/>
   <tile/>
   <tile/>
   <tile/>
   <tile/>
   <tile/>
   <tile/>
   <tile/>
   <tile/>
   <tile/>
   <tile/>
   <tile/>
   <tile/>
   <tile/>
   <tile/>
   <tile/>
   <tile/>
   <tile/>
   <tile/>
   <tile/>
   <tile/>
   <tile/>
   <tile/>
   <tile/>
   <tile/>
   <tile/>
   <tile/>
   <tile/>
   <tile/>
   <tile/>
   <tile/>
   <tile/>
   <tile/>
   <tile/>
   <tile/>
   <tile/>
   <tile/>
   <tile/>
   <tile/>
   <tile/>
   <tile/>
   <tile/>
   <tile/>
   <tile/>
   <tile/>
   <tile/>
   <tile/>
   <tile/>
   <tile/>
   <tile/>
   <tile/>
   <tile/>
   <tile/>
   <tile/>
   <tile/>
   <tile/>
   <tile/>
   <tile/>
   <tile/>
   <tile/>
   <tile/>
   <tile/>
   <tile/>
   <tile/>
   <tile/>
   <tile/>
   <tile/>
   <tile/>
   <tile/>
   <tile/>
   <tile/>
   <tile/>
   <tile/>
   <tile/>
   <tile/>
   <tile/>
   <tile/>
   <tile/>
   <tile/>
   <tile/>
   <tile/>
   <tile/>
   <tile/>
   <tile/>
   <tile/>
   <tile/>
   <tile/>
   <tile/>
   <tile/>
   <tile/>
   <tile/>
   <tile/>
   <tile/>
   <tile/>
   <tile/>
   <tile/>
   <tile/>
   <tile/>
   <tile/>
   <tile/>
   <tile/>
   <tile/>
   <tile/>
   <tile/>
   <tile/>
   <tile/>
   <tile/>
   <tile/>
   <tile/>
   <tile/>
   <tile/>
   <tile/>
   <tile/>
   <tile/>
   <tile/>
   <tile/>
   <tile/>
   <tile/>
   <tile/>
   <tile/>
   <tile/>
   <tile/>
   <tile/>
   <tile/>
   <tile/>
   <tile/>
   <tile/>
   <tile/>
   <tile/>
   <tile/>
   <tile/>
   <tile/>
   <tile/>
   <tile/>
   <tile/>
   <tile/>
   <tile/>
   <tile/>
   <tile/>
   <tile/>
   <tile/>
   <tile/>
   <tile/>
   <tile/>
   <tile/>
   <tile/>
   <tile/>
   <tile/>
   <tile/>
   <tile/>
   <tile/>
   <tile/>
   <tile/>
   <tile/>
   <tile/>
   <tile/>
   <tile/>
   <tile/>
   <tile/>
   <tile/>
   <tile/>
   <tile/>
   <tile/>
   <tile/>
   <tile/>
   <tile/>
   <tile/>
   <tile/>
   <tile/>
   <tile/>
   <tile/>
   <tile/>
   <tile/>
   <tile/>
   <tile/>
   <tile/>
   <tile/>
   <tile/>
   <tile/>
   <tile/>
   <tile/>
   <tile/>
   <tile/>
   <tile/>
   <tile/>
   <tile/>
   <tile/>
   <tile/>
   <tile/>
   <tile/>
   <tile/>
   <tile/>
   <tile/>
   <tile/>
   <tile/>
   <tile/>
   <tile/>
   <tile/>
   <tile/>
   <tile/>
   <tile/>
   <tile/>
   <tile/>
   <tile/>
   <tile/>
   <tile/>
   <tile/>
   <tile/>
   <tile/>
   <tile/>
   <tile/>
   <tile/>
   <tile/>
   <tile/>
   <tile/>
   <tile/>
   <tile/>
   <tile/>
   <tile/>
   <tile/>
   <tile/>
   <tile/>
   <tile/>
   <tile/>
   <tile/>
   <tile/>
   <tile/>
   <tile/>
   <tile/>
   <tile/>
   <tile/>
   <tile/>
   <tile/>
   <tile/>
   <tile/>
   <tile/>
   <tile/>
   <tile/>
   <tile/>
   <tile/>
   <tile/>
   <tile/>
   <tile/>
   <tile/>
   <tile/>
   <tile/>
   <tile/>
   <tile/>
   <tile/>
   <tile/>
   <tile/>
   <tile/>
   <tile/>
   <tile/>
   <tile/>
   <tile/>
   <tile/>
   <tile/>
   <tile/>
   <tile/>
   <tile/>
   <tile/>
   <tile/>
   <tile/>
   <tile/>
   <tile/>
   <tile/>
   <tile/>
   <tile/>
   <tile/>
   <tile/>
   <tile/>
   <tile/>
   <tile/>
   <tile/>
   <tile/>
   <tile/>
   <tile/>
   <tile/>
   <tile/>
   <tile/>
   <tile/>
   <tile/>
   <tile/>
   <tile/>
   <tile/>
   <tile/>
   <tile/>
   <tile/>
   <tile/>
   <tile/>
   <tile/>
   <tile/>
   <tile/>
   <tile/>
   <tile/>
   <tile/>
   <tile/>
   <tile/>
   <tile/>
   <tile/>
   <tile/>
   <tile/>
   <tile/>
   <tile/>
   <tile/>
   <tile/>
   <tile/>
   <tile/>
   <tile/>
   <tile/>
   <tile/>
   <tile/>
   <tile/>
   <tile/>
   <tile/>
   <tile/>
   <tile/>
   <tile/>
   <tile/>
   <tile/>
   <tile/>
   <tile/>
   <tile/>
   <tile/>
   <tile/>
   <tile/>
   <tile/>
   <tile/>
   <tile/>
   <tile/>
   <tile/>
   <tile/>
   <tile/>
   <tile/>
   <tile/>
   <tile/>
   <tile/>
   <tile/>
   <tile/>
   <tile/>
   <tile/>
   <tile/>
   <tile/>
   <tile/>
   <tile/>
   <tile/>
   <tile/>
   <tile/>
   <tile/>
   <tile/>
   <tile/>
   <tile/>
   <tile/>
   <tile/>
   <tile/>
   <tile/>
   <tile/>
   <tile/>
   <tile/>
   <tile/>
   <tile/>
   <tile/>
   <tile/>
   <tile/>
   <tile/>
   <tile/>
   <tile/>
   <tile/>
   <tile/>
   <tile/>
   <tile/>
   <tile/>
   <tile/>
   <tile/>
   <tile/>
   <tile/>
   <tile/>
   <tile/>
   <tile/>
   <tile/>
   <tile/>
   <tile/>
   <tile/>
   <tile/>
   <tile/>
   <tile/>
   <tile/>
   <tile/>
   <tile/>
   <tile/>
   <tile/>
   <tile/>
   <tile/>
   <tile/>
   <tile/>
   <tile/>
   <tile/>
   <tile/>
   <tile/>
   <tile/>
   <tile/>
   <tile/>
   <tile/>
   <tile/>
   <tile/>
   <tile/>
  </data>
 </layer>
 <layer id="2" name="Map" width="90" height="68">
  <properties>
   <property name="Draw" type="bool" value="true"/>
  </properties>
  <data>
   <tile/>
   <tile/>
   <tile/>
   <tile/>
   <tile/>
   <tile/>
   <tile/>
   <tile/>
   <tile/>
   <tile/>
   <tile/>
   <tile/>
   <tile/>
   <tile/>
   <tile/>
   <tile/>
   <tile/>
   <tile/>
   <tile/>
   <tile/>
   <tile/>
   <tile/>
   <tile/>
   <tile/>
   <tile/>
   <tile/>
   <tile/>
   <tile/>
   <tile/>
   <tile/>
   <tile/>
   <tile/>
   <tile/>
   <tile/>
   <tile/>
   <tile/>
   <tile/>
   <tile/>
   <tile/>
   <tile/>
   <tile/>
   <tile/>
   <tile/>
   <tile/>
   <tile/>
   <tile/>
   <tile/>
   <tile/>
   <tile/>
   <tile/>
   <tile/>
   <tile/>
   <tile/>
   <tile/>
   <tile/>
   <tile/>
   <tile/>
   <tile/>
   <tile/>
   <tile/>
   <tile/>
   <tile/>
   <tile/>
   <tile/>
   <tile/>
   <tile/>
   <tile/>
   <tile/>
   <tile/>
   <tile/>
   <tile/>
   <tile/>
   <tile/>
   <tile/>
   <tile/>
   <tile/>
   <tile/>
   <tile/>
   <tile/>
   <tile/>
   <tile/>
   <tile/>
   <tile/>
   <tile/>
   <tile/>
   <tile/>
   <tile/>
   <tile/>
   <tile/>
   <tile/>
   <tile/>
   <tile/>
   <tile/>
   <tile/>
   <tile/>
   <tile/>
   <tile/>
   <tile/>
   <tile/>
   <tile/>
   <tile/>
   <tile/>
   <tile/>
   <tile/>
   <tile/>
   <tile/>
   <tile/>
   <tile/>
   <tile/>
   <tile/>
   <tile/>
   <tile/>
   <tile/>
   <tile/>
   <tile/>
   <tile/>
   <tile/>
   <tile/>
   <tile/>
   <tile/>
   <tile/>
   <tile/>
   <tile/>
   <tile/>
   <tile/>
   <tile/>
   <tile/>
   <tile/>
   <tile/>
   <tile/>
   <tile/>
   <tile/>
   <tile/>
   <tile/>
   <tile/>
   <tile/>
   <tile/>
   <tile/>
   <tile/>
   <tile/>
   <tile/>
   <tile/>
   <tile/>
   <tile/>
   <tile/>
   <tile/>
   <tile/>
   <tile/>
   <tile/>
   <tile/>
   <tile/>
   <tile/>
   <tile/>
   <tile/>
   <tile/>
   <tile/>
   <tile/>
   <tile/>
   <tile/>
   <tile/>
   <tile/>
   <tile/>
   <tile/>
   <tile/>
   <tile/>
   <tile/>
   <tile/>
   <tile/>
   <tile/>
   <tile/>
   <tile/>
   <tile/>
   <tile/>
   <tile/>
   <tile/>
   <tile/>
   <tile/>
   <tile/>
   <tile/>
   <tile/>
   <tile/>
   <tile/>
   <tile/>
   <tile/>
   <tile/>
   <tile/>
   <tile/>
   <tile/>
   <tile/>
   <tile/>
   <tile/>
   <tile/>
   <tile/>
   <tile/>
   <tile/>
   <tile/>
   <tile/>
   <tile/>
   <tile/>
   <tile/>
   <tile/>
   <tile/>
   <tile/>
   <tile/>
   <tile/>
   <tile/>
   <tile/>
   <tile/>
   <tile/>
   <tile/>
   <tile/>
   <tile/>
   <tile/>
   <tile/>
   <tile/>
   <tile/>
   <tile/>
   <tile/>
   <tile/>
   <tile/>
   <tile/>
   <tile/>
   <tile/>
   <tile/>
   <tile/>
   <tile/>
   <tile/>
   <tile/>
   <tile/>
   <tile/>
   <tile/>
   <tile/>
   <tile/>
   <tile/>
   <tile/>
   <tile/>
   <tile/>
   <tile/>
   <tile/>
   <tile/>
   <tile/>
   <tile/>
   <tile/>
   <tile/>
   <tile/>
   <tile/>
   <tile/>
   <tile/>
   <tile/>
   <tile/>
   <tile/>
   <tile/>
   <tile/>
   <tile/>
   <tile/>
   <tile/>
   <tile/>
   <tile/>
   <tile/>
   <tile/>
   <tile/>
   <tile/>
   <tile/>
   <tile/>
   <tile/>
   <tile/>
   <tile/>
   <tile/>
   <tile/>
   <tile/>
   <tile/>
   <tile/>
   <tile/>
   <tile/>
   <tile/>
   <tile/>
   <tile/>
   <tile/>
   <tile/>
   <tile/>
   <tile/>
   <tile/>
   <tile/>
   <tile/>
   <tile/>
   <tile/>
   <tile/>
   <tile/>
   <tile/>
   <tile/>
   <tile/>
   <tile/>
   <tile/>
   <tile/>
   <tile/>
   <tile/>
   <tile/>
   <tile/>
   <tile/>
   <tile/>
   <tile/>
   <tile/>
   <tile/>
   <tile/>
   <tile/>
   <tile/>
   <tile/>
   <tile/>
   <tile/>
   <tile/>
   <tile/>
   <tile/>
   <tile/>
   <tile/>
   <tile/>
   <tile/>
   <tile/>
   <tile/>
   <tile/>
   <tile/>
   <tile/>
   <tile/>
   <tile/>
   <tile/>
   <tile/>
   <tile/>
   <tile/>
   <tile/>
   <tile/>
   <tile/>
   <tile/>
   <tile/>
   <tile/>
   <tile/>
   <tile/>
   <tile/>
   <tile/>
   <tile/>
   <tile/>
   <tile/>
   <tile/>
   <tile/>
   <tile/>
   <tile/>
   <tile/>
   <tile/>
   <tile/>
   <tile/>
   <tile/>
   <tile/>
   <tile/>
   <tile/>
   <tile/>
   <tile/>
   <tile/>
   <tile/>
   <tile/>
   <tile/>
   <tile/>
   <tile/>
   <tile/>
   <tile/>
   <tile/>
   <tile/>
   <tile/>
   <tile/>
   <tile/>
   <tile/>
   <tile/>
   <tile/>
   <tile/>
   <tile/>
   <tile/>
   <tile/>
   <tile/>
   <tile/>
   <tile/>
   <tile/>
   <tile/>
   <tile/>
   <tile/>
   <tile/>
   <tile/>
   <tile/>
   <tile/>
   <tile/>
   <tile/>
   <tile/>
   <tile/>
   <tile/>
   <tile/>
   <tile/>
   <tile/>
   <tile/>
   <tile/>
   <tile/>
   <tile/>
   <tile/>
   <tile/>
   <tile/>
   <tile/>
   <tile/>
   <tile/>
   <tile/>
   <tile/>
   <tile/>
   <tile/>
   <tile/>
   <tile/>
   <tile/>
   <tile/>
   <tile/>
   <tile/>
   <tile/>
   <tile/>
   <tile/>
   <tile/>
   <tile/>
   <tile/>
   <tile/>
   <tile/>
   <tile/>
   <tile/>
   <tile/>
   <tile/>
   <tile/>
   <tile/>
   <tile/>
   <tile/>
   <tile/>
   <tile/>
   <tile/>
   <tile/>
   <tile/>
   <tile/>
   <tile/>
   <tile/>
   <tile/>
   <tile/>
   <tile/>
   <tile/>
   <tile/>
   <tile/>
   <tile/>
   <tile/>
   <tile/>
   <tile/>
   <tile/>
   <tile/>
   <tile/>
   <tile/>
   <tile/>
   <tile/>
   <tile/>
   <tile/>
   <tile/>
   <tile/>
   <tile/>
   <tile/>
   <tile/>
   <tile/>
   <tile/>
   <tile/>
   <tile/>
   <tile/>
   <tile/>
   <tile/>
   <tile/>
   <tile/>
   <tile/>
   <tile/>
   <tile/>
   <tile/>
   <tile/>
   <tile/>
   <tile/>
   <tile/>
   <tile/>
   <tile/>
   <tile/>
   <tile/>
   <tile/>
   <tile/>
   <tile/>
   <tile/>
   <tile/>
   <tile/>
   <tile/>
   <tile/>
   <tile/>
   <tile/>
   <tile/>
   <tile/>
   <tile/>
   <tile/>
   <tile gid="587"/>
   <tile gid="588"/>
   <tile gid="589"/>
   <tile/>
   <tile/>
   <tile/>
   <tile/>
   <tile/>
   <tile/>
   <tile/>
   <tile/>
   <tile/>
   <tile/>
   <tile/>
   <tile/>
   <tile/>
   <tile/>
   <tile/>
   <tile/>
   <tile/>
   <tile/>
   <tile/>
   <tile/>
   <tile/>
   <tile/>
   <tile/>
   <tile/>
   <tile/>
   <tile/>
   <tile/>
   <tile/>
   <tile/>
   <tile/>
   <tile/>
   <tile/>
   <tile/>
   <tile/>
   <tile/>
   <tile/>
   <tile/>
   <tile/>
   <tile/>
   <tile/>
   <tile/>
   <tile/>
   <tile/>
   <tile/>
   <tile/>
   <tile/>
   <tile/>
   <tile/>
   <tile/>
   <tile/>
   <tile/>
   <tile/>
   <tile/>
   <tile/>
   <tile/>
   <tile/>
   <tile/>
   <tile/>
   <tile/>
   <tile/>
   <tile/>
   <tile/>
   <tile/>
   <tile/>
   <tile/>
   <tile/>
   <tile/>
   <tile/>
   <tile/>
   <tile/>
   <tile/>
   <tile/>
   <tile/>
   <tile/>
   <tile/>
   <tile/>
   <tile/>
   <tile/>
   <tile/>
   <tile/>
   <tile/>
   <tile/>
   <tile/>
   <tile/>
   <tile/>
   <tile/>
   <tile/>
   <tile/>
   <tile/>
   <tile/>
   <tile/>
   <tile/>
   <tile/>
   <tile/>
   <tile/>
   <tile/>
   <tile/>
   <tile/>
   <tile/>
   <tile/>
   <tile/>
   <tile/>
   <tile/>
   <tile/>
   <tile/>
   <tile/>
   <tile/>
   <tile/>
   <tile/>
   <tile/>
   <tile/>
   <tile/>
   <tile/>
   <tile/>
   <tile/>
   <tile/>
   <tile/>
   <tile/>
   <tile/>
   <tile/>
   <tile/>
   <tile/>
   <tile/>
   <tile/>
   <tile/>
   <tile/>
   <tile/>
   <tile/>
   <tile/>
   <tile/>
   <tile/>
   <tile/>
   <tile/>
   <tile/>
   <tile/>
   <tile/>
   <tile/>
   <tile/>
   <tile/>
   <tile/>
   <tile/>
   <tile/>
   <tile/>
   <tile/>
   <tile/>
   <tile/>
   <tile/>
   <tile/>
   <tile/>
   <tile/>
   <tile/>
   <tile/>
   <tile/>
   <tile/>
   <tile/>
   <tile/>
   <tile/>
   <tile/>
   <tile/>
   <tile/>
   <tile/>
   <tile/>
   <tile/>
   <tile/>
   <tile/>
   <tile/>
   <tile/>
   <tile/>
   <tile/>
   <tile/>
   <tile/>
   <tile/>
   <tile/>
   <tile/>
   <tile/>
   <tile/>
   <tile/>
   <tile/>
   <tile/>
   <tile/>
   <tile/>
   <tile/>
   <tile/>
   <tile/>
   <tile/>
   <tile/>
   <tile/>
   <tile/>
   <tile/>
   <tile/>
   <tile/>
   <tile/>
   <tile/>
   <tile/>
   <tile/>
   <tile/>
   <tile/>
   <tile/>
   <tile/>
   <tile/>
   <tile/>
   <tile/>
   <tile/>
   <tile/>
   <tile/>
   <tile/>
   <tile/>
   <tile/>
   <tile/>
   <tile/>
   <tile/>
   <tile/>
   <tile/>
   <tile/>
   <tile/>
   <tile/>
   <tile/>
   <tile/>
   <tile/>
   <tile/>
   <tile/>
   <tile/>
   <tile/>
   <tile/>
   <tile/>
   <tile/>
   <tile/>
   <tile/>
   <tile/>
   <tile/>
   <tile/>
   <tile gid="587"/>
   <tile gid="588"/>
   <tile gid="588"/>
   <tile gid="588"/>
   <tile gid="588"/>
   <tile gid="588"/>
   <tile gid="588"/>
   <tile gid="588"/>
   <tile gid="588"/>
   <tile gid="589"/>
   <tile/>
   <tile/>
   <tile/>
   <tile/>
   <tile/>
   <tile/>
   <tile/>
   <tile/>
   <tile/>
   <tile/>
   <tile/>
   <tile/>
   <tile/>
   <tile/>
   <tile/>
   <tile/>
   <tile/>
   <tile/>
   <tile/>
   <tile/>
   <tile/>
   <tile/>
   <tile/>
   <tile/>
   <tile/>
   <tile/>
   <tile/>
   <tile/>
   <tile/>
   <tile/>
   <tile/>
   <tile/>
   <tile/>
   <tile/>
   <tile/>
   <tile/>
   <tile/>
   <tile/>
   <tile/>
   <tile/>
   <tile/>
   <tile/>
   <tile/>
   <tile/>
   <tile/>
   <tile/>
   <tile/>
   <tile/>
   <tile/>
   <tile/>
   <tile/>
   <tile/>
   <tile/>
   <tile/>
   <tile/>
   <tile/>
   <tile/>
   <tile/>
   <tile/>
   <tile/>
   <tile/>
   <tile/>
   <tile/>
   <tile/>
   <tile/>
   <tile/>
   <tile/>
   <tile/>
   <tile/>
   <tile/>
   <tile/>
   <tile/>
   <tile/>
   <tile/>
   <tile/>
   <tile/>
   <tile/>
   <tile/>
   <tile/>
   <tile/>
   <tile/>
   <tile/>
   <tile/>
   <tile/>
   <tile/>
   <tile/>
   <tile/>
   <tile/>
   <tile/>
   <tile/>
   <tile/>
   <tile/>
   <tile/>
   <tile/>
   <tile/>
   <tile/>
   <tile/>
   <tile/>
   <tile/>
   <tile/>
   <tile/>
   <tile/>
   <tile/>
   <tile/>
   <tile/>
   <tile/>
   <tile/>
   <tile/>
   <tile/>
   <tile/>
   <tile/>
   <tile/>
   <tile/>
   <tile/>
   <tile/>
   <tile/>
   <tile/>
   <tile/>
   <tile/>
   <tile/>
   <tile/>
   <tile/>
   <tile/>
   <tile/>
   <tile/>
   <tile/>
   <tile/>
   <tile/>
   <tile/>
   <tile/>
   <tile/>
   <tile/>
   <tile/>
   <tile/>
   <tile/>
   <tile/>
   <tile/>
   <tile/>
   <tile/>
   <tile/>
   <tile/>
   <tile/>
   <tile/>
   <tile/>
   <tile/>
   <tile/>
   <tile/>
   <tile/>
   <tile/>
   <tile/>
   <tile/>
   <tile/>
   <tile/>
   <tile/>
   <tile/>
   <tile/>
   <tile/>
   <tile/>
   <tile/>
   <tile/>
   <tile/>
   <tile/>
   <tile/>
   <tile/>
   <tile/>
   <tile/>
   <tile/>
   <tile/>
   <tile/>
   <tile/>
   <tile/>
   <tile/>
   <tile/>
   <tile/>
   <tile/>
   <tile/>
   <tile/>
   <tile/>
   <tile/>
   <tile/>
   <tile/>
   <tile/>
   <tile gid="587"/>
   <tile gid="588"/>
   <tile gid="588"/>
   <tile gid="588"/>
   <tile gid="588"/>
   <tile gid="588"/>
   <tile gid="588"/>
   <tile gid="588"/>
   <tile gid="589"/>
   <tile/>
   <tile/>
   <tile/>
   <tile/>
   <tile/>
   <tile/>
   <tile/>
   <tile/>
   <tile/>
   <tile/>
   <tile/>
   <tile/>
   <tile/>
   <tile/>
   <tile/>
   <tile/>
   <tile/>
   <tile/>
   <tile gid="588"/>
   <tile gid="588"/>
   <tile gid="588"/>
   <tile gid="588"/>
   <tile gid="588"/>
   <tile gid="588"/>
   <tile gid="589"/>
   <tile/>
   <tile/>
   <tile/>
   <tile/>
   <tile/>
   <tile/>
   <tile/>
   <tile/>
   <tile/>
   <tile/>
   <tile/>
   <tile/>
   <tile/>
   <tile/>
   <tile/>
   <tile/>
   <tile/>
   <tile/>
   <tile/>
   <tile/>
   <tile/>
   <tile/>
   <tile/>
   <tile/>
   <tile/>
   <tile/>
   <tile/>
   <tile/>
   <tile/>
   <tile/>
   <tile/>
   <tile/>
   <tile/>
   <tile/>
   <tile/>
   <tile/>
   <tile/>
   <tile/>
   <tile/>
   <tile/>
   <tile/>
   <tile/>
   <tile/>
   <tile/>
   <tile/>
   <tile/>
   <tile/>
   <tile/>
   <tile/>
   <tile/>
   <tile/>
   <tile/>
   <tile/>
   <tile/>
   <tile/>
   <tile/>
   <tile/>
   <tile/>
   <tile/>
   <tile/>
   <tile/>
   <tile/>
   <tile/>
   <tile/>
   <tile/>
   <tile/>
   <tile/>
   <tile/>
   <tile/>
   <tile/>
   <tile/>
   <tile/>
   <tile/>
   <tile/>
   <tile/>
   <tile/>
   <tile/>
   <tile/>
   <tile/>
   <tile/>
   <tile/>
   <tile/>
   <tile/>
   <tile/>
   <tile/>
   <tile/>
   <tile/>
   <tile/>
   <tile/>
   <tile/>
   <tile/>
   <tile/>
   <tile/>
   <tile/>
   <tile/>
   <tile/>
   <tile/>
   <tile/>
   <tile/>
   <tile/>
   <tile/>
   <tile/>
   <tile/>
   <tile/>
   <tile/>
   <tile/>
   <tile/>
   <tile/>
   <tile/>
   <tile/>
   <tile/>
   <tile/>
   <tile/>
   <tile/>
   <tile/>
   <tile/>
   <tile gid="523"/>
   <tile gid="524"/>
   <tile gid="524"/>
   <tile gid="524"/>
   <tile gid="524"/>
   <tile gid="524"/>
   <tile gid="524"/>
   <tile gid="524"/>
   <tile/>
   <tile/>
   <tile/>
   <tile/>
   <tile/>
   <tile/>
   <tile/>
   <tile/>
   <tile/>
   <tile/>
   <tile/>
   <tile/>
   <tile/>
   <tile/>
   <tile/>
   <tile/>
   <tile/>
   <tile/>
   <tile/>
   <tile/>
   <tile/>
   <tile/>
   <tile/>
   <tile/>
   <tile/>
   <tile/>
   <tile/>
   <tile/>
   <tile/>
   <tile/>
   <tile/>
   <tile/>
   <tile/>
   <tile/>
   <tile/>
   <tile/>
   <tile/>
   <tile/>
   <tile/>
   <tile/>
   <tile/>
   <tile/>
   <tile/>
   <tile/>
   <tile/>
   <tile/>
   <tile/>
   <tile/>
   <tile/>
   <tile/>
   <tile/>
   <tile/>
   <tile/>
   <tile/>
   <tile/>
   <tile/>
   <tile/>
   <tile/>
   <tile/>
   <tile/>
   <tile/>
   <tile/>
   <tile/>
   <tile/>
   <tile/>
   <tile/>
   <tile/>
   <tile/>
   <tile/>
   <tile/>
   <tile/>
   <tile/>
   <tile/>
   <tile/>
   <tile/>
   <tile/>
   <tile/>
   <tile/>
   <tile/>
   <tile/>
   <tile/>
   <tile/>
   <tile/>
   <tile/>
   <tile/>
   <tile/>
   <tile/>
   <tile/>
   <tile/>
   <tile/>
   <tile/>
   <tile/>
   <tile/>
   <tile/>
   <tile/>
   <tile/>
   <tile/>
   <tile/>
   <tile/>
   <tile/>
   <tile/>
   <tile/>
   <tile/>
   <tile/>
   <tile/>
   <tile/>
   <tile/>
   <tile/>
   <tile/>
   <tile/>
   <tile/>
   <tile/>
   <tile/>
   <tile/>
   <tile/>
   <tile/>
   <tile/>
   <tile/>
   <tile/>
   <tile/>
   <tile/>
   <tile/>
   <tile/>
   <tile/>
   <tile/>
   <tile/>
   <tile/>
   <tile/>
   <tile/>
   <tile/>
   <tile gid="587"/>
   <tile gid="589"/>
   <tile/>
   <tile gid="587"/>
   <tile gid="588"/>
   <tile gid="588"/>
   <tile/>
   <tile/>
   <tile/>
   <tile/>
   <tile/>
   <tile/>
   <tile/>
   <tile/>
   <tile/>
   <tile/>
   <tile gid="588"/>
   <tile gid="588"/>
   <tile gid="589"/>
   <tile/>
   <tile/>
   <tile/>
   <tile/>
   <tile/>
   <tile/>
   <tile/>
   <tile/>
   <tile/>
   <tile/>
   <tile/>
   <tile/>
   <tile/>
   <tile/>
   <tile/>
   <tile/>
   <tile/>
   <tile/>
   <tile/>
   <tile/>
   <tile/>
   <tile/>
   <tile/>
   <tile/>
   <tile/>
   <tile/>
   <tile/>
   <tile/>
   <tile/>
   <tile/>
   <tile/>
   <tile/>
   <tile/>
   <tile/>
   <tile/>
   <tile/>
   <tile/>
   <tile/>
   <tile/>
   <tile/>
   <tile/>
   <tile/>
   <tile/>
   <tile/>
   <tile/>
   <tile/>
   <tile/>
   <tile/>
   <tile/>
   <tile/>
   <tile/>
   <tile/>
   <tile/>
   <tile/>
   <tile/>
   <tile/>
   <tile/>
   <tile/>
   <tile/>
   <tile/>
   <tile/>
   <tile/>
   <tile/>
   <tile/>
   <tile/>
   <tile/>
   <tile/>
   <tile/>
   <tile/>
   <tile/>
   <tile gid="587"/>
   <tile/>
   <tile/>
   <tile gid="588"/>
   <tile/>
   <tile/>
   <tile/>
   <tile/>
   <tile/>
   <tile/>
   <tile/>
   <tile/>
   <tile/>
   <tile/>
   <tile/>
   <tile/>
   <tile/>
   <tile/>
   <tile/>
   <tile/>
   <tile/>
   <tile/>
   <tile/>
   <tile/>
   <tile/>
   <tile/>
   <tile/>
   <tile/>
   <tile/>
   <tile/>
   <tile/>
   <tile/>
   <tile/>
   <tile/>
   <tile/>
   <tile/>
   <tile/>
   <tile/>
   <tile/>
   <tile/>
   <tile/>
   <tile/>
   <tile/>
   <tile/>
   <tile/>
   <tile/>
   <tile/>
   <tile/>
   <tile/>
   <tile/>
   <tile/>
   <tile/>
   <tile/>
   <tile/>
   <tile/>
   <tile/>
   <tile/>
   <tile/>
   <tile/>
   <tile/>
   <tile/>
   <tile/>
   <tile/>
   <tile/>
   <tile/>
   <tile/>
   <tile/>
   <tile/>
   <tile/>
   <tile/>
   <tile/>
   <tile/>
   <tile/>
   <tile/>
   <tile/>
   <tile/>
   <tile/>
   <tile/>
   <tile/>
   <tile/>
   <tile/>
   <tile/>
   <tile/>
   <tile/>
   <tile/>
   <tile/>
   <tile/>
   <tile/>
   <tile gid="587"/>
   <tile gid="588"/>
   <tile/>
   <tile/>
   <tile/>
   <tile/>
   <tile/>
   <tile/>
   <tile/>
   <tile/>
   <tile/>
   <tile/>
   <tile/>
   <tile/>
   <tile/>
   <tile/>
   <tile/>
   <tile/>
   <tile/>
   <tile/>
   <tile/>
   <tile/>
   <tile/>
   <tile/>
   <tile/>
   <tile/>
   <tile/>
   <tile/>
   <tile/>
   <tile/>
   <tile/>
   <tile/>
   <tile/>
   <tile/>
   <tile/>
   <tile/>
   <tile/>
   <tile/>
   <tile/>
   <tile/>
   <tile/>
   <tile/>
   <tile/>
   <tile/>
   <tile/>
   <tile/>
   <tile/>
   <tile/>
   <tile/>
   <tile/>
   <tile/>
   <tile/>
   <tile/>
   <tile/>
   <tile/>
   <tile/>
   <tile/>
   <tile/>
   <tile/>
   <tile/>
   <tile/>
   <tile/>
   <tile/>
   <tile/>
   <tile/>
   <tile/>
   <tile/>
   <tile/>
   <tile/>
   <tile/>
   <tile/>
   <tile/>
   <tile/>
   <tile/>
   <tile/>
   <tile/>
   <tile/>
   <tile/>
   <tile/>
   <tile/>
   <tile/>
   <tile/>
   <tile/>
   <tile/>
   <tile/>
   <tile/>
   <tile/>
   <tile gid="587"/>
   <tile gid="588"/>
   <tile gid="588"/>
   <tile/>
   <tile/>
   <tile/>
   <tile/>
   <tile/>
   <tile/>
   <tile/>
   <tile/>
   <tile/>
   <tile/>
   <tile/>
   <tile/>
   <tile/>
   <tile/>
   <tile/>
   <tile/>
   <tile/>
   <tile/>
   <tile/>
   <tile/>
   <tile/>
   <tile/>
   <tile gid="589"/>
   <tile/>
   <tile/>
   <tile/>
   <tile/>
   <tile/>
   <tile/>
   <tile/>
   <tile/>
   <tile/>
   <tile/>
   <tile/>
   <tile/>
   <tile/>
   <tile/>
   <tile/>
   <tile/>
   <tile/>
   <tile/>
   <tile/>
   <tile/>
   <tile/>
   <tile/>
   <tile/>
   <tile/>
   <tile/>
   <tile/>
   <tile/>
   <tile/>
   <tile/>
   <tile/>
   <tile/>
   <tile/>
   <tile/>
   <tile/>
   <tile/>
   <tile/>
   <tile/>
   <tile/>
   <tile/>
   <tile/>
   <tile/>
   <tile/>
   <tile/>
   <tile/>
   <tile/>
   <tile/>
   <tile/>
   <tile/>
   <tile/>
   <tile/>
   <tile/>
   <tile/>
   <tile/>
   <tile/>
   <tile/>
   <tile/>
   <tile/>
   <tile/>
   <tile/>
   <tile/>
   <tile/>
   <tile/>
   <tile/>
   <tile gid="587"/>
   <tile/>
   <tile/>
   <tile/>
   <tile/>
   <tile/>
   <tile/>
   <tile/>
   <tile/>
   <tile/>
   <tile/>
   <tile/>
   <tile/>
   <tile/>
   <tile/>
   <tile/>
   <tile/>
   <tile/>
   <tile/>
   <tile/>
   <tile/>
   <tile/>
   <tile/>
   <tile/>
   <tile/>
   <tile/>
   <tile/>
   <tile gid="589"/>
   <tile/>
   <tile/>
   <tile/>
   <tile/>
   <tile/>
   <tile/>
   <tile/>
   <tile/>
   <tile/>
   <tile/>
   <tile/>
   <tile/>
   <tile/>
   <tile/>
   <tile/>
   <tile/>
   <tile/>
   <tile/>
   <tile/>
   <tile/>
   <tile/>
   <tile/>
   <tile/>
   <tile/>
   <tile/>
   <tile/>
   <tile/>
   <tile/>
   <tile/>
   <tile/>
   <tile/>
   <tile/>
   <tile/>
   <tile/>
   <tile/>
   <tile/>
   <tile/>
   <tile/>
   <tile/>
   <tile/>
   <tile/>
   <tile/>
   <tile/>
   <tile/>
   <tile/>
   <tile/>
   <tile/>
   <tile/>
   <tile/>
   <tile/>
   <tile/>
   <tile/>
   <tile/>
   <tile/>
   <tile/>
   <tile/>
   <tile/>
   <tile/>
   <tile/>
   <tile/>
   <tile/>
   <tile/>
   <tile/>
   <tile/>
   <tile/>
   <tile/>
   <tile/>
   <tile/>
   <tile/>
   <tile/>
   <tile/>
   <tile/>
   <tile/>
   <tile/>
   <tile/>
   <tile/>
   <tile/>
   <tile/>
   <tile/>
   <tile/>
   <tile/>
   <tile/>
   <tile/>
   <tile/>
   <tile/>
   <tile/>
   <tile/>
   <tile/>
   <tile/>
   <tile/>
   <tile/>
   <tile/>
   <tile/>
   <tile/>
   <tile/>
   <tile/>
   <tile/>
   <tile/>
   <tile/>
   <tile/>
   <tile/>
   <tile/>
   <tile/>
   <tile/>
   <tile gid="587"/>
   <tile gid="588"/>
   <tile gid="588"/>
   <tile gid="588"/>
   <tile gid="588"/>
   <tile gid="588"/>
   <tile gid="589"/>
   <tile/>
   <tile/>
   <tile/>
   <tile/>
   <tile/>
   <tile/>
   <tile/>
   <tile/>
   <tile/>
   <tile/>
   <tile/>
   <tile/>
   <tile/>
   <tile/>
   <tile/>
   <tile/>
   <tile/>
   <tile/>
   <tile/>
   <tile/>
   <tile/>
   <tile/>
   <tile/>
   <tile/>
   <tile/>
   <tile/>
   <tile/>
   <tile/>
   <tile/>
   <tile/>
   <tile/>
   <tile/>
   <tile/>
   <tile/>
   <tile/>
   <tile/>
   <tile/>
   <tile/>
   <tile gid="587"/>
   <tile gid="588"/>
   <tile gid="588"/>
   <tile/>
   <tile/>
   <tile/>
   <tile/>
   <tile/>
   <tile/>
   <tile/>
   <tile/>
   <tile/>
   <tile/>
   <tile/>
   <tile/>
   <tile/>
   <tile/>
   <tile/>
   <tile/>
   <tile/>
   <tile/>
   <tile/>
   <tile/>
   <tile/>
   <tile/>
   <tile/>
   <tile/>
   <tile/>
   <tile/>
   <tile/>
   <tile/>
   <tile gid="588"/>
   <tile gid="589"/>
   <tile/>
   <tile/>
   <tile/>
   <tile/>
   <tile/>
   <tile/>
   <tile/>
   <tile/>
   <tile/>
   <tile/>
   <tile/>
   <tile/>
   <tile/>
   <tile/>
   <tile/>
   <tile/>
   <tile/>
   <tile/>
   <tile/>
   <tile/>
   <tile/>
   <tile/>
   <tile/>
   <tile/>
   <tile/>
   <tile/>
   <tile/>
   <tile/>
   <tile/>
   <tile/>
   <tile/>
   <tile/>
   <tile/>
   <tile/>
   <tile/>
   <tile/>
   <tile/>
   <tile/>
   <tile/>
   <tile/>
   <tile/>
   <tile/>
   <tile/>
   <tile/>
   <tile/>
   <tile/>
   <tile/>
   <tile/>
   <tile/>
   <tile/>
   <tile/>
   <tile/>
   <tile/>
   <tile/>
   <tile/>
   <tile/>
   <tile gid="587"/>
   <tile/>
   <tile/>
   <tile/>
   <tile/>
   <tile/>
   <tile/>
   <tile/>
   <tile/>
   <tile/>
   <tile/>
   <tile/>
   <tile/>
   <tile/>
   <tile/>
   <tile/>
   <tile/>
   <tile/>
   <tile/>
   <tile/>
   <tile/>
   <tile/>
   <tile/>
   <tile/>
   <tile/>
   <tile/>
   <tile/>
   <tile/>
   <tile/>
   <tile/>
   <tile/>
   <tile/>
   <tile/>
   <tile/>
   <tile/>
   <tile/>
   <tile/>
   <tile/>
   <tile/>
   <tile/>
   <tile/>
   <tile/>
   <tile/>
   <tile/>
   <tile/>
   <tile/>
   <tile/>
   <tile/>
   <tile/>
   <tile/>
   <tile/>
   <tile/>
   <tile/>
   <tile/>
   <tile/>
   <tile/>
   <tile/>
   <tile/>
   <tile/>
   <tile/>
   <tile/>
   <tile/>
   <tile/>
   <tile/>
   <tile/>
   <tile/>
   <tile/>
   <tile/>
   <tile/>
   <tile/>
   <tile/>
   <tile/>
   <tile/>
   <tile/>
   <tile/>
   <tile/>
   <tile/>
   <tile/>
   <tile/>
   <tile/>
   <tile/>
   <tile/>
   <tile/>
   <tile/>
   <tile/>
   <tile/>
   <tile/>
   <tile/>
   <tile/>
   <tile gid="587"/>
   <tile/>
   <tile/>
   <tile/>
   <tile/>
   <tile/>
   <tile/>
   <tile/>
   <tile/>
   <tile/>
   <tile/>
   <tile/>
   <tile/>
   <tile/>
   <tile/>
   <tile/>
   <tile/>
   <tile/>
   <tile/>
   <tile/>
   <tile/>
   <tile/>
   <tile/>
   <tile/>
   <tile/>
   <tile/>
   <tile/>
   <tile/>
   <tile/>
   <tile/>
   <tile/>
   <tile/>
   <tile/>
   <tile/>
   <tile/>
   <tile/>
   <tile/>
   <tile/>
   <tile/>
   <tile/>
   <tile/>
   <tile/>
   <tile/>
   <tile/>
   <tile/>
   <tile/>
   <tile/>
   <tile/>
   <tile/>
   <tile/>
   <tile/>
   <tile/>
   <tile/>
   <tile/>
   <tile/>
   <tile/>
   <tile/>
   <tile/>
   <tile/>
   <tile/>
   <tile/>
   <tile/>
   <tile/>
   <tile/>
   <tile/>
   <tile/>
   <tile/>
   <tile/>
   <tile/>
   <tile/>
   <tile/>
   <tile/>
   <tile/>
   <tile/>
   <tile/>
   <tile/>
   <tile/>
   <tile/>
   <tile/>
   <tile/>
   <tile/>
   <tile/>
   <tile/>
   <tile/>
   <tile/>
   <tile/>
   <tile/>
   <tile/>
   <tile/>
   <tile/>
   <tile/>
   <tile/>
   <tile/>
   <tile/>
   <tile/>
   <tile/>
   <tile/>
   <tile/>
   <tile/>
   <tile/>
   <tile/>
   <tile/>
   <tile/>
   <tile/>
   <tile/>
   <tile/>
   <tile/>
   <tile/>
   <tile/>
   <tile/>
   <tile/>
   <tile/>
   <tile/>
   <tile/>
   <tile/>
   <tile/>
   <tile/>
   <tile/>
   <tile/>
   <tile/>
   <tile/>
   <tile/>
   <tile/>
   <tile/>
   <tile/>
   <tile/>
   <tile/>
   <tile/>
   <tile/>
   <tile/>
   <tile/>
   <tile/>
   <tile/>
   <tile/>
   <tile/>
   <tile/>
   <tile/>
   <tile/>
   <tile/>
   <tile/>
   <tile/>
   <tile/>
   <tile/>
   <tile/>
   <tile/>
   <tile/>
   <tile/>
   <tile/>
   <tile/>
   <tile/>
   <tile/>
   <tile/>
   <tile/>
   <tile/>
   <tile/>
   <tile/>
   <tile/>
   <tile/>
   <tile/>
   <tile/>
   <tile/>
   <tile/>
   <tile/>
   <tile/>
   <tile/>
   <tile/>
   <tile/>
   <tile/>
   <tile/>
   <tile/>
   <tile/>
   <tile/>
   <tile/>
   <tile/>
   <tile/>
   <tile/>
   <tile/>
   <tile/>
   <tile/>
   <tile/>
   <tile/>
   <tile/>
   <tile/>
   <tile/>
   <tile/>
   <tile/>
   <tile/>
   <tile/>
   <tile/>
   <tile/>
   <tile/>
   <tile/>
   <tile/>
   <tile/>
   <tile/>
   <tile/>
   <tile/>
   <tile/>
   <tile/>
   <tile/>
   <tile/>
   <tile/>
   <tile/>
   <tile/>
   <tile/>
   <tile/>
   <tile/>
   <tile/>
   <tile/>
   <tile/>
   <tile/>
   <tile/>
   <tile/>
   <tile/>
   <tile/>
   <tile/>
   <tile/>
   <tile/>
   <tile/>
   <tile/>
   <tile/>
   <tile/>
   <tile/>
   <tile/>
   <tile/>
   <tile/>
   <tile/>
   <tile/>
   <tile/>
   <tile/>
   <tile/>
   <tile/>
   <tile/>
   <tile/>
   <tile/>
   <tile/>
   <tile/>
   <tile/>
   <tile/>
   <tile/>
   <tile/>
   <tile/>
   <tile/>
   <tile/>
   <tile/>
   <tile/>
   <tile/>
   <tile/>
   <tile/>
   <tile/>
   <tile/>
   <tile/>
   <tile/>
   <tile/>
   <tile/>
   <tile/>
   <tile/>
   <tile/>
   <tile/>
   <tile/>
   <tile/>
   <tile/>
   <tile/>
   <tile/>
   <tile/>
   <tile/>
   <tile/>
   <tile/>
   <tile/>
   <tile/>
   <tile/>
   <tile/>
   <tile/>
   <tile/>
   <tile/>
   <tile/>
   <tile/>
   <tile/>
   <tile/>
   <tile/>
   <tile/>
   <tile/>
   <tile/>
   <tile/>
   <tile/>
   <tile/>
   <tile/>
   <tile/>
   <tile/>
   <tile/>
   <tile/>
   <tile/>
   <tile/>
   <tile/>
   <tile/>
   <tile/>
   <tile/>
   <tile/>
   <tile/>
   <tile/>
   <tile/>
   <tile/>
   <tile/>
   <tile/>
   <tile/>
   <tile gid="588"/>
   <tile gid="589"/>
   <tile/>
   <tile/>
   <tile/>
   <tile/>
   <tile/>
   <tile/>
   <tile/>
   <tile/>
   <tile/>
   <tile/>
   <tile/>
   <tile/>
   <tile/>
   <tile/>
   <tile/>
   <tile/>
   <tile/>
   <tile/>
   <tile/>
   <tile/>
   <tile/>
   <tile/>
   <tile/>
   <tile/>
   <tile/>
   <tile/>
   <tile/>
   <tile/>
   <tile/>
   <tile/>
   <tile/>
   <tile/>
   <tile/>
   <tile/>
   <tile/>
   <tile/>
   <tile/>
   <tile/>
   <tile/>
   <tile/>
   <tile/>
   <tile/>
   <tile/>
   <tile/>
   <tile/>
   <tile/>
   <tile/>
   <tile/>
   <tile/>
   <tile/>
   <tile/>
   <tile/>
   <tile/>
   <tile/>
   <tile/>
   <tile/>
   <tile/>
   <tile/>
   <tile/>
   <tile/>
   <tile/>
   <tile/>
   <tile/>
   <tile/>
   <tile/>
   <tile/>
   <tile/>
   <tile/>
   <tile/>
   <tile/>
   <tile/>
   <tile/>
   <tile/>
   <tile/>
   <tile/>
   <tile/>
   <tile/>
   <tile/>
   <tile/>
   <tile/>
   <tile/>
   <tile/>
   <tile/>
   <tile/>
   <tile/>
   <tile/>
   <tile/>
   <tile/>
   <tile/>
   <tile/>
   <tile gid="588"/>
   <tile gid="588"/>
   <tile gid="589"/>
   <tile/>
   <tile/>
   <tile/>
   <tile/>
   <tile/>
   <tile/>
   <tile/>
   <tile/>
   <tile/>
   <tile/>
   <tile/>
   <tile/>
   <tile/>
   <tile/>
   <tile/>
   <tile/>
   <tile/>
   <tile/>
   <tile/>
   <tile/>
   <tile/>
   <tile/>
   <tile/>
   <tile/>
   <tile/>
   <tile/>
   <tile/>
   <tile/>
   <tile/>
   <tile/>
   <tile/>
   <tile/>
   <tile/>
   <tile/>
   <tile/>
   <tile/>
   <tile/>
   <tile/>
   <tile/>
   <tile/>
   <tile/>
   <tile/>
   <tile/>
   <tile/>
   <tile/>
   <tile/>
   <tile/>
   <tile/>
   <tile/>
   <tile/>
   <tile/>
   <tile/>
   <tile/>
   <tile/>
   <tile/>
   <tile/>
   <tile/>
   <tile/>
   <tile/>
   <tile/>
   <tile/>
   <tile/>
   <tile/>
   <tile/>
   <tile/>
   <tile/>
   <tile/>
   <tile/>
   <tile/>
   <tile/>
   <tile/>
   <tile/>
   <tile/>
   <tile/>
   <tile/>
   <tile/>
   <tile/>
   <tile/>
   <tile/>
   <tile/>
   <tile/>
   <tile/>
   <tile/>
   <tile/>
   <tile/>
   <tile/>
   <tile/>
   <tile/>
   <tile/>
   <tile/>
   <tile/>
   <tile/>
   <tile/>
   <tile/>
   <tile/>
   <tile/>
   <tile/>
   <tile/>
   <tile/>
   <tile/>
   <tile/>
   <tile/>
   <tile/>
   <tile/>
   <tile/>
   <tile/>
   <tile/>
   <tile/>
   <tile/>
   <tile/>
   <tile/>
   <tile/>
   <tile/>
   <tile/>
   <tile/>
   <tile/>
   <tile/>
   <tile/>
   <tile/>
   <tile/>
   <tile/>
   <tile/>
   <tile/>
   <tile/>
   <tile/>
   <tile/>
   <tile/>
   <tile/>
   <tile/>
   <tile/>
   <tile/>
   <tile/>
   <tile/>
   <tile/>
   <tile/>
   <tile/>
   <tile/>
   <tile/>
   <tile/>
   <tile/>
   <tile/>
   <tile/>
   <tile/>
   <tile/>
   <tile/>
   <tile/>
   <tile/>
   <tile/>
   <tile/>
   <tile/>
   <tile/>
   <tile/>
   <tile/>
   <tile/>
   <tile/>
   <tile/>
   <tile/>
   <tile/>
   <tile/>
   <tile/>
   <tile/>
   <tile/>
   <tile/>
   <tile/>
   <tile/>
   <tile/>
   <tile/>
   <tile/>
   <tile/>
   <tile/>
   <tile/>
   <tile/>
   <tile/>
   <tile/>
   <tile/>
   <tile/>
   <tile/>
   <tile/>
   <tile/>
   <tile/>
   <tile/>
   <tile/>
   <tile/>
   <tile/>
   <tile/>
   <tile/>
   <tile/>
   <tile/>
   <tile/>
   <tile/>
   <tile/>
   <tile/>
   <tile/>
   <tile/>
   <tile/>
   <tile/>
   <tile/>
   <tile/>
   <tile/>
   <tile/>
   <tile/>
   <tile/>
   <tile/>
   <tile/>
   <tile/>
   <tile/>
   <tile/>
   <tile/>
   <tile/>
   <tile/>
   <tile/>
   <tile/>
   <tile/>
   <tile/>
   <tile/>
   <tile/>
   <tile/>
   <tile/>
   <tile/>
   <tile/>
   <tile/>
   <tile/>
   <tile/>
   <tile/>
   <tile/>
   <tile/>
   <tile/>
   <tile/>
   <tile/>
   <tile/>
   <tile/>
   <tile/>
   <tile/>
   <tile/>
   <tile/>
   <tile/>
   <tile/>
   <tile/>
   <tile/>
   <tile/>
   <tile/>
   <tile/>
   <tile/>
   <tile/>
   <tile/>
   <tile/>
   <tile/>
   <tile/>
   <tile/>
   <tile/>
   <tile/>
   <tile/>
   <tile/>
   <tile/>
   <tile/>
   <tile/>
   <tile/>
   <tile/>
   <tile/>
   <tile/>
   <tile/>
   <tile/>
   <tile/>
   <tile/>
   <tile/>
   <tile/>
   <tile/>
   <tile/>
   <tile/>
   <tile/>
   <tile/>
   <tile/>
   <tile/>
   <tile/>
   <tile/>
   <tile/>
   <tile/>
   <tile/>
   <tile/>
   <tile/>
   <tile/>
   <tile/>
   <tile/>
   <tile/>
   <tile gid="523"/>
   <tile gid="524"/>
   <tile gid="524"/>
   <tile gid="524"/>
   <tile gid="524"/>
   <tile gid="524"/>
   <tile gid="524"/>
   <tile gid="524"/>
   <tile/>
   <tile/>
   <tile/>
   <tile/>
   <tile/>
   <tile/>
   <tile/>
   <tile/>
   <tile/>
   <tile/>
   <tile/>
   <tile/>
   <tile/>
   <tile/>
   <tile/>
   <tile/>
   <tile/>
   <tile/>
   <tile/>
   <tile/>
   <tile/>
   <tile/>
   <tile/>
   <tile/>
   <tile/>
   <tile/>
   <tile/>
   <tile/>
   <tile/>
   <tile/>
   <tile/>
   <tile/>
   <tile/>
   <tile/>
   <tile/>
   <tile/>
   <tile/>
   <tile/>
   <tile/>
   <tile/>
   <tile/>
   <tile/>
   <tile/>
   <tile/>
   <tile/>
   <tile/>
   <tile/>
   <tile/>
   <tile/>
   <tile/>
   <tile/>
   <tile/>
   <tile/>
   <tile/>
   <tile/>
   <tile/>
   <tile/>
   <tile/>
   <tile/>
   <tile/>
   <tile/>
   <tile/>
   <tile/>
   <tile/>
   <tile/>
   <tile/>
   <tile/>
   <tile/>
   <tile/>
   <tile/>
   <tile/>
   <tile/>
   <tile/>
   <tile/>
   <tile/>
   <tile/>
   <tile/>
   <tile/>
   <tile/>
   <tile/>
   <tile/>
   <tile/>
   <tile/>
   <tile/>
   <tile/>
   <tile/>
   <tile/>
   <tile/>
   <tile/>
   <tile/>
   <tile/>
   <tile/>
   <tile/>
   <tile/>
   <tile/>
   <tile/>
   <tile/>
   <tile/>
   <tile/>
   <tile/>
   <tile/>
   <tile/>
   <tile/>
   <tile/>
   <tile/>
   <tile/>
   <tile/>
   <tile/>
   <tile/>
   <tile/>
   <tile/>
   <tile/>
   <tile/>
   <tile/>
   <tile/>
   <tile/>
   <tile/>
   <tile/>
   <tile/>
   <tile/>
   <tile/>
   <tile/>
   <tile/>
   <tile/>
   <tile/>
   <tile/>
   <tile/>
   <tile/>
   <tile/>
   <tile/>
   <tile/>
   <tile/>
   <tile/>
   <tile/>
   <tile/>
   <tile/>
   <tile/>
   <tile/>
   <tile/>
   <tile/>
   <tile/>
   <tile/>
   <tile/>
   <tile/>
   <tile/>
   <tile/>
   <tile/>
   <tile/>
   <tile/>
   <tile/>
   <tile/>
   <tile/>
   <tile/>
   <tile/>
   <tile/>
   <tile/>
   <tile/>
   <tile/>
   <tile/>
   <tile/>
   <tile gid="587"/>
   <tile gid="588"/>
   <tile gid="588"/>
   <tile gid="588"/>
   <tile gid="588"/>
   <tile gid="588"/>
   <tile gid="588"/>
   <tile gid="588"/>
   <tile gid="589"/>
   <tile/>
   <tile/>
   <tile/>
   <tile/>
   <tile/>
   <tile/>
   <tile/>
   <tile/>
   <tile/>
   <tile/>
   <tile/>
   <tile/>
   <tile/>
   <tile/>
   <tile/>
   <tile gid="587"/>
   <tile gid="588"/>
   <tile gid="588"/>
   <tile gid="588"/>
   <tile gid="588"/>
   <tile gid="588"/>
   <tile gid="588"/>
   <tile gid="588"/>
   <tile gid="588"/>
   <tile gid="589"/>
   <tile/>
   <tile/>
   <tile/>
   <tile/>
   <tile/>
   <tile/>
   <tile/>
   <tile/>
   <tile/>
   <tile/>
   <tile/>
   <tile/>
   <tile/>
   <tile/>
   <tile/>
   <tile/>
   <tile/>
   <tile/>
   <tile/>
   <tile/>
   <tile/>
   <tile/>
   <tile/>
   <tile/>
   <tile/>
   <tile/>
   <tile/>
   <tile/>
   <tile/>
   <tile/>
   <tile gid="587"/>
   <tile/>
   <tile/>
   <tile/>
   <tile/>
   <tile/>
   <tile/>
   <tile/>
   <tile/>
   <tile/>
   <tile/>
   <tile/>
   <tile gid="589"/>
   <tile/>
   <tile/>
   <tile/>
   <tile/>
   <tile/>
   <tile/>
   <tile/>
   <tile/>
   <tile/>
   <tile/>
   <tile/>
   <tile/>
   <tile/>
   <tile/>
   <tile/>
   <tile/>
   <tile/>
   <tile/>
   <tile/>
   <tile/>
   <tile/>
   <tile/>
   <tile/>
   <tile/>
   <tile/>
   <tile/>
   <tile/>
   <tile/>
   <tile/>
   <tile/>
   <tile/>
   <tile/>
   <tile/>
   <tile/>
   <tile/>
   <tile/>
   <tile/>
   <tile/>
   <tile/>
   <tile/>
   <tile/>
   <tile/>
   <tile/>
   <tile/>
   <tile/>
   <tile/>
   <tile/>
   <tile/>
   <tile/>
   <tile/>
   <tile/>
   <tile/>
   <tile/>
   <tile/>
   <tile/>
   <tile/>
   <tile/>
   <tile/>
   <tile/>
   <tile/>
   <tile/>
   <tile/>
   <tile/>
   <tile/>
   <tile/>
   <tile/>
   <tile/>
   <tile/>
   <tile/>
   <tile/>
   <tile/>
   <tile/>
   <tile/>
   <tile/>
   <tile/>
   <tile/>
   <tile/>
   <tile/>
   <tile/>
   <tile/>
   <tile/>
   <tile/>
   <tile/>
   <tile/>
   <tile/>
   <tile/>
   <tile/>
   <tile/>
   <tile/>
   <tile/>
   <tile/>
   <tile/>
   <tile gid="587"/>
   <tile gid="588"/>
   <tile gid="588"/>
   <tile gid="588"/>
   <tile gid="588"/>
   <tile gid="588"/>
   <tile gid="589"/>
   <tile/>
   <tile/>
   <tile/>
   <tile/>
   <tile/>
   <tile/>
   <tile/>
   <tile/>
   <tile/>
   <tile/>
   <tile/>
   <tile/>
   <tile/>
   <tile/>
   <tile/>
   <tile/>
   <tile/>
   <tile/>
   <tile/>
   <tile/>
   <tile/>
   <tile/>
   <tile/>
   <tile/>
   <tile/>
   <tile/>
   <tile/>
   <tile/>
   <tile/>
   <tile/>
   <tile/>
   <tile/>
   <tile/>
   <tile/>
   <tile/>
   <tile/>
   <tile/>
   <tile/>
   <tile/>
   <tile/>
   <tile/>
   <tile/>
   <tile/>
   <tile/>
   <tile/>
   <tile/>
   <tile/>
   <tile/>
   <tile/>
   <tile/>
   <tile/>
   <tile/>
   <tile/>
   <tile/>
   <tile/>
   <tile/>
   <tile/>
   <tile/>
   <tile/>
   <tile/>
   <tile/>
   <tile/>
   <tile/>
   <tile/>
   <tile/>
   <tile/>
   <tile/>
   <tile/>
   <tile/>
   <tile gid="589"/>
   <tile/>
   <tile/>
   <tile/>
   <tile/>
   <tile/>
   <tile/>
   <tile/>
   <tile/>
   <tile/>
   <tile gid="587"/>
   <tile/>
   <tile/>
   <tile/>
   <tile/>
   <tile/>
   <tile/>
   <tile/>
   <tile/>
   <tile/>
   <tile/>
   <tile/>
   <tile/>
   <tile/>
   <tile/>
   <tile/>
   <tile/>
   <tile/>
   <tile/>
   <tile/>
   <tile/>
   <tile/>
   <tile/>
   <tile/>
   <tile/>
   <tile/>
   <tile/>
   <tile/>
   <tile/>
   <tile/>
   <tile/>
   <tile/>
   <tile/>
   <tile/>
   <tile/>
   <tile/>
   <tile/>
   <tile/>
   <tile/>
   <tile/>
   <tile/>
   <tile/>
   <tile/>
   <tile/>
   <tile/>
   <tile/>
   <tile/>
   <tile/>
   <tile/>
   <tile/>
   <tile/>
   <tile/>
   <tile/>
   <tile/>
   <tile/>
   <tile/>
   <tile/>
   <tile/>
   <tile/>
   <tile/>
   <tile/>
   <tile/>
   <tile/>
   <tile/>
   <tile/>
   <tile/>
   <tile/>
   <tile/>
   <tile/>
   <tile/>
   <tile/>
   <tile/>
   <tile/>
   <tile/>
   <tile/>
   <tile/>
   <tile/>
   <tile/>
   <tile/>
   <tile/>
   <tile/>
   <tile/>
   <tile/>
   <tile/>
   <tile/>
   <tile/>
   <tile/>
   <tile/>
   <tile/>
   <tile/>
   <tile/>
   <tile/>
   <tile/>
   <tile/>
   <tile/>
   <tile/>
   <tile/>
   <tile/>
   <tile/>
   <tile/>
   <tile/>
   <tile/>
   <tile/>
   <tile/>
   <tile/>
   <tile/>
   <tile/>
   <tile/>
   <tile/>
   <tile/>
   <tile/>
   <tile/>
   <tile/>
   <tile/>
   <tile/>
   <tile/>
   <tile/>
   <tile/>
   <tile/>
   <tile/>
   <tile/>
   <tile/>
   <tile/>
   <tile/>
   <tile/>
   <tile/>
   <tile/>
   <tile/>
   <tile/>
   <tile/>
   <tile/>
   <tile/>
   <tile/>
   <tile/>
   <tile/>
   <tile/>
   <tile/>
   <tile/>
   <tile/>
   <tile/>
   <tile/>
   <tile/>
   <tile/>
   <tile/>
   <tile/>
   <tile/>
   <tile/>
   <tile/>
   <tile/>
   <tile/>
   <tile/>
   <tile/>
   <tile/>
   <tile/>
   <tile/>
   <tile/>
   <tile/>
   <tile/>
   <tile/>
   <tile/>
   <tile/>
   <tile/>
   <tile/>
   <tile/>
   <tile/>
   <tile/>
   <tile/>
   <tile/>
   <tile/>
   <tile/>
   <tile/>
   <tile gid="588"/>
   <tile gid="588"/>
   <tile gid="589"/>
   <tile/>
   <tile/>
   <tile/>
   <tile gid="587"/>
   <tile gid="588"/>
   <tile gid="588"/>
   <tile/>
   <tile/>
   <tile/>
   <tile/>
   <tile/>
   <tile/>
   <tile/>
   <tile/>
   <tile/>
   <tile/>
   <tile/>
   <tile/>
   <tile/>
   <tile/>
   <tile/>
   <tile/>
   <tile/>
   <tile/>
   <tile/>
   <tile/>
   <tile/>
   <tile/>
   <tile/>
   <tile/>
   <tile/>
   <tile/>
   <tile/>
   <tile/>
   <tile/>
   <tile/>
   <tile/>
   <tile/>
   <tile/>
   <tile/>
   <tile/>
   <tile/>
   <tile/>
   <tile/>
   <tile/>
   <tile/>
   <tile/>
   <tile/>
   <tile/>
   <tile/>
   <tile/>
   <tile/>
   <tile/>
   <tile/>
   <tile/>
   <tile/>
   <tile/>
   <tile/>
   <tile/>
   <tile/>
   <tile/>
   <tile/>
   <tile/>
   <tile/>
   <tile/>
   <tile/>
   <tile/>
   <tile/>
   <tile/>
   <tile/>
   <tile/>
   <tile/>
   <tile/>
   <tile/>
   <tile/>
   <tile/>
   <tile/>
   <tile/>
   <tile/>
   <tile/>
   <tile/>
   <tile/>
   <tile/>
   <tile/>
   <tile/>
   <tile/>
   <tile/>
   <tile/>
   <tile/>
   <tile/>
   <tile gid="589"/>
   <tile/>
   <tile gid="587"/>
   <tile/>
   <tile/>
   <tile/>
   <tile/>
   <tile/>
   <tile/>
   <tile/>
   <tile/>
   <tile/>
   <tile/>
   <tile/>
   <tile/>
   <tile/>
   <tile/>
   <tile/>
   <tile/>
   <tile/>
   <tile/>
   <tile/>
   <tile/>
   <tile/>
   <tile/>
   <tile/>
   <tile/>
   <tile/>
   <tile/>
   <tile/>
   <tile/>
   <tile/>
   <tile/>
   <tile/>
   <tile/>
   <tile/>
   <tile/>
   <tile/>
   <tile/>
   <tile/>
   <tile/>
   <tile/>
   <tile/>
   <tile/>
   <tile/>
   <tile/>
   <tile/>
   <tile/>
   <tile/>
   <tile/>
   <tile/>
   <tile/>
   <tile/>
   <tile/>
   <tile/>
   <tile/>
   <tile/>
   <tile/>
   <tile/>
   <tile/>
   <tile/>
   <tile/>
   <tile/>
   <tile/>
   <tile/>
   <tile/>
   <tile/>
   <tile/>
   <tile/>
   <tile/>
   <tile/>
   <tile/>
   <tile/>
   <tile/>
   <tile/>
   <tile/>
   <tile/>
   <tile/>
   <tile/>
   <tile/>
   <tile/>
   <tile/>
   <tile/>
   <tile/>
   <tile/>
   <tile/>
   <tile/>
   <tile/>
   <tile/>
   <tile/>
   <tile/>
   <tile gid="588"/>
   <tile/>
   <tile/>
   <tile/>
   <tile/>
   <tile/>
   <tile/>
   <tile/>
   <tile/>
   <tile/>
   <tile/>
   <tile/>
   <tile/>
   <tile/>
   <tile/>
   <tile/>
   <tile/>
   <tile/>
   <tile/>
   <tile/>
   <tile/>
   <tile/>
   <tile/>
   <tile/>
   <tile/>
   <tile/>
   <tile/>
   <tile/>
   <tile/>
   <tile/>
   <tile/>
   <tile/>
   <tile/>
   <tile/>
   <tile/>
   <tile/>
   <tile/>
   <tile/>
   <tile/>
   <tile/>
   <tile/>
   <tile/>
   <tile/>
   <tile/>
   <tile/>
   <tile/>
   <tile/>
   <tile/>
   <tile/>
   <tile/>
   <tile/>
   <tile gid="587"/>
   <tile gid="588"/>
   <tile gid="588"/>
   <tile gid="588"/>
   <tile gid="588"/>
   <tile gid="589"/>
   <tile/>
   <tile/>
   <tile/>
   <tile/>
   <tile/>
   <tile/>
   <tile/>
   <tile/>
   <tile/>
   <tile/>
   <tile/>
   <tile/>
   <tile/>
   <tile/>
   <tile/>
   <tile/>
   <tile/>
   <tile/>
   <tile/>
   <tile/>
   <tile/>
   <tile/>
   <tile/>
   <tile/>
   <tile/>
   <tile/>
   <tile/>
   <tile/>
   <tile/>
   <tile/>
   <tile/>
   <tile/>
   <tile/>
   <tile/>
   <tile/>
   <tile/>
   <tile/>
   <tile/>
   <tile/>
   <tile/>
   <tile/>
   <tile/>
   <tile/>
   <tile/>
   <tile/>
   <tile/>
   <tile/>
   <tile/>
   <tile/>
   <tile/>
   <tile/>
   <tile/>
   <tile/>
   <tile/>
   <tile/>
   <tile/>
   <tile/>
   <tile/>
   <tile/>
   <tile/>
   <tile/>
   <tile/>
   <tile/>
   <tile/>
   <tile/>
   <tile/>
   <tile/>
   <tile/>
   <tile/>
   <tile/>
   <tile/>
   <tile/>
   <tile/>
   <tile/>
   <tile/>
   <tile/>
   <tile/>
   <tile/>
   <tile/>
   <tile/>
   <tile/>
   <tile/>
   <tile/>
   <tile/>
   <tile/>
   <tile/>
   <tile/>
   <tile/>
   <tile/>
   <tile/>
   <tile/>
   <tile/>
   <tile/>
   <tile/>
   <tile/>
   <tile/>
   <tile/>
   <tile/>
   <tile/>
   <tile/>
   <tile/>
   <tile/>
   <tile/>
   <tile/>
   <tile/>
   <tile/>
   <tile/>
   <tile/>
   <tile/>
   <tile/>
   <tile/>
   <tile/>
   <tile/>
   <tile/>
   <tile/>
   <tile/>
   <tile/>
   <tile/>
   <tile/>
   <tile/>
   <tile/>
   <tile/>
   <tile/>
   <tile/>
   <tile/>
   <tile/>
   <tile/>
   <tile/>
   <tile/>
   <tile/>
   <tile/>
   <tile/>
   <tile/>
   <tile/>
   <tile/>
   <tile/>
   <tile/>
   <tile/>
   <tile/>
   <tile/>
   <tile/>
   <tile/>
   <tile/>
   <tile/>
   <tile/>
   <tile/>
   <tile/>
   <tile/>
   <tile/>
   <tile/>
   <tile/>
   <tile/>
   <tile/>
   <tile/>
   <tile/>
   <tile/>
   <tile/>
   <tile/>
   <tile/>
   <tile/>
   <tile/>
   <tile/>
   <tile/>
   <tile/>
   <tile/>
   <tile/>
   <tile/>
   <tile/>
   <tile/>
   <tile/>
   <tile/>
   <tile/>
   <tile/>
   <tile/>
   <tile/>
   <tile/>
   <tile/>
   <tile/>
   <tile/>
   <tile/>
   <tile/>
   <tile/>
   <tile/>
   <tile/>
   <tile/>
   <tile/>
   <tile/>
   <tile/>
   <tile/>
   <tile/>
   <tile/>
   <tile/>
   <tile/>
   <tile/>
   <tile/>
   <tile/>
   <tile/>
   <tile/>
   <tile/>
   <tile/>
   <tile/>
   <tile/>
   <tile/>
   <tile/>
   <tile/>
   <tile/>
   <tile/>
   <tile/>
   <tile/>
   <tile/>
   <tile/>
   <tile/>
   <tile/>
   <tile/>
   <tile/>
   <tile/>
   <tile/>
   <tile/>
   <tile/>
   <tile/>
   <tile/>
   <tile/>
   <tile/>
   <tile/>
   <tile/>
   <tile/>
   <tile/>
   <tile/>
   <tile/>
   <tile/>
   <tile/>
   <tile/>
   <tile/>
   <tile/>
   <tile/>
   <tile/>
   <tile/>
   <tile/>
   <tile/>
   <tile/>
   <tile/>
   <tile/>
   <tile/>
   <tile/>
   <tile/>
   <tile/>
   <tile/>
   <tile/>
   <tile/>
   <tile/>
   <tile/>
   <tile/>
   <tile/>
   <tile/>
   <tile/>
   <tile/>
   <tile/>
   <tile/>
   <tile/>
   <tile/>
   <tile/>
   <tile/>
   <tile/>
   <tile/>
   <tile/>
   <tile/>
   <tile/>
   <tile/>
   <tile/>
   <tile/>
   <tile/>
   <tile/>
   <tile/>
   <tile/>
   <tile/>
   <tile/>
   <tile/>
   <tile/>
   <tile/>
   <tile/>
   <tile/>
   <tile/>
   <tile/>
   <tile/>
   <tile/>
   <tile/>
   <tile/>
   <tile/>
   <tile/>
   <tile/>
   <tile/>
   <tile/>
   <tile/>
   <tile/>
   <tile/>
   <tile/>
   <tile/>
   <tile/>
   <tile/>
   <tile/>
   <tile/>
   <tile/>
   <tile/>
   <tile/>
   <tile/>
   <tile/>
   <tile/>
   <tile/>
   <tile/>
   <tile/>
   <tile/>
   <tile/>
   <tile/>
   <tile/>
   <tile/>
   <tile/>
   <tile/>
   <tile/>
   <tile/>
   <tile/>
   <tile/>
   <tile/>
   <tile/>
   <tile/>
   <tile/>
   <tile/>
   <tile/>
   <tile/>
   <tile/>
   <tile/>
   <tile/>
   <tile/>
   <tile/>
   <tile/>
   <tile/>
   <tile/>
   <tile/>
   <tile/>
   <tile/>
   <tile/>
   <tile/>
   <tile/>
   <tile/>
   <tile/>
   <tile/>
   <tile/>
   <tile/>
   <tile/>
   <tile/>
   <tile/>
   <tile/>
   <tile/>
   <tile/>
   <tile/>
   <tile/>
   <tile/>
   <tile/>
   <tile/>
   <tile/>
   <tile/>
   <tile/>
   <tile/>
   <tile/>
   <tile/>
   <tile/>
   <tile/>
   <tile/>
   <tile/>
   <tile/>
   <tile/>
   <tile/>
   <tile/>
   <tile/>
   <tile/>
   <tile/>
   <tile/>
   <tile/>
   <tile/>
   <tile/>
   <tile/>
   <tile/>
   <tile/>
   <tile/>
   <tile/>
   <tile/>
   <tile/>
   <tile/>
   <tile/>
   <tile/>
   <tile/>
   <tile/>
   <tile/>
   <tile/>
   <tile/>
   <tile/>
   <tile/>
   <tile/>
   <tile/>
   <tile/>
   <tile/>
   <tile/>
   <tile/>
   <tile/>
   <tile/>
   <tile/>
   <tile/>
   <tile/>
   <tile/>
   <tile/>
   <tile/>
   <tile/>
   <tile/>
   <tile/>
   <tile/>
   <tile/>
   <tile/>
   <tile/>
   <tile/>
   <tile/>
   <tile/>
   <tile/>
   <tile/>
   <tile/>
   <tile/>
   <tile/>
   <tile/>
   <tile/>
   <tile/>
   <tile/>
   <tile/>
   <tile/>
   <tile/>
   <tile/>
   <tile/>
   <tile/>
   <tile/>
   <tile/>
   <tile/>
   <tile/>
   <tile/>
   <tile/>
   <tile/>
   <tile/>
   <tile/>
   <tile/>
   <tile/>
   <tile/>
   <tile/>
   <tile/>
   <tile/>
   <tile/>
   <tile/>
   <tile/>
   <tile/>
   <tile/>
   <tile/>
   <tile/>
   <tile/>
   <tile/>
   <tile/>
   <tile/>
   <tile/>
   <tile/>
   <tile/>
   <tile/>
   <tile/>
   <tile/>
   <tile/>
   <tile/>
   <tile/>
   <tile/>
   <tile/>
   <tile/>
   <tile/>
   <tile/>
   <tile/>
   <tile/>
   <tile/>
   <tile gid="589"/>
   <tile/>
   <tile/>
   <tile/>
   <tile/>
   <tile/>
   <tile/>
   <tile/>
   <tile/>
   <tile/>
   <tile gid="587"/>
   <tile/>
   <tile/>
   <tile/>
   <tile/>
   <tile/>
   <tile/>
   <tile/>
   <tile/>
   <tile/>
   <tile/>
   <tile/>
   <tile/>
   <tile/>
   <tile/>
   <tile/>
   <tile/>
   <tile/>
   <tile/>
   <tile/>
   <tile/>
   <tile/>
   <tile/>
   <tile/>
   <tile/>
   <tile/>
   <tile/>
   <tile/>
   <tile/>
   <tile/>
   <tile/>
   <tile/>
   <tile/>
   <tile/>
   <tile/>
   <tile/>
   <tile/>
   <tile/>
   <tile/>
   <tile/>
   <tile/>
   <tile/>
   <tile/>
   <tile/>
   <tile/>
   <tile/>
   <tile/>
   <tile/>
   <tile/>
   <tile/>
   <tile/>
   <tile/>
   <tile/>
   <tile/>
   <tile/>
   <tile/>
   <tile/>
   <tile/>
   <tile/>
   <tile/>
   <tile/>
   <tile/>
   <tile/>
   <tile/>
   <tile/>
   <tile/>
   <tile/>
   <tile/>
   <tile/>
   <tile/>
   <tile/>
   <tile/>
   <tile/>
   <tile/>
   <tile/>
   <tile/>
   <tile/>
   <tile/>
   <tile/>
   <tile gid="587"/>
   <tile/>
   <tile/>
   <tile/>
   <tile/>
   <tile/>
   <tile/>
   <tile/>
   <tile/>
   <tile/>
   <tile/>
   <tile/>
   <tile gid="589"/>
   <tile/>
   <tile/>
   <tile/>
   <tile/>
   <tile/>
   <tile/>
   <tile/>
   <tile/>
   <tile/>
   <tile/>
   <tile/>
   <tile/>
   <tile/>
   <tile/>
   <tile/>
   <tile/>
   <tile/>
   <tile/>
   <tile/>
   <tile/>
   <tile/>
   <tile/>
   <tile/>
   <tile/>
   <tile/>
   <tile/>
   <tile/>
   <tile/>
   <tile/>
   <tile/>
   <tile/>
   <tile/>
   <tile/>
   <tile/>
   <tile/>
   <tile/>
   <tile/>
   <tile/>
   <tile/>
   <tile/>
   <tile/>
   <tile/>
   <tile/>
   <tile/>
   <tile/>
   <tile/>
   <tile/>
   <tile/>
   <tile/>
   <tile/>
   <tile/>
   <tile/>
   <tile/>
   <tile/>
   <tile/>
   <tile/>
   <tile/>
   <tile/>
   <tile/>
   <tile/>
   <tile/>
   <tile/>
   <tile/>
   <tile/>
   <tile/>
   <tile/>
   <tile/>
   <tile/>
   <tile/>
   <tile/>
   <tile/>
   <tile/>
   <tile/>
   <tile/>
   <tile/>
   <tile/>
   <tile/>
   <tile/>
   <tile/>
   <tile/>
   <tile/>
   <tile/>
   <tile/>
   <tile/>
   <tile/>
   <tile/>
   <tile/>
   <tile/>
   <tile/>
   <tile/>
   <tile/>
   <tile/>
   <tile/>
   <tile/>
   <tile/>
   <tile/>
   <tile/>
   <tile/>
   <tile/>
   <tile/>
   <tile/>
   <tile/>
   <tile/>
   <tile/>
   <tile/>
   <tile/>
   <tile/>
   <tile/>
   <tile/>
   <tile/>
   <tile/>
   <tile/>
   <tile/>
   <tile/>
   <tile/>
   <tile/>
   <tile/>
   <tile/>
   <tile/>
   <tile/>
   <tile/>
   <tile/>
   <tile/>
   <tile/>
   <tile/>
   <tile/>
   <tile/>
   <tile/>
   <tile/>
   <tile/>
   <tile/>
   <tile/>
   <tile/>
   <tile/>
   <tile/>
   <tile/>
   <tile/>
   <tile/>
   <tile/>
   <tile/>
   <tile/>
   <tile/>
   <tile/>
   <tile/>
   <tile/>
   <tile/>
   <tile/>
   <tile/>
   <tile/>
   <tile/>
   <tile/>
   <tile/>
   <tile/>
   <tile/>
   <tile/>
   <tile/>
   <tile/>
   <tile/>
   <tile/>
   <tile/>
   <tile/>
   <tile/>
   <tile/>
   <tile/>
   <tile/>
   <tile/>
   <tile/>
   <tile/>
   <tile/>
   <tile/>
   <tile/>
   <tile/>
   <tile/>
   <tile/>
   <tile/>
   <tile/>
   <tile/>
   <tile/>
   <tile/>
   <tile/>
   <tile/>
   <tile/>
   <tile/>
   <tile/>
   <tile/>
   <tile/>
   <tile gid="587"/>
   <tile gid="588"/>
   <tile gid="588"/>
   <tile gid="588"/>
   <tile gid="588"/>
   <tile gid="588"/>
   <tile gid="588"/>
   <tile gid="588"/>
   <tile gid="588"/>
   <tile gid="589"/>
   <tile/>
   <tile/>
   <tile/>
   <tile/>
   <tile/>
   <tile/>
   <tile/>
   <tile/>
   <tile/>
   <tile/>
   <tile/>
   <tile/>
   <tile/>
   <tile/>
   <tile/>
   <tile/>
   <tile/>
   <tile/>
   <tile/>
   <tile/>
   <tile/>
   <tile/>
   <tile/>
   <tile/>
   <tile/>
   <tile/>
   <tile/>
   <tile/>
   <tile/>
   <tile/>
   <tile/>
   <tile/>
   <tile/>
   <tile/>
   <tile/>
   <tile/>
   <tile/>
   <tile/>
   <tile/>
   <tile/>
   <tile/>
   <tile/>
   <tile/>
   <tile/>
   <tile/>
   <tile/>
   <tile/>
   <tile/>
   <tile/>
   <tile/>
   <tile/>
   <tile/>
   <tile/>
   <tile/>
   <tile/>
   <tile/>
   <tile/>
   <tile/>
   <tile/>
   <tile/>
   <tile/>
   <tile/>
   <tile/>
   <tile/>
   <tile/>
   <tile/>
   <tile/>
   <tile/>
   <tile/>
   <tile/>
   <tile/>
   <tile/>
   <tile/>
   <tile/>
   <tile/>
   <tile/>
   <tile/>
   <tile/>
   <tile/>
   <tile/>
   <tile/>
   <tile/>
   <tile/>
   <tile/>
   <tile/>
   <tile/>
   <tile/>
   <tile/>
   <tile/>
   <tile/>
   <tile/>
   <tile/>
   <tile/>
   <tile/>
   <tile/>
   <tile/>
   <tile/>
   <tile/>
   <tile/>
   <tile/>
   <tile/>
   <tile/>
   <tile/>
   <tile/>
   <tile/>
   <tile/>
   <tile/>
   <tile/>
   <tile/>
   <tile gid="524"/>
   <tile gid="524"/>
   <tile gid="524"/>
   <tile gid="524"/>
   <tile gid="524"/>
   <tile gid="524"/>
   <tile gid="524"/>
   <tile gid="524"/>
   <tile gid="524"/>
   <tile gid="524"/>
   <tile gid="524"/>
   <tile gid="524"/>
   <tile gid="524"/>
   <tile gid="524"/>
   <tile gid="525"/>
   <tile/>
   <tile/>
   <tile/>
   <tile/>
   <tile/>
   <tile/>
   <tile/>
   <tile/>
   <tile/>
   <tile/>
   <tile gid="587"/>
   <tile gid="588"/>
   <tile gid="588"/>
   <tile gid="588"/>
   <tile gid="588"/>
   <tile gid="588"/>
   <tile gid="588"/>
   <tile gid="588"/>
   <tile gid="588"/>
   <tile gid="588"/>
   <tile gid="588"/>
   <tile gid="589"/>
   <tile/>
   <tile/>
   <tile/>
   <tile/>
   <tile/>
   <tile/>
   <tile/>
   <tile/>
   <tile/>
   <tile gid="587"/>
   <tile gid="588"/>
   <tile gid="588"/>
   <tile gid="588"/>
   <tile gid="589"/>
   <tile/>
   <tile/>
   <tile/>
   <tile/>
   <tile/>
   <tile/>
   <tile/>
   <tile/>
   <tile/>
   <tile/>
   <tile/>
   <tile/>
   <tile/>
   <tile/>
   <tile/>
   <tile/>
   <tile/>
   <tile/>
   <tile/>
   <tile/>
   <tile/>
   <tile/>
   <tile/>
   <tile/>
   <tile/>
   <tile/>
   <tile/>
   <tile/>
   <tile/>
   <tile/>
   <tile/>
   <tile/>
   <tile/>
   <tile/>
   <tile/>
   <tile/>
   <tile/>
   <tile/>
   <tile/>
   <tile/>
   <tile/>
   <tile/>
   <tile/>
   <tile/>
   <tile/>
   <tile/>
   <tile/>
   <tile/>
   <tile/>
   <tile/>
   <tile/>
   <tile/>
   <tile/>
   <tile/>
   <tile/>
   <tile/>
   <tile/>
   <tile/>
   <tile/>
   <tile/>
   <tile/>
   <tile/>
   <tile/>
   <tile/>
   <tile/>
   <tile/>
   <tile/>
   <tile/>
   <tile/>
   <tile/>
   <tile/>
   <tile/>
   <tile/>
   <tile/>
   <tile/>
   <tile/>
   <tile/>
   <tile/>
   <tile/>
   <tile/>
   <tile/>
   <tile/>
   <tile/>
   <tile/>
   <tile/>
   <tile/>
   <tile/>
   <tile/>
   <tile/>
   <tile/>
   <tile/>
   <tile/>
   <tile/>
   <tile/>
   <tile/>
   <tile/>
   <tile/>
   <tile/>
   <tile/>
   <tile/>
   <tile/>
   <tile/>
   <tile/>
   <tile/>
   <tile/>
   <tile/>
   <tile/>
   <tile/>
   <tile/>
   <tile/>
   <tile/>
   <tile/>
   <tile/>
   <tile/>
   <tile/>
   <tile/>
   <tile/>
   <tile/>
   <tile/>
   <tile/>
   <tile/>
   <tile/>
   <tile/>
   <tile/>
   <tile/>
   <tile/>
   <tile/>
   <tile/>
   <tile/>
   <tile/>
   <tile/>
   <tile/>
   <tile/>
   <tile/>
   <tile/>
   <tile/>
   <tile/>
   <tile/>
   <tile/>
   <tile/>
   <tile/>
   <tile/>
   <tile/>
   <tile/>
   <tile/>
   <tile/>
   <tile/>
   <tile/>
   <tile/>
   <tile/>
   <tile/>
   <tile/>
   <tile/>
   <tile/>
   <tile/>
   <tile/>
   <tile/>
   <tile/>
   <tile/>
   <tile/>
   <tile/>
   <tile/>
   <tile/>
   <tile/>
   <tile/>
   <tile/>
   <tile/>
   <tile/>
   <tile/>
   <tile/>
   <tile/>
   <tile/>
   <tile/>
   <tile/>
   <tile/>
   <tile/>
   <tile/>
   <tile/>
   <tile/>
   <tile/>
   <tile/>
   <tile/>
   <tile/>
   <tile/>
   <tile/>
   <tile/>
   <tile/>
   <tile/>
   <tile/>
   <tile/>
   <tile/>
   <tile/>
   <tile/>
   <tile/>
   <tile/>
   <tile/>
   <tile/>
   <tile/>
   <tile/>
   <tile/>
   <tile/>
   <tile/>
   <tile/>
   <tile/>
   <tile/>
   <tile/>
   <tile/>
   <tile/>
   <tile/>
   <tile/>
   <tile/>
   <tile/>
   <tile/>
   <tile/>
   <tile/>
   <tile/>
   <tile/>
   <tile/>
   <tile/>
   <tile/>
   <tile/>
   <tile/>
   <tile/>
   <tile/>
   <tile/>
   <tile/>
   <tile/>
   <tile/>
   <tile/>
   <tile/>
   <tile/>
   <tile/>
   <tile/>
   <tile/>
   <tile/>
   <tile/>
   <tile/>
   <tile/>
   <tile/>
   <tile/>
   <tile/>
   <tile/>
   <tile/>
   <tile/>
   <tile/>
   <tile/>
   <tile/>
   <tile/>
   <tile/>
   <tile/>
   <tile/>
   <tile/>
   <tile/>
   <tile/>
   <tile/>
   <tile/>
   <tile/>
   <tile/>
   <tile/>
   <tile/>
   <tile/>
   <tile/>
   <tile/>
   <tile/>
   <tile/>
   <tile/>
   <tile/>
   <tile/>
   <tile/>
   <tile/>
   <tile/>
   <tile/>
   <tile/>
   <tile/>
   <tile/>
   <tile/>
   <tile/>
   <tile/>
   <tile/>
   <tile/>
   <tile/>
   <tile/>
   <tile/>
   <tile/>
   <tile/>
   <tile/>
   <tile/>
   <tile/>
   <tile/>
   <tile/>
   <tile/>
   <tile/>
   <tile/>
   <tile/>
   <tile/>
   <tile/>
   <tile/>
   <tile/>
   <tile/>
   <tile/>
   <tile/>
   <tile/>
   <tile/>
   <tile/>
   <tile/>
   <tile/>
   <tile/>
   <tile/>
   <tile/>
   <tile/>
   <tile/>
   <tile/>
   <tile/>
   <tile/>
   <tile/>
   <tile/>
   <tile/>
   <tile/>
   <tile/>
   <tile/>
   <tile/>
   <tile/>
   <tile/>
   <tile/>
   <tile/>
   <tile/>
   <tile/>
   <tile/>
   <tile/>
   <tile/>
   <tile/>
   <tile/>
   <tile/>
   <tile/>
   <tile/>
   <tile/>
   <tile/>
   <tile/>
   <tile/>
   <tile/>
   <tile/>
   <tile/>
   <tile/>
   <tile/>
   <tile/>
   <tile/>
   <tile/>
   <tile/>
   <tile/>
   <tile/>
   <tile/>
   <tile/>
   <tile/>
   <tile/>
   <tile/>
   <tile/>
   <tile/>
   <tile/>
   <tile/>
   <tile/>
   <tile/>
   <tile/>
   <tile/>
   <tile/>
   <tile/>
   <tile/>
   <tile/>
   <tile/>
   <tile/>
   <tile/>
   <tile/>
   <tile/>
   <tile/>
   <tile/>
   <tile/>
   <tile/>
   <tile/>
   <tile/>
   <tile/>
   <tile/>
   <tile/>
   <tile/>
   <tile/>
   <tile/>
   <tile/>
   <tile/>
   <tile/>
   <tile/>
   <tile/>
   <tile/>
   <tile/>
   <tile/>
   <tile/>
   <tile/>
   <tile/>
   <tile/>
   <tile/>
   <tile/>
   <tile/>
   <tile/>
   <tile/>
   <tile/>
   <tile/>
   <tile/>
   <tile/>
   <tile/>
   <tile/>
   <tile/>
   <tile/>
   <tile/>
   <tile/>
   <tile/>
   <tile/>
   <tile/>
   <tile/>
   <tile/>
   <tile/>
   <tile/>
   <tile/>
   <tile/>
   <tile/>
   <tile/>
   <tile/>
   <tile/>
   <tile/>
   <tile/>
   <tile/>
   <tile/>
   <tile/>
   <tile/>
   <tile/>
   <tile/>
   <tile/>
   <tile/>
   <tile/>
   <tile/>
   <tile/>
   <tile/>
   <tile/>
   <tile/>
   <tile/>
   <tile/>
   <tile/>
   <tile/>
   <tile/>
   <tile/>
   <tile/>
   <tile/>
   <tile/>
   <tile/>
   <tile/>
   <tile/>
   <tile/>
   <tile/>
   <tile/>
   <tile/>
   <tile/>
   <tile/>
   <tile/>
   <tile/>
   <tile/>
   <tile/>
   <tile/>
   <tile/>
   <tile/>
   <tile/>
   <tile/>
   <tile/>
   <tile/>
   <tile/>
   <tile/>
   <tile/>
   <tile/>
   <tile/>
   <tile/>
   <tile/>
   <tile/>
   <tile/>
   <tile/>
   <tile/>
   <tile/>
   <tile/>
   <tile/>
   <tile/>
   <tile/>
   <tile/>
   <tile/>
   <tile/>
   <tile/>
   <tile/>
   <tile/>
   <tile/>
   <tile/>
   <tile/>
   <tile/>
   <tile/>
   <tile/>
   <tile/>
   <tile/>
   <tile/>
   <tile/>
   <tile/>
   <tile/>
   <tile/>
   <tile/>
   <tile/>
   <tile/>
   <tile/>
   <tile/>
   <tile/>
   <tile/>
   <tile/>
   <tile/>
   <tile/>
   <tile/>
   <tile/>
   <tile/>
   <tile/>
   <tile/>
   <tile/>
   <tile/>
   <tile/>
   <tile/>
   <tile/>
   <tile/>
   <tile/>
   <tile/>
   <tile/>
   <tile/>
   <tile/>
   <tile/>
   <tile/>
   <tile/>
   <tile/>
   <tile/>
   <tile/>
   <tile/>
   <tile/>
   <tile/>
   <tile/>
   <tile/>
   <tile/>
   <tile gid="587"/>
   <tile gid="588"/>
   <tile gid="588"/>
   <tile gid="588"/>
   <tile gid="588"/>
   <tile gid="588"/>
   <tile gid="588"/>
   <tile gid="588"/>
   <tile gid="588"/>
   <tile gid="589"/>
   <tile/>
   <tile/>
   <tile/>
   <tile/>
   <tile/>
   <tile/>
   <tile/>
   <tile/>
   <tile/>
   <tile/>
   <tile/>
   <tile/>
   <tile/>
   <tile/>
   <tile/>
   <tile/>
   <tile/>
   <tile/>
   <tile/>
   <tile/>
   <tile/>
   <tile/>
   <tile/>
   <tile/>
   <tile/>
   <tile/>
   <tile/>
   <tile/>
   <tile/>
   <tile/>
   <tile/>
   <tile/>
   <tile/>
   <tile/>
   <tile/>
   <tile/>
   <tile/>
   <tile/>
   <tile/>
   <tile/>
   <tile/>
   <tile/>
   <tile/>
   <tile/>
   <tile/>
   <tile/>
   <tile/>
   <tile/>
   <tile/>
   <tile/>
   <tile/>
   <tile/>
   <tile/>
   <tile/>
   <tile/>
   <tile/>
   <tile/>
   <tile/>
   <tile/>
   <tile/>
   <tile/>
   <tile/>
   <tile/>
   <tile/>
   <tile/>
   <tile/>
   <tile/>
   <tile/>
   <tile/>
   <tile/>
   <tile/>
   <tile/>
   <tile/>
   <tile/>
   <tile/>
   <tile/>
   <tile/>
   <tile/>
   <tile/>
   <tile/>
   <tile/>
   <tile/>
   <tile/>
   <tile/>
   <tile/>
   <tile/>
   <tile/>
   <tile/>
   <tile/>
   <tile/>
   <tile/>
   <tile/>
   <tile/>
   <tile/>
   <tile/>
   <tile/>
   <tile/>
   <tile/>
   <tile/>
   <tile/>
   <tile/>
   <tile/>
   <tile/>
   <tile/>
   <tile/>
   <tile/>
   <tile/>
   <tile/>
   <tile/>
   <tile/>
   <tile/>
   <tile/>
   <tile/>
   <tile/>
   <tile/>
   <tile/>
   <tile/>
   <tile/>
   <tile/>
   <tile/>
   <tile/>
   <tile/>
   <tile/>
   <tile/>
   <tile/>
   <tile/>
   <tile/>
   <tile/>
   <tile/>
   <tile/>
   <tile/>
   <tile/>
   <tile/>
   <tile/>
   <tile/>
   <tile/>
   <tile/>
   <tile/>
   <tile/>
   <tile/>
   <tile/>
   <tile/>
   <tile/>
   <tile/>
   <tile/>
   <tile/>
   <tile/>
   <tile/>
   <tile/>
   <tile/>
   <tile gid="587"/>
   <tile gid="588"/>
   <tile gid="588"/>
   <tile gid="588"/>
   <tile gid="588"/>
   <tile gid="588"/>
   <tile gid="589"/>
   <tile/>
   <tile/>
   <tile/>
   <tile/>
   <tile/>
   <tile/>
   <tile/>
   <tile/>
   <tile/>
   <tile/>
   <tile/>
   <tile/>
   <tile/>
   <tile/>
   <tile/>
   <tile/>
   <tile/>
   <tile/>
   <tile/>
   <tile/>
   <tile/>
   <tile/>
   <tile/>
   <tile/>
   <tile/>
   <tile/>
   <tile/>
   <tile/>
   <tile/>
   <tile/>
   <tile/>
   <tile/>
   <tile/>
   <tile/>
   <tile/>
   <tile/>
   <tile/>
   <tile/>
   <tile/>
   <tile/>
   <tile/>
   <tile/>
   <tile/>
   <tile/>
   <tile/>
   <tile/>
   <tile/>
   <tile/>
   <tile/>
   <tile/>
   <tile/>
   <tile/>
   <tile/>
   <tile/>
   <tile/>
   <tile/>
   <tile/>
   <tile/>
   <tile/>
   <tile/>
   <tile/>
   <tile/>
   <tile/>
   <tile/>
   <tile/>
   <tile/>
   <tile/>
   <tile/>
   <tile/>
   <tile/>
   <tile/>
   <tile/>
   <tile/>
   <tile/>
   <tile/>
   <tile/>
   <tile/>
   <tile/>
   <tile/>
   <tile/>
   <tile/>
   <tile/>
   <tile/>
   <tile/>
   <tile/>
   <tile/>
   <tile/>
   <tile/>
   <tile/>
   <tile/>
   <tile/>
   <tile/>
   <tile/>
   <tile/>
   <tile/>
   <tile/>
   <tile/>
   <tile/>
   <tile/>
   <tile/>
   <tile/>
   <tile/>
   <tile/>
   <tile/>
   <tile/>
   <tile/>
   <tile/>
   <tile/>
   <tile/>
   <tile/>
   <tile/>
   <tile/>
   <tile/>
   <tile/>
   <tile/>
   <tile/>
   <tile/>
   <tile/>
   <tile/>
   <tile/>
   <tile/>
   <tile/>
   <tile/>
   <tile/>
   <tile/>
   <tile/>
   <tile/>
   <tile/>
   <tile/>
   <tile/>
   <tile/>
   <tile/>
   <tile/>
   <tile/>
   <tile/>
   <tile/>
   <tile/>
   <tile/>
   <tile/>
   <tile/>
   <tile/>
   <tile/>
   <tile/>
   <tile/>
   <tile/>
   <tile/>
   <tile/>
   <tile/>
   <tile/>
   <tile/>
   <tile/>
   <tile/>
   <tile/>
   <tile/>
   <tile/>
   <tile/>
   <tile/>
   <tile/>
   <tile/>
   <tile/>
   <tile/>
   <tile/>
   <tile/>
   <tile/>
   <tile/>
   <tile/>
   <tile/>
   <tile/>
   <tile/>
   <tile/>
   <tile/>
   <tile/>
   <tile/>
   <tile/>
   <tile/>
   <tile/>
   <tile/>
   <tile/>
   <tile/>
   <tile/>
   <tile/>
   <tile/>
   <tile/>
   <tile/>
   <tile/>
   <tile/>
   <tile/>
   <tile/>
   <tile/>
   <tile/>
   <tile/>
   <tile/>
   <tile/>
   <tile/>
   <tile/>
   <tile/>
   <tile/>
   <tile/>
   <tile/>
   <tile/>
   <tile/>
   <tile/>
   <tile/>
   <tile/>
   <tile/>
   <tile/>
   <tile/>
   <tile/>
   <tile/>
   <tile/>
   <tile/>
   <tile/>
   <tile/>
   <tile/>
   <tile/>
   <tile/>
   <tile/>
   <tile/>
   <tile/>
   <tile/>
   <tile gid="523"/>
   <tile gid="524"/>
   <tile gid="525"/>
   <tile/>
   <tile/>
   <tile/>
   <tile gid="523"/>
   <tile gid="524"/>
   <tile/>
   <tile/>
   <tile/>
   <tile/>
   <tile/>
   <tile/>
   <tile/>
   <tile/>
   <tile/>
   <tile/>
   <tile/>
   <tile/>
   <tile/>
   <tile/>
   <tile/>
   <tile/>
   <tile/>
   <tile/>
   <tile/>
   <tile/>
   <tile/>
   <tile/>
   <tile/>
   <tile/>
   <tile/>
   <tile/>
   <tile/>
   <tile/>
   <tile/>
   <tile/>
   <tile/>
   <tile/>
   <tile/>
   <tile/>
   <tile/>
   <tile/>
   <tile/>
   <tile/>
   <tile/>
   <tile/>
   <tile/>
   <tile/>
   <tile/>
   <tile/>
   <tile/>
   <tile/>
   <tile/>
   <tile/>
   <tile/>
   <tile/>
   <tile gid="587"/>
   <tile gid="588"/>
   <tile gid="588"/>
   <tile gid="588"/>
   <tile gid="588"/>
   <tile gid="588"/>
   <tile gid="588"/>
   <tile gid="589"/>
   <tile/>
   <tile/>
   <tile/>
   <tile/>
   <tile/>
   <tile/>
   <tile/>
   <tile/>
   <tile/>
   <tile/>
   <tile/>
   <tile/>
   <tile/>
   <tile/>
   <tile/>
   <tile/>
   <tile/>
   <tile/>
   <tile/>
   <tile/>
   <tile/>
   <tile/>
   <tile/>
   <tile/>
   <tile/>
   <tile/>
   <tile/>
   <tile/>
   <tile/>
   <tile/>
   <tile/>
   <tile/>
   <tile/>
   <tile/>
   <tile/>
   <tile/>
   <tile/>
   <tile/>
   <tile/>
   <tile/>
   <tile/>
   <tile/>
   <tile/>
   <tile/>
   <tile/>
   <tile/>
   <tile/>
   <tile/>
   <tile/>
   <tile/>
   <tile/>
   <tile/>
   <tile/>
   <tile/>
   <tile/>
   <tile/>
   <tile/>
   <tile/>
   <tile/>
   <tile/>
   <tile/>
   <tile/>
   <tile/>
   <tile/>
   <tile/>
   <tile/>
   <tile/>
   <tile/>
   <tile/>
   <tile/>
   <tile/>
   <tile/>
   <tile/>
   <tile/>
   <tile/>
   <tile/>
   <tile/>
   <tile/>
   <tile/>
   <tile/>
   <tile/>
   <tile/>
   <tile/>
   <tile/>
   <tile/>
   <tile/>
   <tile/>
   <tile/>
   <tile/>
   <tile/>
   <tile/>
   <tile/>
   <tile/>
   <tile/>
   <tile/>
   <tile/>
   <tile/>
   <tile/>
   <tile/>
   <tile/>
   <tile/>
   <tile/>
   <tile/>
   <tile/>
   <tile/>
   <tile/>
   <tile/>
   <tile/>
   <tile/>
   <tile/>
   <tile/>
   <tile/>
   <tile gid="523"/>
   <tile gid="524"/>
   <tile/>
   <tile/>
   <tile/>
   <tile/>
   <tile/>
   <tile/>
   <tile/>
   <tile/>
   <tile/>
   <tile/>
   <tile/>
   <tile/>
   <tile/>
   <tile/>
   <tile/>
   <tile/>
   <tile/>
   <tile/>
   <tile/>
   <tile/>
   <tile/>
   <tile/>
   <tile/>
   <tile/>
   <tile/>
   <tile/>
   <tile/>
   <tile/>
   <tile/>
   <tile/>
   <tile/>
   <tile/>
   <tile/>
   <tile/>
   <tile/>
   <tile/>
   <tile/>
   <tile/>
   <tile/>
   <tile/>
   <tile/>
   <tile/>
   <tile/>
   <tile/>
   <tile/>
   <tile/>
   <tile/>
   <tile/>
   <tile/>
   <tile/>
   <tile/>
   <tile/>
   <tile/>
   <tile/>
   <tile/>
   <tile/>
   <tile/>
   <tile/>
   <tile/>
   <tile/>
   <tile/>
   <tile/>
   <tile/>
   <tile/>
   <tile/>
   <tile/>
   <tile/>
   <tile/>
   <tile/>
   <tile/>
   <tile/>
   <tile/>
   <tile/>
   <tile/>
   <tile/>
   <tile/>
   <tile/>
   <tile/>
   <tile/>
   <tile/>
   <tile/>
   <tile/>
   <tile/>
   <tile/>
   <tile/>
   <tile/>
   <tile/>
   <tile/>
   <tile/>
   <tile/>
   <tile/>
   <tile/>
   <tile/>
   <tile/>
   <tile/>
   <tile/>
   <tile/>
   <tile/>
   <tile/>
   <tile/>
   <tile/>
   <tile/>
   <tile/>
   <tile/>
   <tile/>
   <tile/>
   <tile/>
   <tile/>
   <tile/>
   <tile/>
   <tile/>
   <tile/>
   <tile/>
   <tile/>
   <tile/>
   <tile/>
   <tile/>
   <tile/>
   <tile/>
   <tile/>
   <tile/>
   <tile/>
   <tile/>
   <tile/>
   <tile/>
   <tile/>
   <tile/>
   <tile/>
   <tile/>
   <tile/>
   <tile/>
   <tile/>
   <tile/>
   <tile/>
   <tile/>
   <tile/>
   <tile/>
   <tile/>
   <tile/>
   <tile/>
   <tile/>
   <tile/>
   <tile/>
   <tile/>
   <tile/>
   <tile/>
   <tile/>
   <tile/>
   <tile/>
   <tile/>
   <tile/>
   <tile/>
   <tile/>
   <tile/>
   <tile/>
   <tile/>
   <tile/>
   <tile/>
   <tile/>
   <tile/>
   <tile/>
   <tile/>
   <tile/>
   <tile/>
   <tile/>
   <tile/>
   <tile/>
   <tile/>
   <tile/>
   <tile/>
   <tile/>
   <tile/>
   <tile/>
   <tile/>
   <tile/>
   <tile gid="523"/>
   <tile gid="524"/>
   <tile gid="524"/>
   <tile/>
   <tile/>
   <tile/>
   <tile/>
   <tile/>
   <tile/>
   <tile/>
   <tile/>
   <tile/>
   <tile/>
   <tile/>
   <tile/>
   <tile/>
   <tile/>
   <tile/>
   <tile/>
   <tile/>
   <tile/>
   <tile/>
   <tile/>
   <tile/>
   <tile/>
   <tile/>
   <tile/>
   <tile/>
   <tile/>
   <tile/>
   <tile/>
   <tile/>
   <tile/>
   <tile/>
   <tile gid="587"/>
   <tile gid="588"/>
   <tile gid="588"/>
   <tile gid="588"/>
   <tile gid="588"/>
   <tile gid="588"/>
   <tile gid="588"/>
   <tile gid="588"/>
   <tile gid="588"/>
   <tile gid="588"/>
   <tile gid="588"/>
   <tile gid="588"/>
   <tile gid="589"/>
   <tile/>
   <tile/>
   <tile/>
   <tile/>
   <tile/>
   <tile/>
   <tile/>
   <tile/>
   <tile/>
   <tile/>
   <tile/>
   <tile/>
   <tile/>
   <tile/>
   <tile/>
   <tile/>
   <tile/>
   <tile/>
   <tile/>
   <tile/>
   <tile/>
   <tile/>
   <tile/>
   <tile/>
   <tile/>
   <tile/>
   <tile/>
   <tile/>
   <tile/>
   <tile/>
   <tile/>
   <tile/>
   <tile/>
   <tile/>
   <tile/>
   <tile/>
   <tile/>
   <tile/>
   <tile/>
   <tile/>
   <tile/>
   <tile/>
   <tile/>
   <tile/>
   <tile/>
   <tile/>
   <tile/>
   <tile/>
   <tile/>
   <tile/>
   <tile/>
   <tile/>
   <tile/>
   <tile/>
   <tile/>
   <tile/>
   <tile/>
   <tile/>
   <tile/>
   <tile/>
   <tile/>
   <tile/>
   <tile/>
   <tile/>
   <tile/>
   <tile/>
   <tile/>
   <tile/>
   <tile/>
   <tile/>
   <tile/>
   <tile/>
   <tile/>
   <tile/>
   <tile/>
   <tile/>
   <tile/>
   <tile/>
   <tile/>
   <tile/>
   <tile/>
   <tile/>
   <tile/>
   <tile/>
   <tile/>
   <tile/>
   <tile/>
   <tile/>
   <tile/>
   <tile/>
   <tile/>
   <tile/>
   <tile/>
   <tile/>
   <tile/>
   <tile/>
   <tile/>
   <tile/>
   <tile/>
   <tile/>
   <tile/>
   <tile/>
   <tile/>
   <tile/>
   <tile/>
   <tile/>
   <tile/>
   <tile/>
   <tile/>
   <tile/>
   <tile/>
   <tile/>
   <tile/>
   <tile/>
   <tile/>
   <tile/>
   <tile/>
   <tile/>
   <tile/>
   <tile/>
   <tile/>
   <tile gid="523"/>
   <tile gid="524"/>
   <tile gid="524"/>
   <tile gid="524"/>
   <tile gid="524"/>
   <tile gid="524"/>
   <tile gid="524"/>
   <tile gid="524"/>
   <tile gid="524"/>
   <tile gid="525"/>
   <tile/>
   <tile/>
   <tile/>
   <tile/>
   <tile/>
   <tile/>
   <tile/>
   <tile/>
   <tile/>
   <tile/>
   <tile/>
   <tile/>
   <tile/>
   <tile/>
   <tile/>
   <tile/>
   <tile/>
   <tile/>
   <tile/>
   <tile/>
   <tile/>
   <tile/>
   <tile/>
   <tile/>
   <tile/>
   <tile/>
   <tile/>
   <tile/>
   <tile/>
   <tile/>
   <tile/>
   <tile/>
   <tile/>
   <tile/>
   <tile/>
   <tile/>
   <tile/>
   <tile/>
   <tile/>
   <tile/>
   <tile/>
   <tile/>
   <tile/>
   <tile/>
   <tile/>
   <tile/>
   <tile/>
   <tile/>
   <tile/>
   <tile/>
   <tile/>
   <tile/>
   <tile/>
   <tile/>
   <tile/>
   <tile/>
   <tile/>
   <tile/>
   <tile/>
   <tile/>
   <tile/>
   <tile/>
   <tile/>
   <tile/>
   <tile/>
   <tile/>
   <tile/>
   <tile/>
   <tile/>
   <tile/>
   <tile/>
   <tile/>
   <tile/>
   <tile/>
   <tile/>
   <tile/>
   <tile/>
   <tile/>
   <tile/>
   <tile/>
   <tile gid="539"/>
   <tile/>
   <tile/>
   <tile/>
   <tile/>
   <tile/>
   <tile/>
   <tile/>
   <tile/>
   <tile/>
   <tile/>
   <tile/>
   <tile/>
   <tile/>
   <tile/>
   <tile/>
   <tile/>
   <tile/>
   <tile/>
   <tile/>
   <tile/>
   <tile/>
   <tile/>
   <tile/>
   <tile/>
   <tile/>
   <tile/>
   <tile gid="524"/>
   <tile gid="524"/>
   <tile gid="524"/>
   <tile gid="525"/>
   <tile/>
   <tile/>
   <tile/>
   <tile/>
   <tile/>
   <tile gid="523"/>
   <tile gid="524"/>
   <tile gid="524"/>
   <tile gid="524"/>
   <tile gid="524"/>
   <tile gid="524"/>
   <tile gid="524"/>
   <tile gid="524"/>
   <tile gid="524"/>
   <tile gid="524"/>
   <tile gid="524"/>
   <tile gid="524"/>
   <tile gid="524"/>
   <tile gid="524"/>
   <tile gid="524"/>
   <tile gid="524"/>
   <tile gid="524"/>
   <tile gid="524"/>
   <tile gid="524"/>
   <tile gid="524"/>
   <tile gid="524"/>
   <tile gid="524"/>
   <tile gid="524"/>
   <tile gid="524"/>
   <tile gid="524"/>
   <tile gid="524"/>
   <tile gid="524"/>
   <tile gid="524"/>
   <tile gid="524"/>
   <tile gid="524"/>
   <tile gid="524"/>
   <tile gid="524"/>
   <tile gid="524"/>
   <tile gid="524"/>
   <tile gid="524"/>
   <tile gid="524"/>
   <tile gid="524"/>
   <tile gid="524"/>
   <tile gid="524"/>
   <tile gid="524"/>
   <tile gid="524"/>
   <tile gid="524"/>
   <tile gid="524"/>
   <tile gid="524"/>
   <tile gid="524"/>
   <tile gid="524"/>
   <tile gid="524"/>
   <tile gid="524"/>
   <tile gid="524"/>
   <tile gid="524"/>
   <tile gid="524"/>
   <tile gid="524"/>
   <tile gid="524"/>
   <tile gid="524"/>
   <tile gid="524"/>
   <tile/>
   <tile/>
   <tile/>
   <tile/>
   <tile/>
   <tile/>
   <tile/>
   <tile/>
   <tile gid="524"/>
   <tile gid="524"/>
   <tile gid="524"/>
   <tile/>
   <tile/>
   <tile/>
   <tile/>
   <tile/>
   <tile/>
   <tile/>
   <tile/>
   <tile/>
   <tile/>
   <tile/>
   <tile/>
   <tile/>
   <tile/>
   <tile/>
   <tile/>
   <tile/>
   <tile/>
   <tile/>
   <tile/>
   <tile/>
   <tile/>
   <tile/>
   <tile/>
   <tile/>
   <tile/>
   <tile/>
   <tile/>
   <tile/>
   <tile/>
   <tile/>
   <tile/>
   <tile/>
   <tile/>
   <tile/>
   <tile/>
   <tile/>
   <tile/>
   <tile/>
   <tile/>
   <tile/>
   <tile/>
   <tile/>
   <tile/>
   <tile/>
   <tile/>
   <tile/>
   <tile/>
   <tile/>
   <tile/>
   <tile/>
   <tile/>
   <tile/>
   <tile/>
   <tile/>
   <tile/>
   <tile/>
   <tile/>
   <tile/>
   <tile/>
   <tile/>
   <tile/>
   <tile/>
   <tile/>
   <tile/>
   <tile/>
   <tile/>
   <tile/>
   <tile/>
   <tile/>
   <tile/>
   <tile/>
   <tile/>
   <tile/>
   <tile/>
   <tile/>
   <tile/>
   <tile/>
   <tile/>
   <tile/>
   <tile/>
   <tile/>
   <tile/>
   <tile/>
   <tile/>
   <tile/>
   <tile/>
   <tile/>
   <tile/>
   <tile/>
   <tile/>
   <tile/>
   <tile/>
   <tile/>
   <tile/>
   <tile/>
   <tile/>
   <tile/>
   <tile/>
   <tile/>
   <tile/>
   <tile/>
   <tile/>
   <tile/>
  </data>
 </layer>
 <layer id="3" name="Collisions" width="90" height="68" visible="0">
  <data>
   <tile gid="258"/>
   <tile/>
   <tile gid="258"/>
   <tile/>
   <tile gid="258"/>
   <tile/>
   <tile gid="258"/>
   <tile/>
   <tile gid="258"/>
   <tile/>
   <tile gid="258"/>
   <tile/>
   <tile gid="258"/>
   <tile/>
   <tile gid="258"/>
   <tile/>
   <tile gid="258"/>
   <tile/>
   <tile gid="258"/>
   <tile/>
   <tile gid="258"/>
   <tile/>
   <tile gid="258"/>
   <tile/>
   <tile gid="258"/>
   <tile/>
   <tile gid="258"/>
   <tile/>
   <tile gid="258"/>
   <tile/>
   <tile gid="258"/>
   <tile/>
   <tile gid="258"/>
   <tile/>
   <tile gid="258"/>
   <tile/>
   <tile gid="258"/>
   <tile/>
   <tile gid="258"/>
   <tile/>
   <tile gid="258"/>
   <tile/>
   <tile gid="258"/>
   <tile/>
   <tile gid="258"/>
   <tile/>
   <tile gid="258"/>
   <tile/>
   <tile gid="258"/>
   <tile/>
   <tile gid="258"/>
   <tile/>
   <tile gid="258"/>
   <tile/>
   <tile gid="258"/>
   <tile/>
   <tile gid="258"/>
   <tile/>
   <tile gid="258"/>
   <tile/>
   <tile gid="258"/>
   <tile/>
   <tile gid="258"/>
   <tile/>
   <tile gid="258"/>
   <tile/>
   <tile gid="258"/>
   <tile/>
   <tile gid="258"/>
   <tile/>
   <tile gid="258"/>
   <tile/>
   <tile gid="258"/>
   <tile/>
   <tile gid="258"/>
   <tile/>
   <tile gid="258"/>
   <tile/>
   <tile gid="258"/>
   <tile/>
   <tile gid="258"/>
   <tile/>
   <tile gid="258"/>
   <tile gid="258"/>
   <tile/>
   <tile/>
   <tile/>
   <tile/>
   <tile/>
   <tile gid="258"/>
   <tile gid="258"/>
   <tile/>
   <tile/>
   <tile/>
   <tile/>
   <tile/>
   <tile/>
   <tile/>
   <tile/>
   <tile/>
   <tile/>
   <tile/>
   <tile/>
   <tile/>
   <tile/>
   <tile/>
   <tile/>
   <tile/>
   <tile/>
   <tile/>
   <tile/>
   <tile/>
   <tile/>
   <tile/>
   <tile/>
   <tile/>
   <tile/>
   <tile/>
   <tile/>
   <tile/>
   <tile/>
   <tile/>
   <tile/>
   <tile/>
   <tile/>
   <tile/>
   <tile/>
   <tile/>
   <tile/>
   <tile/>
   <tile/>
   <tile/>
   <tile/>
   <tile/>
   <tile/>
   <tile/>
   <tile/>
   <tile/>
   <tile/>
   <tile/>
   <tile/>
   <tile/>
   <tile/>
   <tile/>
   <tile/>
   <tile/>
   <tile/>
   <tile/>
   <tile/>
   <tile/>
   <tile/>
   <tile/>
   <tile/>
   <tile/>
   <tile/>
   <tile/>
   <tile/>
   <tile/>
   <tile/>
   <tile/>
   <tile/>
   <tile/>
   <tile/>
   <tile/>
   <tile/>
   <tile/>
   <tile/>
   <tile/>
   <tile/>
   <tile/>
   <tile/>
   <tile/>
   <tile gid="258"/>
   <tile gid="258"/>
   <tile/>
   <tile/>
   <tile/>
   <tile/>
   <tile/>
   <tile gid="258"/>
   <tile gid="258"/>
   <tile/>
   <tile/>
   <tile/>
   <tile/>
   <tile/>
   <tile/>
   <tile/>
   <tile/>
   <tile/>
   <tile/>
   <tile/>
   <tile/>
   <tile/>
   <tile/>
   <tile/>
   <tile/>
   <tile/>
   <tile/>
   <tile/>
   <tile/>
   <tile/>
   <tile/>
   <tile/>
   <tile/>
   <tile/>
   <tile/>
   <tile/>
   <tile/>
   <tile/>
   <tile/>
   <tile/>
   <tile/>
   <tile/>
   <tile/>
   <tile/>
   <tile/>
   <tile/>
   <tile/>
   <tile/>
   <tile/>
   <tile/>
   <tile/>
   <tile/>
   <tile/>
   <tile/>
   <tile/>
   <tile/>
   <tile/>
   <tile/>
   <tile/>
   <tile/>
   <tile/>
   <tile/>
   <tile/>
   <tile/>
   <tile/>
   <tile/>
   <tile/>
   <tile/>
   <tile/>
   <tile/>
   <tile/>
   <tile/>
   <tile/>
   <tile/>
   <tile/>
   <tile/>
   <tile/>
   <tile/>
   <tile/>
   <tile/>
   <tile/>
   <tile/>
   <tile/>
   <tile/>
   <tile/>
   <tile/>
   <tile/>
   <tile/>
   <tile/>
   <tile/>
   <tile gid="258"/>
   <tile gid="258"/>
   <tile/>
   <tile/>
   <tile/>
   <tile/>
   <tile/>
   <tile gid="258"/>
   <tile gid="258"/>
   <tile/>
   <tile/>
   <tile/>
   <tile/>
   <tile/>
   <tile/>
   <tile/>
   <tile/>
   <tile/>
   <tile/>
   <tile/>
   <tile/>
   <tile/>
   <tile/>
   <tile/>
   <tile/>
   <tile/>
   <tile/>
   <tile/>
   <tile/>
   <tile/>
   <tile/>
   <tile/>
   <tile/>
   <tile/>
   <tile/>
   <tile/>
   <tile/>
   <tile/>
   <tile/>
   <tile/>
   <tile/>
   <tile/>
   <tile/>
   <tile/>
   <tile/>
   <tile/>
   <tile/>
   <tile/>
   <tile/>
   <tile/>
   <tile/>
   <tile/>
   <tile/>
   <tile/>
   <tile/>
   <tile/>
   <tile/>
   <tile/>
   <tile/>
   <tile/>
   <tile/>
   <tile/>
   <tile/>
   <tile/>
   <tile/>
   <tile/>
   <tile/>
   <tile/>
   <tile/>
   <tile/>
   <tile/>
   <tile/>
   <tile/>
   <tile/>
   <tile/>
   <tile/>
   <tile/>
   <tile/>
   <tile/>
   <tile/>
   <tile/>
   <tile/>
   <tile/>
   <tile/>
   <tile/>
   <tile/>
   <tile/>
   <tile/>
   <tile/>
   <tile/>
   <tile/>
   <tile gid="258"/>
   <tile/>
   <tile/>
   <tile/>
   <tile/>
   <tile/>
   <tile gid="258"/>
   <tile gid="258"/>
   <tile/>
   <tile/>
   <tile/>
   <tile/>
   <tile/>
   <tile/>
   <tile/>
   <tile/>
   <tile/>
   <tile/>
   <tile/>
   <tile/>
   <tile/>
   <tile/>
   <tile/>
   <tile/>
   <tile/>
   <tile/>
   <tile/>
   <tile/>
   <tile/>
   <tile/>
   <tile/>
   <tile/>
   <tile/>
   <tile/>
   <tile/>
   <tile/>
   <tile/>
   <tile/>
   <tile/>
   <tile/>
   <tile/>
   <tile/>
   <tile/>
   <tile/>
   <tile/>
   <tile/>
   <tile/>
   <tile/>
   <tile/>
   <tile/>
   <tile/>
   <tile/>
   <tile/>
   <tile/>
   <tile/>
   <tile/>
   <tile/>
   <tile/>
   <tile/>
   <tile/>
   <tile/>
   <tile/>
   <tile/>
   <tile/>
   <tile/>
   <tile/>
   <tile/>
   <tile/>
   <tile/>
   <tile/>
   <tile/>
   <tile/>
   <tile/>
   <tile/>
   <tile/>
   <tile/>
   <tile/>
   <tile/>
   <tile/>
   <tile/>
   <tile/>
   <tile/>
   <tile/>
   <tile/>
   <tile/>
   <tile/>
   <tile/>
   <tile/>
   <tile/>
   <tile/>
   <tile/>
   <tile/>
   <tile/>
   <tile/>
   <tile/>
   <tile/>
   <tile gid="258"/>
   <tile gid="258"/>
   <tile/>
   <tile/>
   <tile/>
   <tile/>
   <tile/>
   <tile/>
   <tile/>
   <tile/>
   <tile/>
   <tile/>
   <tile/>
   <tile/>
   <tile/>
   <tile/>
   <tile/>
   <tile/>
   <tile/>
   <tile/>
   <tile/>
   <tile/>
   <tile/>
   <tile/>
   <tile/>
   <tile/>
   <tile/>
   <tile/>
   <tile/>
   <tile/>
   <tile/>
   <tile/>
   <tile/>
   <tile/>
   <tile/>
   <tile/>
   <tile/>
   <tile/>
   <tile/>
   <tile/>
   <tile/>
   <tile/>
   <tile/>
   <tile/>
   <tile/>
   <tile/>
   <tile/>
   <tile/>
   <tile/>
   <tile/>
   <tile/>
   <tile/>
   <tile/>
   <tile/>
   <tile/>
   <tile/>
   <tile/>
   <tile/>
   <tile/>
   <tile/>
   <tile/>
   <tile/>
   <tile/>
   <tile/>
   <tile/>
   <tile/>
   <tile/>
   <tile/>
   <tile/>
   <tile/>
   <tile/>
   <tile/>
   <tile/>
   <tile/>
   <tile/>
   <tile/>
   <tile/>
   <tile/>
   <tile/>
   <tile/>
   <tile/>
   <tile/>
   <tile/>
   <tile/>
   <tile/>
   <tile/>
   <tile/>
   <tile/>
   <tile/>
   <tile/>
   <tile gid="258"/>
   <tile gid="258"/>
   <tile/>
   <tile/>
   <tile/>
   <tile/>
   <tile/>
   <tile/>
   <tile/>
   <tile/>
   <tile/>
   <tile/>
   <tile/>
   <tile/>
   <tile/>
   <tile/>
   <tile/>
   <tile/>
   <tile/>
   <tile/>
   <tile/>
   <tile/>
   <tile/>
   <tile/>
   <tile/>
   <tile/>
   <tile/>
   <tile/>
   <tile/>
   <tile/>
   <tile/>
   <tile/>
   <tile/>
   <tile/>
   <tile/>
   <tile/>
   <tile/>
   <tile/>
   <tile/>
   <tile/>
   <tile/>
   <tile/>
   <tile/>
   <tile/>
   <tile/>
   <tile/>
   <tile gid="258"/>
   <tile gid="258"/>
   <tile gid="258"/>
   <tile/>
   <tile/>
   <tile/>
   <tile/>
   <tile/>
   <tile/>
   <tile/>
   <tile/>
   <tile/>
   <tile/>
   <tile/>
   <tile/>
   <tile/>
   <tile/>
   <tile/>
   <tile/>
   <tile/>
   <tile/>
   <tile/>
   <tile/>
   <tile/>
   <tile/>
   <tile/>
   <tile/>
   <tile/>
   <tile/>
   <tile/>
   <tile/>
   <tile/>
   <tile/>
   <tile/>
   <tile/>
   <tile/>
   <tile/>
   <tile/>
   <tile/>
   <tile/>
   <tile/>
   <tile/>
   <tile/>
   <tile/>
   <tile gid="258"/>
   <tile gid="258"/>
   <tile/>
   <tile/>
   <tile/>
   <tile/>
   <tile/>
   <tile/>
   <tile/>
   <tile/>
   <tile/>
   <tile/>
   <tile/>
   <tile/>
   <tile/>
   <tile/>
   <tile/>
   <tile/>
   <tile/>
   <tile/>
   <tile/>
   <tile/>
   <tile/>
   <tile/>
   <tile/>
   <tile/>
   <tile/>
   <tile/>
   <tile/>
   <tile/>
   <tile/>
   <tile/>
   <tile/>
   <tile/>
   <tile/>
   <tile/>
   <tile/>
   <tile/>
   <tile/>
   <tile/>
   <tile/>
   <tile/>
   <tile/>
   <tile/>
   <tile/>
   <tile/>
   <tile gid="258"/>
   <tile/>
   <tile gid="258"/>
   <tile/>
   <tile/>
   <tile/>
   <tile/>
   <tile/>
   <tile/>
   <tile/>
   <tile/>
   <tile/>
   <tile/>
   <tile/>
   <tile/>
   <tile/>
   <tile/>
   <tile/>
   <tile/>
   <tile/>
   <tile/>
   <tile/>
   <tile/>
   <tile/>
   <tile/>
   <tile/>
   <tile/>
   <tile/>
   <tile/>
   <tile/>
   <tile/>
   <tile/>
   <tile/>
   <tile/>
   <tile/>
   <tile/>
   <tile/>
   <tile/>
   <tile/>
   <tile/>
   <tile/>
   <tile/>
   <tile/>
   <tile/>
   <tile gid="258"/>
   <tile gid="258"/>
   <tile/>
   <tile/>
   <tile/>
   <tile/>
   <tile/>
   <tile/>
   <tile/>
   <tile/>
   <tile/>
   <tile/>
   <tile/>
   <tile/>
   <tile/>
   <tile/>
   <tile/>
   <tile/>
   <tile/>
   <tile/>
   <tile/>
   <tile/>
   <tile/>
   <tile/>
   <tile/>
   <tile/>
   <tile/>
   <tile/>
   <tile/>
   <tile/>
   <tile/>
   <tile/>
   <tile/>
   <tile/>
   <tile/>
   <tile/>
   <tile/>
   <tile/>
   <tile/>
   <tile/>
   <tile/>
   <tile/>
   <tile/>
   <tile/>
   <tile/>
   <tile/>
   <tile gid="258"/>
   <tile/>
   <tile gid="258"/>
   <tile/>
   <tile/>
   <tile/>
   <tile/>
   <tile/>
   <tile/>
   <tile/>
   <tile/>
   <tile/>
   <tile/>
   <tile/>
   <tile/>
   <tile/>
   <tile/>
   <tile/>
   <tile/>
   <tile/>
   <tile/>
   <tile/>
   <tile/>
   <tile/>
   <tile/>
   <tile/>
   <tile/>
   <tile/>
   <tile/>
   <tile/>
   <tile/>
   <tile/>
   <tile/>
   <tile/>
   <tile/>
   <tile/>
   <tile/>
   <tile/>
   <tile/>
   <tile/>
   <tile/>
   <tile/>
   <tile/>
   <tile/>
   <tile gid="258"/>
   <tile gid="258"/>
   <tile/>
   <tile/>
   <tile/>
   <tile/>
   <tile/>
   <tile/>
   <tile/>
   <tile/>
   <tile gid="258"/>
   <tile gid="258"/>
   <tile gid="258"/>
   <tile gid="258"/>
   <tile gid="258"/>
   <tile gid="258"/>
   <tile gid="258"/>
   <tile gid="258"/>
   <tile gid="258"/>
   <tile gid="258"/>
   <tile/>
   <tile/>
   <tile/>
   <tile/>
   <tile/>
   <tile/>
   <tile/>
   <tile/>
   <tile/>
   <tile/>
   <tile/>
   <tile/>
   <tile/>
   <tile/>
   <tile/>
   <tile/>
   <tile/>
   <tile/>
   <tile/>
   <tile/>
   <tile/>
   <tile/>
   <tile/>
   <tile/>
   <tile/>
   <tile/>
   <tile gid="258"/>
   <tile/>
   <tile gid="258"/>
   <tile/>
   <tile/>
   <tile/>
   <tile/>
   <tile/>
   <tile/>
   <tile/>
   <tile/>
   <tile/>
   <tile/>
   <tile/>
   <tile/>
   <tile/>
   <tile/>
   <tile/>
   <tile/>
   <tile/>
   <tile/>
   <tile/>
   <tile/>
   <tile/>
   <tile/>
   <tile/>
   <tile/>
   <tile/>
   <tile/>
   <tile/>
   <tile/>
   <tile/>
   <tile/>
   <tile/>
   <tile/>
   <tile/>
   <tile/>
   <tile/>
   <tile/>
   <tile/>
   <tile/>
   <tile/>
   <tile/>
   <tile/>
   <tile gid="258"/>
   <tile gid="258"/>
   <tile/>
   <tile/>
   <tile/>
   <tile/>
   <tile/>
   <tile/>
   <tile/>
   <tile/>
   <tile/>
   <tile/>
   <tile gid="258"/>
   <tile gid="258"/>
   <tile gid="258"/>
   <tile gid="258"/>
   <tile gid="258"/>
   <tile gid="258"/>
   <tile/>
   <tile/>
   <tile/>
   <tile/>
   <tile/>
   <tile/>
   <tile/>
   <tile/>
   <tile/>
   <tile/>
   <tile/>
   <tile/>
   <tile/>
   <tile/>
   <tile/>
   <tile/>
   <tile/>
   <tile/>
   <tile/>
   <tile/>
   <tile/>
   <tile/>
   <tile/>
   <tile/>
   <tile/>
   <tile/>
   <tile/>
   <tile/>
   <tile gid="258"/>
   <tile/>
   <tile gid="258"/>
   <tile/>
   <tile/>
   <tile/>
   <tile/>
   <tile/>
   <tile/>
   <tile/>
   <tile/>
   <tile/>
   <tile/>
   <tile/>
   <tile/>
   <tile/>
   <tile/>
   <tile/>
   <tile/>
   <tile/>
   <tile/>
   <tile/>
   <tile/>
   <tile/>
   <tile/>
   <tile/>
   <tile/>
   <tile/>
   <tile/>
   <tile/>
   <tile/>
   <tile/>
   <tile/>
   <tile/>
   <tile/>
   <tile/>
   <tile/>
   <tile/>
   <tile/>
   <tile/>
   <tile/>
   <tile/>
   <tile/>
   <tile/>
   <tile gid="258"/>
   <tile gid="258"/>
   <tile/>
   <tile/>
   <tile/>
   <tile/>
   <tile/>
   <tile/>
   <tile/>
   <tile/>
   <tile/>
   <tile/>
   <tile/>
   <tile/>
   <tile/>
   <tile/>
   <tile/>
   <tile/>
   <tile/>
   <tile/>
   <tile/>
   <tile/>
   <tile gid="258"/>
   <tile gid="258"/>
   <tile gid="258"/>
   <tile gid="258"/>
   <tile gid="258"/>
   <tile gid="258"/>
   <tile gid="258"/>
   <tile gid="258"/>
   <tile gid="258"/>
   <tile/>
   <tile/>
   <tile/>
   <tile/>
   <tile/>
   <tile/>
   <tile/>
   <tile/>
   <tile/>
   <tile/>
   <tile/>
   <tile/>
   <tile/>
   <tile/>
   <tile/>
   <tile gid="258"/>
   <tile/>
   <tile/>
   <tile gid="258"/>
   <tile gid="258"/>
   <tile gid="258"/>
   <tile gid="258"/>
   <tile gid="258"/>
   <tile gid="258"/>
   <tile gid="258"/>
   <tile/>
   <tile/>
   <tile/>
   <tile/>
   <tile/>
   <tile/>
   <tile/>
   <tile/>
   <tile/>
   <tile/>
   <tile/>
   <tile/>
   <tile/>
   <tile/>
   <tile/>
   <tile/>
   <tile/>
   <tile/>
   <tile/>
   <tile/>
   <tile/>
   <tile/>
   <tile/>
   <tile/>
   <tile/>
   <tile/>
   <tile/>
   <tile/>
   <tile/>
   <tile/>
   <tile/>
   <tile/>
   <tile/>
   <tile/>
   <tile gid="258"/>
   <tile gid="258"/>
   <tile/>
   <tile/>
   <tile/>
   <tile/>
   <tile/>
   <tile/>
   <tile/>
   <tile/>
   <tile/>
   <tile/>
   <tile/>
   <tile/>
   <tile/>
   <tile/>
   <tile/>
   <tile/>
   <tile/>
   <tile/>
   <tile/>
   <tile/>
   <tile/>
   <tile/>
   <tile gid="258"/>
   <tile gid="258"/>
   <tile gid="258"/>
   <tile gid="258"/>
   <tile gid="258"/>
   <tile gid="258"/>
   <tile/>
   <tile/>
   <tile/>
   <tile/>
   <tile/>
   <tile/>
   <tile/>
   <tile/>
   <tile/>
   <tile/>
   <tile/>
   <tile/>
   <tile/>
   <tile/>
   <tile/>
   <tile/>
   <tile gid="258"/>
   <tile/>
   <tile/>
   <tile/>
   <tile/>
   <tile/>
   <tile/>
   <tile/>
   <tile/>
   <tile gid="258"/>
   <tile/>
   <tile/>
   <tile/>
   <tile/>
   <tile/>
   <tile/>
   <tile/>
   <tile/>
   <tile/>
   <tile/>
   <tile/>
   <tile/>
   <tile/>
   <tile/>
   <tile/>
   <tile/>
   <tile/>
   <tile/>
   <tile/>
   <tile/>
   <tile/>
   <tile/>
   <tile/>
   <tile/>
   <tile/>
   <tile/>
   <tile gid="258"/>
   <tile gid="258"/>
   <tile gid="258"/>
   <tile gid="258"/>
   <tile gid="258"/>
   <tile gid="258"/>
   <tile gid="258"/>
   <tile gid="258"/>
   <tile gid="258"/>
   <tile gid="258"/>
   <tile/>
   <tile/>
   <tile/>
   <tile/>
   <tile/>
   <tile/>
   <tile/>
   <tile/>
   <tile/>
   <tile/>
   <tile/>
   <tile/>
   <tile/>
   <tile/>
   <tile/>
   <tile/>
   <tile/>
   <tile/>
   <tile/>
   <tile/>
   <tile/>
   <tile/>
   <tile/>
   <tile/>
   <tile/>
   <tile/>
   <tile/>
   <tile/>
   <tile/>
   <tile/>
   <tile/>
   <tile/>
   <tile/>
   <tile/>
   <tile/>
   <tile/>
   <tile/>
   <tile/>
   <tile/>
   <tile/>
   <tile/>
   <tile/>
   <tile/>
   <tile/>
   <tile gid="258"/>
   <tile/>
   <tile/>
   <tile/>
   <tile/>
   <tile/>
   <tile/>
   <tile/>
   <tile/>
   <tile gid="258"/>
   <tile/>
   <tile/>
   <tile/>
   <tile/>
   <tile/>
   <tile/>
   <tile/>
   <tile/>
   <tile/>
   <tile/>
   <tile/>
   <tile/>
   <tile/>
   <tile/>
   <tile/>
   <tile/>
   <tile/>
   <tile/>
   <tile/>
   <tile/>
   <tile/>
   <tile/>
   <tile/>
   <tile/>
   <tile/>
   <tile/>
   <tile/>
   <tile/>
   <tile gid="258"/>
   <tile gid="258"/>
   <tile gid="258"/>
   <tile/>
   <tile/>
   <tile/>
   <tile gid="258"/>
   <tile gid="258"/>
   <tile/>
   <tile/>
   <tile/>
   <tile/>
   <tile/>
   <tile/>
   <tile/>
   <tile/>
   <tile/>
   <tile/>
   <tile/>
   <tile/>
   <tile/>
   <tile/>
   <tile/>
   <tile/>
   <tile/>
   <tile/>
   <tile/>
   <tile/>
   <tile/>
   <tile/>
   <tile/>
   <tile/>
   <tile/>
   <tile/>
   <tile/>
   <tile/>
   <tile/>
   <tile/>
   <tile/>
   <tile/>
   <tile/>
   <tile/>
   <tile/>
   <tile/>
   <tile/>
   <tile/>
   <tile gid="258"/>
   <tile gid="258"/>
   <tile/>
   <tile gid="258"/>
   <tile gid="258"/>
   <tile gid="258"/>
   <tile/>
   <tile/>
   <tile/>
   <tile/>
   <tile/>
   <tile/>
   <tile/>
   <tile/>
   <tile/>
   <tile/>
   <tile gid="258"/>
   <tile gid="258"/>
   <tile gid="258"/>
   <tile/>
   <tile/>
   <tile/>
   <tile/>
   <tile/>
   <tile/>
   <tile/>
   <tile/>
   <tile/>
   <tile/>
   <tile/>
   <tile/>
   <tile/>
   <tile/>
   <tile/>
   <tile/>
   <tile/>
   <tile/>
   <tile/>
   <tile/>
   <tile/>
   <tile/>
   <tile/>
   <tile/>
   <tile/>
   <tile/>
   <tile/>
   <tile/>
   <tile gid="258"/>
   <tile gid="258"/>
   <tile/>
   <tile gid="258"/>
   <tile gid="258"/>
   <tile/>
   <tile/>
   <tile/>
   <tile/>
   <tile/>
   <tile/>
   <tile/>
   <tile/>
   <tile/>
   <tile/>
   <tile/>
   <tile/>
   <tile/>
   <tile/>
   <tile/>
   <tile/>
   <tile/>
   <tile/>
   <tile/>
   <tile/>
   <tile/>
   <tile/>
   <tile/>
   <tile/>
   <tile/>
   <tile/>
   <tile/>
   <tile/>
   <tile/>
   <tile/>
   <tile/>
   <tile/>
   <tile/>
   <tile/>
   <tile/>
   <tile/>
   <tile/>
   <tile gid="258"/>
   <tile/>
   <tile/>
   <tile gid="258"/>
   <tile/>
   <tile/>
   <tile/>
   <tile/>
   <tile/>
   <tile/>
   <tile/>
   <tile/>
   <tile/>
   <tile/>
   <tile/>
   <tile/>
   <tile/>
   <tile/>
   <tile/>
   <tile gid="258"/>
   <tile/>
   <tile/>
   <tile/>
   <tile/>
   <tile/>
   <tile/>
   <tile/>
   <tile/>
   <tile/>
   <tile/>
   <tile/>
   <tile/>
   <tile/>
   <tile/>
   <tile/>
   <tile/>
   <tile/>
   <tile/>
   <tile/>
   <tile/>
   <tile/>
   <tile/>
   <tile/>
   <tile/>
   <tile/>
   <tile/>
   <tile/>
   <tile/>
   <tile/>
   <tile/>
   <tile gid="258"/>
   <tile gid="258"/>
   <tile gid="258"/>
   <tile/>
   <tile/>
   <tile/>
   <tile/>
   <tile/>
   <tile/>
   <tile/>
   <tile/>
   <tile/>
   <tile/>
   <tile/>
   <tile/>
   <tile/>
   <tile/>
   <tile/>
   <tile/>
   <tile/>
   <tile/>
   <tile/>
   <tile/>
   <tile/>
   <tile/>
   <tile/>
   <tile/>
   <tile/>
   <tile/>
   <tile/>
   <tile/>
   <tile/>
   <tile/>
   <tile/>
   <tile/>
   <tile/>
   <tile/>
   <tile/>
   <tile gid="258"/>
   <tile gid="258"/>
   <tile/>
   <tile/>
   <tile/>
   <tile/>
   <tile/>
   <tile/>
   <tile/>
   <tile/>
   <tile/>
   <tile/>
   <tile/>
   <tile/>
   <tile/>
   <tile/>
   <tile/>
   <tile/>
   <tile/>
   <tile/>
   <tile/>
   <tile gid="258"/>
   <tile/>
   <tile/>
   <tile/>
   <tile/>
   <tile/>
   <tile/>
   <tile/>
   <tile/>
   <tile/>
   <tile/>
   <tile/>
   <tile/>
   <tile/>
   <tile/>
   <tile/>
   <tile/>
   <tile/>
   <tile/>
   <tile/>
   <tile/>
   <tile/>
   <tile/>
   <tile/>
   <tile/>
   <tile/>
   <tile/>
   <tile/>
   <tile/>
   <tile/>
   <tile/>
   <tile/>
   <tile gid="258"/>
   <tile gid="258"/>
   <tile/>
   <tile/>
   <tile/>
   <tile/>
   <tile/>
   <tile/>
   <tile/>
   <tile/>
   <tile/>
   <tile/>
   <tile/>
   <tile/>
   <tile/>
   <tile/>
   <tile/>
   <tile/>
   <tile/>
   <tile/>
   <tile/>
   <tile/>
   <tile/>
   <tile/>
   <tile/>
   <tile/>
   <tile/>
   <tile/>
   <tile/>
   <tile/>
   <tile/>
   <tile/>
   <tile/>
   <tile/>
   <tile gid="258"/>
   <tile gid="258"/>
   <tile gid="258"/>
   <tile/>
   <tile/>
   <tile/>
   <tile/>
   <tile/>
   <tile/>
   <tile/>
   <tile/>
   <tile/>
   <tile/>
   <tile/>
   <tile/>
   <tile/>
   <tile/>
   <tile/>
   <tile/>
   <tile/>
   <tile/>
   <tile/>
   <tile/>
   <tile/>
   <tile/>
   <tile gid="258"/>
   <tile/>
   <tile/>
   <tile/>
   <tile/>
   <tile/>
   <tile/>
   <tile/>
   <tile/>
   <tile/>
   <tile/>
   <tile/>
   <tile/>
   <tile/>
   <tile/>
   <tile/>
   <tile/>
   <tile/>
   <tile/>
   <tile/>
   <tile/>
   <tile/>
   <tile/>
   <tile/>
   <tile/>
   <tile/>
   <tile/>
   <tile/>
   <tile/>
   <tile/>
   <tile/>
   <tile gid="258"/>
   <tile gid="258"/>
   <tile/>
   <tile/>
   <tile/>
   <tile/>
   <tile/>
   <tile/>
   <tile/>
   <tile/>
   <tile/>
   <tile/>
   <tile/>
   <tile/>
   <tile/>
   <tile/>
   <tile/>
   <tile/>
   <tile/>
   <tile/>
   <tile/>
   <tile/>
   <tile/>
   <tile/>
   <tile/>
   <tile/>
   <tile/>
   <tile/>
   <tile/>
   <tile/>
   <tile/>
   <tile/>
   <tile/>
   <tile gid="258"/>
   <tile/>
   <tile/>
   <tile/>
   <tile/>
   <tile/>
   <tile/>
   <tile/>
   <tile/>
   <tile gid="258"/>
   <tile gid="258"/>
   <tile gid="258"/>
   <tile gid="258"/>
   <tile gid="258"/>
   <tile/>
   <tile/>
   <tile/>
   <tile/>
   <tile/>
   <tile/>
   <tile gid="258"/>
   <tile gid="258"/>
   <tile/>
   <tile/>
   <tile/>
   <tile/>
   <tile/>
   <tile gid="258"/>
   <tile/>
   <tile/>
   <tile/>
   <tile/>
   <tile/>
   <tile/>
   <tile/>
   <tile/>
   <tile/>
   <tile/>
   <tile/>
   <tile/>
   <tile/>
   <tile/>
   <tile/>
   <tile/>
   <tile/>
   <tile/>
   <tile/>
   <tile/>
   <tile/>
   <tile/>
   <tile/>
   <tile/>
   <tile/>
   <tile/>
   <tile/>
   <tile/>
   <tile/>
   <tile gid="258"/>
   <tile gid="258"/>
   <tile/>
   <tile/>
   <tile/>
   <tile/>
   <tile/>
   <tile/>
   <tile/>
   <tile/>
   <tile/>
   <tile/>
   <tile/>
   <tile/>
   <tile/>
   <tile/>
   <tile/>
   <tile/>
   <tile/>
   <tile/>
   <tile/>
   <tile/>
   <tile/>
   <tile/>
   <tile/>
   <tile/>
   <tile/>
   <tile/>
   <tile/>
   <tile/>
   <tile/>
   <tile/>
   <tile/>
   <tile gid="258"/>
   <tile/>
   <tile/>
   <tile/>
   <tile/>
   <tile gid="258"/>
   <tile gid="258"/>
   <tile gid="258"/>
   <tile gid="258"/>
   <tile/>
   <tile/>
   <tile/>
   <tile/>
   <tile/>
   <tile gid="258"/>
   <tile/>
   <tile/>
   <tile/>
   <tile/>
   <tile gid="258"/>
   <tile/>
   <tile/>
   <tile gid="258"/>
   <tile gid="258"/>
   <tile gid="258"/>
   <tile/>
   <tile/>
   <tile gid="258"/>
   <tile/>
   <tile/>
   <tile/>
   <tile/>
   <tile/>
   <tile/>
   <tile/>
   <tile/>
   <tile/>
   <tile/>
   <tile/>
   <tile/>
   <tile/>
   <tile/>
   <tile gid="258"/>
   <tile gid="258"/>
   <tile gid="258"/>
   <tile gid="258"/>
   <tile gid="258"/>
   <tile gid="258"/>
   <tile gid="258"/>
   <tile/>
   <tile/>
   <tile/>
   <tile/>
   <tile/>
   <tile/>
   <tile/>
   <tile/>
   <tile gid="258"/>
   <tile gid="258"/>
   <tile/>
   <tile/>
   <tile/>
   <tile/>
   <tile/>
   <tile/>
   <tile/>
   <tile/>
   <tile/>
   <tile/>
   <tile/>
   <tile/>
   <tile/>
   <tile/>
   <tile/>
   <tile/>
   <tile/>
   <tile/>
   <tile/>
   <tile/>
   <tile/>
   <tile/>
   <tile/>
   <tile/>
   <tile/>
   <tile/>
   <tile/>
   <tile/>
   <tile gid="258"/>
   <tile gid="258"/>
   <tile gid="258"/>
   <tile/>
   <tile gid="258"/>
   <tile gid="258"/>
   <tile gid="258"/>
   <tile gid="258"/>
   <tile/>
   <tile/>
   <tile/>
   <tile/>
   <tile/>
   <tile/>
   <tile/>
   <tile/>
   <tile/>
   <tile/>
   <tile gid="258"/>
   <tile/>
   <tile/>
   <tile/>
   <tile gid="258"/>
   <tile/>
   <tile/>
   <tile/>
   <tile/>
   <tile/>
   <tile gid="258"/>
   <tile/>
   <tile/>
   <tile gid="258"/>
   <tile gid="258"/>
   <tile/>
   <tile/>
   <tile/>
   <tile/>
   <tile/>
   <tile/>
   <tile/>
   <tile/>
   <tile/>
   <tile/>
   <tile/>
   <tile/>
   <tile/>
   <tile gid="258"/>
   <tile/>
   <tile/>
   <tile/>
   <tile gid="258"/>
   <tile/>
   <tile/>
   <tile/>
   <tile/>
   <tile/>
   <tile/>
   <tile/>
   <tile/>
   <tile/>
   <tile gid="258"/>
   <tile gid="258"/>
   <tile/>
   <tile/>
   <tile/>
   <tile/>
   <tile/>
   <tile/>
   <tile/>
   <tile/>
   <tile/>
   <tile/>
   <tile/>
   <tile/>
   <tile/>
   <tile/>
   <tile/>
   <tile/>
   <tile/>
   <tile/>
   <tile/>
   <tile/>
   <tile/>
   <tile/>
   <tile/>
   <tile/>
   <tile/>
   <tile/>
   <tile/>
   <tile gid="258"/>
   <tile/>
   <tile/>
   <tile/>
   <tile gid="258"/>
   <tile gid="258"/>
   <tile/>
   <tile/>
   <tile/>
   <tile/>
   <tile/>
   <tile/>
   <tile/>
   <tile/>
   <tile/>
   <tile/>
   <tile/>
   <tile/>
   <tile/>
   <tile gid="258"/>
   <tile/>
   <tile/>
   <tile gid="258"/>
   <tile/>
   <tile/>
   <tile/>
   <tile/>
   <tile/>
   <tile/>
   <tile/>
   <tile gid="258"/>
   <tile/>
   <tile/>
   <tile gid="258"/>
   <tile/>
   <tile/>
   <tile/>
   <tile/>
   <tile/>
   <tile/>
   <tile/>
   <tile/>
   <tile/>
   <tile/>
   <tile/>
   <tile/>
   <tile/>
   <tile/>
   <tile gid="258"/>
   <tile gid="258"/>
   <tile gid="258"/>
   <tile/>
   <tile/>
   <tile/>
   <tile/>
   <tile/>
   <tile/>
   <tile/>
   <tile/>
   <tile/>
   <tile/>
   <tile gid="258"/>
   <tile gid="258"/>
   <tile/>
   <tile/>
   <tile/>
   <tile/>
   <tile/>
   <tile/>
   <tile/>
   <tile/>
   <tile/>
   <tile/>
   <tile/>
   <tile/>
   <tile/>
   <tile/>
   <tile/>
   <tile/>
   <tile/>
   <tile/>
   <tile/>
   <tile/>
   <tile/>
   <tile/>
   <tile/>
   <tile/>
   <tile/>
   <tile/>
   <tile gid="258"/>
   <tile gid="258"/>
   <tile gid="258"/>
   <tile gid="258"/>
   <tile gid="258"/>
   <tile/>
   <tile/>
   <tile/>
   <tile/>
   <tile/>
   <tile/>
   <tile/>
   <tile/>
   <tile/>
   <tile/>
   <tile/>
   <tile/>
   <tile/>
   <tile/>
   <tile/>
   <tile/>
   <tile gid="258"/>
   <tile/>
   <tile gid="258"/>
   <tile/>
   <tile/>
   <tile/>
   <tile/>
   <tile/>
   <tile/>
   <tile/>
   <tile/>
   <tile gid="258"/>
   <tile/>
   <tile gid="258"/>
   <tile/>
   <tile/>
   <tile/>
   <tile/>
   <tile/>
   <tile/>
   <tile/>
   <tile/>
   <tile/>
   <tile/>
   <tile/>
   <tile/>
   <tile/>
   <tile/>
   <tile/>
   <tile/>
   <tile/>
   <tile/>
   <tile/>
   <tile/>
   <tile/>
   <tile/>
   <tile/>
   <tile/>
   <tile/>
   <tile/>
   <tile/>
   <tile gid="258"/>
   <tile gid="258"/>
   <tile/>
   <tile/>
   <tile/>
   <tile/>
   <tile/>
   <tile/>
   <tile/>
   <tile/>
   <tile/>
   <tile/>
   <tile/>
   <tile/>
   <tile/>
   <tile/>
   <tile/>
   <tile/>
   <tile/>
   <tile/>
   <tile/>
   <tile/>
   <tile/>
   <tile/>
   <tile/>
   <tile/>
   <tile/>
   <tile/>
   <tile/>
   <tile/>
   <tile/>
   <tile/>
   <tile/>
   <tile/>
   <tile/>
   <tile/>
   <tile/>
   <tile/>
   <tile/>
   <tile/>
   <tile/>
   <tile/>
   <tile/>
   <tile/>
   <tile/>
   <tile/>
   <tile/>
   <tile/>
   <tile/>
   <tile gid="258"/>
   <tile gid="258"/>
   <tile/>
   <tile/>
   <tile/>
   <tile/>
   <tile/>
   <tile/>
   <tile/>
   <tile/>
   <tile/>
   <tile gid="258"/>
   <tile/>
   <tile gid="258"/>
   <tile/>
   <tile/>
   <tile/>
   <tile/>
   <tile/>
   <tile/>
   <tile/>
   <tile/>
   <tile/>
   <tile/>
   <tile/>
   <tile/>
   <tile/>
   <tile/>
   <tile/>
   <tile/>
   <tile/>
   <tile/>
   <tile/>
   <tile/>
   <tile/>
   <tile/>
   <tile/>
   <tile/>
   <tile/>
   <tile/>
   <tile/>
   <tile gid="258"/>
   <tile gid="258"/>
   <tile/>
   <tile/>
   <tile/>
   <tile/>
   <tile/>
   <tile/>
   <tile/>
   <tile/>
   <tile/>
   <tile/>
   <tile/>
   <tile/>
   <tile/>
   <tile/>
   <tile/>
   <tile/>
   <tile/>
   <tile/>
   <tile/>
   <tile/>
   <tile/>
   <tile/>
   <tile/>
   <tile/>
   <tile/>
   <tile/>
   <tile/>
   <tile/>
   <tile/>
   <tile/>
   <tile/>
   <tile/>
   <tile/>
   <tile/>
   <tile/>
   <tile/>
   <tile/>
   <tile/>
   <tile/>
   <tile/>
   <tile/>
   <tile/>
   <tile/>
   <tile/>
   <tile/>
   <tile/>
   <tile/>
   <tile gid="258"/>
   <tile gid="258"/>
   <tile/>
   <tile/>
   <tile/>
   <tile/>
   <tile/>
   <tile/>
   <tile/>
   <tile/>
   <tile/>
   <tile gid="258"/>
   <tile/>
   <tile gid="258"/>
   <tile/>
   <tile/>
   <tile/>
   <tile/>
   <tile/>
   <tile/>
   <tile/>
   <tile/>
   <tile/>
   <tile/>
   <tile/>
   <tile/>
   <tile/>
   <tile/>
   <tile/>
   <tile/>
   <tile/>
   <tile/>
   <tile/>
   <tile/>
   <tile/>
   <tile/>
   <tile/>
   <tile/>
   <tile/>
   <tile/>
   <tile/>
   <tile gid="258"/>
   <tile gid="258"/>
   <tile/>
   <tile/>
   <tile/>
   <tile/>
   <tile/>
   <tile/>
   <tile/>
   <tile/>
   <tile/>
   <tile/>
   <tile/>
   <tile/>
   <tile/>
   <tile/>
   <tile/>
   <tile/>
   <tile/>
   <tile/>
   <tile/>
   <tile/>
   <tile/>
   <tile/>
   <tile/>
   <tile/>
   <tile/>
   <tile/>
   <tile/>
   <tile/>
   <tile/>
   <tile/>
   <tile/>
   <tile/>
   <tile/>
   <tile/>
   <tile/>
   <tile/>
   <tile/>
   <tile/>
   <tile/>
   <tile/>
   <tile/>
   <tile/>
   <tile/>
   <tile/>
   <tile/>
   <tile/>
   <tile/>
   <tile gid="258"/>
   <tile gid="258"/>
   <tile/>
   <tile/>
   <tile/>
   <tile/>
   <tile/>
   <tile/>
   <tile/>
   <tile/>
   <tile/>
   <tile gid="258"/>
   <tile/>
   <tile/>
   <tile gid="258"/>
   <tile gid="258"/>
   <tile/>
   <tile/>
   <tile/>
   <tile/>
   <tile/>
   <tile/>
   <tile/>
   <tile/>
   <tile/>
   <tile/>
   <tile/>
   <tile/>
   <tile/>
   <tile/>
   <tile/>
   <tile/>
   <tile/>
   <tile/>
   <tile/>
   <tile/>
   <tile/>
   <tile/>
   <tile/>
   <tile/>
   <tile/>
   <tile gid="258"/>
   <tile gid="258"/>
   <tile/>
   <tile/>
   <tile/>
   <tile/>
   <tile/>
   <tile/>
   <tile/>
   <tile/>
   <tile/>
   <tile/>
   <tile/>
   <tile/>
   <tile/>
   <tile/>
   <tile/>
   <tile/>
   <tile/>
   <tile/>
   <tile/>
   <tile/>
   <tile/>
   <tile/>
   <tile/>
   <tile/>
   <tile/>
   <tile/>
   <tile/>
   <tile/>
   <tile/>
   <tile/>
   <tile/>
   <tile/>
   <tile/>
   <tile/>
   <tile/>
   <tile/>
   <tile/>
   <tile/>
   <tile/>
   <tile/>
   <tile/>
   <tile/>
   <tile/>
   <tile/>
   <tile/>
   <tile/>
   <tile/>
   <tile gid="258"/>
   <tile gid="258"/>
   <tile/>
   <tile/>
   <tile/>
   <tile/>
   <tile/>
   <tile/>
   <tile/>
   <tile/>
   <tile/>
   <tile/>
   <tile gid="258"/>
   <tile gid="258"/>
   <tile/>
   <tile gid="258"/>
   <tile gid="258"/>
   <tile gid="258"/>
   <tile gid="258"/>
   <tile/>
   <tile/>
   <tile/>
   <tile/>
   <tile/>
   <tile/>
   <tile/>
   <tile/>
   <tile/>
   <tile/>
   <tile/>
   <tile/>
   <tile/>
   <tile/>
   <tile/>
   <tile/>
   <tile/>
   <tile/>
   <tile/>
   <tile/>
   <tile/>
   <tile/>
   <tile gid="258"/>
   <tile gid="258"/>
   <tile/>
   <tile/>
   <tile/>
   <tile/>
   <tile/>
   <tile/>
   <tile/>
   <tile/>
   <tile/>
   <tile/>
   <tile/>
   <tile/>
   <tile/>
   <tile/>
   <tile/>
   <tile/>
   <tile/>
   <tile/>
   <tile/>
   <tile/>
   <tile/>
   <tile/>
   <tile/>
   <tile/>
   <tile/>
   <tile/>
   <tile/>
   <tile/>
   <tile/>
   <tile/>
   <tile/>
   <tile/>
   <tile/>
   <tile/>
   <tile/>
   <tile/>
   <tile/>
   <tile/>
   <tile/>
   <tile/>
   <tile/>
   <tile/>
   <tile/>
   <tile/>
   <tile/>
   <tile/>
   <tile/>
   <tile gid="258"/>
   <tile gid="258"/>
   <tile/>
   <tile/>
   <tile/>
   <tile/>
   <tile/>
   <tile/>
   <tile/>
   <tile/>
   <tile/>
   <tile/>
   <tile/>
   <tile/>
   <tile gid="258"/>
   <tile gid="258"/>
   <tile gid="258"/>
   <tile gid="258"/>
   <tile gid="258"/>
   <tile/>
   <tile/>
   <tile/>
   <tile/>
   <tile/>
   <tile/>
   <tile/>
   <tile/>
   <tile/>
   <tile/>
   <tile/>
   <tile/>
   <tile/>
   <tile/>
   <tile/>
   <tile/>
   <tile/>
   <tile/>
   <tile/>
   <tile/>
   <tile/>
   <tile/>
   <tile gid="258"/>
   <tile gid="258"/>
   <tile/>
   <tile/>
   <tile/>
   <tile/>
   <tile/>
   <tile/>
   <tile/>
   <tile/>
   <tile/>
   <tile/>
   <tile/>
   <tile/>
   <tile/>
   <tile/>
   <tile/>
   <tile/>
   <tile/>
   <tile/>
   <tile/>
   <tile/>
   <tile/>
   <tile/>
   <tile/>
   <tile/>
   <tile/>
   <tile/>
   <tile/>
   <tile/>
   <tile/>
   <tile/>
   <tile/>
   <tile/>
   <tile/>
   <tile/>
   <tile/>
   <tile/>
   <tile/>
   <tile/>
   <tile/>
   <tile/>
   <tile/>
   <tile/>
   <tile/>
   <tile/>
   <tile/>
   <tile/>
   <tile/>
   <tile/>
   <tile/>
   <tile/>
   <tile/>
   <tile/>
   <tile/>
   <tile/>
   <tile/>
   <tile/>
   <tile/>
   <tile/>
   <tile/>
   <tile/>
   <tile/>
   <tile/>
   <tile/>
   <tile/>
   <tile/>
   <tile/>
   <tile/>
   <tile/>
   <tile/>
   <tile/>
   <tile/>
   <tile/>
   <tile/>
   <tile/>
   <tile/>
   <tile/>
   <tile/>
   <tile/>
   <tile/>
   <tile/>
   <tile/>
   <tile/>
   <tile/>
   <tile/>
   <tile/>
   <tile/>
   <tile/>
   <tile/>
   <tile gid="258"/>
   <tile gid="258"/>
   <tile/>
   <tile/>
   <tile/>
   <tile/>
   <tile/>
   <tile/>
   <tile/>
   <tile/>
   <tile/>
   <tile/>
   <tile/>
   <tile/>
   <tile/>
   <tile/>
   <tile/>
   <tile/>
   <tile/>
   <tile/>
   <tile/>
   <tile/>
   <tile/>
   <tile/>
   <tile/>
   <tile/>
   <tile/>
   <tile/>
   <tile/>
   <tile/>
   <tile/>
   <tile/>
   <tile/>
   <tile/>
   <tile/>
   <tile/>
   <tile/>
   <tile/>
   <tile/>
   <tile/>
   <tile/>
   <tile/>
   <tile/>
   <tile/>
   <tile/>
   <tile/>
   <tile/>
   <tile/>
   <tile/>
   <tile/>
   <tile/>
   <tile/>
   <tile/>
   <tile/>
   <tile/>
   <tile/>
   <tile/>
   <tile/>
   <tile/>
   <tile/>
   <tile/>
   <tile/>
   <tile/>
   <tile/>
   <tile/>
   <tile/>
   <tile/>
   <tile/>
   <tile/>
   <tile/>
   <tile/>
   <tile/>
   <tile/>
   <tile/>
   <tile/>
   <tile/>
   <tile/>
   <tile/>
   <tile/>
   <tile/>
   <tile/>
   <tile/>
   <tile gid="258"/>
   <tile gid="258"/>
   <tile gid="258"/>
   <tile gid="258"/>
   <tile gid="258"/>
   <tile gid="258"/>
   <tile gid="258"/>
   <tile gid="258"/>
   <tile gid="258"/>
   <tile gid="258"/>
   <tile/>
   <tile/>
   <tile/>
   <tile/>
   <tile/>
   <tile/>
   <tile/>
   <tile/>
   <tile/>
   <tile/>
   <tile/>
   <tile/>
   <tile/>
   <tile/>
   <tile/>
   <tile/>
   <tile/>
   <tile/>
   <tile/>
   <tile/>
   <tile/>
   <tile/>
   <tile/>
   <tile/>
   <tile/>
   <tile/>
   <tile/>
   <tile/>
   <tile/>
   <tile/>
   <tile/>
   <tile/>
   <tile/>
   <tile/>
   <tile/>
   <tile/>
   <tile/>
   <tile/>
   <tile/>
   <tile/>
   <tile/>
   <tile/>
   <tile/>
   <tile/>
   <tile/>
   <tile/>
   <tile/>
   <tile/>
   <tile/>
   <tile/>
   <tile/>
   <tile/>
   <tile/>
   <tile/>
   <tile/>
   <tile/>
   <tile/>
   <tile/>
   <tile/>
   <tile/>
   <tile/>
   <tile/>
   <tile/>
   <tile/>
   <tile/>
   <tile/>
   <tile/>
   <tile/>
   <tile/>
   <tile/>
   <tile/>
   <tile/>
   <tile/>
   <tile/>
   <tile/>
   <tile/>
   <tile/>
   <tile/>
   <tile/>
   <tile/>
   <tile/>
   <tile/>
   <tile gid="258"/>
   <tile gid="258"/>
   <tile gid="258"/>
   <tile/>
   <tile/>
   <tile/>
   <tile/>
   <tile gid="258"/>
   <tile/>
   <tile/>
   <tile/>
   <tile/>
   <tile/>
   <tile/>
   <tile/>
   <tile/>
   <tile/>
   <tile/>
   <tile/>
   <tile/>
   <tile/>
   <tile/>
   <tile/>
   <tile/>
   <tile/>
   <tile/>
   <tile/>
   <tile/>
   <tile/>
   <tile/>
   <tile/>
   <tile/>
   <tile/>
   <tile/>
   <tile/>
   <tile/>
   <tile/>
   <tile/>
   <tile/>
   <tile/>
   <tile/>
   <tile/>
   <tile/>
   <tile/>
   <tile/>
   <tile/>
   <tile/>
   <tile/>
   <tile/>
   <tile/>
   <tile/>
   <tile/>
   <tile/>
   <tile/>
   <tile/>
   <tile/>
   <tile/>
   <tile/>
   <tile/>
   <tile/>
   <tile/>
   <tile/>
   <tile/>
   <tile/>
   <tile/>
   <tile/>
   <tile/>
   <tile/>
   <tile/>
   <tile/>
   <tile/>
   <tile/>
   <tile/>
   <tile/>
   <tile/>
   <tile/>
   <tile gid="258"/>
   <tile gid="258"/>
   <tile gid="258"/>
   <tile gid="258"/>
   <tile gid="258"/>
   <tile gid="258"/>
   <tile gid="258"/>
   <tile gid="258"/>
   <tile gid="258"/>
   <tile/>
   <tile/>
   <tile/>
   <tile/>
   <tile/>
   <tile/>
   <tile/>
   <tile/>
   <tile gid="258"/>
   <tile/>
   <tile/>
   <tile/>
   <tile gid="258"/>
   <tile/>
   <tile/>
   <tile gid="258"/>
   <tile gid="258"/>
   <tile gid="258"/>
   <tile gid="258"/>
   <tile gid="258"/>
   <tile gid="258"/>
   <tile gid="258"/>
   <tile gid="258"/>
   <tile gid="258"/>
   <tile gid="258"/>
   <tile/>
   <tile/>
   <tile/>
   <tile/>
   <tile/>
   <tile/>
   <tile/>
   <tile/>
   <tile/>
   <tile/>
   <tile/>
   <tile/>
   <tile/>
   <tile/>
   <tile/>
   <tile/>
   <tile/>
   <tile/>
   <tile/>
   <tile/>
   <tile/>
   <tile/>
   <tile/>
   <tile/>
   <tile/>
   <tile/>
   <tile/>
   <tile/>
   <tile/>
   <tile/>
   <tile gid="258"/>
   <tile/>
   <tile/>
   <tile/>
   <tile/>
   <tile/>
   <tile/>
   <tile/>
   <tile/>
   <tile/>
   <tile/>
   <tile/>
   <tile gid="258"/>
   <tile/>
   <tile/>
   <tile/>
   <tile/>
   <tile/>
   <tile/>
   <tile/>
   <tile/>
   <tile/>
   <tile/>
   <tile/>
   <tile/>
   <tile/>
   <tile/>
   <tile gid="258"/>
   <tile/>
   <tile/>
   <tile/>
   <tile/>
   <tile/>
   <tile gid="258"/>
   <tile/>
   <tile/>
   <tile/>
   <tile/>
   <tile/>
   <tile/>
   <tile/>
   <tile/>
   <tile/>
   <tile/>
   <tile gid="258"/>
   <tile/>
   <tile/>
   <tile gid="258"/>
   <tile/>
   <tile/>
   <tile/>
   <tile gid="258"/>
   <tile gid="258"/>
   <tile gid="258"/>
   <tile gid="258"/>
   <tile gid="258"/>
   <tile gid="258"/>
   <tile gid="258"/>
   <tile gid="258"/>
   <tile/>
   <tile/>
   <tile/>
   <tile/>
   <tile/>
   <tile/>
   <tile/>
   <tile/>
   <tile/>
   <tile/>
   <tile/>
   <tile/>
   <tile/>
   <tile/>
   <tile/>
   <tile/>
   <tile/>
   <tile/>
   <tile/>
   <tile/>
   <tile/>
   <tile/>
   <tile/>
   <tile/>
   <tile/>
   <tile/>
   <tile/>
   <tile/>
   <tile/>
   <tile/>
   <tile/>
   <tile gid="258"/>
   <tile/>
   <tile/>
   <tile/>
   <tile/>
   <tile/>
   <tile/>
   <tile/>
   <tile/>
   <tile/>
   <tile/>
   <tile/>
   <tile gid="258"/>
   <tile/>
   <tile/>
   <tile gid="258"/>
   <tile gid="258"/>
   <tile gid="258"/>
   <tile gid="258"/>
   <tile gid="258"/>
   <tile gid="258"/>
   <tile gid="258"/>
   <tile/>
   <tile/>
   <tile/>
   <tile/>
   <tile/>
   <tile/>
   <tile gid="258"/>
   <tile gid="258"/>
   <tile gid="258"/>
   <tile gid="258"/>
   <tile gid="258"/>
   <tile/>
   <tile/>
   <tile/>
   <tile/>
   <tile/>
   <tile/>
   <tile/>
   <tile/>
   <tile/>
   <tile/>
   <tile/>
   <tile gid="258"/>
   <tile/>
   <tile/>
   <tile gid="258"/>
   <tile/>
   <tile/>
   <tile/>
   <tile/>
   <tile/>
   <tile/>
   <tile/>
   <tile/>
   <tile/>
   <tile/>
   <tile/>
   <tile/>
   <tile/>
   <tile/>
   <tile/>
   <tile/>
   <tile/>
   <tile/>
   <tile/>
   <tile/>
   <tile/>
   <tile/>
   <tile/>
   <tile/>
   <tile/>
   <tile/>
   <tile/>
   <tile/>
   <tile/>
   <tile/>
   <tile/>
   <tile/>
   <tile/>
   <tile/>
   <tile/>
   <tile/>
   <tile/>
   <tile/>
   <tile/>
   <tile/>
   <tile/>
   <tile/>
   <tile gid="258"/>
   <tile gid="258"/>
   <tile/>
   <tile/>
   <tile/>
   <tile/>
   <tile/>
   <tile/>
   <tile/>
   <tile/>
   <tile/>
   <tile gid="258"/>
   <tile gid="258"/>
   <tile/>
   <tile/>
   <tile/>
   <tile gid="258"/>
   <tile gid="258"/>
   <tile gid="258"/>
   <tile gid="258"/>
   <tile gid="258"/>
   <tile/>
   <tile/>
   <tile/>
   <tile/>
   <tile/>
   <tile/>
   <tile/>
   <tile/>
   <tile/>
   <tile/>
   <tile/>
   <tile/>
   <tile/>
   <tile/>
   <tile/>
   <tile/>
   <tile/>
   <tile/>
   <tile/>
   <tile/>
   <tile/>
   <tile/>
   <tile/>
   <tile/>
   <tile gid="258"/>
   <tile/>
   <tile gid="258"/>
   <tile/>
   <tile/>
   <tile/>
   <tile/>
   <tile/>
   <tile/>
   <tile/>
   <tile/>
   <tile/>
   <tile/>
   <tile/>
   <tile/>
   <tile/>
   <tile/>
   <tile/>
   <tile/>
   <tile/>
   <tile/>
   <tile/>
   <tile/>
   <tile/>
   <tile/>
   <tile/>
   <tile/>
   <tile/>
   <tile/>
   <tile/>
   <tile/>
   <tile/>
   <tile/>
   <tile/>
   <tile/>
   <tile/>
   <tile/>
   <tile/>
   <tile/>
   <tile/>
   <tile/>
   <tile/>
   <tile/>
   <tile/>
   <tile/>
   <tile gid="258"/>
   <tile gid="258"/>
   <tile/>
   <tile/>
   <tile/>
   <tile/>
   <tile/>
   <tile/>
   <tile/>
   <tile/>
   <tile/>
   <tile gid="258"/>
   <tile gid="258"/>
   <tile/>
   <tile/>
   <tile/>
   <tile/>
   <tile/>
   <tile/>
   <tile/>
   <tile/>
   <tile/>
   <tile/>
   <tile/>
   <tile/>
   <tile/>
   <tile/>
   <tile/>
   <tile/>
   <tile/>
   <tile/>
   <tile/>
   <tile/>
   <tile/>
   <tile/>
   <tile/>
   <tile/>
   <tile/>
   <tile/>
   <tile/>
   <tile/>
   <tile/>
   <tile/>
   <tile/>
   <tile/>
   <tile/>
   <tile gid="258"/>
   <tile gid="258"/>
   <tile/>
   <tile/>
   <tile/>
   <tile/>
   <tile/>
   <tile/>
   <tile/>
   <tile/>
   <tile/>
   <tile/>
   <tile/>
   <tile/>
   <tile/>
   <tile/>
   <tile/>
   <tile/>
   <tile/>
   <tile/>
   <tile/>
   <tile/>
   <tile/>
   <tile/>
   <tile/>
   <tile/>
   <tile/>
   <tile/>
   <tile/>
   <tile/>
   <tile/>
   <tile/>
   <tile/>
   <tile/>
   <tile/>
   <tile/>
   <tile/>
   <tile/>
   <tile/>
   <tile/>
   <tile/>
   <tile/>
   <tile/>
   <tile/>
   <tile gid="258"/>
   <tile gid="258"/>
   <tile gid="258"/>
   <tile gid="258"/>
   <tile gid="258"/>
   <tile/>
   <tile/>
   <tile/>
   <tile gid="258"/>
   <tile gid="258"/>
   <tile gid="258"/>
   <tile gid="258"/>
   <tile gid="258"/>
   <tile/>
   <tile/>
   <tile/>
   <tile/>
   <tile/>
   <tile/>
   <tile/>
   <tile/>
   <tile/>
   <tile/>
   <tile/>
   <tile/>
   <tile/>
   <tile/>
   <tile/>
   <tile/>
   <tile/>
   <tile/>
   <tile/>
   <tile/>
   <tile/>
   <tile/>
   <tile/>
   <tile/>
   <tile/>
   <tile/>
   <tile/>
   <tile/>
   <tile/>
   <tile/>
   <tile/>
   <tile/>
   <tile/>
   <tile gid="258"/>
   <tile gid="258"/>
   <tile/>
   <tile/>
   <tile/>
   <tile/>
   <tile/>
   <tile/>
   <tile/>
   <tile/>
   <tile/>
   <tile/>
   <tile/>
   <tile/>
   <tile/>
   <tile/>
   <tile/>
   <tile/>
   <tile/>
   <tile/>
   <tile/>
   <tile/>
   <tile/>
   <tile/>
   <tile/>
   <tile/>
   <tile/>
   <tile/>
   <tile/>
   <tile/>
   <tile/>
   <tile/>
   <tile/>
   <tile/>
   <tile/>
   <tile/>
   <tile/>
   <tile/>
   <tile/>
   <tile/>
   <tile/>
   <tile/>
   <tile/>
   <tile/>
   <tile/>
   <tile/>
   <tile gid="258"/>
   <tile gid="258"/>
   <tile/>
   <tile gid="258"/>
   <tile/>
   <tile gid="258"/>
   <tile/>
   <tile gid="258"/>
   <tile gid="258"/>
   <tile/>
   <tile/>
   <tile/>
   <tile/>
   <tile/>
   <tile/>
   <tile/>
   <tile/>
   <tile/>
   <tile/>
   <tile/>
   <tile/>
   <tile/>
   <tile/>
   <tile/>
   <tile/>
   <tile/>
   <tile/>
   <tile/>
   <tile/>
   <tile/>
   <tile/>
   <tile/>
   <tile/>
   <tile/>
   <tile/>
   <tile/>
   <tile/>
   <tile/>
   <tile/>
   <tile/>
   <tile/>
   <tile/>
   <tile/>
   <tile/>
   <tile gid="258"/>
   <tile gid="258"/>
   <tile/>
   <tile/>
   <tile/>
   <tile/>
   <tile/>
   <tile/>
   <tile/>
   <tile/>
   <tile/>
   <tile/>
   <tile/>
   <tile/>
   <tile/>
   <tile/>
   <tile/>
   <tile/>
   <tile/>
   <tile/>
   <tile/>
   <tile/>
   <tile/>
   <tile/>
   <tile/>
   <tile/>
   <tile/>
   <tile/>
   <tile/>
   <tile/>
   <tile/>
   <tile/>
   <tile/>
   <tile/>
   <tile/>
   <tile/>
   <tile/>
   <tile/>
   <tile/>
   <tile/>
   <tile/>
   <tile/>
   <tile/>
   <tile/>
   <tile/>
   <tile/>
   <tile/>
   <tile/>
   <tile gid="258"/>
   <tile/>
   <tile/>
   <tile/>
   <tile gid="258"/>
   <tile/>
   <tile/>
   <tile/>
   <tile/>
   <tile/>
   <tile/>
   <tile/>
   <tile/>
   <tile/>
   <tile/>
   <tile/>
   <tile/>
   <tile/>
   <tile/>
   <tile/>
   <tile/>
   <tile/>
   <tile/>
   <tile/>
   <tile/>
   <tile/>
   <tile/>
   <tile/>
   <tile/>
   <tile/>
   <tile/>
   <tile/>
   <tile/>
   <tile/>
   <tile/>
   <tile/>
   <tile/>
   <tile/>
   <tile/>
   <tile/>
   <tile/>
   <tile/>
   <tile gid="258"/>
   <tile gid="258"/>
   <tile/>
   <tile/>
   <tile/>
   <tile/>
   <tile/>
   <tile/>
   <tile/>
   <tile/>
   <tile/>
   <tile gid="258"/>
   <tile gid="258"/>
   <tile gid="258"/>
   <tile gid="258"/>
   <tile gid="258"/>
   <tile gid="258"/>
   <tile/>
   <tile/>
   <tile/>
   <tile/>
   <tile/>
   <tile/>
   <tile/>
   <tile/>
   <tile/>
   <tile/>
   <tile/>
   <tile/>
   <tile/>
   <tile/>
   <tile/>
   <tile/>
   <tile/>
   <tile/>
   <tile/>
   <tile/>
   <tile/>
   <tile/>
   <tile/>
   <tile/>
   <tile/>
   <tile/>
   <tile/>
   <tile/>
   <tile/>
   <tile/>
   <tile/>
   <tile gid="258"/>
   <tile/>
   <tile/>
   <tile/>
   <tile gid="258"/>
   <tile/>
   <tile/>
   <tile/>
   <tile/>
   <tile/>
   <tile/>
   <tile/>
   <tile/>
   <tile/>
   <tile/>
   <tile/>
   <tile/>
   <tile/>
   <tile/>
   <tile/>
   <tile/>
   <tile/>
   <tile/>
   <tile/>
   <tile/>
   <tile/>
   <tile/>
   <tile/>
   <tile/>
   <tile/>
   <tile/>
   <tile/>
   <tile/>
   <tile/>
   <tile/>
   <tile/>
   <tile/>
   <tile/>
   <tile/>
   <tile/>
   <tile/>
   <tile/>
   <tile gid="258"/>
   <tile gid="258"/>
   <tile/>
   <tile/>
   <tile/>
   <tile/>
   <tile/>
   <tile/>
   <tile/>
   <tile/>
   <tile/>
   <tile gid="258"/>
   <tile/>
   <tile/>
   <tile gid="258"/>
   <tile gid="258"/>
   <tile/>
   <tile/>
   <tile/>
   <tile/>
   <tile/>
   <tile/>
   <tile/>
   <tile/>
   <tile/>
   <tile/>
   <tile/>
   <tile/>
   <tile/>
   <tile/>
   <tile/>
   <tile/>
   <tile/>
   <tile/>
   <tile/>
   <tile/>
   <tile/>
   <tile/>
   <tile/>
   <tile/>
   <tile/>
   <tile/>
   <tile/>
   <tile/>
   <tile/>
   <tile/>
   <tile/>
   <tile/>
   <tile/>
   <tile gid="258"/>
   <tile/>
   <tile gid="258"/>
   <tile/>
   <tile/>
   <tile/>
   <tile/>
   <tile/>
   <tile/>
   <tile/>
   <tile/>
   <tile/>
   <tile/>
   <tile/>
   <tile/>
   <tile/>
   <tile/>
   <tile/>
   <tile/>
   <tile/>
   <tile/>
   <tile/>
   <tile/>
   <tile/>
   <tile/>
   <tile/>
   <tile/>
   <tile/>
   <tile/>
   <tile/>
   <tile/>
   <tile/>
   <tile/>
   <tile/>
   <tile/>
   <tile/>
   <tile/>
   <tile/>
   <tile/>
   <tile/>
   <tile/>
   <tile gid="258"/>
   <tile gid="258"/>
   <tile/>
   <tile/>
   <tile/>
   <tile/>
   <tile/>
   <tile/>
   <tile/>
   <tile/>
   <tile/>
   <tile gid="258"/>
   <tile/>
   <tile gid="258"/>
   <tile/>
   <tile/>
   <tile/>
   <tile/>
   <tile/>
   <tile/>
   <tile/>
   <tile/>
   <tile/>
   <tile/>
   <tile/>
   <tile/>
   <tile/>
   <tile/>
   <tile/>
   <tile/>
   <tile/>
   <tile/>
   <tile/>
   <tile/>
   <tile/>
   <tile/>
   <tile/>
   <tile/>
   <tile/>
   <tile/>
   <tile/>
   <tile/>
   <tile/>
   <tile/>
   <tile/>
   <tile/>
   <tile/>
   <tile/>
   <tile/>
   <tile/>
   <tile gid="258"/>
   <tile/>
   <tile/>
   <tile/>
   <tile/>
   <tile/>
   <tile/>
   <tile/>
   <tile/>
   <tile/>
   <tile/>
   <tile/>
   <tile/>
   <tile/>
   <tile/>
   <tile/>
   <tile/>
   <tile/>
   <tile/>
   <tile/>
   <tile/>
   <tile/>
   <tile/>
   <tile/>
   <tile/>
   <tile/>
   <tile/>
   <tile/>
   <tile/>
   <tile/>
   <tile/>
   <tile/>
   <tile/>
   <tile/>
   <tile/>
   <tile/>
   <tile/>
   <tile/>
   <tile/>
   <tile/>
   <tile gid="258"/>
   <tile gid="258"/>
   <tile/>
   <tile/>
   <tile/>
   <tile/>
   <tile/>
   <tile/>
   <tile/>
   <tile/>
   <tile/>
   <tile gid="258"/>
   <tile gid="258"/>
   <tile/>
   <tile/>
   <tile/>
   <tile/>
   <tile/>
   <tile/>
   <tile/>
   <tile/>
   <tile/>
   <tile/>
   <tile/>
   <tile/>
   <tile/>
   <tile/>
   <tile/>
   <tile/>
   <tile/>
   <tile/>
   <tile/>
   <tile/>
   <tile/>
   <tile/>
   <tile/>
   <tile/>
   <tile/>
   <tile/>
   <tile/>
   <tile/>
   <tile/>
   <tile/>
   <tile/>
   <tile/>
   <tile/>
   <tile/>
   <tile/>
   <tile/>
   <tile/>
   <tile/>
   <tile/>
   <tile/>
   <tile/>
   <tile/>
   <tile/>
   <tile/>
   <tile/>
   <tile/>
   <tile/>
   <tile/>
   <tile/>
   <tile/>
   <tile/>
   <tile/>
   <tile/>
   <tile/>
   <tile/>
   <tile/>
   <tile/>
   <tile/>
   <tile/>
   <tile/>
   <tile/>
   <tile/>
   <tile/>
   <tile/>
   <tile/>
   <tile/>
   <tile/>
   <tile/>
   <tile/>
   <tile/>
   <tile/>
   <tile/>
   <tile/>
   <tile/>
   <tile/>
   <tile/>
   <tile/>
   <tile gid="258"/>
   <tile gid="258"/>
   <tile/>
   <tile/>
   <tile/>
   <tile/>
   <tile/>
   <tile/>
   <tile/>
   <tile/>
   <tile/>
   <tile gid="258"/>
   <tile gid="258"/>
   <tile/>
   <tile/>
   <tile/>
   <tile/>
   <tile/>
   <tile/>
   <tile/>
   <tile/>
   <tile/>
   <tile/>
   <tile/>
   <tile/>
   <tile/>
   <tile/>
   <tile/>
   <tile/>
   <tile/>
   <tile/>
   <tile/>
   <tile/>
   <tile/>
   <tile/>
   <tile/>
   <tile/>
   <tile/>
   <tile/>
   <tile/>
   <tile/>
   <tile/>
   <tile/>
   <tile/>
   <tile/>
   <tile/>
   <tile/>
   <tile/>
   <tile/>
   <tile/>
   <tile/>
   <tile/>
   <tile/>
   <tile/>
   <tile/>
   <tile/>
   <tile/>
   <tile/>
   <tile/>
   <tile/>
   <tile/>
   <tile/>
   <tile/>
   <tile/>
   <tile/>
   <tile/>
   <tile/>
   <tile/>
   <tile/>
   <tile/>
   <tile/>
   <tile/>
   <tile/>
   <tile/>
   <tile/>
   <tile/>
   <tile/>
   <tile/>
   <tile/>
   <tile/>
   <tile/>
   <tile/>
   <tile/>
   <tile/>
   <tile/>
   <tile/>
   <tile/>
   <tile/>
   <tile/>
   <tile/>
   <tile gid="258"/>
   <tile gid="258"/>
   <tile/>
   <tile/>
   <tile/>
   <tile/>
   <tile/>
   <tile/>
   <tile/>
   <tile/>
   <tile/>
   <tile gid="258"/>
   <tile gid="258"/>
   <tile/>
   <tile/>
   <tile/>
   <tile/>
   <tile/>
   <tile/>
   <tile/>
   <tile/>
   <tile/>
   <tile/>
   <tile/>
   <tile/>
   <tile/>
   <tile/>
   <tile/>
   <tile/>
   <tile/>
   <tile/>
   <tile/>
   <tile/>
   <tile/>
   <tile/>
   <tile/>
   <tile/>
   <tile/>
   <tile/>
   <tile/>
   <tile/>
   <tile/>
   <tile/>
   <tile/>
   <tile/>
   <tile gid="258"/>
   <tile/>
   <tile/>
   <tile/>
   <tile/>
   <tile/>
   <tile/>
   <tile/>
   <tile/>
   <tile/>
   <tile gid="258"/>
   <tile/>
   <tile/>
   <tile/>
   <tile/>
   <tile/>
   <tile/>
   <tile/>
   <tile/>
   <tile/>
   <tile/>
   <tile/>
   <tile/>
   <tile/>
   <tile/>
   <tile/>
   <tile/>
   <tile/>
   <tile/>
   <tile/>
   <tile/>
   <tile/>
   <tile/>
   <tile/>
   <tile/>
   <tile/>
   <tile/>
   <tile/>
   <tile/>
   <tile/>
   <tile/>
   <tile/>
   <tile/>
   <tile/>
   <tile/>
   <tile gid="258"/>
   <tile gid="258"/>
   <tile/>
   <tile/>
   <tile/>
   <tile/>
   <tile/>
   <tile/>
   <tile/>
   <tile/>
   <tile/>
   <tile/>
   <tile/>
   <tile/>
   <tile/>
   <tile/>
   <tile/>
   <tile/>
   <tile/>
   <tile/>
   <tile/>
   <tile/>
   <tile/>
   <tile/>
   <tile/>
   <tile/>
   <tile/>
   <tile/>
   <tile/>
   <tile/>
   <tile/>
   <tile/>
   <tile/>
   <tile/>
   <tile/>
   <tile/>
   <tile/>
   <tile/>
   <tile/>
   <tile/>
   <tile/>
   <tile/>
   <tile/>
   <tile/>
   <tile gid="258"/>
   <tile gid="258"/>
   <tile/>
   <tile/>
   <tile/>
   <tile/>
   <tile/>
   <tile/>
   <tile/>
   <tile/>
   <tile/>
   <tile gid="258"/>
   <tile gid="258"/>
   <tile/>
   <tile/>
   <tile/>
   <tile/>
   <tile/>
   <tile/>
   <tile/>
   <tile/>
   <tile/>
   <tile/>
   <tile/>
   <tile/>
   <tile/>
   <tile/>
   <tile/>
   <tile/>
   <tile/>
   <tile/>
   <tile/>
   <tile/>
   <tile/>
   <tile/>
   <tile/>
   <tile/>
   <tile/>
   <tile/>
   <tile/>
   <tile/>
   <tile/>
   <tile/>
   <tile/>
   <tile/>
   <tile/>
   <tile gid="258"/>
   <tile gid="258"/>
   <tile/>
   <tile/>
   <tile/>
   <tile/>
   <tile/>
   <tile/>
   <tile/>
   <tile/>
   <tile/>
   <tile/>
   <tile/>
   <tile/>
   <tile/>
   <tile/>
   <tile/>
   <tile/>
   <tile/>
   <tile/>
   <tile/>
   <tile/>
   <tile/>
   <tile/>
   <tile/>
   <tile/>
   <tile/>
   <tile/>
   <tile/>
   <tile/>
   <tile/>
   <tile/>
   <tile/>
   <tile/>
   <tile/>
   <tile/>
   <tile/>
   <tile/>
   <tile/>
   <tile/>
   <tile/>
   <tile/>
   <tile/>
   <tile/>
   <tile gid="258"/>
   <tile gid="258"/>
   <tile/>
   <tile/>
   <tile/>
   <tile/>
   <tile/>
   <tile/>
   <tile/>
   <tile/>
   <tile/>
   <tile gid="258"/>
   <tile gid="258"/>
   <tile/>
   <tile/>
   <tile/>
   <tile/>
   <tile/>
   <tile/>
   <tile/>
   <tile/>
   <tile/>
   <tile/>
   <tile/>
   <tile/>
   <tile/>
   <tile/>
   <tile/>
   <tile/>
   <tile/>
   <tile/>
   <tile/>
   <tile/>
   <tile/>
   <tile/>
   <tile/>
   <tile/>
   <tile/>
   <tile/>
   <tile/>
   <tile/>
   <tile/>
   <tile/>
   <tile/>
   <tile/>
   <tile/>
   <tile gid="258"/>
   <tile gid="258"/>
   <tile/>
   <tile/>
   <tile/>
   <tile/>
   <tile/>
   <tile/>
   <tile/>
   <tile/>
   <tile/>
   <tile/>
   <tile/>
   <tile/>
   <tile/>
   <tile/>
   <tile/>
   <tile/>
   <tile/>
   <tile/>
   <tile/>
   <tile/>
   <tile/>
   <tile/>
   <tile/>
   <tile/>
   <tile/>
   <tile/>
   <tile/>
   <tile/>
   <tile/>
   <tile/>
   <tile/>
   <tile/>
   <tile/>
   <tile/>
   <tile/>
   <tile/>
   <tile/>
   <tile/>
   <tile/>
   <tile/>
   <tile/>
   <tile/>
   <tile gid="258"/>
   <tile gid="258"/>
   <tile/>
   <tile/>
   <tile/>
   <tile/>
   <tile/>
   <tile/>
   <tile/>
   <tile/>
   <tile/>
   <tile gid="258"/>
   <tile gid="258"/>
   <tile/>
   <tile/>
   <tile/>
   <tile/>
   <tile/>
   <tile/>
   <tile gid="258"/>
   <tile gid="258"/>
   <tile gid="258"/>
   <tile gid="258"/>
   <tile gid="258"/>
   <tile gid="258"/>
   <tile gid="258"/>
   <tile gid="258"/>
   <tile gid="258"/>
   <tile gid="258"/>
   <tile/>
   <tile/>
   <tile/>
   <tile/>
   <tile/>
   <tile/>
   <tile/>
   <tile/>
   <tile/>
   <tile/>
   <tile/>
   <tile/>
   <tile/>
   <tile/>
   <tile/>
   <tile/>
   <tile/>
   <tile gid="258"/>
   <tile gid="258"/>
   <tile/>
   <tile/>
   <tile/>
   <tile/>
   <tile/>
   <tile/>
   <tile/>
   <tile/>
   <tile/>
   <tile/>
   <tile/>
   <tile/>
   <tile/>
   <tile/>
   <tile/>
   <tile/>
   <tile/>
   <tile/>
   <tile/>
   <tile/>
   <tile/>
   <tile/>
   <tile/>
   <tile/>
   <tile/>
   <tile/>
   <tile/>
   <tile/>
   <tile/>
   <tile/>
   <tile/>
   <tile/>
   <tile/>
   <tile/>
   <tile/>
   <tile/>
   <tile/>
   <tile/>
   <tile/>
   <tile/>
   <tile/>
   <tile/>
   <tile gid="258"/>
   <tile gid="258"/>
   <tile/>
   <tile/>
   <tile/>
   <tile/>
   <tile/>
   <tile/>
   <tile/>
   <tile/>
   <tile/>
   <tile gid="258"/>
   <tile gid="258"/>
   <tile/>
   <tile/>
   <tile/>
   <tile/>
   <tile/>
   <tile/>
   <tile/>
   <tile gid="258"/>
   <tile gid="258"/>
   <tile gid="258"/>
   <tile gid="258"/>
   <tile gid="258"/>
   <tile gid="258"/>
   <tile gid="258"/>
   <tile gid="258"/>
   <tile/>
   <tile/>
   <tile/>
   <tile/>
   <tile/>
   <tile/>
   <tile/>
   <tile/>
   <tile/>
   <tile/>
   <tile/>
   <tile/>
   <tile/>
   <tile/>
   <tile/>
   <tile/>
   <tile/>
   <tile/>
   <tile gid="258"/>
   <tile/>
   <tile gid="258"/>
   <tile gid="258"/>
   <tile gid="258"/>
   <tile gid="258"/>
   <tile gid="258"/>
   <tile gid="258"/>
   <tile gid="258"/>
   <tile gid="258"/>
   <tile gid="258"/>
   <tile gid="258"/>
   <tile gid="258"/>
   <tile gid="258"/>
   <tile gid="258"/>
   <tile gid="258"/>
   <tile gid="258"/>
   <tile/>
   <tile/>
   <tile/>
   <tile/>
   <tile/>
   <tile/>
   <tile/>
   <tile/>
   <tile/>
   <tile/>
   <tile gid="258"/>
   <tile gid="258"/>
   <tile gid="258"/>
   <tile gid="258"/>
   <tile gid="258"/>
   <tile gid="258"/>
   <tile gid="258"/>
   <tile gid="258"/>
   <tile gid="258"/>
   <tile gid="258"/>
   <tile gid="258"/>
   <tile gid="258"/>
   <tile/>
   <tile/>
   <tile/>
   <tile/>
   <tile/>
   <tile gid="258"/>
   <tile gid="258"/>
   <tile/>
   <tile/>
   <tile gid="258"/>
   <tile gid="258"/>
   <tile gid="258"/>
   <tile gid="258"/>
   <tile gid="258"/>
   <tile/>
   <tile/>
   <tile gid="258"/>
   <tile gid="258"/>
   <tile/>
   <tile/>
   <tile/>
   <tile/>
   <tile/>
   <tile/>
   <tile/>
   <tile/>
   <tile/>
   <tile/>
   <tile/>
   <tile/>
   <tile/>
   <tile/>
   <tile/>
   <tile/>
   <tile/>
   <tile/>
   <tile/>
   <tile/>
   <tile gid="258"/>
   <tile gid="258"/>
   <tile gid="258"/>
   <tile gid="258"/>
   <tile gid="258"/>
   <tile gid="258"/>
   <tile gid="258"/>
   <tile gid="258"/>
   <tile/>
   <tile/>
   <tile/>
   <tile/>
   <tile/>
   <tile gid="258"/>
   <tile/>
   <tile/>
   <tile/>
   <tile/>
   <tile/>
   <tile/>
   <tile/>
   <tile/>
   <tile/>
   <tile gid="258"/>
   <tile gid="258"/>
   <tile/>
   <tile/>
   <tile/>
   <tile/>
   <tile/>
   <tile/>
   <tile/>
   <tile/>
   <tile/>
   <tile/>
   <tile/>
   <tile/>
   <tile/>
   <tile/>
   <tile/>
   <tile/>
   <tile gid="258"/>
   <tile gid="258"/>
   <tile gid="258"/>
   <tile gid="258"/>
   <tile gid="258"/>
   <tile gid="258"/>
   <tile gid="258"/>
   <tile gid="258"/>
   <tile gid="258"/>
   <tile gid="258"/>
   <tile/>
   <tile/>
   <tile/>
   <tile/>
   <tile/>
   <tile/>
   <tile gid="258"/>
   <tile gid="258"/>
   <tile/>
   <tile/>
   <tile/>
   <tile gid="258"/>
   <tile gid="258"/>
   <tile gid="258"/>
   <tile/>
   <tile/>
   <tile/>
   <tile gid="258"/>
   <tile gid="258"/>
   <tile/>
   <tile/>
   <tile/>
   <tile/>
   <tile/>
   <tile/>
   <tile/>
   <tile/>
   <tile/>
   <tile/>
   <tile/>
   <tile/>
   <tile/>
   <tile/>
   <tile/>
   <tile/>
   <tile/>
   <tile/>
   <tile/>
   <tile/>
   <tile/>
   <tile/>
   <tile gid="258"/>
   <tile gid="258"/>
   <tile gid="258"/>
   <tile/>
   <tile/>
   <tile gid="258"/>
   <tile/>
   <tile/>
   <tile/>
   <tile/>
   <tile/>
   <tile gid="258"/>
   <tile/>
   <tile/>
   <tile/>
   <tile/>
   <tile/>
   <tile/>
   <tile/>
   <tile/>
   <tile gid="258"/>
   <tile/>
   <tile/>
   <tile/>
   <tile/>
   <tile/>
   <tile/>
   <tile/>
   <tile/>
   <tile/>
   <tile/>
   <tile/>
   <tile/>
   <tile/>
   <tile/>
   <tile/>
   <tile/>
   <tile/>
   <tile/>
   <tile/>
   <tile/>
   <tile gid="258"/>
   <tile gid="258"/>
   <tile gid="258"/>
   <tile gid="258"/>
   <tile gid="258"/>
   <tile gid="258"/>
   <tile/>
   <tile/>
   <tile/>
   <tile/>
   <tile/>
   <tile/>
   <tile/>
   <tile/>
   <tile/>
   <tile gid="258"/>
   <tile/>
   <tile/>
   <tile/>
   <tile/>
   <tile/>
   <tile/>
   <tile/>
   <tile/>
   <tile/>
   <tile gid="258"/>
   <tile/>
   <tile/>
   <tile/>
   <tile/>
   <tile/>
   <tile/>
   <tile/>
   <tile/>
   <tile/>
   <tile/>
   <tile/>
   <tile/>
   <tile/>
   <tile/>
   <tile/>
   <tile/>
   <tile/>
   <tile/>
   <tile/>
   <tile/>
   <tile/>
   <tile/>
   <tile/>
   <tile/>
   <tile/>
   <tile/>
   <tile gid="258"/>
   <tile/>
   <tile gid="258"/>
   <tile/>
   <tile/>
   <tile/>
   <tile/>
   <tile/>
   <tile gid="258"/>
   <tile/>
   <tile/>
   <tile/>
   <tile/>
   <tile/>
   <tile/>
   <tile gid="258"/>
   <tile gid="258"/>
   <tile/>
   <tile/>
   <tile/>
   <tile/>
   <tile/>
   <tile/>
   <tile/>
   <tile/>
   <tile/>
   <tile/>
   <tile/>
   <tile/>
   <tile/>
   <tile/>
   <tile/>
   <tile/>
   <tile/>
   <tile/>
   <tile/>
   <tile/>
   <tile/>
   <tile/>
   <tile/>
   <tile/>
   <tile/>
   <tile/>
   <tile/>
   <tile/>
   <tile/>
   <tile/>
   <tile/>
   <tile/>
   <tile/>
   <tile/>
   <tile/>
   <tile/>
   <tile/>
   <tile/>
   <tile/>
   <tile/>
   <tile/>
   <tile/>
   <tile/>
   <tile/>
   <tile/>
   <tile/>
   <tile/>
   <tile/>
   <tile/>
   <tile/>
   <tile/>
   <tile/>
   <tile/>
   <tile/>
   <tile/>
   <tile/>
   <tile/>
   <tile/>
   <tile/>
   <tile/>
   <tile/>
   <tile/>
   <tile/>
   <tile/>
   <tile/>
   <tile/>
   <tile/>
   <tile/>
   <tile/>
   <tile/>
   <tile/>
   <tile/>
   <tile/>
   <tile/>
   <tile gid="258"/>
   <tile gid="258"/>
   <tile/>
   <tile/>
   <tile/>
   <tile/>
   <tile/>
   <tile gid="258"/>
   <tile/>
   <tile/>
   <tile/>
   <tile/>
   <tile/>
   <tile gid="258"/>
   <tile/>
   <tile/>
   <tile/>
   <tile/>
   <tile/>
   <tile/>
   <tile/>
   <tile/>
   <tile/>
   <tile/>
   <tile/>
   <tile/>
   <tile/>
   <tile/>
   <tile/>
   <tile/>
   <tile/>
   <tile/>
   <tile/>
   <tile/>
   <tile/>
   <tile/>
   <tile/>
   <tile/>
   <tile/>
   <tile/>
   <tile/>
   <tile/>
   <tile/>
   <tile/>
   <tile/>
   <tile/>
   <tile/>
   <tile/>
   <tile/>
   <tile/>
   <tile/>
   <tile/>
   <tile/>
   <tile/>
   <tile/>
   <tile/>
   <tile/>
   <tile/>
   <tile/>
   <tile/>
   <tile/>
   <tile/>
   <tile/>
   <tile/>
   <tile/>
   <tile/>
   <tile/>
   <tile/>
   <tile/>
   <tile/>
   <tile/>
   <tile/>
   <tile/>
   <tile/>
   <tile/>
   <tile/>
   <tile/>
   <tile/>
   <tile/>
   <tile/>
   <tile/>
   <tile/>
   <tile/>
   <tile/>
   <tile/>
   <tile/>
   <tile/>
   <tile/>
   <tile/>
   <tile/>
   <tile gid="258"/>
   <tile gid="258"/>
   <tile/>
   <tile/>
   <tile/>
   <tile/>
   <tile/>
   <tile gid="258"/>
   <tile/>
   <tile/>
   <tile/>
   <tile/>
   <tile gid="258"/>
   <tile/>
   <tile/>
   <tile/>
   <tile/>
   <tile/>
   <tile/>
   <tile/>
   <tile/>
   <tile/>
   <tile/>
   <tile/>
   <tile/>
   <tile/>
   <tile/>
   <tile/>
   <tile/>
   <tile/>
   <tile/>
   <tile/>
   <tile/>
   <tile/>
   <tile/>
   <tile/>
   <tile/>
   <tile/>
   <tile/>
   <tile/>
   <tile/>
   <tile/>
   <tile/>
   <tile/>
   <tile/>
   <tile/>
   <tile/>
   <tile/>
   <tile/>
   <tile/>
   <tile/>
   <tile/>
   <tile/>
   <tile/>
   <tile/>
   <tile/>
   <tile/>
   <tile/>
   <tile/>
   <tile/>
   <tile/>
   <tile/>
   <tile/>
   <tile/>
   <tile/>
   <tile/>
   <tile/>
   <tile/>
   <tile/>
   <tile/>
   <tile/>
   <tile/>
   <tile/>
   <tile/>
   <tile/>
   <tile/>
   <tile/>
   <tile/>
   <tile/>
   <tile/>
   <tile/>
   <tile/>
   <tile/>
   <tile/>
   <tile/>
   <tile/>
   <tile/>
   <tile/>
   <tile/>
   <tile/>
   <tile/>
   <tile gid="258"/>
   <tile/>
   <tile/>
   <tile/>
   <tile/>
   <tile/>
   <tile gid="258"/>
   <tile/>
   <tile/>
   <tile/>
   <tile gid="258"/>
   <tile/>
   <tile/>
   <tile/>
   <tile/>
   <tile/>
   <tile/>
   <tile/>
   <tile/>
   <tile/>
   <tile/>
   <tile/>
   <tile/>
   <tile/>
   <tile/>
   <tile/>
   <tile/>
   <tile/>
   <tile/>
   <tile/>
   <tile/>
   <tile/>
   <tile/>
   <tile/>
   <tile/>
   <tile/>
   <tile/>
   <tile/>
   <tile/>
   <tile/>
   <tile/>
   <tile/>
   <tile/>
   <tile/>
   <tile/>
   <tile/>
   <tile/>
   <tile/>
   <tile/>
   <tile/>
   <tile/>
   <tile/>
   <tile/>
   <tile/>
   <tile/>
   <tile/>
   <tile/>
   <tile/>
   <tile/>
   <tile/>
   <tile/>
   <tile gid="258"/>
   <tile gid="258"/>
   <tile gid="258"/>
   <tile gid="258"/>
   <tile gid="258"/>
   <tile gid="258"/>
   <tile gid="258"/>
   <tile gid="258"/>
   <tile gid="258"/>
   <tile gid="258"/>
   <tile/>
   <tile/>
   <tile/>
   <tile/>
   <tile/>
   <tile/>
   <tile/>
   <tile/>
   <tile/>
   <tile/>
   <tile/>
   <tile/>
   <tile/>
   <tile/>
   <tile/>
   <tile/>
   <tile/>
   <tile/>
   <tile/>
   <tile gid="258"/>
   <tile/>
   <tile/>
   <tile/>
   <tile/>
   <tile/>
   <tile gid="258"/>
   <tile/>
   <tile/>
   <tile/>
   <tile gid="258"/>
   <tile/>
   <tile/>
   <tile/>
   <tile/>
   <tile/>
   <tile/>
   <tile/>
   <tile/>
   <tile/>
   <tile/>
   <tile/>
   <tile/>
   <tile/>
   <tile/>
   <tile/>
   <tile/>
   <tile/>
   <tile/>
   <tile/>
   <tile/>
   <tile/>
   <tile/>
   <tile/>
   <tile/>
   <tile/>
   <tile/>
   <tile/>
   <tile/>
   <tile/>
   <tile/>
   <tile/>
   <tile/>
   <tile/>
   <tile/>
   <tile/>
   <tile/>
   <tile/>
   <tile/>
   <tile/>
   <tile/>
   <tile/>
   <tile/>
   <tile/>
   <tile/>
   <tile/>
   <tile/>
   <tile/>
   <tile/>
   <tile/>
   <tile/>
   <tile/>
   <tile gid="258"/>
   <tile/>
   <tile/>
   <tile/>
   <tile/>
   <tile/>
   <tile/>
   <tile gid="258"/>
   <tile/>
   <tile/>
   <tile/>
   <tile/>
   <tile/>
   <tile/>
   <tile/>
   <tile/>
   <tile/>
   <tile/>
   <tile/>
   <tile/>
   <tile/>
   <tile/>
   <tile/>
   <tile/>
   <tile/>
   <tile/>
   <tile/>
   <tile/>
   <tile/>
   <tile/>
   <tile/>
   <tile/>
   <tile/>
   <tile/>
   <tile gid="258"/>
   <tile/>
   <tile/>
   <tile/>
   <tile gid="258"/>
   <tile/>
   <tile/>
   <tile/>
   <tile/>
   <tile/>
   <tile/>
   <tile/>
   <tile/>
   <tile/>
   <tile/>
   <tile/>
   <tile/>
   <tile/>
   <tile/>
   <tile/>
   <tile/>
   <tile/>
   <tile/>
   <tile/>
   <tile/>
   <tile/>
   <tile/>
   <tile/>
   <tile/>
   <tile/>
   <tile/>
   <tile/>
   <tile/>
   <tile/>
   <tile/>
   <tile gid="258"/>
   <tile gid="258"/>
   <tile gid="258"/>
   <tile gid="258"/>
   <tile gid="258"/>
   <tile gid="258"/>
   <tile gid="258"/>
   <tile/>
   <tile/>
   <tile/>
   <tile/>
   <tile/>
   <tile/>
   <tile/>
   <tile/>
   <tile/>
   <tile/>
   <tile/>
   <tile/>
   <tile/>
   <tile/>
   <tile/>
   <tile gid="258"/>
   <tile gid="258"/>
   <tile gid="258"/>
   <tile gid="258"/>
   <tile gid="258"/>
   <tile gid="258"/>
   <tile/>
   <tile/>
   <tile/>
   <tile/>
   <tile/>
   <tile/>
   <tile/>
   <tile/>
   <tile/>
   <tile/>
   <tile/>
   <tile/>
   <tile/>
   <tile/>
   <tile/>
   <tile/>
   <tile/>
   <tile/>
   <tile/>
   <tile/>
   <tile/>
   <tile/>
   <tile/>
   <tile/>
   <tile/>
   <tile/>
   <tile/>
   <tile gid="258"/>
   <tile/>
   <tile/>
   <tile gid="258"/>
   <tile/>
   <tile/>
   <tile/>
   <tile/>
   <tile/>
   <tile/>
   <tile/>
   <tile/>
   <tile/>
   <tile/>
   <tile/>
   <tile/>
   <tile/>
   <tile/>
   <tile/>
   <tile/>
   <tile/>
   <tile/>
   <tile/>
   <tile/>
   <tile/>
   <tile/>
   <tile/>
   <tile/>
   <tile/>
   <tile/>
   <tile/>
   <tile/>
   <tile/>
   <tile/>
   <tile/>
   <tile gid="258"/>
   <tile gid="258"/>
   <tile gid="258"/>
   <tile gid="258"/>
   <tile gid="258"/>
   <tile/>
   <tile/>
   <tile/>
   <tile/>
   <tile/>
   <tile/>
   <tile/>
   <tile/>
   <tile/>
   <tile/>
   <tile/>
   <tile/>
   <tile/>
   <tile/>
   <tile/>
   <tile/>
   <tile/>
   <tile/>
   <tile/>
   <tile/>
   <tile/>
   <tile/>
   <tile/>
   <tile/>
   <tile/>
   <tile/>
   <tile/>
   <tile/>
   <tile/>
   <tile/>
   <tile/>
   <tile/>
   <tile/>
   <tile/>
   <tile/>
   <tile/>
   <tile/>
   <tile/>
   <tile/>
   <tile/>
   <tile/>
   <tile/>
   <tile/>
   <tile/>
   <tile/>
   <tile/>
   <tile/>
   <tile/>
   <tile/>
   <tile/>
   <tile gid="258"/>
   <tile/>
   <tile/>
   <tile gid="258"/>
   <tile/>
   <tile/>
   <tile/>
   <tile/>
   <tile/>
   <tile/>
   <tile/>
   <tile/>
   <tile/>
   <tile/>
   <tile/>
   <tile/>
   <tile/>
   <tile/>
   <tile/>
   <tile/>
   <tile/>
   <tile/>
   <tile/>
   <tile/>
   <tile/>
   <tile/>
   <tile/>
   <tile/>
   <tile/>
   <tile/>
   <tile/>
   <tile/>
   <tile/>
   <tile/>
   <tile/>
   <tile gid="258"/>
   <tile gid="258"/>
   <tile/>
   <tile/>
   <tile/>
   <tile/>
   <tile/>
   <tile/>
   <tile/>
   <tile/>
   <tile/>
   <tile/>
   <tile/>
   <tile/>
   <tile/>
   <tile/>
   <tile/>
   <tile/>
   <tile/>
   <tile/>
   <tile/>
   <tile/>
   <tile/>
   <tile/>
   <tile/>
   <tile/>
   <tile/>
   <tile/>
   <tile/>
   <tile/>
   <tile/>
   <tile/>
   <tile/>
   <tile/>
   <tile/>
   <tile/>
   <tile/>
   <tile/>
   <tile/>
   <tile/>
   <tile/>
   <tile/>
   <tile/>
   <tile/>
   <tile/>
   <tile/>
   <tile/>
   <tile gid="258"/>
   <tile gid="258"/>
   <tile gid="258"/>
   <tile/>
   <tile/>
   <tile/>
   <tile gid="258"/>
   <tile gid="258"/>
   <tile gid="258"/>
   <tile/>
   <tile gid="258"/>
   <tile/>
   <tile/>
   <tile/>
   <tile/>
   <tile/>
   <tile/>
   <tile/>
   <tile/>
   <tile/>
   <tile/>
   <tile/>
   <tile/>
   <tile/>
   <tile/>
   <tile/>
   <tile/>
   <tile/>
   <tile/>
   <tile/>
   <tile/>
   <tile/>
   <tile/>
   <tile/>
   <tile/>
   <tile/>
   <tile/>
   <tile/>
   <tile/>
   <tile/>
   <tile/>
   <tile/>
   <tile/>
   <tile gid="258"/>
   <tile gid="258"/>
   <tile/>
   <tile/>
   <tile/>
   <tile/>
   <tile/>
   <tile/>
   <tile/>
   <tile/>
   <tile/>
   <tile/>
   <tile/>
   <tile/>
   <tile/>
   <tile gid="258"/>
   <tile gid="258"/>
   <tile gid="258"/>
   <tile gid="258"/>
   <tile gid="258"/>
   <tile gid="258"/>
   <tile gid="258"/>
   <tile gid="258"/>
   <tile/>
   <tile/>
   <tile/>
   <tile/>
   <tile/>
   <tile/>
   <tile/>
   <tile/>
   <tile/>
   <tile/>
   <tile/>
   <tile/>
   <tile/>
   <tile/>
   <tile/>
   <tile/>
   <tile/>
   <tile/>
   <tile/>
   <tile/>
   <tile/>
   <tile/>
   <tile/>
   <tile/>
   <tile gid="258"/>
   <tile/>
   <tile gid="258"/>
   <tile/>
   <tile/>
   <tile/>
   <tile gid="258"/>
   <tile/>
   <tile gid="258"/>
   <tile/>
   <tile gid="258"/>
   <tile/>
   <tile/>
   <tile/>
   <tile/>
   <tile/>
   <tile/>
   <tile/>
   <tile/>
   <tile/>
   <tile/>
   <tile/>
   <tile/>
   <tile/>
   <tile/>
   <tile/>
   <tile/>
   <tile/>
   <tile/>
   <tile/>
   <tile/>
   <tile/>
   <tile/>
   <tile/>
   <tile/>
   <tile/>
   <tile/>
   <tile/>
   <tile/>
   <tile/>
   <tile/>
   <tile/>
   <tile/>
   <tile gid="258"/>
   <tile gid="258"/>
   <tile/>
   <tile/>
   <tile/>
   <tile/>
   <tile/>
   <tile/>
   <tile/>
   <tile/>
   <tile/>
   <tile/>
   <tile/>
   <tile/>
   <tile/>
   <tile/>
   <tile gid="258"/>
   <tile gid="258"/>
   <tile gid="258"/>
   <tile gid="258"/>
   <tile gid="258"/>
   <tile gid="258"/>
   <tile/>
   <tile/>
   <tile/>
   <tile/>
   <tile/>
   <tile/>
   <tile/>
   <tile/>
   <tile/>
   <tile/>
   <tile/>
   <tile/>
   <tile/>
   <tile/>
   <tile/>
   <tile/>
   <tile/>
   <tile/>
   <tile/>
   <tile/>
   <tile/>
   <tile/>
   <tile/>
   <tile gid="258"/>
   <tile gid="258"/>
   <tile/>
   <tile/>
   <tile gid="258"/>
   <tile/>
   <tile/>
   <tile/>
   <tile gid="258"/>
   <tile/>
   <tile gid="258"/>
   <tile gid="258"/>
   <tile/>
   <tile/>
   <tile/>
   <tile/>
   <tile/>
   <tile/>
   <tile/>
   <tile/>
   <tile/>
   <tile/>
   <tile/>
   <tile/>
   <tile/>
   <tile/>
   <tile/>
   <tile/>
   <tile/>
   <tile/>
   <tile/>
   <tile/>
   <tile/>
   <tile/>
   <tile/>
   <tile/>
   <tile/>
   <tile/>
   <tile/>
   <tile/>
   <tile/>
   <tile/>
   <tile/>
   <tile/>
   <tile/>
   <tile gid="258"/>
   <tile gid="258"/>
   <tile/>
   <tile/>
   <tile/>
   <tile/>
   <tile/>
   <tile/>
   <tile/>
   <tile/>
   <tile/>
   <tile/>
   <tile/>
   <tile/>
   <tile/>
   <tile/>
   <tile/>
   <tile/>
   <tile/>
   <tile/>
   <tile/>
   <tile/>
   <tile/>
   <tile/>
   <tile/>
   <tile/>
   <tile/>
   <tile/>
   <tile/>
   <tile/>
   <tile/>
   <tile/>
   <tile/>
   <tile/>
   <tile/>
   <tile/>
   <tile/>
   <tile/>
   <tile/>
   <tile/>
   <tile/>
   <tile/>
   <tile/>
   <tile/>
   <tile/>
   <tile gid="258"/>
   <tile/>
   <tile/>
   <tile/>
   <tile gid="258"/>
   <tile/>
   <tile/>
   <tile/>
   <tile gid="258"/>
   <tile/>
   <tile gid="258"/>
   <tile gid="258"/>
   <tile/>
   <tile/>
   <tile/>
   <tile/>
   <tile/>
   <tile/>
   <tile/>
   <tile/>
   <tile/>
   <tile/>
   <tile/>
   <tile/>
   <tile/>
   <tile/>
   <tile/>
   <tile/>
   <tile/>
   <tile/>
   <tile/>
   <tile/>
   <tile/>
   <tile/>
   <tile/>
   <tile/>
   <tile/>
   <tile/>
   <tile/>
   <tile/>
   <tile/>
   <tile/>
   <tile/>
   <tile/>
   <tile/>
   <tile/>
   <tile/>
   <tile/>
   <tile/>
   <tile/>
   <tile/>
   <tile/>
   <tile/>
   <tile/>
   <tile/>
   <tile/>
   <tile/>
   <tile/>
   <tile/>
   <tile/>
   <tile/>
   <tile/>
   <tile/>
   <tile/>
   <tile/>
   <tile/>
   <tile/>
   <tile/>
   <tile/>
   <tile/>
   <tile/>
   <tile/>
   <tile/>
   <tile/>
   <tile/>
   <tile/>
   <tile/>
   <tile/>
   <tile/>
   <tile/>
   <tile/>
   <tile/>
   <tile/>
   <tile/>
   <tile/>
   <tile/>
   <tile/>
   <tile gid="258"/>
   <tile gid="258"/>
   <tile gid="258"/>
   <tile/>
   <tile/>
   <tile/>
   <tile/>
   <tile gid="258"/>
   <tile/>
   <tile/>
   <tile/>
   <tile gid="258"/>
   <tile/>
   <tile gid="258"/>
   <tile gid="258"/>
   <tile/>
   <tile/>
   <tile/>
   <tile/>
   <tile/>
   <tile/>
   <tile/>
   <tile/>
   <tile/>
   <tile/>
   <tile/>
   <tile/>
   <tile/>
   <tile/>
   <tile/>
   <tile/>
   <tile/>
   <tile/>
   <tile/>
   <tile gid="258"/>
   <tile gid="258"/>
   <tile gid="258"/>
   <tile gid="258"/>
   <tile gid="258"/>
   <tile gid="258"/>
   <tile gid="258"/>
   <tile gid="258"/>
   <tile gid="258"/>
   <tile gid="258"/>
   <tile gid="258"/>
   <tile gid="258"/>
   <tile gid="258"/>
   <tile/>
   <tile/>
   <tile/>
   <tile/>
   <tile/>
   <tile/>
   <tile/>
   <tile/>
   <tile/>
   <tile/>
   <tile/>
   <tile/>
   <tile/>
   <tile/>
   <tile/>
   <tile/>
   <tile/>
   <tile/>
   <tile/>
   <tile/>
   <tile/>
   <tile/>
   <tile/>
   <tile/>
   <tile/>
   <tile/>
   <tile/>
   <tile/>
   <tile/>
   <tile/>
   <tile/>
   <tile/>
   <tile/>
   <tile/>
   <tile/>
   <tile/>
   <tile/>
   <tile/>
   <tile/>
   <tile/>
   <tile/>
   <tile/>
   <tile/>
   <tile gid="258"/>
   <tile/>
   <tile/>
   <tile/>
   <tile/>
   <tile/>
   <tile/>
   <tile gid="258"/>
   <tile/>
   <tile/>
   <tile/>
   <tile gid="258"/>
   <tile/>
   <tile gid="258"/>
   <tile gid="258"/>
   <tile/>
   <tile/>
   <tile/>
   <tile/>
   <tile/>
   <tile/>
   <tile/>
   <tile/>
   <tile/>
   <tile/>
   <tile/>
   <tile/>
   <tile/>
   <tile/>
   <tile/>
   <tile/>
   <tile/>
   <tile/>
   <tile/>
   <tile/>
   <tile gid="258"/>
   <tile gid="258"/>
   <tile gid="258"/>
   <tile gid="258"/>
   <tile gid="258"/>
   <tile gid="258"/>
   <tile gid="258"/>
   <tile gid="258"/>
   <tile gid="258"/>
   <tile gid="258"/>
   <tile gid="258"/>
   <tile/>
   <tile/>
   <tile/>
   <tile/>
   <tile/>
   <tile/>
   <tile/>
   <tile/>
   <tile/>
   <tile/>
   <tile/>
   <tile/>
   <tile/>
   <tile/>
   <tile/>
   <tile/>
   <tile/>
   <tile/>
   <tile/>
   <tile/>
   <tile/>
   <tile/>
   <tile/>
   <tile/>
   <tile/>
   <tile/>
   <tile/>
   <tile/>
   <tile/>
   <tile/>
   <tile/>
   <tile/>
   <tile gid="258"/>
   <tile gid="258"/>
   <tile gid="258"/>
   <tile gid="258"/>
   <tile gid="258"/>
   <tile gid="258"/>
   <tile gid="258"/>
   <tile gid="258"/>
   <tile gid="258"/>
   <tile gid="258"/>
   <tile/>
   <tile/>
   <tile gid="258"/>
   <tile/>
   <tile/>
   <tile/>
   <tile/>
   <tile/>
   <tile/>
   <tile gid="258"/>
   <tile/>
   <tile/>
   <tile/>
   <tile gid="258"/>
   <tile/>
   <tile gid="258"/>
   <tile gid="258"/>
   <tile/>
   <tile/>
   <tile/>
   <tile/>
   <tile/>
   <tile/>
   <tile/>
   <tile/>
   <tile/>
   <tile/>
   <tile/>
   <tile/>
   <tile/>
   <tile/>
   <tile/>
   <tile/>
   <tile/>
   <tile/>
   <tile/>
   <tile/>
   <tile/>
   <tile/>
   <tile/>
   <tile/>
   <tile/>
   <tile/>
   <tile/>
   <tile/>
   <tile/>
   <tile/>
   <tile/>
   <tile/>
   <tile/>
   <tile/>
   <tile/>
   <tile/>
   <tile/>
   <tile/>
   <tile/>
   <tile/>
   <tile/>
   <tile/>
   <tile/>
   <tile/>
   <tile/>
   <tile/>
   <tile/>
   <tile/>
   <tile/>
   <tile/>
   <tile/>
   <tile/>
   <tile/>
   <tile/>
   <tile/>
   <tile/>
   <tile/>
   <tile/>
   <tile/>
   <tile/>
   <tile/>
   <tile/>
   <tile/>
   <tile/>
   <tile gid="258"/>
   <tile/>
   <tile/>
   <tile/>
   <tile/>
   <tile/>
   <tile/>
   <tile gid="258"/>
   <tile/>
   <tile/>
   <tile/>
   <tile gid="258"/>
   <tile/>
   <tile/>
   <tile/>
   <tile/>
   <tile/>
   <tile/>
   <tile gid="258"/>
   <tile/>
   <tile/>
   <tile/>
   <tile gid="258"/>
   <tile/>
   <tile gid="258"/>
   <tile/>
   <tile gid="258"/>
   <tile gid="258"/>
   <tile gid="258"/>
   <tile gid="258"/>
   <tile/>
   <tile/>
   <tile/>
   <tile/>
   <tile/>
   <tile gid="258"/>
   <tile gid="258"/>
   <tile gid="258"/>
   <tile gid="258"/>
   <tile gid="258"/>
   <tile gid="258"/>
   <tile gid="258"/>
   <tile gid="258"/>
   <tile gid="258"/>
   <tile gid="258"/>
   <tile gid="258"/>
   <tile gid="258"/>
   <tile gid="258"/>
   <tile gid="258"/>
   <tile gid="258"/>
   <tile gid="258"/>
   <tile gid="258"/>
   <tile gid="258"/>
   <tile gid="258"/>
   <tile gid="258"/>
   <tile gid="258"/>
   <tile gid="258"/>
   <tile gid="258"/>
   <tile gid="258"/>
   <tile gid="258"/>
   <tile gid="258"/>
   <tile gid="258"/>
   <tile gid="258"/>
   <tile gid="258"/>
   <tile gid="258"/>
   <tile gid="258"/>
   <tile gid="258"/>
   <tile gid="258"/>
   <tile gid="258"/>
   <tile gid="258"/>
   <tile gid="258"/>
   <tile gid="258"/>
   <tile gid="258"/>
   <tile gid="258"/>
   <tile gid="258"/>
   <tile gid="258"/>
   <tile gid="258"/>
   <tile gid="258"/>
   <tile gid="258"/>
   <tile gid="258"/>
   <tile gid="258"/>
   <tile gid="258"/>
   <tile gid="258"/>
   <tile gid="258"/>
   <tile gid="258"/>
   <tile gid="258"/>
   <tile gid="258"/>
   <tile gid="258"/>
   <tile gid="258"/>
   <tile gid="258"/>
   <tile gid="258"/>
   <tile gid="258"/>
   <tile gid="258"/>
   <tile gid="258"/>
   <tile gid="258"/>
   <tile gid="258"/>
   <tile gid="258"/>
   <tile gid="258"/>
   <tile gid="258"/>
   <tile gid="258"/>
   <tile gid="258"/>
   <tile gid="258"/>
   <tile gid="258"/>
   <tile gid="258"/>
   <tile gid="258"/>
   <tile gid="258"/>
   <tile gid="258"/>
   <tile gid="258"/>
   <tile gid="258"/>
   <tile gid="258"/>
   <tile gid="258"/>
   <tile gid="258"/>
   <tile gid="258"/>
   <tile gid="258"/>
   <tile gid="258"/>
  </data>
 </layer>
 <objectgroup id="4" name="Entities">
  <object id="1" name="Door" type="Door" x="274.762" y="4319.4" width="390.476" height="49.204">
   <properties>
    <property name="Destination" value="MapCor_Sala9.tmx"/>
    <property name="Type" value="Door"/>
    <property name="playerX" type="float" value="992.52"/>
    <property name="playerY" type="float" value="170.59"/>
   </properties>
  </object>
  <object id="3" name="Player" type="Player" x="820" y="4224">
   <point/>
  </object>
  <object id="4" name="Door" type="Door" x="63.76" y="-8.602" width="5674.48" height="65.204">
   <properties>
    <property name="Destination" value="MapPulmo_Sala2.tmx"/>
    <property name="Type" value="Door"/>
    <property name="playerX" type="float" value="675"/>
    <property name="playerY" type="float" value="4142"/>
   </properties>
  </object>
 </objectgroup>
 <objectgroup id="5" name="Anim_Tiles"/>
</map>
