<?xml version="1.0" encoding="UTF-8"?>
<map version="1.10" tiledversion="1.11.2" orientation="orthogonal" renderorder="right-down" width="60" height="34" tilewidth="64" tileheight="64" infinite="0" nextlayerid="8" nextobjectid="140">
 <properties>
  <property name="Draw" type="bool" value="true"/>
 </properties>
 <tileset firstgid="1" name="atlas_2.2" tilewidth="64" tileheight="64" tilecount="256" columns="16">
  <image source="atlas_2.2.png" width="1024" height="1024"/>
 </tileset>
 <tileset firstgid="257" name="TileMetadata" tilewidth="64" tileheight="64" tilecount="2" columns="2">
  <image source="TileMetadata.png" width="128" height="64"/>
 </tileset>
 <tileset firstgid="259" name="atlas_tiles_1.3" tilewidth="64" tileheight="64" tilecount="256" columns="16">
  <image source="atlas_tiles_1.3.png" width="1024" height="1024"/>
 </tileset>
 <tileset firstgid="515" name="atlas_tiles_1.3" tilewidth="64" tileheight="64" tilecount="256" columns="16">
  <image source="atlas_tiles_1.3.png" width="1024" height="1024"/>
 </tileset>
 <tileset firstgid="771" name="atlas_2.4" tilewidth="64" tileheight="64" tilecount="256" columns="16">
  <image source="atlas_2.4.png" width="1024" height="1024"/>
 </tileset>
 <tileset firstgid="1027" source="Foreground_PNG.tsx"/>
 <tileset firstgid="3994" name="Background Pulmón1" tilewidth="64" tileheight="64" tilecount="558" columns="31">
  <image source="../Textures/Backgrounds/Pulmones/Background Pulmón1.png" width="2020" height="1180"/>
 </tileset>
 <tileset firstgid="4552" name="Middleground_Pulmo" tilewidth="3840" tileheight="2176" tilecount="1" columns="1">
  <image source="../Textures/Backgrounds/Pulmones/MIddleground_sala1.png" width="3840" height="2176"/>
 </tileset>
 <layer id="6" name="Background" width="60" height="34" parallaxx="1.1" parallaxy="1.1">
  <properties>
   <property name="Draw" type="bool" value="true"/>
  </properties>
  <data>
   <tile gid="3994"/>
   <tile gid="3995"/>
   <tile gid="3996"/>
   <tile gid="3997"/>
   <tile gid="3998"/>
   <tile gid="3999"/>
   <tile gid="4000"/>
   <tile gid="4001"/>
   <tile gid="4002"/>
   <tile gid="4003"/>
   <tile gid="4004"/>
   <tile gid="4005"/>
   <tile gid="4006"/>
   <tile gid="4007"/>
   <tile gid="4008"/>
   <tile gid="4009"/>
   <tile gid="4010"/>
   <tile gid="4011"/>
   <tile gid="4012"/>
   <tile gid="4013"/>
   <tile gid="4014"/>
   <tile gid="4015"/>
   <tile gid="4016"/>
   <tile gid="4017"/>
   <tile gid="4018"/>
   <tile gid="4019"/>
   <tile gid="4020"/>
   <tile gid="4021"/>
   <tile gid="4022"/>
   <tile gid="4023"/>
   <tile gid="4024"/>
   <tile gid="3994"/>
   <tile gid="3995"/>
   <tile gid="3996"/>
   <tile gid="3997"/>
   <tile gid="3998"/>
   <tile gid="3999"/>
   <tile gid="4000"/>
   <tile gid="4001"/>
   <tile gid="4002"/>
   <tile gid="4003"/>
   <tile gid="4004"/>
   <tile gid="4005"/>
   <tile gid="4006"/>
   <tile gid="4007"/>
   <tile gid="4008"/>
   <tile gid="4009"/>
   <tile gid="4010"/>
   <tile gid="4011"/>
   <tile gid="4012"/>
   <tile gid="4013"/>
   <tile gid="4014"/>
   <tile gid="4015"/>
   <tile gid="4016"/>
   <tile gid="4017"/>
   <tile gid="4018"/>
   <tile gid="4019"/>
   <tile gid="4020"/>
   <tile gid="4021"/>
   <tile gid="4022"/>
   <tile gid="4025"/>
   <tile gid="4026"/>
   <tile gid="4027"/>
   <tile gid="4028"/>
   <tile gid="4029"/>
   <tile gid="4030"/>
   <tile gid="4031"/>
   <tile gid="4032"/>
   <tile gid="4033"/>
   <tile gid="4034"/>
   <tile gid="4035"/>
   <tile gid="4036"/>
   <tile gid="4037"/>
   <tile gid="4038"/>
   <tile gid="4039"/>
   <tile gid="4040"/>
   <tile gid="4041"/>
   <tile gid="4042"/>
   <tile gid="4043"/>
   <tile gid="4044"/>
   <tile gid="4045"/>
   <tile gid="4046"/>
   <tile gid="4047"/>
   <tile gid="4048"/>
   <tile gid="4049"/>
   <tile gid="4050"/>
   <tile gid="4051"/>
   <tile gid="4052"/>
   <tile gid="4053"/>
   <tile gid="4054"/>
   <tile gid="4055"/>
   <tile gid="4025"/>
   <tile gid="4026"/>
   <tile gid="4027"/>
   <tile gid="4028"/>
   <tile gid="4029"/>
   <tile gid="4030"/>
   <tile gid="4031"/>
   <tile gid="4032"/>
   <tile gid="4033"/>
   <tile gid="4034"/>
   <tile gid="4035"/>
   <tile gid="4036"/>
   <tile gid="4037"/>
   <tile gid="4038"/>
   <tile gid="4039"/>
   <tile gid="4040"/>
   <tile gid="4041"/>
   <tile gid="4042"/>
   <tile gid="4043"/>
   <tile gid="4044"/>
   <tile gid="4045"/>
   <tile gid="4046"/>
   <tile gid="4047"/>
   <tile gid="4048"/>
   <tile gid="4049"/>
   <tile gid="4050"/>
   <tile gid="4051"/>
   <tile gid="4052"/>
   <tile gid="4053"/>
   <tile gid="4056"/>
   <tile gid="4057"/>
   <tile gid="4058"/>
   <tile gid="4059"/>
   <tile gid="4060"/>
   <tile gid="4061"/>
   <tile gid="4062"/>
   <tile gid="4063"/>
   <tile gid="4064"/>
   <tile gid="4065"/>
   <tile gid="4066"/>
   <tile gid="4067"/>
   <tile gid="4068"/>
   <tile gid="4069"/>
   <tile gid="4070"/>
   <tile gid="4071"/>
   <tile gid="4072"/>
   <tile gid="4073"/>
   <tile gid="4074"/>
   <tile gid="4075"/>
   <tile gid="4076"/>
   <tile gid="4077"/>
   <tile gid="4078"/>
   <tile gid="4079"/>
   <tile gid="4080"/>
   <tile gid="4081"/>
   <tile gid="4082"/>
   <tile gid="4083"/>
   <tile gid="4084"/>
   <tile gid="4085"/>
   <tile gid="4086"/>
   <tile gid="4056"/>
   <tile gid="4057"/>
   <tile gid="4058"/>
   <tile gid="4059"/>
   <tile gid="4060"/>
   <tile gid="4061"/>
   <tile gid="4062"/>
   <tile gid="4063"/>
   <tile gid="4064"/>
   <tile gid="4065"/>
   <tile gid="4066"/>
   <tile gid="4067"/>
   <tile gid="4068"/>
   <tile gid="4069"/>
   <tile gid="4070"/>
   <tile gid="4071"/>
   <tile gid="4072"/>
   <tile gid="4073"/>
   <tile gid="4074"/>
   <tile gid="4075"/>
   <tile gid="4076"/>
   <tile gid="4077"/>
   <tile gid="4078"/>
   <tile gid="4079"/>
   <tile gid="4080"/>
   <tile gid="4081"/>
   <tile gid="4082"/>
   <tile gid="4083"/>
   <tile gid="4084"/>
   <tile gid="4087"/>
   <tile gid="4088"/>
   <tile gid="4089"/>
   <tile gid="4090"/>
   <tile gid="4091"/>
   <tile gid="4092"/>
   <tile gid="4093"/>
   <tile gid="4094"/>
   <tile gid="4095"/>
   <tile gid="4096"/>
   <tile gid="4097"/>
   <tile gid="4098"/>
   <tile gid="4099"/>
   <tile gid="4100"/>
   <tile gid="4101"/>
   <tile gid="4102"/>
   <tile gid="4103"/>
   <tile gid="4104"/>
   <tile gid="4105"/>
   <tile gid="4106"/>
   <tile gid="4107"/>
   <tile gid="4108"/>
   <tile gid="4109"/>
   <tile gid="4110"/>
   <tile gid="4111"/>
   <tile gid="4112"/>
   <tile gid="4113"/>
   <tile gid="4114"/>
   <tile gid="4115"/>
   <tile gid="4116"/>
   <tile gid="4117"/>
   <tile gid="4087"/>
   <tile gid="4088"/>
   <tile gid="4089"/>
   <tile gid="4090"/>
   <tile gid="4091"/>
   <tile gid="4092"/>
   <tile gid="4093"/>
   <tile gid="4094"/>
   <tile gid="4095"/>
   <tile gid="4096"/>
   <tile gid="4097"/>
   <tile gid="4098"/>
   <tile gid="4099"/>
   <tile gid="4100"/>
   <tile gid="4101"/>
   <tile gid="4102"/>
   <tile gid="4103"/>
   <tile gid="4104"/>
   <tile gid="4105"/>
   <tile gid="4106"/>
   <tile gid="4107"/>
   <tile gid="4108"/>
   <tile gid="4109"/>
   <tile gid="4110"/>
   <tile gid="4111"/>
   <tile gid="4112"/>
   <tile gid="4113"/>
   <tile gid="4114"/>
   <tile gid="4115"/>
   <tile gid="4118"/>
   <tile gid="4119"/>
   <tile gid="4120"/>
   <tile gid="4121"/>
   <tile gid="4122"/>
   <tile gid="4123"/>
   <tile gid="4124"/>
   <tile gid="4125"/>
   <tile gid="4126"/>
   <tile gid="4127"/>
   <tile gid="4128"/>
   <tile gid="4129"/>
   <tile gid="4130"/>
   <tile gid="4131"/>
   <tile gid="4132"/>
   <tile gid="4133"/>
   <tile gid="4134"/>
   <tile gid="4135"/>
   <tile gid="4136"/>
   <tile gid="4137"/>
   <tile gid="4138"/>
   <tile gid="4139"/>
   <tile gid="4140"/>
   <tile gid="4141"/>
   <tile gid="4142"/>
   <tile gid="4143"/>
   <tile gid="4144"/>
   <tile gid="4145"/>
   <tile gid="4146"/>
   <tile gid="4147"/>
   <tile gid="4148"/>
   <tile gid="4118"/>
   <tile gid="4119"/>
   <tile gid="4120"/>
   <tile gid="4121"/>
   <tile gid="4122"/>
   <tile gid="4123"/>
   <tile gid="4124"/>
   <tile gid="4125"/>
   <tile gid="4126"/>
   <tile gid="4127"/>
   <tile gid="4128"/>
   <tile gid="4129"/>
   <tile gid="4130"/>
   <tile gid="4131"/>
   <tile gid="4132"/>
   <tile gid="4133"/>
   <tile gid="4134"/>
   <tile gid="4135"/>
   <tile gid="4136"/>
   <tile gid="4137"/>
   <tile gid="4138"/>
   <tile gid="4139"/>
   <tile gid="4140"/>
   <tile gid="4141"/>
   <tile gid="4142"/>
   <tile gid="4143"/>
   <tile gid="4144"/>
   <tile gid="4145"/>
   <tile gid="4146"/>
   <tile gid="4149"/>
   <tile gid="4150"/>
   <tile gid="4151"/>
   <tile gid="4152"/>
   <tile gid="4153"/>
   <tile gid="4154"/>
   <tile gid="4155"/>
   <tile gid="4156"/>
   <tile gid="4157"/>
   <tile gid="4158"/>
   <tile gid="4159"/>
   <tile gid="4160"/>
   <tile gid="4161"/>
   <tile gid="4162"/>
   <tile gid="4163"/>
   <tile gid="4164"/>
   <tile gid="4165"/>
   <tile gid="4166"/>
   <tile gid="4167"/>
   <tile gid="4168"/>
   <tile gid="4169"/>
   <tile gid="4170"/>
   <tile gid="4171"/>
   <tile gid="4172"/>
   <tile gid="4173"/>
   <tile gid="4174"/>
   <tile gid="4175"/>
   <tile gid="4176"/>
   <tile gid="4177"/>
   <tile gid="4178"/>
   <tile gid="4179"/>
   <tile gid="4149"/>
   <tile gid="4150"/>
   <tile gid="4151"/>
   <tile gid="4152"/>
   <tile gid="4153"/>
   <tile gid="4154"/>
   <tile gid="4155"/>
   <tile gid="4156"/>
   <tile gid="4157"/>
   <tile gid="4158"/>
   <tile gid="4159"/>
   <tile gid="4160"/>
   <tile gid="4161"/>
   <tile gid="4162"/>
   <tile gid="4163"/>
   <tile gid="4164"/>
   <tile gid="4165"/>
   <tile gid="4166"/>
   <tile gid="4167"/>
   <tile gid="4168"/>
   <tile gid="4169"/>
   <tile gid="4170"/>
   <tile gid="4171"/>
   <tile gid="4172"/>
   <tile gid="4173"/>
   <tile gid="4174"/>
   <tile gid="4175"/>
   <tile gid="4176"/>
   <tile gid="4177"/>
   <tile gid="4180"/>
   <tile gid="4181"/>
   <tile gid="4182"/>
   <tile gid="4183"/>
   <tile gid="4184"/>
   <tile gid="4185"/>
   <tile gid="4186"/>
   <tile gid="4187"/>
   <tile gid="4188"/>
   <tile gid="4189"/>
   <tile gid="4190"/>
   <tile gid="4191"/>
   <tile gid="4192"/>
   <tile gid="4193"/>
   <tile gid="4194"/>
   <tile gid="4195"/>
   <tile gid="4196"/>
   <tile gid="4197"/>
   <tile gid="4198"/>
   <tile gid="4199"/>
   <tile gid="4200"/>
   <tile gid="4201"/>
   <tile gid="4202"/>
   <tile gid="4203"/>
   <tile gid="4204"/>
   <tile gid="4205"/>
   <tile gid="4206"/>
   <tile gid="4207"/>
   <tile gid="4208"/>
   <tile gid="4209"/>
   <tile gid="4210"/>
   <tile gid="4180"/>
   <tile gid="4181"/>
   <tile gid="4182"/>
   <tile gid="4183"/>
   <tile gid="4184"/>
   <tile gid="4185"/>
   <tile gid="4186"/>
   <tile gid="4187"/>
   <tile gid="4188"/>
   <tile gid="4189"/>
   <tile gid="4190"/>
   <tile gid="4191"/>
   <tile gid="4192"/>
   <tile gid="4193"/>
   <tile gid="4194"/>
   <tile gid="4195"/>
   <tile gid="4196"/>
   <tile gid="4197"/>
   <tile gid="4198"/>
   <tile gid="4199"/>
   <tile gid="4200"/>
   <tile gid="4201"/>
   <tile gid="4202"/>
   <tile gid="4203"/>
   <tile gid="4204"/>
   <tile gid="4205"/>
   <tile gid="4206"/>
   <tile gid="4207"/>
   <tile gid="4208"/>
   <tile gid="4211"/>
   <tile gid="4212"/>
   <tile gid="4213"/>
   <tile gid="4214"/>
   <tile gid="4215"/>
   <tile gid="4216"/>
   <tile gid="4217"/>
   <tile gid="4218"/>
   <tile gid="4219"/>
   <tile gid="4220"/>
   <tile gid="4221"/>
   <tile gid="4222"/>
   <tile gid="4223"/>
   <tile gid="4224"/>
   <tile gid="4225"/>
   <tile gid="4226"/>
   <tile gid="4227"/>
   <tile gid="4228"/>
   <tile gid="4229"/>
   <tile gid="4230"/>
   <tile gid="4231"/>
   <tile gid="4232"/>
   <tile gid="4233"/>
   <tile gid="4234"/>
   <tile gid="4235"/>
   <tile gid="4236"/>
   <tile gid="4237"/>
   <tile gid="4238"/>
   <tile gid="4239"/>
   <tile gid="4240"/>
   <tile gid="4241"/>
   <tile gid="4211"/>
   <tile gid="4212"/>
   <tile gid="4213"/>
   <tile gid="4214"/>
   <tile gid="4215"/>
   <tile gid="4216"/>
   <tile gid="4217"/>
   <tile gid="4218"/>
   <tile gid="4219"/>
   <tile gid="4220"/>
   <tile gid="4221"/>
   <tile gid="4222"/>
   <tile gid="4223"/>
   <tile gid="4224"/>
   <tile gid="4225"/>
   <tile gid="4226"/>
   <tile gid="4227"/>
   <tile gid="4228"/>
   <tile gid="4229"/>
   <tile gid="4230"/>
   <tile gid="4231"/>
   <tile gid="4232"/>
   <tile gid="4233"/>
   <tile gid="4234"/>
   <tile gid="4235"/>
   <tile gid="4236"/>
   <tile gid="4237"/>
   <tile gid="4238"/>
   <tile gid="4239"/>
   <tile gid="4242"/>
   <tile gid="4243"/>
   <tile gid="4244"/>
   <tile gid="4245"/>
   <tile gid="4246"/>
   <tile gid="4247"/>
   <tile gid="4248"/>
   <tile gid="4249"/>
   <tile gid="4250"/>
   <tile gid="4251"/>
   <tile gid="4252"/>
   <tile gid="4253"/>
   <tile gid="4254"/>
   <tile gid="4255"/>
   <tile gid="4256"/>
   <tile gid="4257"/>
   <tile gid="4258"/>
   <tile gid="4259"/>
   <tile gid="4260"/>
   <tile gid="4261"/>
   <tile gid="4262"/>
   <tile gid="4263"/>
   <tile gid="4264"/>
   <tile gid="4265"/>
   <tile gid="4266"/>
   <tile gid="4267"/>
   <tile gid="4268"/>
   <tile gid="4269"/>
   <tile gid="4270"/>
   <tile gid="4271"/>
   <tile gid="4272"/>
   <tile gid="4242"/>
   <tile gid="4243"/>
   <tile gid="4244"/>
   <tile gid="4245"/>
   <tile gid="4246"/>
   <tile gid="4247"/>
   <tile gid="4248"/>
   <tile gid="4249"/>
   <tile gid="4250"/>
   <tile gid="4251"/>
   <tile gid="4252"/>
   <tile gid="4253"/>
   <tile gid="4254"/>
   <tile gid="4255"/>
   <tile gid="4256"/>
   <tile gid="4257"/>
   <tile gid="4258"/>
   <tile gid="4259"/>
   <tile gid="4260"/>
   <tile gid="4261"/>
   <tile gid="4262"/>
   <tile gid="4263"/>
   <tile gid="4264"/>
   <tile gid="4265"/>
   <tile gid="4266"/>
   <tile gid="4267"/>
   <tile gid="4268"/>
   <tile gid="4269"/>
   <tile gid="4270"/>
   <tile gid="4273"/>
   <tile gid="4274"/>
   <tile gid="4275"/>
   <tile gid="4276"/>
   <tile gid="4277"/>
   <tile gid="4278"/>
   <tile gid="4279"/>
   <tile gid="4280"/>
   <tile gid="4281"/>
   <tile gid="4282"/>
   <tile gid="4283"/>
   <tile gid="4284"/>
   <tile gid="4285"/>
   <tile gid="4286"/>
   <tile gid="4287"/>
   <tile gid="4288"/>
   <tile gid="4289"/>
   <tile gid="4290"/>
   <tile gid="4291"/>
   <tile gid="4292"/>
   <tile gid="4293"/>
   <tile gid="4294"/>
   <tile gid="4295"/>
   <tile gid="4296"/>
   <tile gid="4297"/>
   <tile gid="4298"/>
   <tile gid="4299"/>
   <tile gid="4300"/>
   <tile gid="4301"/>
   <tile gid="4302"/>
   <tile gid="4303"/>
   <tile gid="4273"/>
   <tile gid="4274"/>
   <tile gid="4275"/>
   <tile gid="4276"/>
   <tile gid="4277"/>
   <tile gid="4278"/>
   <tile gid="4279"/>
   <tile gid="4280"/>
   <tile gid="4281"/>
   <tile gid="4282"/>
   <tile gid="4283"/>
   <tile gid="4284"/>
   <tile gid="4285"/>
   <tile gid="4286"/>
   <tile gid="4287"/>
   <tile gid="4288"/>
   <tile gid="4289"/>
   <tile gid="4290"/>
   <tile gid="4291"/>
   <tile gid="4292"/>
   <tile gid="4293"/>
   <tile gid="4294"/>
   <tile gid="4295"/>
   <tile gid="4296"/>
   <tile gid="4297"/>
   <tile gid="4298"/>
   <tile gid="4299"/>
   <tile gid="4300"/>
   <tile gid="4301"/>
   <tile gid="4304"/>
   <tile gid="4305"/>
   <tile gid="4306"/>
   <tile gid="4307"/>
   <tile gid="4308"/>
   <tile gid="4309"/>
   <tile gid="4310"/>
   <tile gid="4311"/>
   <tile gid="4312"/>
   <tile gid="4313"/>
   <tile gid="4314"/>
   <tile gid="4315"/>
   <tile gid="4316"/>
   <tile gid="4317"/>
   <tile gid="4318"/>
   <tile gid="4319"/>
   <tile gid="4320"/>
   <tile gid="4321"/>
   <tile gid="4322"/>
   <tile gid="4323"/>
   <tile gid="4324"/>
   <tile gid="4325"/>
   <tile gid="4326"/>
   <tile gid="4327"/>
   <tile gid="4328"/>
   <tile gid="4329"/>
   <tile gid="4330"/>
   <tile gid="4331"/>
   <tile gid="4332"/>
   <tile gid="4333"/>
   <tile gid="4334"/>
   <tile gid="4304"/>
   <tile gid="4305"/>
   <tile gid="4306"/>
   <tile gid="4307"/>
   <tile gid="4308"/>
   <tile gid="4309"/>
   <tile gid="4310"/>
   <tile gid="4311"/>
   <tile gid="4312"/>
   <tile gid="4313"/>
   <tile gid="4314"/>
   <tile gid="4315"/>
   <tile gid="4316"/>
   <tile gid="4317"/>
   <tile gid="4318"/>
   <tile gid="4319"/>
   <tile gid="4320"/>
   <tile gid="4321"/>
   <tile gid="4322"/>
   <tile gid="4323"/>
   <tile gid="4324"/>
   <tile gid="4325"/>
   <tile gid="4326"/>
   <tile gid="4327"/>
   <tile gid="4328"/>
   <tile gid="4329"/>
   <tile gid="4330"/>
   <tile gid="4331"/>
   <tile gid="4332"/>
   <tile gid="4335"/>
   <tile gid="4336"/>
   <tile gid="4337"/>
   <tile gid="4338"/>
   <tile gid="4339"/>
   <tile gid="4340"/>
   <tile gid="4341"/>
   <tile gid="4342"/>
   <tile gid="4343"/>
   <tile gid="4344"/>
   <tile gid="4345"/>
   <tile gid="4346"/>
   <tile gid="4347"/>
   <tile gid="4348"/>
   <tile gid="4349"/>
   <tile gid="4350"/>
   <tile gid="4351"/>
   <tile gid="4352"/>
   <tile gid="4353"/>
   <tile gid="4354"/>
   <tile gid="4355"/>
   <tile gid="4356"/>
   <tile gid="4357"/>
   <tile gid="4358"/>
   <tile gid="4359"/>
   <tile gid="4360"/>
   <tile gid="4361"/>
   <tile gid="4362"/>
   <tile gid="4363"/>
   <tile gid="4364"/>
   <tile gid="4365"/>
   <tile gid="4335"/>
   <tile gid="4336"/>
   <tile gid="4337"/>
   <tile gid="4338"/>
   <tile gid="4339"/>
   <tile gid="4340"/>
   <tile gid="4341"/>
   <tile gid="4342"/>
   <tile gid="4343"/>
   <tile gid="4344"/>
   <tile gid="4345"/>
   <tile gid="4346"/>
   <tile gid="4347"/>
   <tile gid="4348"/>
   <tile gid="4349"/>
   <tile gid="4350"/>
   <tile gid="4351"/>
   <tile gid="4352"/>
   <tile gid="4353"/>
   <tile gid="4354"/>
   <tile gid="4355"/>
   <tile gid="4356"/>
   <tile gid="4357"/>
   <tile gid="4358"/>
   <tile gid="4359"/>
   <tile gid="4360"/>
   <tile gid="4361"/>
   <tile gid="4362"/>
   <tile gid="4363"/>
   <tile gid="4366"/>
   <tile gid="4367"/>
   <tile gid="4368"/>
   <tile gid="4369"/>
   <tile gid="4370"/>
   <tile gid="4371"/>
   <tile gid="4372"/>
   <tile gid="4373"/>
   <tile gid="4374"/>
   <tile gid="4375"/>
   <tile gid="4376"/>
   <tile gid="4377"/>
   <tile gid="4378"/>
   <tile gid="4379"/>
   <tile gid="4380"/>
   <tile gid="4381"/>
   <tile gid="4382"/>
   <tile gid="4383"/>
   <tile gid="4384"/>
   <tile gid="4385"/>
   <tile gid="4386"/>
   <tile gid="4387"/>
   <tile gid="4388"/>
   <tile gid="4389"/>
   <tile gid="4390"/>
   <tile gid="4391"/>
   <tile gid="4392"/>
   <tile gid="4393"/>
   <tile gid="4394"/>
   <tile gid="4395"/>
   <tile gid="4396"/>
   <tile gid="4366"/>
   <tile gid="4367"/>
   <tile gid="4368"/>
   <tile gid="4369"/>
   <tile gid="4370"/>
   <tile gid="4371"/>
   <tile gid="4372"/>
   <tile gid="4373"/>
   <tile gid="4374"/>
   <tile gid="4375"/>
   <tile gid="4376"/>
   <tile gid="4377"/>
   <tile gid="4378"/>
   <tile gid="4379"/>
   <tile gid="4380"/>
   <tile gid="4381"/>
   <tile gid="4382"/>
   <tile gid="4383"/>
   <tile gid="4384"/>
   <tile gid="4385"/>
   <tile gid="4386"/>
   <tile gid="4387"/>
   <tile gid="4388"/>
   <tile gid="4389"/>
   <tile gid="4390"/>
   <tile gid="4391"/>
   <tile gid="4392"/>
   <tile gid="4393"/>
   <tile gid="4394"/>
   <tile gid="4397"/>
   <tile gid="4398"/>
   <tile gid="4399"/>
   <tile gid="4400"/>
   <tile gid="4401"/>
   <tile gid="4402"/>
   <tile gid="4403"/>
   <tile gid="4404"/>
   <tile gid="4405"/>
   <tile gid="4406"/>
   <tile gid="4407"/>
   <tile gid="4408"/>
   <tile gid="4409"/>
   <tile gid="4410"/>
   <tile gid="4411"/>
   <tile gid="4412"/>
   <tile gid="4413"/>
   <tile gid="4414"/>
   <tile gid="4415"/>
   <tile gid="4416"/>
   <tile gid="4417"/>
   <tile gid="4418"/>
   <tile gid="4419"/>
   <tile gid="4420"/>
   <tile gid="4421"/>
   <tile gid="4422"/>
   <tile gid="4423"/>
   <tile gid="4424"/>
   <tile gid="4425"/>
   <tile gid="4426"/>
   <tile gid="4427"/>
   <tile gid="4397"/>
   <tile gid="4398"/>
   <tile gid="4399"/>
   <tile gid="4400"/>
   <tile gid="4401"/>
   <tile gid="4402"/>
   <tile gid="4403"/>
   <tile gid="4404"/>
   <tile gid="4405"/>
   <tile gid="4406"/>
   <tile gid="4407"/>
   <tile gid="4408"/>
   <tile gid="4409"/>
   <tile gid="4410"/>
   <tile gid="4411"/>
   <tile gid="4412"/>
   <tile gid="4413"/>
   <tile gid="4414"/>
   <tile gid="4415"/>
   <tile gid="4416"/>
   <tile gid="4417"/>
   <tile gid="4418"/>
   <tile gid="4419"/>
   <tile gid="4420"/>
   <tile gid="4421"/>
   <tile gid="4422"/>
   <tile gid="4423"/>
   <tile gid="4424"/>
   <tile gid="4425"/>
   <tile gid="4428"/>
   <tile gid="4429"/>
   <tile gid="4430"/>
   <tile gid="4431"/>
   <tile gid="4432"/>
   <tile gid="4433"/>
   <tile gid="4434"/>
   <tile gid="4435"/>
   <tile gid="4436"/>
   <tile gid="4437"/>
   <tile gid="4438"/>
   <tile gid="4439"/>
   <tile gid="4440"/>
   <tile gid="4441"/>
   <tile gid="4442"/>
   <tile gid="4443"/>
   <tile gid="4444"/>
   <tile gid="4445"/>
   <tile gid="4446"/>
   <tile gid="4447"/>
   <tile gid="4448"/>
   <tile gid="4449"/>
   <tile gid="4450"/>
   <tile gid="4451"/>
   <tile gid="4452"/>
   <tile gid="4453"/>
   <tile gid="4454"/>
   <tile gid="4455"/>
   <tile gid="4456"/>
   <tile gid="4457"/>
   <tile gid="4458"/>
   <tile gid="4428"/>
   <tile gid="4429"/>
   <tile gid="4430"/>
   <tile gid="4431"/>
   <tile gid="4432"/>
   <tile gid="4433"/>
   <tile gid="4434"/>
   <tile gid="4435"/>
   <tile gid="4436"/>
   <tile gid="4437"/>
   <tile gid="4438"/>
   <tile gid="4439"/>
   <tile gid="4440"/>
   <tile gid="4441"/>
   <tile gid="4442"/>
   <tile gid="4443"/>
   <tile gid="4444"/>
   <tile gid="4445"/>
   <tile gid="4446"/>
   <tile gid="4447"/>
   <tile gid="4448"/>
   <tile gid="4449"/>
   <tile gid="4450"/>
   <tile gid="4451"/>
   <tile gid="4452"/>
   <tile gid="4453"/>
   <tile gid="4454"/>
   <tile gid="4455"/>
   <tile gid="4456"/>
   <tile gid="4459"/>
   <tile gid="4460"/>
   <tile gid="4461"/>
   <tile gid="4462"/>
   <tile gid="4463"/>
   <tile gid="4464"/>
   <tile gid="4465"/>
   <tile gid="4466"/>
   <tile gid="4467"/>
   <tile gid="4468"/>
   <tile gid="4469"/>
   <tile gid="4470"/>
   <tile gid="4471"/>
   <tile gid="4472"/>
   <tile gid="4473"/>
   <tile gid="4474"/>
   <tile gid="4475"/>
   <tile gid="4476"/>
   <tile gid="4477"/>
   <tile gid="4478"/>
   <tile gid="4479"/>
   <tile gid="4480"/>
   <tile gid="4481"/>
   <tile gid="4482"/>
   <tile gid="4483"/>
   <tile gid="4484"/>
   <tile gid="4485"/>
   <tile gid="4486"/>
   <tile gid="4487"/>
   <tile gid="4488"/>
   <tile gid="4489"/>
   <tile gid="4459"/>
   <tile gid="4460"/>
   <tile gid="4461"/>
   <tile gid="4462"/>
   <tile gid="4463"/>
   <tile gid="4464"/>
   <tile gid="4465"/>
   <tile gid="4466"/>
   <tile gid="4467"/>
   <tile gid="4468"/>
   <tile gid="4469"/>
   <tile gid="4470"/>
   <tile gid="4471"/>
   <tile gid="4472"/>
   <tile gid="4473"/>
   <tile gid="4474"/>
   <tile gid="4475"/>
   <tile gid="4476"/>
   <tile gid="4477"/>
   <tile gid="4478"/>
   <tile gid="4479"/>
   <tile gid="4480"/>
   <tile gid="4481"/>
   <tile gid="4482"/>
   <tile gid="4483"/>
   <tile gid="4484"/>
   <tile gid="4485"/>
   <tile gid="4486"/>
   <tile gid="4487"/>
   <tile gid="4490"/>
   <tile gid="4491"/>
   <tile gid="4492"/>
   <tile gid="4493"/>
   <tile gid="4494"/>
   <tile gid="4495"/>
   <tile gid="4496"/>
   <tile gid="4497"/>
   <tile gid="4498"/>
   <tile gid="4499"/>
   <tile gid="4500"/>
   <tile gid="4501"/>
   <tile gid="4502"/>
   <tile gid="4503"/>
   <tile gid="4504"/>
   <tile gid="4505"/>
   <tile gid="4506"/>
   <tile gid="4507"/>
   <tile gid="4508"/>
   <tile gid="4509"/>
   <tile gid="4510"/>
   <tile gid="4511"/>
   <tile gid="4512"/>
   <tile gid="4513"/>
   <tile gid="4514"/>
   <tile gid="4515"/>
   <tile gid="4516"/>
   <tile gid="4517"/>
   <tile gid="4518"/>
   <tile gid="4519"/>
   <tile gid="4520"/>
   <tile gid="4490"/>
   <tile gid="4491"/>
   <tile gid="4492"/>
   <tile gid="4493"/>
   <tile gid="4494"/>
   <tile gid="4495"/>
   <tile gid="4496"/>
   <tile gid="4497"/>
   <tile gid="4498"/>
   <tile gid="4499"/>
   <tile gid="4500"/>
   <tile gid="4501"/>
   <tile gid="4502"/>
   <tile gid="4503"/>
   <tile gid="4504"/>
   <tile gid="4505"/>
   <tile gid="4506"/>
   <tile gid="4507"/>
   <tile gid="4508"/>
   <tile gid="4509"/>
   <tile gid="4510"/>
   <tile gid="4511"/>
   <tile gid="4512"/>
   <tile gid="4513"/>
   <tile gid="4514"/>
   <tile gid="4515"/>
   <tile gid="4516"/>
   <tile gid="4517"/>
   <tile gid="4518"/>
   <tile gid="4521"/>
   <tile gid="4522"/>
   <tile gid="4523"/>
   <tile gid="4524"/>
   <tile gid="4525"/>
   <tile gid="4526"/>
   <tile gid="4527"/>
   <tile gid="4528"/>
   <tile gid="4529"/>
   <tile gid="4530"/>
   <tile gid="4531"/>
   <tile gid="4532"/>
   <tile gid="4533"/>
   <tile gid="4534"/>
   <tile gid="4535"/>
   <tile gid="4536"/>
   <tile gid="4537"/>
   <tile gid="4538"/>
   <tile gid="4539"/>
   <tile gid="4540"/>
   <tile gid="4541"/>
   <tile gid="4542"/>
   <tile gid="4543"/>
   <tile gid="4544"/>
   <tile gid="4545"/>
   <tile gid="4546"/>
   <tile gid="4547"/>
   <tile gid="4548"/>
   <tile gid="4549"/>
   <tile gid="4550"/>
   <tile gid="4551"/>
   <tile gid="4521"/>
   <tile gid="4522"/>
   <tile gid="4523"/>
   <tile gid="4524"/>
   <tile gid="4525"/>
   <tile gid="4526"/>
   <tile gid="4527"/>
   <tile gid="4528"/>
   <tile gid="4529"/>
   <tile gid="4530"/>
   <tile gid="4531"/>
   <tile gid="4532"/>
   <tile gid="4533"/>
   <tile gid="4534"/>
   <tile gid="4535"/>
   <tile gid="4536"/>
   <tile gid="4537"/>
   <tile gid="4538"/>
   <tile gid="4539"/>
   <tile gid="4540"/>
   <tile gid="4541"/>
   <tile gid="4542"/>
   <tile gid="4543"/>
   <tile gid="4544"/>
   <tile gid="4545"/>
   <tile gid="4546"/>
   <tile gid="4547"/>
   <tile gid="4548"/>
   <tile gid="4549"/>
   <tile gid="3994"/>
   <tile gid="3995"/>
   <tile gid="3996"/>
   <tile gid="3997"/>
   <tile gid="3998"/>
   <tile gid="3999"/>
   <tile gid="4000"/>
   <tile gid="4001"/>
   <tile gid="4002"/>
   <tile gid="4003"/>
   <tile gid="4004"/>
   <tile gid="4005"/>
   <tile gid="4006"/>
   <tile gid="4007"/>
   <tile gid="4008"/>
   <tile gid="4009"/>
   <tile gid="4010"/>
   <tile gid="4011"/>
   <tile gid="4012"/>
   <tile gid="4013"/>
   <tile gid="4014"/>
   <tile gid="4015"/>
   <tile gid="4016"/>
   <tile gid="4017"/>
   <tile gid="4018"/>
   <tile gid="4019"/>
   <tile gid="4020"/>
   <tile gid="4021"/>
   <tile gid="4022"/>
   <tile gid="4023"/>
   <tile gid="4024"/>
   <tile gid="3994"/>
   <tile gid="3995"/>
   <tile gid="3996"/>
   <tile gid="3997"/>
   <tile gid="3998"/>
   <tile gid="3999"/>
   <tile gid="4000"/>
   <tile gid="4001"/>
   <tile gid="4002"/>
   <tile gid="4003"/>
   <tile gid="4004"/>
   <tile gid="4005"/>
   <tile gid="4006"/>
   <tile gid="4007"/>
   <tile gid="4008"/>
   <tile gid="4009"/>
   <tile gid="4010"/>
   <tile gid="4011"/>
   <tile gid="4012"/>
   <tile gid="4013"/>
   <tile gid="4014"/>
   <tile gid="4015"/>
   <tile gid="4016"/>
   <tile gid="4017"/>
   <tile gid="4018"/>
   <tile gid="4019"/>
   <tile gid="4020"/>
   <tile gid="4021"/>
   <tile gid="4022"/>
   <tile gid="4025"/>
   <tile gid="4026"/>
   <tile gid="4027"/>
   <tile gid="4028"/>
   <tile gid="4029"/>
   <tile gid="4030"/>
   <tile gid="4031"/>
   <tile gid="4032"/>
   <tile gid="4033"/>
   <tile gid="4034"/>
   <tile gid="4035"/>
   <tile gid="4036"/>
   <tile gid="4037"/>
   <tile gid="4038"/>
   <tile gid="4039"/>
   <tile gid="4040"/>
   <tile gid="4041"/>
   <tile gid="4042"/>
   <tile gid="4043"/>
   <tile gid="4044"/>
   <tile gid="4045"/>
   <tile gid="4046"/>
   <tile gid="4047"/>
   <tile gid="4048"/>
   <tile gid="4049"/>
   <tile gid="4050"/>
   <tile gid="4051"/>
   <tile gid="4052"/>
   <tile gid="4053"/>
   <tile gid="4054"/>
   <tile gid="4055"/>
   <tile gid="4025"/>
   <tile gid="4026"/>
   <tile gid="4027"/>
   <tile gid="4028"/>
   <tile gid="4029"/>
   <tile gid="4030"/>
   <tile gid="4031"/>
   <tile gid="4032"/>
   <tile gid="4033"/>
   <tile gid="4034"/>
   <tile gid="4035"/>
   <tile gid="4036"/>
   <tile gid="4037"/>
   <tile gid="4038"/>
   <tile gid="4039"/>
   <tile gid="4040"/>
   <tile gid="4041"/>
   <tile gid="4042"/>
   <tile gid="4043"/>
   <tile gid="4044"/>
   <tile gid="4045"/>
   <tile gid="4046"/>
   <tile gid="4047"/>
   <tile gid="4048"/>
   <tile gid="4049"/>
   <tile gid="4050"/>
   <tile gid="4051"/>
   <tile gid="4052"/>
   <tile gid="4053"/>
   <tile gid="4056"/>
   <tile gid="4057"/>
   <tile gid="4058"/>
   <tile gid="4059"/>
   <tile gid="4060"/>
   <tile gid="4061"/>
   <tile gid="4062"/>
   <tile gid="4063"/>
   <tile gid="4064"/>
   <tile gid="4065"/>
   <tile gid="4066"/>
   <tile gid="4067"/>
   <tile gid="4068"/>
   <tile gid="4069"/>
   <tile gid="4070"/>
   <tile gid="4071"/>
   <tile gid="4072"/>
   <tile gid="4073"/>
   <tile gid="4074"/>
   <tile gid="4075"/>
   <tile gid="4076"/>
   <tile gid="4077"/>
   <tile gid="4078"/>
   <tile gid="4079"/>
   <tile gid="4080"/>
   <tile gid="4081"/>
   <tile gid="4082"/>
   <tile gid="4083"/>
   <tile gid="4084"/>
   <tile gid="4085"/>
   <tile gid="4086"/>
   <tile gid="4056"/>
   <tile gid="4057"/>
   <tile gid="4058"/>
   <tile gid="4059"/>
   <tile gid="4060"/>
   <tile gid="4061"/>
   <tile gid="4062"/>
   <tile gid="4063"/>
   <tile gid="4064"/>
   <tile gid="4065"/>
   <tile gid="4066"/>
   <tile gid="4067"/>
   <tile gid="4068"/>
   <tile gid="4069"/>
   <tile gid="4070"/>
   <tile gid="4071"/>
   <tile gid="4072"/>
   <tile gid="4073"/>
   <tile gid="4074"/>
   <tile gid="4075"/>
   <tile gid="4076"/>
   <tile gid="4077"/>
   <tile gid="4078"/>
   <tile gid="4079"/>
   <tile gid="4080"/>
   <tile gid="4081"/>
   <tile gid="4082"/>
   <tile gid="4083"/>
   <tile gid="4084"/>
   <tile gid="4087"/>
   <tile gid="4088"/>
   <tile gid="4089"/>
   <tile gid="4090"/>
   <tile gid="4091"/>
   <tile gid="4092"/>
   <tile gid="4093"/>
   <tile gid="4094"/>
   <tile gid="4095"/>
   <tile gid="4096"/>
   <tile gid="4097"/>
   <tile gid="4098"/>
   <tile gid="4099"/>
   <tile gid="4100"/>
   <tile gid="4101"/>
   <tile gid="4102"/>
   <tile gid="4103"/>
   <tile gid="4104"/>
   <tile gid="4105"/>
   <tile gid="4106"/>
   <tile gid="4107"/>
   <tile gid="4108"/>
   <tile gid="4109"/>
   <tile gid="4110"/>
   <tile gid="4111"/>
   <tile gid="4112"/>
   <tile gid="4113"/>
   <tile gid="4114"/>
   <tile gid="4115"/>
   <tile gid="4116"/>
   <tile gid="4117"/>
   <tile gid="4087"/>
   <tile gid="4088"/>
   <tile gid="4089"/>
   <tile gid="4090"/>
   <tile gid="4091"/>
   <tile gid="4092"/>
   <tile gid="4093"/>
   <tile gid="4094"/>
   <tile gid="4095"/>
   <tile gid="4096"/>
   <tile gid="4097"/>
   <tile gid="4098"/>
   <tile gid="4099"/>
   <tile gid="4100"/>
   <tile gid="4101"/>
   <tile gid="4102"/>
   <tile gid="4103"/>
   <tile gid="4104"/>
   <tile gid="4105"/>
   <tile gid="4106"/>
   <tile gid="4107"/>
   <tile gid="4108"/>
   <tile gid="4109"/>
   <tile gid="4110"/>
   <tile gid="4111"/>
   <tile gid="4112"/>
   <tile gid="4113"/>
   <tile gid="4114"/>
   <tile gid="4115"/>
   <tile gid="4118"/>
   <tile gid="4119"/>
   <tile gid="4120"/>
   <tile gid="4121"/>
   <tile gid="4122"/>
   <tile gid="4123"/>
   <tile gid="4124"/>
   <tile gid="4125"/>
   <tile gid="4126"/>
   <tile gid="4127"/>
   <tile gid="4128"/>
   <tile gid="4129"/>
   <tile gid="4130"/>
   <tile gid="4131"/>
   <tile gid="4132"/>
   <tile gid="4133"/>
   <tile gid="4134"/>
   <tile gid="4135"/>
   <tile gid="4136"/>
   <tile gid="4137"/>
   <tile gid="4138"/>
   <tile gid="4139"/>
   <tile gid="4140"/>
   <tile gid="4141"/>
   <tile gid="4142"/>
   <tile gid="4143"/>
   <tile gid="4144"/>
   <tile gid="4145"/>
   <tile gid="4146"/>
   <tile gid="4147"/>
   <tile gid="4148"/>
   <tile gid="4118"/>
   <tile gid="4119"/>
   <tile gid="4120"/>
   <tile gid="4121"/>
   <tile gid="4122"/>
   <tile gid="4123"/>
   <tile gid="4124"/>
   <tile gid="4125"/>
   <tile gid="4126"/>
   <tile gid="4127"/>
   <tile gid="4128"/>
   <tile gid="4129"/>
   <tile gid="4130"/>
   <tile gid="4131"/>
   <tile gid="4132"/>
   <tile gid="4133"/>
   <tile gid="4134"/>
   <tile gid="4135"/>
   <tile gid="4136"/>
   <tile gid="4137"/>
   <tile gid="4138"/>
   <tile gid="4139"/>
   <tile gid="4140"/>
   <tile gid="4141"/>
   <tile gid="4142"/>
   <tile gid="4143"/>
   <tile gid="4144"/>
   <tile gid="4145"/>
   <tile gid="4146"/>
   <tile gid="4149"/>
   <tile gid="4150"/>
   <tile gid="4151"/>
   <tile gid="4152"/>
   <tile gid="4153"/>
   <tile gid="4154"/>
   <tile gid="4155"/>
   <tile gid="4156"/>
   <tile gid="4157"/>
   <tile gid="4158"/>
   <tile gid="4159"/>
   <tile gid="4160"/>
   <tile gid="4161"/>
   <tile gid="4162"/>
   <tile gid="4163"/>
   <tile gid="4164"/>
   <tile gid="4165"/>
   <tile gid="4166"/>
   <tile gid="4167"/>
   <tile gid="4168"/>
   <tile gid="4169"/>
   <tile gid="4170"/>
   <tile gid="4171"/>
   <tile gid="4172"/>
   <tile gid="4173"/>
   <tile gid="4174"/>
   <tile gid="4175"/>
   <tile gid="4176"/>
   <tile gid="4177"/>
   <tile gid="4178"/>
   <tile gid="4179"/>
   <tile gid="4149"/>
   <tile gid="4150"/>
   <tile gid="4151"/>
   <tile gid="4152"/>
   <tile gid="4153"/>
   <tile gid="4154"/>
   <tile gid="4155"/>
   <tile gid="4156"/>
   <tile gid="4157"/>
   <tile gid="4158"/>
   <tile gid="4159"/>
   <tile gid="4160"/>
   <tile gid="4161"/>
   <tile gid="4162"/>
   <tile gid="4163"/>
   <tile gid="4164"/>
   <tile gid="4165"/>
   <tile gid="4166"/>
   <tile gid="4167"/>
   <tile gid="4168"/>
   <tile gid="4169"/>
   <tile gid="4170"/>
   <tile gid="4171"/>
   <tile gid="4172"/>
   <tile gid="4173"/>
   <tile gid="4174"/>
   <tile gid="4175"/>
   <tile gid="4176"/>
   <tile gid="4177"/>
   <tile gid="4180"/>
   <tile gid="4181"/>
   <tile gid="4182"/>
   <tile gid="4183"/>
   <tile gid="4184"/>
   <tile gid="4185"/>
   <tile gid="4186"/>
   <tile gid="4187"/>
   <tile gid="4188"/>
   <tile gid="4189"/>
   <tile gid="4190"/>
   <tile gid="4191"/>
   <tile gid="4192"/>
   <tile gid="4193"/>
   <tile gid="4194"/>
   <tile gid="4195"/>
   <tile gid="4196"/>
   <tile gid="4197"/>
   <tile gid="4198"/>
   <tile gid="4199"/>
   <tile gid="4200"/>
   <tile gid="4201"/>
   <tile gid="4202"/>
   <tile gid="4203"/>
   <tile gid="4204"/>
   <tile gid="4205"/>
   <tile gid="4206"/>
   <tile gid="4207"/>
   <tile gid="4208"/>
   <tile gid="4209"/>
   <tile gid="4210"/>
   <tile gid="4180"/>
   <tile gid="4181"/>
   <tile gid="4182"/>
   <tile gid="4183"/>
   <tile gid="4184"/>
   <tile gid="4185"/>
   <tile gid="4186"/>
   <tile gid="4187"/>
   <tile gid="4188"/>
   <tile gid="4189"/>
   <tile gid="4190"/>
   <tile gid="4191"/>
   <tile gid="4192"/>
   <tile gid="4193"/>
   <tile gid="4194"/>
   <tile gid="4195"/>
   <tile gid="4196"/>
   <tile gid="4197"/>
   <tile gid="4198"/>
   <tile gid="4199"/>
   <tile gid="4200"/>
   <tile gid="4201"/>
   <tile gid="4202"/>
   <tile gid="4203"/>
   <tile gid="4204"/>
   <tile gid="4205"/>
   <tile gid="4206"/>
   <tile gid="4207"/>
   <tile gid="4208"/>
   <tile gid="4211"/>
   <tile gid="4212"/>
   <tile gid="4213"/>
   <tile gid="4214"/>
   <tile gid="4215"/>
   <tile gid="4216"/>
   <tile gid="4217"/>
   <tile gid="4218"/>
   <tile gid="4219"/>
   <tile gid="4220"/>
   <tile gid="4221"/>
   <tile gid="4222"/>
   <tile gid="4223"/>
   <tile gid="4224"/>
   <tile gid="4225"/>
   <tile gid="4226"/>
   <tile gid="4227"/>
   <tile gid="4228"/>
   <tile gid="4229"/>
   <tile gid="4230"/>
   <tile gid="4231"/>
   <tile gid="4232"/>
   <tile gid="4233"/>
   <tile gid="4234"/>
   <tile gid="4235"/>
   <tile gid="4236"/>
   <tile gid="4237"/>
   <tile gid="4238"/>
   <tile gid="4239"/>
   <tile gid="4240"/>
   <tile gid="4241"/>
   <tile gid="4211"/>
   <tile gid="4212"/>
   <tile gid="4213"/>
   <tile gid="4214"/>
   <tile gid="4215"/>
   <tile gid="4216"/>
   <tile gid="4217"/>
   <tile gid="4218"/>
   <tile gid="4219"/>
   <tile gid="4220"/>
   <tile gid="4221"/>
   <tile gid="4222"/>
   <tile gid="4223"/>
   <tile gid="4224"/>
   <tile gid="4225"/>
   <tile gid="4226"/>
   <tile gid="4227"/>
   <tile gid="4228"/>
   <tile gid="4229"/>
   <tile gid="4230"/>
   <tile gid="4231"/>
   <tile gid="4232"/>
   <tile gid="4233"/>
   <tile gid="4234"/>
   <tile gid="4235"/>
   <tile gid="4236"/>
   <tile gid="4237"/>
   <tile gid="4238"/>
   <tile gid="4239"/>
   <tile gid="4242"/>
   <tile gid="4243"/>
   <tile gid="4244"/>
   <tile gid="4245"/>
   <tile gid="4246"/>
   <tile gid="4247"/>
   <tile gid="4248"/>
   <tile gid="4249"/>
   <tile gid="4250"/>
   <tile gid="4251"/>
   <tile gid="4252"/>
   <tile gid="4253"/>
   <tile gid="4254"/>
   <tile gid="4255"/>
   <tile gid="4256"/>
   <tile gid="4257"/>
   <tile gid="4258"/>
   <tile gid="4259"/>
   <tile gid="4260"/>
   <tile gid="4261"/>
   <tile gid="4262"/>
   <tile gid="4263"/>
   <tile gid="4264"/>
   <tile gid="4265"/>
   <tile gid="4266"/>
   <tile gid="4267"/>
   <tile gid="4268"/>
   <tile gid="4269"/>
   <tile gid="4270"/>
   <tile gid="4271"/>
   <tile gid="4272"/>
   <tile gid="4242"/>
   <tile gid="4243"/>
   <tile gid="4244"/>
   <tile gid="4245"/>
   <tile gid="4246"/>
   <tile gid="4247"/>
   <tile gid="4248"/>
   <tile gid="4249"/>
   <tile gid="4250"/>
   <tile gid="4251"/>
   <tile gid="4252"/>
   <tile gid="4253"/>
   <tile gid="4254"/>
   <tile gid="4255"/>
   <tile gid="4256"/>
   <tile gid="4257"/>
   <tile gid="4258"/>
   <tile gid="4259"/>
   <tile gid="4260"/>
   <tile gid="4261"/>
   <tile gid="4262"/>
   <tile gid="4263"/>
   <tile gid="4264"/>
   <tile gid="4265"/>
   <tile gid="4266"/>
   <tile gid="4267"/>
   <tile gid="4268"/>
   <tile gid="4269"/>
   <tile gid="4270"/>
   <tile gid="4273"/>
   <tile gid="4274"/>
   <tile gid="4275"/>
   <tile gid="4276"/>
   <tile gid="4277"/>
   <tile gid="4278"/>
   <tile gid="4279"/>
   <tile gid="4280"/>
   <tile gid="4281"/>
   <tile gid="4282"/>
   <tile gid="4283"/>
   <tile gid="4284"/>
   <tile gid="4285"/>
   <tile gid="4286"/>
   <tile gid="4287"/>
   <tile gid="4288"/>
   <tile gid="4289"/>
   <tile gid="4290"/>
   <tile gid="4291"/>
   <tile gid="4292"/>
   <tile gid="4293"/>
   <tile gid="4294"/>
   <tile gid="4295"/>
   <tile gid="4296"/>
   <tile gid="4297"/>
   <tile gid="4298"/>
   <tile gid="4299"/>
   <tile gid="4300"/>
   <tile gid="4301"/>
   <tile gid="4302"/>
   <tile gid="4303"/>
   <tile gid="4273"/>
   <tile gid="4274"/>
   <tile gid="4275"/>
   <tile gid="4276"/>
   <tile gid="4277"/>
   <tile gid="4278"/>
   <tile gid="4279"/>
   <tile gid="4280"/>
   <tile gid="4281"/>
   <tile gid="4282"/>
   <tile gid="4283"/>
   <tile gid="4284"/>
   <tile gid="4285"/>
   <tile gid="4286"/>
   <tile gid="4287"/>
   <tile gid="4288"/>
   <tile gid="4289"/>
   <tile gid="4290"/>
   <tile gid="4291"/>
   <tile gid="4292"/>
   <tile gid="4293"/>
   <tile gid="4294"/>
   <tile gid="4295"/>
   <tile gid="4296"/>
   <tile gid="4297"/>
   <tile gid="4298"/>
   <tile gid="4299"/>
   <tile gid="4300"/>
   <tile gid="4301"/>
   <tile gid="4304"/>
   <tile gid="4305"/>
   <tile gid="4306"/>
   <tile gid="4307"/>
   <tile gid="4308"/>
   <tile gid="4309"/>
   <tile gid="4310"/>
   <tile gid="4311"/>
   <tile gid="4312"/>
   <tile gid="4313"/>
   <tile gid="4314"/>
   <tile gid="4315"/>
   <tile gid="4316"/>
   <tile gid="4317"/>
   <tile gid="4318"/>
   <tile gid="4319"/>
   <tile gid="4320"/>
   <tile gid="4321"/>
   <tile gid="4322"/>
   <tile gid="4323"/>
   <tile gid="4324"/>
   <tile gid="4325"/>
   <tile gid="4326"/>
   <tile gid="4327"/>
   <tile gid="4328"/>
   <tile gid="4329"/>
   <tile gid="4330"/>
   <tile gid="4331"/>
   <tile gid="4332"/>
   <tile gid="4333"/>
   <tile gid="4334"/>
   <tile gid="4304"/>
   <tile gid="4305"/>
   <tile gid="4306"/>
   <tile gid="4307"/>
   <tile gid="4308"/>
   <tile gid="4309"/>
   <tile gid="4310"/>
   <tile gid="4311"/>
   <tile gid="4312"/>
   <tile gid="4313"/>
   <tile gid="4314"/>
   <tile gid="4315"/>
   <tile gid="4316"/>
   <tile gid="4317"/>
   <tile gid="4318"/>
   <tile gid="4319"/>
   <tile gid="4320"/>
   <tile gid="4321"/>
   <tile gid="4322"/>
   <tile gid="4323"/>
   <tile gid="4324"/>
   <tile gid="4325"/>
   <tile gid="4326"/>
   <tile gid="4327"/>
   <tile gid="4328"/>
   <tile gid="4329"/>
   <tile gid="4330"/>
   <tile gid="4331"/>
   <tile gid="4332"/>
   <tile gid="4335"/>
   <tile gid="4336"/>
   <tile gid="4337"/>
   <tile gid="4338"/>
   <tile gid="4339"/>
   <tile gid="4340"/>
   <tile gid="4341"/>
   <tile gid="4342"/>
   <tile gid="4343"/>
   <tile gid="4344"/>
   <tile gid="4345"/>
   <tile gid="4346"/>
   <tile gid="4347"/>
   <tile gid="4348"/>
   <tile gid="4349"/>
   <tile gid="4350"/>
   <tile gid="4351"/>
   <tile gid="4352"/>
   <tile gid="4353"/>
   <tile gid="4354"/>
   <tile gid="4355"/>
   <tile gid="4356"/>
   <tile gid="4357"/>
   <tile gid="4358"/>
   <tile gid="4359"/>
   <tile gid="4360"/>
   <tile gid="4361"/>
   <tile gid="4362"/>
   <tile gid="4363"/>
   <tile gid="4364"/>
   <tile gid="4365"/>
   <tile gid="4335"/>
   <tile gid="4336"/>
   <tile gid="4337"/>
   <tile gid="4338"/>
   <tile gid="4339"/>
   <tile gid="4340"/>
   <tile gid="4341"/>
   <tile gid="4342"/>
   <tile gid="4343"/>
   <tile gid="4344"/>
   <tile gid="4345"/>
   <tile gid="4346"/>
   <tile gid="4347"/>
   <tile gid="4348"/>
   <tile gid="4349"/>
   <tile gid="4350"/>
   <tile gid="4351"/>
   <tile gid="4352"/>
   <tile gid="4353"/>
   <tile gid="4354"/>
   <tile gid="4355"/>
   <tile gid="4356"/>
   <tile gid="4357"/>
   <tile gid="4358"/>
   <tile gid="4359"/>
   <tile gid="4360"/>
   <tile gid="4361"/>
   <tile gid="4362"/>
   <tile gid="4363"/>
   <tile gid="4366"/>
   <tile gid="4367"/>
   <tile gid="4368"/>
   <tile gid="4369"/>
   <tile gid="4370"/>
   <tile gid="4371"/>
   <tile gid="4372"/>
   <tile gid="4373"/>
   <tile gid="4374"/>
   <tile gid="4375"/>
   <tile gid="4376"/>
   <tile gid="4377"/>
   <tile gid="4378"/>
   <tile gid="4379"/>
   <tile gid="4380"/>
   <tile gid="4381"/>
   <tile gid="4382"/>
   <tile gid="4383"/>
   <tile gid="4384"/>
   <tile gid="4385"/>
   <tile gid="4386"/>
   <tile gid="4387"/>
   <tile gid="4388"/>
   <tile gid="4389"/>
   <tile gid="4390"/>
   <tile gid="4391"/>
   <tile gid="4392"/>
   <tile gid="4393"/>
   <tile gid="4394"/>
   <tile gid="4395"/>
   <tile gid="4396"/>
   <tile gid="4366"/>
   <tile gid="4367"/>
   <tile gid="4368"/>
   <tile gid="4369"/>
   <tile gid="4370"/>
   <tile gid="4371"/>
   <tile gid="4372"/>
   <tile gid="4373"/>
   <tile gid="4374"/>
   <tile gid="4375"/>
   <tile gid="4376"/>
   <tile gid="4377"/>
   <tile gid="4378"/>
   <tile gid="4379"/>
   <tile gid="4380"/>
   <tile gid="4381"/>
   <tile gid="4382"/>
   <tile gid="4383"/>
   <tile gid="4384"/>
   <tile gid="4385"/>
   <tile gid="4386"/>
   <tile gid="4387"/>
   <tile gid="4388"/>
   <tile gid="4389"/>
   <tile gid="4390"/>
   <tile gid="4391"/>
   <tile gid="4392"/>
   <tile gid="4393"/>
   <tile gid="4394"/>
   <tile gid="4397"/>
   <tile gid="4398"/>
   <tile gid="4399"/>
   <tile gid="4400"/>
   <tile gid="4401"/>
   <tile gid="4402"/>
   <tile gid="4403"/>
   <tile gid="4404"/>
   <tile gid="4405"/>
   <tile gid="4406"/>
   <tile gid="4407"/>
   <tile gid="4408"/>
   <tile gid="4409"/>
   <tile gid="4410"/>
   <tile gid="4411"/>
   <tile gid="4412"/>
   <tile gid="4413"/>
   <tile gid="4414"/>
   <tile gid="4415"/>
   <tile gid="4416"/>
   <tile gid="4417"/>
   <tile gid="4418"/>
   <tile gid="4419"/>
   <tile gid="4420"/>
   <tile gid="4421"/>
   <tile gid="4422"/>
   <tile gid="4423"/>
   <tile gid="4424"/>
   <tile gid="4425"/>
   <tile gid="4426"/>
   <tile gid="4427"/>
   <tile gid="4397"/>
   <tile gid="4398"/>
   <tile gid="4399"/>
   <tile gid="4400"/>
   <tile gid="4401"/>
   <tile gid="4402"/>
   <tile gid="4403"/>
   <tile gid="4404"/>
   <tile gid="4405"/>
   <tile gid="4406"/>
   <tile gid="4407"/>
   <tile gid="4408"/>
   <tile gid="4409"/>
   <tile gid="4410"/>
   <tile gid="4411"/>
   <tile gid="4412"/>
   <tile gid="4413"/>
   <tile gid="4414"/>
   <tile gid="4415"/>
   <tile gid="4416"/>
   <tile gid="4417"/>
   <tile gid="4418"/>
   <tile gid="4419"/>
   <tile gid="4420"/>
   <tile gid="4421"/>
   <tile gid="4422"/>
   <tile gid="4423"/>
   <tile gid="4424"/>
   <tile gid="4425"/>
   <tile gid="4428"/>
   <tile gid="4429"/>
   <tile gid="4430"/>
   <tile gid="4431"/>
   <tile gid="4432"/>
   <tile gid="4433"/>
   <tile gid="4434"/>
   <tile gid="4435"/>
   <tile gid="4436"/>
   <tile gid="4437"/>
   <tile gid="4438"/>
   <tile gid="4439"/>
   <tile gid="4440"/>
   <tile gid="4441"/>
   <tile gid="4442"/>
   <tile gid="4443"/>
   <tile gid="4444"/>
   <tile gid="4445"/>
   <tile gid="4446"/>
   <tile gid="4447"/>
   <tile gid="4448"/>
   <tile gid="4449"/>
   <tile gid="4450"/>
   <tile gid="4451"/>
   <tile gid="4452"/>
   <tile gid="4453"/>
   <tile gid="4454"/>
   <tile gid="4455"/>
   <tile gid="4456"/>
   <tile gid="4457"/>
   <tile gid="4458"/>
   <tile gid="4428"/>
   <tile gid="4429"/>
   <tile gid="4430"/>
   <tile gid="4431"/>
   <tile gid="4432"/>
   <tile gid="4433"/>
   <tile gid="4434"/>
   <tile gid="4435"/>
   <tile gid="4436"/>
   <tile gid="4437"/>
   <tile gid="4438"/>
   <tile gid="4439"/>
   <tile gid="4440"/>
   <tile gid="4441"/>
   <tile gid="4442"/>
   <tile gid="4443"/>
   <tile gid="4444"/>
   <tile gid="4445"/>
   <tile gid="4446"/>
   <tile gid="4447"/>
   <tile gid="4448"/>
   <tile gid="4449"/>
   <tile gid="4450"/>
   <tile gid="4451"/>
   <tile gid="4452"/>
   <tile gid="4453"/>
   <tile gid="4454"/>
   <tile gid="4455"/>
   <tile gid="4456"/>
   <tile gid="4459"/>
   <tile gid="4460"/>
   <tile gid="4461"/>
   <tile gid="4462"/>
   <tile gid="4463"/>
   <tile gid="4464"/>
   <tile gid="4465"/>
   <tile gid="4466"/>
   <tile gid="4467"/>
   <tile gid="4468"/>
   <tile gid="4469"/>
   <tile gid="4470"/>
   <tile gid="4471"/>
   <tile gid="4472"/>
   <tile gid="4473"/>
   <tile gid="4474"/>
   <tile gid="4475"/>
   <tile gid="4476"/>
   <tile gid="4477"/>
   <tile gid="4478"/>
   <tile gid="4479"/>
   <tile gid="4480"/>
   <tile gid="4481"/>
   <tile gid="4482"/>
   <tile gid="4483"/>
   <tile gid="4484"/>
   <tile gid="4485"/>
   <tile gid="4486"/>
   <tile gid="4487"/>
   <tile gid="4488"/>
   <tile gid="4489"/>
   <tile gid="4459"/>
   <tile gid="4460"/>
   <tile gid="4461"/>
   <tile gid="4462"/>
   <tile gid="4463"/>
   <tile gid="4464"/>
   <tile gid="4465"/>
   <tile gid="4466"/>
   <tile gid="4467"/>
   <tile gid="4468"/>
   <tile gid="4469"/>
   <tile gid="4470"/>
   <tile gid="4471"/>
   <tile gid="4472"/>
   <tile gid="4473"/>
   <tile gid="4474"/>
   <tile gid="4475"/>
   <tile gid="4476"/>
   <tile gid="4477"/>
   <tile gid="4478"/>
   <tile gid="4479"/>
   <tile gid="4480"/>
   <tile gid="4481"/>
   <tile gid="4482"/>
   <tile gid="4483"/>
   <tile gid="4484"/>
   <tile gid="4485"/>
   <tile gid="4486"/>
   <tile gid="4487"/>
  </data>
 </layer>
 <layer id="7" name="MiddleGround" width="60" height="34" offsetx="332" offsety="156" parallaxx="1.2" parallaxy="1.2">
  <properties>
   <property name="Draw" type="bool" value="true"/>
  </properties>
  <data>
   <tile/>
   <tile/>
   <tile/>
   <tile/>
   <tile/>
   <tile/>
   <tile/>
   <tile/>
   <tile/>
   <tile/>
   <tile/>
   <tile/>
   <tile/>
   <tile/>
   <tile/>
   <tile/>
   <tile/>
   <tile/>
   <tile/>
   <tile/>
   <tile/>
   <tile/>
   <tile/>
   <tile/>
   <tile/>
   <tile/>
   <tile/>
   <tile/>
   <tile/>
   <tile/>
   <tile/>
   <tile/>
   <tile/>
   <tile/>
   <tile/>
   <tile/>
   <tile/>
   <tile/>
   <tile/>
   <tile/>
   <tile/>
   <tile/>
   <tile/>
   <tile/>
   <tile/>
   <tile/>
   <tile/>
   <tile/>
   <tile/>
   <tile/>
   <tile/>
   <tile/>
   <tile/>
   <tile/>
   <tile/>
   <tile/>
   <tile/>
   <tile/>
   <tile/>
   <tile/>
   <tile/>
   <tile/>
   <tile/>
   <tile/>
   <tile/>
   <tile/>
   <tile/>
   <tile/>
   <tile/>
   <tile/>
   <tile/>
   <tile/>
   <tile/>
   <tile/>
   <tile/>
   <tile/>
   <tile/>
   <tile/>
   <tile/>
   <tile/>
   <tile/>
   <tile/>
   <tile/>
   <tile/>
   <tile/>
   <tile/>
   <tile/>
   <tile/>
   <tile/>
   <tile/>
   <tile/>
   <tile/>
   <tile/>
   <tile/>
   <tile/>
   <tile/>
   <tile/>
   <tile/>
   <tile/>
   <tile/>
   <tile/>
   <tile/>
   <tile/>
   <tile/>
   <tile/>
   <tile/>
   <tile/>
   <tile/>
   <tile/>
   <tile/>
   <tile/>
   <tile/>
   <tile/>
   <tile/>
   <tile/>
   <tile/>
   <tile/>
   <tile/>
   <tile/>
   <tile/>
   <tile/>
   <tile/>
   <tile/>
   <tile/>
   <tile/>
   <tile/>
   <tile/>
   <tile/>
   <tile/>
   <tile/>
   <tile/>
   <tile/>
   <tile/>
   <tile/>
   <tile/>
   <tile/>
   <tile/>
   <tile/>
   <tile/>
   <tile/>
   <tile/>
   <tile/>
   <tile/>
   <tile/>
   <tile/>
   <tile/>
   <tile/>
   <tile/>
   <tile/>
   <tile/>
   <tile/>
   <tile/>
   <tile/>
   <tile/>
   <tile/>
   <tile/>
   <tile/>
   <tile/>
   <tile/>
   <tile/>
   <tile/>
   <tile/>
   <tile/>
   <tile/>
   <tile/>
   <tile/>
   <tile/>
   <tile/>
   <tile/>
   <tile/>
   <tile/>
   <tile/>
   <tile/>
   <tile/>
   <tile/>
   <tile/>
   <tile/>
   <tile/>
   <tile/>
   <tile/>
   <tile/>
   <tile/>
   <tile/>
   <tile/>
   <tile/>
   <tile/>
   <tile/>
   <tile/>
   <tile/>
   <tile/>
   <tile/>
   <tile/>
   <tile/>
   <tile/>
   <tile/>
   <tile/>
   <tile/>
   <tile/>
   <tile/>
   <tile/>
   <tile/>
   <tile/>
   <tile/>
   <tile/>
   <tile/>
   <tile/>
   <tile/>
   <tile/>
   <tile/>
   <tile/>
   <tile/>
   <tile/>
   <tile/>
   <tile/>
   <tile/>
   <tile/>
   <tile/>
   <tile/>
   <tile/>
   <tile/>
   <tile/>
   <tile/>
   <tile/>
   <tile/>
   <tile/>
   <tile/>
   <tile/>
   <tile/>
   <tile/>
   <tile/>
   <tile/>
   <tile/>
   <tile/>
   <tile/>
   <tile/>
   <tile/>
   <tile/>
   <tile/>
   <tile/>
   <tile/>
   <tile/>
   <tile/>
   <tile/>
   <tile/>
   <tile/>
   <tile/>
   <tile/>
   <tile/>
   <tile/>
   <tile/>
   <tile/>
   <tile/>
   <tile/>
   <tile/>
   <tile/>
   <tile/>
   <tile/>
   <tile/>
   <tile/>
   <tile/>
   <tile/>
   <tile/>
   <tile/>
   <tile/>
   <tile/>
   <tile/>
   <tile/>
   <tile/>
   <tile/>
   <tile/>
   <tile/>
   <tile/>
   <tile/>
   <tile/>
   <tile/>
   <tile/>
   <tile/>
   <tile/>
   <tile/>
   <tile/>
   <tile/>
   <tile/>
   <tile/>
   <tile/>
   <tile/>
   <tile/>
   <tile/>
   <tile/>
   <tile/>
   <tile/>
   <tile/>
   <tile/>
   <tile/>
   <tile/>
   <tile/>
   <tile/>
   <tile/>
   <tile/>
   <tile/>
   <tile/>
   <tile/>
   <tile gid="1170"/>
   <tile/>
   <tile/>
   <tile/>
   <tile/>
   <tile/>
   <tile/>
   <tile/>
   <tile/>
   <tile/>
   <tile/>
   <tile/>
   <tile/>
   <tile/>
   <tile/>
   <tile/>
   <tile/>
   <tile/>
   <tile/>
   <tile/>
   <tile/>
   <tile/>
   <tile/>
   <tile/>
   <tile/>
   <tile/>
   <tile/>
   <tile/>
   <tile/>
   <tile/>
   <tile/>
   <tile/>
   <tile/>
   <tile/>
   <tile/>
   <tile/>
   <tile/>
   <tile/>
   <tile/>
   <tile/>
   <tile/>
   <tile/>
   <tile/>
   <tile/>
   <tile/>
   <tile/>
   <tile/>
   <tile/>
   <tile/>
   <tile/>
   <tile/>
   <tile/>
   <tile/>
   <tile/>
   <tile/>
   <tile/>
   <tile/>
   <tile/>
   <tile/>
   <tile/>
   <tile gid="1170"/>
   <tile gid="1170"/>
   <tile gid="1170"/>
   <tile/>
   <tile/>
   <tile/>
   <tile/>
   <tile/>
   <tile/>
   <tile/>
   <tile/>
   <tile/>
   <tile/>
   <tile/>
   <tile/>
   <tile/>
   <tile/>
   <tile/>
   <tile/>
   <tile/>
   <tile/>
   <tile/>
   <tile/>
   <tile/>
   <tile/>
   <tile/>
   <tile/>
   <tile/>
   <tile/>
   <tile/>
   <tile/>
   <tile/>
   <tile/>
   <tile/>
   <tile/>
   <tile/>
   <tile/>
   <tile/>
   <tile/>
   <tile/>
   <tile/>
   <tile/>
   <tile/>
   <tile/>
   <tile/>
   <tile/>
   <tile/>
   <tile/>
   <tile/>
   <tile/>
   <tile/>
   <tile/>
   <tile/>
   <tile/>
   <tile/>
   <tile/>
   <tile/>
   <tile/>
   <tile/>
   <tile/>
   <tile/>
   <tile/>
   <tile gid="1170"/>
   <tile gid="1170"/>
   <tile/>
   <tile/>
   <tile/>
   <tile/>
   <tile/>
   <tile/>
   <tile/>
   <tile/>
   <tile/>
   <tile/>
   <tile/>
   <tile/>
   <tile/>
   <tile/>
   <tile/>
   <tile/>
   <tile/>
   <tile/>
   <tile/>
   <tile/>
   <tile/>
   <tile/>
   <tile/>
   <tile/>
   <tile/>
   <tile/>
   <tile/>
   <tile/>
   <tile/>
   <tile/>
   <tile/>
   <tile/>
   <tile/>
   <tile/>
   <tile/>
   <tile/>
   <tile/>
   <tile/>
   <tile/>
   <tile/>
   <tile/>
   <tile/>
   <tile/>
   <tile/>
   <tile/>
   <tile/>
   <tile/>
   <tile/>
   <tile/>
   <tile/>
   <tile/>
   <tile/>
   <tile/>
   <tile/>
   <tile/>
   <tile/>
   <tile/>
   <tile/>
   <tile/>
   <tile gid="1170"/>
   <tile gid="1170"/>
   <tile/>
   <tile/>
   <tile/>
   <tile/>
   <tile/>
   <tile/>
   <tile/>
   <tile/>
   <tile/>
   <tile/>
   <tile/>
   <tile/>
   <tile/>
   <tile/>
   <tile/>
   <tile/>
   <tile/>
   <tile/>
   <tile/>
   <tile/>
   <tile/>
   <tile/>
   <tile/>
   <tile/>
   <tile/>
   <tile/>
   <tile/>
   <tile/>
   <tile/>
   <tile/>
   <tile/>
   <tile/>
   <tile/>
   <tile/>
   <tile/>
   <tile/>
   <tile/>
   <tile/>
   <tile/>
   <tile/>
   <tile/>
   <tile/>
   <tile/>
   <tile/>
   <tile/>
   <tile/>
   <tile/>
   <tile/>
   <tile/>
   <tile/>
   <tile/>
   <tile/>
   <tile/>
   <tile/>
   <tile/>
   <tile/>
   <tile/>
   <tile/>
   <tile/>
   <tile/>
   <tile/>
   <tile/>
   <tile/>
   <tile/>
   <tile/>
   <tile/>
   <tile/>
   <tile/>
   <tile/>
   <tile/>
   <tile/>
   <tile/>
   <tile/>
   <tile/>
   <tile/>
   <tile/>
   <tile/>
   <tile/>
   <tile/>
   <tile/>
   <tile/>
   <tile/>
   <tile/>
   <tile/>
   <tile/>
   <tile/>
   <tile/>
   <tile/>
   <tile/>
   <tile/>
   <tile/>
   <tile/>
   <tile/>
   <tile/>
   <tile/>
   <tile/>
   <tile/>
   <tile/>
   <tile/>
   <tile/>
   <tile/>
   <tile/>
   <tile/>
   <tile/>
   <tile/>
   <tile/>
   <tile/>
   <tile/>
   <tile/>
   <tile/>
   <tile/>
   <tile/>
   <tile/>
   <tile/>
   <tile/>
   <tile/>
   <tile/>
   <tile/>
   <tile/>
   <tile/>
   <tile/>
   <tile/>
   <tile/>
   <tile/>
   <tile/>
   <tile/>
   <tile/>
   <tile/>
   <tile/>
   <tile/>
   <tile/>
   <tile/>
   <tile/>
   <tile/>
   <tile/>
   <tile/>
   <tile/>
   <tile/>
   <tile/>
   <tile/>
   <tile/>
   <tile/>
   <tile/>
   <tile/>
   <tile/>
   <tile/>
   <tile/>
   <tile/>
   <tile/>
   <tile/>
   <tile/>
   <tile/>
   <tile/>
   <tile/>
   <tile/>
   <tile/>
   <tile/>
   <tile/>
   <tile/>
   <tile/>
   <tile/>
   <tile/>
   <tile/>
   <tile/>
   <tile/>
   <tile/>
   <tile/>
   <tile/>
   <tile/>
   <tile/>
   <tile/>
   <tile/>
   <tile/>
   <tile/>
   <tile/>
   <tile/>
   <tile/>
   <tile/>
   <tile/>
   <tile/>
   <tile/>
   <tile/>
   <tile/>
   <tile/>
   <tile/>
   <tile/>
   <tile/>
   <tile/>
   <tile/>
   <tile/>
   <tile/>
   <tile/>
   <tile/>
   <tile/>
   <tile/>
   <tile/>
   <tile/>
   <tile/>
   <tile/>
   <tile/>
   <tile/>
   <tile/>
   <tile/>
   <tile/>
   <tile/>
   <tile/>
   <tile/>
   <tile/>
   <tile/>
   <tile/>
   <tile/>
   <tile/>
   <tile/>
   <tile/>
   <tile/>
   <tile/>
   <tile/>
   <tile/>
   <tile/>
   <tile/>
   <tile/>
   <tile/>
   <tile/>
   <tile/>
   <tile/>
   <tile/>
   <tile/>
   <tile/>
   <tile/>
   <tile/>
   <tile/>
   <tile/>
   <tile/>
   <tile/>
   <tile/>
   <tile/>
   <tile/>
   <tile/>
   <tile/>
   <tile/>
   <tile/>
   <tile/>
   <tile/>
   <tile/>
   <tile/>
   <tile/>
   <tile/>
   <tile/>
   <tile/>
   <tile/>
   <tile/>
   <tile/>
   <tile/>
   <tile/>
   <tile/>
   <tile/>
   <tile/>
   <tile/>
   <tile/>
   <tile/>
   <tile/>
   <tile/>
   <tile/>
   <tile/>
   <tile/>
   <tile/>
   <tile/>
   <tile/>
   <tile/>
   <tile/>
   <tile/>
   <tile/>
   <tile/>
   <tile/>
   <tile/>
   <tile/>
   <tile/>
   <tile/>
   <tile/>
   <tile/>
   <tile/>
   <tile/>
   <tile/>
   <tile/>
   <tile/>
   <tile/>
   <tile/>
   <tile/>
   <tile/>
   <tile/>
   <tile/>
   <tile/>
   <tile/>
   <tile/>
   <tile/>
   <tile/>
   <tile/>
   <tile/>
   <tile/>
   <tile/>
   <tile/>
   <tile/>
   <tile/>
   <tile/>
   <tile/>
   <tile/>
   <tile/>
   <tile/>
   <tile/>
   <tile/>
   <tile/>
   <tile/>
   <tile/>
   <tile/>
   <tile/>
   <tile/>
   <tile/>
   <tile/>
   <tile/>
   <tile/>
   <tile/>
   <tile/>
   <tile/>
   <tile/>
   <tile/>
   <tile/>
   <tile/>
   <tile/>
   <tile/>
   <tile/>
   <tile/>
   <tile/>
   <tile/>
   <tile/>
   <tile/>
   <tile/>
   <tile/>
   <tile/>
   <tile/>
   <tile/>
   <tile/>
   <tile/>
   <tile/>
   <tile/>
   <tile/>
   <tile/>
   <tile/>
   <tile/>
   <tile/>
   <tile/>
   <tile/>
   <tile/>
   <tile/>
   <tile/>
   <tile/>
   <tile/>
   <tile/>
   <tile/>
   <tile/>
   <tile/>
   <tile/>
   <tile/>
   <tile/>
   <tile/>
   <tile/>
   <tile/>
   <tile/>
   <tile/>
   <tile/>
   <tile/>
   <tile/>
   <tile/>
   <tile/>
   <tile/>
   <tile/>
   <tile/>
   <tile/>
   <tile/>
   <tile/>
   <tile/>
   <tile/>
   <tile/>
   <tile/>
   <tile/>
   <tile/>
   <tile/>
   <tile/>
   <tile/>
   <tile/>
   <tile/>
   <tile/>
   <tile/>
   <tile/>
   <tile/>
   <tile/>
   <tile/>
   <tile/>
   <tile/>
   <tile/>
   <tile/>
   <tile/>
   <tile/>
   <tile/>
   <tile/>
   <tile/>
   <tile/>
   <tile/>
   <tile/>
   <tile/>
   <tile/>
   <tile/>
   <tile/>
   <tile/>
   <tile/>
   <tile/>
   <tile/>
   <tile/>
   <tile/>
   <tile/>
   <tile/>
   <tile/>
   <tile/>
   <tile/>
   <tile/>
   <tile/>
   <tile/>
   <tile/>
   <tile/>
   <tile/>
   <tile/>
   <tile/>
   <tile/>
   <tile/>
   <tile/>
   <tile/>
   <tile/>
   <tile/>
   <tile/>
   <tile/>
   <tile/>
   <tile/>
   <tile/>
   <tile/>
   <tile/>
   <tile/>
   <tile/>
   <tile/>
   <tile/>
   <tile/>
   <tile/>
   <tile/>
   <tile/>
   <tile/>
   <tile/>
   <tile/>
   <tile/>
   <tile/>
   <tile/>
   <tile/>
   <tile/>
   <tile/>
   <tile/>
   <tile/>
   <tile/>
   <tile/>
   <tile/>
   <tile/>
   <tile/>
   <tile/>
   <tile/>
   <tile/>
   <tile/>
   <tile/>
   <tile/>
   <tile/>
   <tile/>
   <tile/>
   <tile/>
   <tile/>
   <tile/>
   <tile/>
   <tile/>
   <tile/>
   <tile/>
   <tile/>
   <tile/>
   <tile/>
   <tile/>
   <tile/>
   <tile/>
   <tile/>
   <tile/>
   <tile/>
   <tile/>
   <tile/>
   <tile/>
   <tile/>
   <tile/>
   <tile/>
   <tile/>
   <tile/>
   <tile/>
   <tile/>
   <tile/>
   <tile/>
   <tile/>
   <tile/>
   <tile/>
   <tile/>
   <tile/>
   <tile/>
   <tile/>
   <tile/>
   <tile/>
   <tile/>
   <tile/>
   <tile/>
   <tile/>
   <tile/>
   <tile/>
   <tile/>
   <tile/>
   <tile/>
   <tile/>
   <tile/>
   <tile/>
   <tile/>
   <tile/>
   <tile/>
   <tile/>
   <tile/>
   <tile/>
   <tile/>
   <tile/>
   <tile/>
   <tile/>
   <tile/>
   <tile/>
   <tile/>
   <tile/>
   <tile/>
   <tile/>
   <tile/>
   <tile/>
   <tile/>
   <tile/>
   <tile/>
   <tile/>
   <tile/>
   <tile/>
   <tile/>
   <tile/>
   <tile/>
   <tile/>
   <tile/>
   <tile/>
   <tile/>
   <tile/>
   <tile/>
   <tile/>
   <tile/>
   <tile/>
   <tile/>
   <tile/>
   <tile/>
   <tile/>
   <tile/>
   <tile/>
   <tile/>
   <tile/>
   <tile/>
   <tile/>
   <tile/>
   <tile/>
   <tile/>
   <tile/>
   <tile/>
   <tile/>
   <tile/>
   <tile/>
   <tile/>
   <tile/>
   <tile/>
   <tile/>
   <tile/>
   <tile/>
   <tile/>
   <tile/>
   <tile/>
   <tile/>
   <tile/>
   <tile/>
   <tile/>
   <tile/>
   <tile/>
   <tile/>
   <tile/>
   <tile/>
   <tile/>
   <tile/>
   <tile/>
   <tile/>
   <tile/>
   <tile/>
   <tile/>
   <tile/>
   <tile/>
   <tile/>
   <tile/>
   <tile/>
   <tile/>
   <tile/>
   <tile/>
   <tile/>
   <tile/>
   <tile/>
   <tile/>
   <tile/>
   <tile/>
   <tile/>
   <tile/>
   <tile/>
   <tile/>
   <tile/>
   <tile/>
   <tile/>
   <tile/>
   <tile/>
   <tile/>
   <tile/>
   <tile/>
   <tile/>
   <tile/>
   <tile/>
   <tile/>
   <tile/>
   <tile/>
   <tile/>
   <tile/>
   <tile/>
   <tile/>
   <tile/>
   <tile/>
   <tile/>
   <tile/>
   <tile/>
   <tile/>
   <tile/>
   <tile/>
   <tile/>
   <tile/>
   <tile/>
   <tile/>
   <tile/>
   <tile/>
   <tile/>
   <tile/>
   <tile/>
   <tile/>
   <tile/>
   <tile/>
   <tile/>
   <tile/>
   <tile/>
   <tile/>
   <tile/>
   <tile/>
   <tile/>
   <tile/>
   <tile/>
   <tile/>
   <tile/>
   <tile/>
   <tile/>
   <tile/>
   <tile/>
   <tile/>
   <tile/>
   <tile/>
   <tile/>
   <tile/>
   <tile/>
   <tile/>
   <tile/>
   <tile/>
   <tile/>
   <tile/>
   <tile/>
   <tile/>
   <tile/>
   <tile/>
   <tile/>
   <tile/>
   <tile/>
   <tile/>
   <tile/>
   <tile/>
   <tile/>
   <tile/>
   <tile/>
   <tile/>
   <tile/>
   <tile/>
   <tile/>
   <tile/>
   <tile/>
   <tile/>
   <tile/>
   <tile/>
   <tile/>
   <tile/>
   <tile/>
   <tile/>
   <tile/>
   <tile/>
   <tile/>
   <tile/>
   <tile/>
   <tile/>
   <tile/>
   <tile/>
   <tile/>
   <tile/>
   <tile/>
   <tile/>
   <tile/>
   <tile/>
   <tile/>
   <tile/>
   <tile/>
   <tile/>
   <tile/>
   <tile/>
   <tile/>
   <tile/>
   <tile/>
   <tile/>
   <tile/>
   <tile/>
   <tile/>
   <tile/>
   <tile/>
   <tile/>
   <tile/>
   <tile/>
   <tile/>
   <tile/>
   <tile/>
   <tile/>
   <tile/>
   <tile/>
   <tile/>
   <tile/>
   <tile/>
   <tile/>
   <tile/>
   <tile/>
   <tile/>
   <tile/>
   <tile/>
   <tile/>
   <tile/>
   <tile/>
   <tile/>
   <tile/>
   <tile/>
   <tile/>
   <tile/>
   <tile/>
   <tile/>
   <tile/>
   <tile/>
   <tile/>
   <tile/>
   <tile/>
   <tile/>
   <tile/>
   <tile/>
   <tile/>
   <tile/>
   <tile/>
   <tile/>
   <tile/>
   <tile/>
   <tile/>
   <tile/>
   <tile/>
   <tile/>
   <tile/>
   <tile/>
   <tile/>
   <tile/>
   <tile/>
   <tile/>
   <tile/>
   <tile/>
   <tile/>
   <tile/>
   <tile/>
   <tile/>
   <tile/>
   <tile/>
   <tile/>
   <tile/>
   <tile/>
   <tile/>
   <tile/>
   <tile/>
   <tile/>
   <tile/>
   <tile/>
   <tile/>
   <tile/>
   <tile/>
   <tile/>
   <tile/>
   <tile/>
   <tile/>
   <tile/>
   <tile/>
   <tile/>
   <tile/>
   <tile/>
   <tile/>
   <tile/>
   <tile/>
   <tile/>
   <tile/>
   <tile/>
   <tile/>
   <tile/>
   <tile/>
   <tile/>
   <tile/>
   <tile/>
   <tile/>
   <tile/>
   <tile/>
   <tile/>
   <tile/>
   <tile/>
   <tile/>
   <tile/>
   <tile/>
   <tile/>
   <tile/>
   <tile/>
   <tile/>
   <tile/>
   <tile/>
   <tile/>
   <tile/>
   <tile/>
   <tile/>
   <tile/>
   <tile/>
   <tile/>
   <tile/>
   <tile/>
   <tile/>
   <tile/>
   <tile/>
   <tile/>
   <tile/>
   <tile/>
   <tile/>
   <tile/>
   <tile/>
   <tile/>
   <tile/>
   <tile/>
   <tile/>
   <tile/>
   <tile/>
   <tile/>
   <tile/>
   <tile/>
   <tile/>
   <tile/>
   <tile/>
   <tile/>
   <tile/>
   <tile/>
   <tile/>
   <tile/>
   <tile/>
   <tile/>
   <tile/>
   <tile/>
   <tile/>
   <tile/>
   <tile/>
   <tile/>
   <tile/>
   <tile/>
   <tile/>
   <tile/>
   <tile/>
   <tile/>
   <tile/>
   <tile/>
   <tile/>
   <tile/>
   <tile/>
   <tile/>
   <tile/>
   <tile/>
   <tile/>
   <tile/>
   <tile/>
   <tile/>
   <tile/>
   <tile/>
   <tile/>
   <tile/>
   <tile/>
   <tile/>
   <tile/>
   <tile/>
   <tile/>
   <tile/>
   <tile/>
   <tile/>
   <tile/>
   <tile/>
   <tile/>
   <tile/>
   <tile/>
   <tile/>
   <tile/>
   <tile/>
   <tile/>
   <tile/>
   <tile/>
   <tile/>
   <tile/>
   <tile/>
   <tile/>
   <tile/>
   <tile/>
   <tile/>
   <tile/>
   <tile/>
   <tile/>
   <tile/>
   <tile/>
   <tile/>
   <tile/>
   <tile/>
   <tile/>
   <tile/>
   <tile/>
   <tile/>
   <tile/>
   <tile/>
   <tile/>
   <tile/>
   <tile/>
   <tile/>
   <tile/>
   <tile/>
   <tile/>
   <tile/>
   <tile/>
   <tile/>
   <tile/>
   <tile/>
   <tile/>
   <tile/>
   <tile/>
   <tile/>
   <tile/>
   <tile/>
   <tile/>
   <tile/>
   <tile/>
   <tile/>
   <tile/>
   <tile/>
   <tile/>
   <tile/>
   <tile/>
   <tile/>
   <tile/>
   <tile/>
   <tile/>
   <tile/>
   <tile/>
   <tile/>
   <tile/>
   <tile/>
   <tile/>
   <tile/>
   <tile/>
   <tile/>
   <tile/>
   <tile/>
   <tile/>
   <tile/>
   <tile/>
   <tile/>
   <tile/>
   <tile/>
   <tile/>
   <tile/>
   <tile/>
   <tile/>
   <tile/>
   <tile/>
   <tile/>
   <tile/>
   <tile/>
   <tile/>
   <tile/>
   <tile/>
   <tile/>
   <tile/>
   <tile/>
   <tile/>
   <tile/>
   <tile/>
   <tile/>
   <tile/>
   <tile/>
   <tile/>
   <tile/>
   <tile/>
   <tile/>
   <tile/>
   <tile/>
   <tile/>
   <tile/>
   <tile/>
   <tile/>
   <tile/>
   <tile/>
   <tile/>
   <tile/>
   <tile/>
   <tile/>
   <tile/>
   <tile/>
   <tile/>
   <tile/>
   <tile/>
   <tile/>
   <tile/>
   <tile/>
   <tile/>
   <tile/>
   <tile/>
   <tile/>
   <tile/>
   <tile/>
   <tile/>
   <tile/>
   <tile/>
   <tile/>
   <tile/>
   <tile/>
   <tile/>
   <tile/>
   <tile/>
   <tile/>
   <tile/>
   <tile/>
   <tile/>
   <tile/>
   <tile/>
   <tile/>
   <tile/>
   <tile/>
   <tile/>
   <tile/>
   <tile/>
   <tile/>
   <tile/>
   <tile/>
   <tile/>
   <tile/>
   <tile/>
   <tile/>
   <tile/>
   <tile/>
   <tile/>
   <tile/>
   <tile/>
   <tile/>
   <tile/>
   <tile/>
   <tile/>
   <tile/>
   <tile/>
   <tile/>
   <tile/>
   <tile/>
   <tile/>
   <tile/>
   <tile/>
   <tile/>
   <tile/>
   <tile/>
   <tile/>
   <tile/>
   <tile/>
   <tile/>
   <tile/>
   <tile/>
   <tile/>
   <tile/>
   <tile/>
   <tile/>
   <tile/>
   <tile/>
   <tile/>
   <tile/>
   <tile/>
   <tile/>
   <tile/>
   <tile/>
   <tile/>
   <tile/>
   <tile/>
   <tile/>
   <tile/>
   <tile/>
   <tile/>
   <tile/>
   <tile/>
   <tile/>
   <tile/>
   <tile/>
   <tile/>
   <tile/>
   <tile/>
   <tile/>
   <tile/>
   <tile/>
   <tile/>
   <tile/>
   <tile/>
   <tile/>
   <tile/>
   <tile/>
   <tile/>
   <tile/>
   <tile/>
   <tile/>
   <tile/>
   <tile/>
   <tile/>
   <tile/>
   <tile/>
   <tile/>
   <tile/>
   <tile/>
   <tile/>
   <tile/>
   <tile/>
   <tile/>
   <tile/>
   <tile/>
   <tile/>
   <tile/>
   <tile/>
   <tile/>
   <tile/>
   <tile/>
   <tile/>
   <tile/>
   <tile/>
   <tile/>
   <tile/>
   <tile/>
   <tile/>
   <tile/>
   <tile/>
   <tile/>
   <tile/>
   <tile/>
   <tile/>
   <tile/>
   <tile/>
   <tile/>
   <tile/>
   <tile/>
   <tile/>
   <tile/>
   <tile/>
   <tile/>
   <tile/>
   <tile/>
   <tile/>
   <tile/>
   <tile/>
   <tile/>
   <tile/>
   <tile/>
   <tile/>
   <tile/>
   <tile/>
   <tile/>
   <tile/>
   <tile/>
   <tile/>
   <tile/>
   <tile/>
   <tile/>
   <tile/>
   <tile/>
   <tile/>
   <tile/>
   <tile/>
   <tile/>
   <tile/>
   <tile/>
   <tile/>
   <tile/>
   <tile/>
   <tile/>
   <tile/>
   <tile/>
   <tile/>
   <tile/>
   <tile/>
   <tile/>
   <tile/>
   <tile/>
   <tile/>
   <tile/>
   <tile/>
   <tile/>
   <tile/>
   <tile/>
   <tile/>
   <tile/>
   <tile/>
   <tile/>
   <tile/>
   <tile/>
   <tile/>
   <tile/>
   <tile/>
   <tile/>
   <tile/>
   <tile/>
   <tile/>
   <tile/>
   <tile/>
   <tile/>
   <tile/>
   <tile/>
   <tile/>
   <tile/>
   <tile/>
   <tile/>
   <tile/>
   <tile/>
   <tile/>
   <tile/>
   <tile/>
   <tile/>
   <tile/>
   <tile/>
   <tile/>
   <tile/>
   <tile/>
   <tile/>
   <tile/>
   <tile/>
   <tile/>
   <tile/>
   <tile/>
   <tile/>
   <tile/>
   <tile/>
   <tile/>
   <tile/>
   <tile/>
   <tile/>
   <tile/>
   <tile/>
   <tile/>
   <tile/>
   <tile/>
   <tile/>
   <tile/>
   <tile/>
   <tile/>
   <tile/>
   <tile/>
   <tile/>
   <tile/>
   <tile/>
   <tile/>
   <tile/>
   <tile/>
   <tile/>
   <tile/>
   <tile/>
   <tile/>
   <tile/>
   <tile/>
   <tile/>
   <tile/>
   <tile/>
   <tile/>
   <tile/>
   <tile/>
   <tile/>
   <tile/>
   <tile/>
   <tile/>
   <tile/>
   <tile/>
   <tile/>
   <tile/>
   <tile/>
   <tile/>
   <tile/>
   <tile/>
   <tile/>
   <tile/>
   <tile/>
   <tile/>
   <tile/>
   <tile/>
   <tile/>
   <tile/>
   <tile/>
   <tile/>
   <tile/>
   <tile/>
   <tile/>
   <tile/>
   <tile/>
   <tile/>
   <tile/>
   <tile/>
   <tile/>
   <tile/>
   <tile/>
   <tile/>
   <tile/>
   <tile/>
   <tile/>
   <tile/>
   <tile/>
   <tile/>
   <tile/>
   <tile/>
   <tile/>
   <tile/>
   <tile/>
   <tile/>
   <tile/>
   <tile/>
   <tile/>
   <tile/>
   <tile/>
   <tile/>
   <tile/>
   <tile/>
   <tile/>
   <tile/>
   <tile/>
   <tile/>
   <tile/>
   <tile/>
   <tile/>
   <tile/>
   <tile/>
   <tile/>
   <tile/>
   <tile/>
   <tile/>
   <tile/>
   <tile/>
   <tile/>
   <tile/>
   <tile/>
   <tile/>
   <tile/>
   <tile/>
   <tile/>
   <tile/>
   <tile/>
   <tile/>
   <tile/>
   <tile/>
   <tile/>
   <tile/>
   <tile/>
   <tile/>
   <tile/>
   <tile/>
   <tile/>
   <tile/>
   <tile/>
   <tile/>
   <tile/>
   <tile/>
   <tile/>
   <tile/>
   <tile/>
   <tile/>
   <tile/>
   <tile/>
   <tile/>
   <tile/>
   <tile/>
   <tile/>
   <tile/>
   <tile/>
   <tile/>
   <tile/>
   <tile/>
   <tile/>
   <tile/>
   <tile/>
   <tile/>
   <tile/>
   <tile/>
   <tile/>
   <tile/>
   <tile/>
   <tile/>
   <tile/>
   <tile/>
   <tile/>
   <tile/>
   <tile/>
   <tile/>
   <tile/>
   <tile/>
   <tile/>
   <tile/>
   <tile/>
   <tile/>
   <tile/>
   <tile/>
   <tile/>
   <tile/>
   <tile/>
   <tile/>
   <tile/>
   <tile/>
   <tile/>
   <tile/>
   <tile/>
   <tile/>
   <tile/>
   <tile/>
   <tile/>
   <tile/>
   <tile/>
   <tile/>
   <tile/>
   <tile/>
   <tile/>
   <tile/>
   <tile/>
   <tile/>
   <tile/>
   <tile/>
   <tile/>
   <tile/>
   <tile/>
   <tile/>
   <tile/>
   <tile/>
   <tile/>
   <tile/>
   <tile/>
   <tile/>
   <tile/>
   <tile/>
   <tile/>
   <tile/>
   <tile/>
   <tile/>
   <tile/>
   <tile/>
   <tile/>
   <tile/>
   <tile/>
   <tile/>
   <tile/>
   <tile/>
   <tile/>
   <tile/>
   <tile/>
   <tile/>
   <tile/>
   <tile gid="4552"/>
   <tile/>
   <tile/>
   <tile/>
   <tile/>
   <tile/>
   <tile/>
   <tile/>
   <tile/>
   <tile/>
   <tile/>
   <tile/>
   <tile/>
   <tile/>
   <tile/>
   <tile/>
   <tile/>
   <tile/>
   <tile/>
   <tile/>
   <tile/>
   <tile/>
   <tile/>
   <tile/>
   <tile/>
   <tile/>
   <tile/>
   <tile/>
   <tile/>
   <tile/>
   <tile/>
   <tile/>
   <tile/>
   <tile/>
   <tile/>
   <tile/>
   <tile/>
   <tile/>
   <tile/>
   <tile/>
   <tile/>
   <tile/>
   <tile/>
   <tile/>
   <tile/>
   <tile/>
   <tile/>
   <tile/>
   <tile/>
   <tile/>
   <tile/>
   <tile/>
   <tile/>
   <tile/>
   <tile/>
   <tile/>
   <tile/>
   <tile/>
   <tile/>
   <tile/>
  </data>
 </layer>
 <layer id="1" name="Solid" width="60" height="34">
  <properties>
   <property name="Draw" type="bool" value="true"/>
  </properties>
  <data>
   <tile gid="179"/>
   <tile gid="209"/>
   <tile gid="209"/>
   <tile gid="209"/>
   <tile gid="209"/>
   <tile gid="177"/>
   <tile gid="178"/>
   <tile gid="178"/>
   <tile gid="178"/>
   <tile gid="178"/>
   <tile gid="178"/>
   <tile gid="178"/>
   <tile gid="178"/>
   <tile gid="178"/>
   <tile gid="178"/>
   <tile gid="178"/>
   <tile gid="178"/>
   <tile gid="178"/>
   <tile gid="178"/>
   <tile gid="178"/>
   <tile gid="178"/>
   <tile gid="178"/>
   <tile gid="178"/>
   <tile gid="179"/>
   <tile gid="209"/>
   <tile gid="209"/>
   <tile gid="209"/>
   <tile gid="209"/>
   <tile gid="209"/>
   <tile gid="177"/>
   <tile gid="178"/>
   <tile gid="178"/>
   <tile gid="178"/>
   <tile gid="178"/>
   <tile gid="178"/>
   <tile gid="178"/>
   <tile gid="178"/>
   <tile gid="178"/>
   <tile gid="178"/>
   <tile gid="178"/>
   <tile gid="178"/>
   <tile gid="178"/>
   <tile gid="178"/>
   <tile gid="178"/>
   <tile gid="178"/>
   <tile gid="178"/>
   <tile gid="178"/>
   <tile gid="178"/>
   <tile gid="179"/>
   <tile gid="209"/>
   <tile/>
   <tile/>
   <tile/>
   <tile gid="209"/>
   <tile gid="177"/>
   <tile gid="178"/>
   <tile gid="178"/>
   <tile gid="178"/>
   <tile gid="178"/>
   <tile gid="178"/>
   <tile gid="179"/>
   <tile/>
   <tile/>
   <tile/>
   <tile/>
   <tile gid="193"/>
   <tile gid="178"/>
   <tile gid="178"/>
   <tile gid="178"/>
   <tile gid="178"/>
   <tile gid="178"/>
   <tile gid="178"/>
   <tile gid="178"/>
   <tile gid="178"/>
   <tile gid="178"/>
   <tile gid="178"/>
   <tile gid="178"/>
   <tile gid="178"/>
   <tile gid="178"/>
   <tile gid="178"/>
   <tile gid="178"/>
   <tile gid="178"/>
   <tile gid="178"/>
   <tile gid="195"/>
   <tile/>
   <tile/>
   <tile/>
   <tile/>
   <tile/>
   <tile gid="177"/>
   <tile gid="178"/>
   <tile gid="178"/>
   <tile gid="178"/>
   <tile gid="178"/>
   <tile gid="178"/>
   <tile gid="178"/>
   <tile gid="178"/>
   <tile gid="178"/>
   <tile gid="178"/>
   <tile gid="178"/>
   <tile gid="178"/>
   <tile gid="178"/>
   <tile gid="178"/>
   <tile gid="178"/>
   <tile gid="178"/>
   <tile gid="178"/>
   <tile gid="178"/>
   <tile gid="178"/>
   <tile gid="179"/>
   <tile gid="209"/>
   <tile/>
   <tile/>
   <tile/>
   <tile/>
   <tile gid="177"/>
   <tile gid="178"/>
   <tile gid="178"/>
   <tile gid="178"/>
   <tile gid="178"/>
   <tile gid="178"/>
   <tile gid="179"/>
   <tile/>
   <tile/>
   <tile/>
   <tile/>
   <tile/>
   <tile gid="193"/>
   <tile gid="194"/>
   <tile gid="194"/>
   <tile gid="194"/>
   <tile gid="194"/>
   <tile gid="194"/>
   <tile gid="194"/>
   <tile gid="194"/>
   <tile gid="194"/>
   <tile gid="194"/>
   <tile gid="194"/>
   <tile gid="194"/>
   <tile gid="194"/>
   <tile gid="194"/>
   <tile gid="194"/>
   <tile gid="194"/>
   <tile gid="195"/>
   <tile gid="210"/>
   <tile/>
   <tile/>
   <tile/>
   <tile/>
   <tile/>
   <tile gid="177"/>
   <tile gid="178"/>
   <tile gid="178"/>
   <tile gid="178"/>
   <tile gid="178"/>
   <tile gid="178"/>
   <tile gid="178"/>
   <tile gid="178"/>
   <tile gid="178"/>
   <tile gid="178"/>
   <tile gid="178"/>
   <tile gid="178"/>
   <tile gid="178"/>
   <tile gid="178"/>
   <tile gid="178"/>
   <tile gid="194"/>
   <tile gid="194"/>
   <tile gid="194"/>
   <tile gid="194"/>
   <tile gid="195"/>
   <tile gid="209"/>
   <tile/>
   <tile/>
   <tile/>
   <tile/>
   <tile gid="193"/>
   <tile gid="194"/>
   <tile gid="194"/>
   <tile gid="194"/>
   <tile gid="194"/>
   <tile gid="178"/>
   <tile gid="179"/>
   <tile/>
   <tile/>
   <tile/>
   <tile/>
   <tile/>
   <tile/>
   <tile/>
   <tile/>
   <tile/>
   <tile/>
   <tile/>
   <tile/>
   <tile/>
   <tile/>
   <tile/>
   <tile/>
   <tile/>
   <tile/>
   <tile/>
   <tile/>
   <tile/>
   <tile/>
   <tile/>
   <tile/>
   <tile/>
   <tile/>
   <tile/>
   <tile/>
   <tile gid="193"/>
   <tile gid="178"/>
   <tile gid="178"/>
   <tile gid="178"/>
   <tile gid="178"/>
   <tile gid="178"/>
   <tile gid="178"/>
   <tile gid="194"/>
   <tile gid="194"/>
   <tile gid="194"/>
   <tile gid="194"/>
   <tile gid="194"/>
   <tile gid="194"/>
   <tile gid="194"/>
   <tile gid="195"/>
   <tile/>
   <tile/>
   <tile/>
   <tile/>
   <tile gid="209"/>
   <tile gid="209"/>
   <tile/>
   <tile/>
   <tile/>
   <tile gid="209"/>
   <tile/>
   <tile/>
   <tile/>
   <tile/>
   <tile/>
   <tile gid="177"/>
   <tile gid="179"/>
   <tile/>
   <tile/>
   <tile/>
   <tile/>
   <tile/>
   <tile/>
   <tile/>
   <tile/>
   <tile/>
   <tile/>
   <tile/>
   <tile/>
   <tile/>
   <tile/>
   <tile/>
   <tile/>
   <tile/>
   <tile/>
   <tile/>
   <tile/>
   <tile/>
   <tile/>
   <tile/>
   <tile/>
   <tile/>
   <tile/>
   <tile/>
   <tile/>
   <tile/>
   <tile gid="193"/>
   <tile gid="194"/>
   <tile gid="178"/>
   <tile gid="178"/>
   <tile gid="178"/>
   <tile gid="179"/>
   <tile/>
   <tile/>
   <tile/>
   <tile/>
   <tile/>
   <tile/>
   <tile/>
   <tile/>
   <tile/>
   <tile/>
   <tile/>
   <tile/>
   <tile gid="209"/>
   <tile gid="209"/>
   <tile/>
   <tile/>
   <tile/>
   <tile gid="209"/>
   <tile/>
   <tile/>
   <tile/>
   <tile/>
   <tile/>
   <tile gid="177"/>
   <tile gid="179"/>
   <tile/>
   <tile/>
   <tile/>
   <tile/>
   <tile/>
   <tile/>
   <tile/>
   <tile/>
   <tile/>
   <tile/>
   <tile/>
   <tile/>
   <tile/>
   <tile/>
   <tile/>
   <tile/>
   <tile/>
   <tile/>
   <tile/>
   <tile/>
   <tile/>
   <tile/>
   <tile/>
   <tile/>
   <tile/>
   <tile/>
   <tile/>
   <tile/>
   <tile/>
   <tile/>
   <tile/>
   <tile gid="177"/>
   <tile gid="178"/>
   <tile gid="178"/>
   <tile gid="179"/>
   <tile/>
   <tile/>
   <tile/>
   <tile/>
   <tile/>
   <tile/>
   <tile/>
   <tile/>
   <tile/>
   <tile/>
   <tile/>
   <tile/>
   <tile gid="209"/>
   <tile gid="209"/>
   <tile/>
   <tile/>
   <tile/>
   <tile/>
   <tile gid="209"/>
   <tile/>
   <tile/>
   <tile/>
   <tile/>
   <tile gid="177"/>
   <tile gid="178"/>
   <tile gid="162"/>
   <tile gid="162"/>
   <tile gid="163"/>
   <tile/>
   <tile/>
   <tile/>
   <tile/>
   <tile/>
   <tile/>
   <tile/>
   <tile/>
   <tile/>
   <tile/>
   <tile/>
   <tile/>
   <tile/>
   <tile/>
   <tile/>
   <tile/>
   <tile/>
   <tile/>
   <tile/>
   <tile/>
   <tile/>
   <tile/>
   <tile/>
   <tile/>
   <tile/>
   <tile/>
   <tile/>
   <tile/>
   <tile gid="193"/>
   <tile gid="178"/>
   <tile gid="178"/>
   <tile gid="179"/>
   <tile/>
   <tile/>
   <tile/>
   <tile/>
   <tile/>
   <tile/>
   <tile/>
   <tile/>
   <tile/>
   <tile/>
   <tile/>
   <tile/>
   <tile gid="209"/>
   <tile gid="209"/>
   <tile/>
   <tile/>
   <tile/>
   <tile/>
   <tile/>
   <tile/>
   <tile/>
   <tile/>
   <tile/>
   <tile gid="177"/>
   <tile gid="178"/>
   <tile gid="195"/>
   <tile/>
   <tile/>
   <tile/>
   <tile/>
   <tile/>
   <tile/>
   <tile/>
   <tile/>
   <tile/>
   <tile/>
   <tile/>
   <tile/>
   <tile/>
   <tile/>
   <tile/>
   <tile/>
   <tile/>
   <tile/>
   <tile/>
   <tile/>
   <tile/>
   <tile/>
   <tile/>
   <tile/>
   <tile/>
   <tile/>
   <tile/>
   <tile/>
   <tile/>
   <tile/>
   <tile/>
   <tile gid="177"/>
   <tile gid="178"/>
   <tile gid="179"/>
   <tile/>
   <tile/>
   <tile/>
   <tile/>
   <tile/>
   <tile/>
   <tile/>
   <tile/>
   <tile gid="161"/>
   <tile gid="163"/>
   <tile/>
   <tile/>
   <tile gid="209"/>
   <tile gid="209"/>
   <tile gid="209"/>
   <tile/>
   <tile/>
   <tile/>
   <tile/>
   <tile/>
   <tile/>
   <tile/>
   <tile/>
   <tile gid="177"/>
   <tile gid="179"/>
   <tile/>
   <tile/>
   <tile/>
   <tile/>
   <tile/>
   <tile/>
   <tile/>
   <tile/>
   <tile/>
   <tile/>
   <tile/>
   <tile/>
   <tile/>
   <tile/>
   <tile/>
   <tile/>
   <tile/>
   <tile/>
   <tile/>
   <tile/>
   <tile/>
   <tile/>
   <tile/>
   <tile/>
   <tile/>
   <tile/>
   <tile/>
   <tile/>
   <tile/>
   <tile/>
   <tile/>
   <tile/>
   <tile gid="177"/>
   <tile gid="178"/>
   <tile gid="179"/>
   <tile/>
   <tile/>
   <tile/>
   <tile/>
   <tile/>
   <tile gid="161"/>
   <tile gid="162"/>
   <tile gid="162"/>
   <tile gid="195"/>
   <tile/>
   <tile/>
   <tile/>
   <tile/>
   <tile gid="209"/>
   <tile gid="209"/>
   <tile/>
   <tile/>
   <tile/>
   <tile/>
   <tile/>
   <tile/>
   <tile/>
   <tile/>
   <tile gid="177"/>
   <tile gid="179"/>
   <tile/>
   <tile/>
   <tile/>
   <tile/>
   <tile gid="161"/>
   <tile gid="162"/>
   <tile gid="162"/>
   <tile gid="162"/>
   <tile gid="163"/>
   <tile/>
   <tile/>
   <tile/>
   <tile/>
   <tile/>
   <tile/>
   <tile/>
   <tile/>
   <tile/>
   <tile/>
   <tile/>
   <tile/>
   <tile/>
   <tile/>
   <tile/>
   <tile/>
   <tile/>
   <tile/>
   <tile/>
   <tile/>
   <tile/>
   <tile/>
   <tile/>
   <tile gid="193"/>
   <tile gid="178"/>
   <tile gid="179"/>
   <tile/>
   <tile/>
   <tile/>
   <tile/>
   <tile/>
   <tile gid="177"/>
   <tile gid="178"/>
   <tile gid="179"/>
   <tile/>
   <tile/>
   <tile/>
   <tile/>
   <tile/>
   <tile gid="209"/>
   <tile gid="209"/>
   <tile/>
   <tile/>
   <tile/>
   <tile/>
   <tile/>
   <tile/>
   <tile/>
   <tile/>
   <tile gid="177"/>
   <tile gid="179"/>
   <tile/>
   <tile/>
   <tile/>
   <tile/>
   <tile/>
   <tile gid="193"/>
   <tile gid="194"/>
   <tile gid="195"/>
   <tile/>
   <tile/>
   <tile/>
   <tile/>
   <tile/>
   <tile/>
   <tile/>
   <tile/>
   <tile/>
   <tile/>
   <tile/>
   <tile/>
   <tile/>
   <tile/>
   <tile/>
   <tile/>
   <tile/>
   <tile/>
   <tile/>
   <tile/>
   <tile/>
   <tile/>
   <tile/>
   <tile/>
   <tile/>
   <tile gid="177"/>
   <tile gid="179"/>
   <tile/>
   <tile/>
   <tile/>
   <tile/>
   <tile/>
   <tile gid="177"/>
   <tile gid="178"/>
   <tile gid="195"/>
   <tile/>
   <tile/>
   <tile/>
   <tile/>
   <tile/>
   <tile gid="209"/>
   <tile gid="209"/>
   <tile/>
   <tile/>
   <tile/>
   <tile/>
   <tile/>
   <tile/>
   <tile/>
   <tile/>
   <tile gid="177"/>
   <tile gid="179"/>
   <tile/>
   <tile/>
   <tile/>
   <tile/>
   <tile/>
   <tile/>
   <tile/>
   <tile/>
   <tile/>
   <tile/>
   <tile/>
   <tile/>
   <tile/>
   <tile/>
   <tile/>
   <tile/>
   <tile/>
   <tile/>
   <tile/>
   <tile gid="161"/>
   <tile gid="162"/>
   <tile gid="163"/>
   <tile/>
   <tile/>
   <tile/>
   <tile/>
   <tile/>
   <tile/>
   <tile/>
   <tile/>
   <tile/>
   <tile/>
   <tile/>
   <tile gid="193"/>
   <tile gid="178"/>
   <tile gid="162"/>
   <tile gid="162"/>
   <tile gid="162"/>
   <tile gid="162"/>
   <tile gid="162"/>
   <tile gid="178"/>
   <tile gid="195"/>
   <tile/>
   <tile/>
   <tile/>
   <tile/>
   <tile/>
   <tile/>
   <tile gid="209"/>
   <tile gid="209"/>
   <tile/>
   <tile/>
   <tile/>
   <tile/>
   <tile/>
   <tile/>
   <tile/>
   <tile/>
   <tile gid="177"/>
   <tile gid="179"/>
   <tile/>
   <tile/>
   <tile/>
   <tile/>
   <tile/>
   <tile/>
   <tile/>
   <tile/>
   <tile/>
   <tile/>
   <tile/>
   <tile/>
   <tile/>
   <tile gid="161"/>
   <tile gid="162"/>
   <tile gid="163"/>
   <tile/>
   <tile/>
   <tile/>
   <tile/>
   <tile/>
   <tile/>
   <tile/>
   <tile/>
   <tile/>
   <tile/>
   <tile/>
   <tile/>
   <tile/>
   <tile/>
   <tile/>
   <tile/>
   <tile/>
   <tile/>
   <tile gid="193"/>
   <tile gid="194"/>
   <tile gid="194"/>
   <tile gid="194"/>
   <tile gid="194"/>
   <tile gid="194"/>
   <tile gid="195"/>
   <tile/>
   <tile/>
   <tile/>
   <tile/>
   <tile/>
   <tile/>
   <tile/>
   <tile gid="209"/>
   <tile gid="209"/>
   <tile/>
   <tile/>
   <tile/>
   <tile/>
   <tile/>
   <tile/>
   <tile/>
   <tile/>
   <tile gid="177"/>
   <tile gid="179"/>
   <tile/>
   <tile/>
   <tile/>
   <tile/>
   <tile/>
   <tile/>
   <tile/>
   <tile/>
   <tile/>
   <tile/>
   <tile/>
   <tile/>
   <tile/>
   <tile gid="177"/>
   <tile gid="178"/>
   <tile gid="179"/>
   <tile/>
   <tile/>
   <tile/>
   <tile/>
   <tile/>
   <tile/>
   <tile/>
   <tile/>
   <tile/>
   <tile/>
   <tile/>
   <tile/>
   <tile/>
   <tile/>
   <tile/>
   <tile/>
   <tile/>
   <tile/>
   <tile/>
   <tile/>
   <tile/>
   <tile/>
   <tile/>
   <tile/>
   <tile/>
   <tile/>
   <tile/>
   <tile/>
   <tile/>
   <tile/>
   <tile/>
   <tile/>
   <tile gid="209"/>
   <tile gid="209"/>
   <tile/>
   <tile/>
   <tile/>
   <tile/>
   <tile/>
   <tile/>
   <tile/>
   <tile/>
   <tile gid="177"/>
   <tile gid="179"/>
   <tile/>
   <tile/>
   <tile/>
   <tile/>
   <tile/>
   <tile/>
   <tile/>
   <tile/>
   <tile/>
   <tile/>
   <tile/>
   <tile/>
   <tile/>
   <tile gid="177"/>
   <tile gid="178"/>
   <tile gid="179"/>
   <tile/>
   <tile/>
   <tile/>
   <tile/>
   <tile/>
   <tile/>
   <tile/>
   <tile/>
   <tile/>
   <tile/>
   <tile/>
   <tile/>
   <tile/>
   <tile/>
   <tile/>
   <tile/>
   <tile/>
   <tile/>
   <tile/>
   <tile/>
   <tile/>
   <tile/>
   <tile/>
   <tile/>
   <tile/>
   <tile/>
   <tile/>
   <tile/>
   <tile/>
   <tile/>
   <tile/>
   <tile/>
   <tile gid="209"/>
   <tile gid="209"/>
   <tile/>
   <tile/>
   <tile/>
   <tile/>
   <tile/>
   <tile/>
   <tile/>
   <tile/>
   <tile gid="177"/>
   <tile gid="179"/>
   <tile/>
   <tile/>
   <tile/>
   <tile/>
   <tile/>
   <tile/>
   <tile/>
   <tile/>
   <tile/>
   <tile/>
   <tile/>
   <tile/>
   <tile/>
   <tile gid="177"/>
   <tile gid="178"/>
   <tile gid="179"/>
   <tile/>
   <tile/>
   <tile/>
   <tile/>
   <tile/>
   <tile/>
   <tile/>
   <tile/>
   <tile/>
   <tile/>
   <tile/>
   <tile/>
   <tile/>
   <tile/>
   <tile/>
   <tile/>
   <tile/>
   <tile/>
   <tile/>
   <tile/>
   <tile/>
   <tile/>
   <tile/>
   <tile/>
   <tile/>
   <tile/>
   <tile/>
   <tile/>
   <tile/>
   <tile/>
   <tile/>
   <tile/>
   <tile gid="209"/>
   <tile gid="209"/>
   <tile/>
   <tile/>
   <tile/>
   <tile/>
   <tile/>
   <tile/>
   <tile/>
   <tile/>
   <tile gid="177"/>
   <tile gid="179"/>
   <tile/>
   <tile/>
   <tile/>
   <tile/>
   <tile/>
   <tile/>
   <tile/>
   <tile/>
   <tile gid="161"/>
   <tile gid="162"/>
   <tile gid="162"/>
   <tile gid="162"/>
   <tile gid="162"/>
   <tile gid="178"/>
   <tile gid="178"/>
   <tile gid="178"/>
   <tile gid="162"/>
   <tile gid="162"/>
   <tile gid="162"/>
   <tile gid="162"/>
   <tile gid="162"/>
   <tile gid="162"/>
   <tile gid="422"/>
   <tile/>
   <tile/>
   <tile/>
   <tile/>
   <tile/>
   <tile/>
   <tile/>
   <tile gid="161"/>
   <tile gid="162"/>
   <tile gid="162"/>
   <tile gid="162"/>
   <tile gid="162"/>
   <tile gid="162"/>
   <tile gid="162"/>
   <tile gid="162"/>
   <tile gid="162"/>
   <tile gid="162"/>
   <tile gid="162"/>
   <tile gid="162"/>
   <tile gid="163"/>
   <tile/>
   <tile/>
   <tile/>
   <tile/>
   <tile/>
   <tile gid="209"/>
   <tile gid="209"/>
   <tile/>
   <tile/>
   <tile/>
   <tile/>
   <tile/>
   <tile/>
   <tile/>
   <tile/>
   <tile gid="177"/>
   <tile gid="179"/>
   <tile/>
   <tile/>
   <tile/>
   <tile/>
   <tile/>
   <tile gid="161"/>
   <tile gid="162"/>
   <tile gid="162"/>
   <tile gid="178"/>
   <tile gid="178"/>
   <tile gid="194"/>
   <tile gid="194"/>
   <tile gid="194"/>
   <tile gid="194"/>
   <tile gid="194"/>
   <tile gid="194"/>
   <tile gid="194"/>
   <tile gid="194"/>
   <tile gid="194"/>
   <tile gid="194"/>
   <tile gid="194"/>
   <tile gid="195"/>
   <tile/>
   <tile/>
   <tile/>
   <tile/>
   <tile/>
   <tile/>
   <tile/>
   <tile/>
   <tile/>
   <tile gid="193"/>
   <tile gid="194"/>
   <tile gid="194"/>
   <tile gid="178"/>
   <tile gid="178"/>
   <tile gid="178"/>
   <tile gid="178"/>
   <tile gid="178"/>
   <tile gid="178"/>
   <tile gid="194"/>
   <tile gid="195"/>
   <tile/>
   <tile/>
   <tile/>
   <tile/>
   <tile/>
   <tile gid="209"/>
   <tile gid="209"/>
   <tile gid="209"/>
   <tile/>
   <tile/>
   <tile/>
   <tile/>
   <tile/>
   <tile/>
   <tile/>
   <tile/>
   <tile gid="177"/>
   <tile gid="179"/>
   <tile/>
   <tile/>
   <tile/>
   <tile/>
   <tile/>
   <tile gid="963"/>
   <tile gid="921"/>
   <tile gid="922"/>
   <tile gid="194"/>
   <tile gid="195"/>
   <tile/>
   <tile/>
   <tile/>
   <tile/>
   <tile/>
   <tile/>
   <tile/>
   <tile/>
   <tile/>
   <tile/>
   <tile/>
   <tile/>
   <tile/>
   <tile/>
   <tile/>
   <tile/>
   <tile/>
   <tile/>
   <tile/>
   <tile/>
   <tile/>
   <tile/>
   <tile/>
   <tile/>
   <tile gid="193"/>
   <tile gid="194"/>
   <tile gid="194"/>
   <tile gid="194"/>
   <tile gid="194"/>
   <tile gid="195"/>
   <tile/>
   <tile/>
   <tile/>
   <tile/>
   <tile/>
   <tile/>
   <tile/>
   <tile gid="209"/>
   <tile gid="209"/>
   <tile gid="209"/>
   <tile/>
   <tile/>
   <tile/>
   <tile/>
   <tile/>
   <tile/>
   <tile/>
   <tile/>
   <tile gid="177"/>
   <tile gid="178"/>
   <tile gid="162"/>
   <tile gid="163"/>
   <tile/>
   <tile/>
   <tile/>
   <tile/>
   <tile gid="953"/>
   <tile gid="954"/>
   <tile/>
   <tile/>
   <tile/>
   <tile/>
   <tile/>
   <tile/>
   <tile/>
   <tile/>
   <tile/>
   <tile/>
   <tile/>
   <tile/>
   <tile/>
   <tile/>
   <tile/>
   <tile/>
   <tile/>
   <tile/>
   <tile/>
   <tile/>
   <tile/>
   <tile/>
   <tile/>
   <tile/>
   <tile/>
   <tile/>
   <tile/>
   <tile/>
   <tile/>
   <tile/>
   <tile/>
   <tile/>
   <tile/>
   <tile/>
   <tile/>
   <tile/>
   <tile/>
   <tile/>
   <tile/>
   <tile gid="209"/>
   <tile gid="209"/>
   <tile/>
   <tile/>
   <tile/>
   <tile/>
   <tile/>
   <tile/>
   <tile/>
   <tile/>
   <tile/>
   <tile gid="177"/>
   <tile gid="179"/>
   <tile/>
   <tile/>
   <tile/>
   <tile/>
   <tile/>
   <tile/>
   <tile gid="939"/>
   <tile gid="940"/>
   <tile/>
   <tile/>
   <tile/>
   <tile/>
   <tile/>
   <tile/>
   <tile/>
   <tile/>
   <tile/>
   <tile/>
   <tile/>
   <tile/>
   <tile/>
   <tile/>
   <tile/>
   <tile/>
   <tile/>
   <tile/>
   <tile/>
   <tile/>
   <tile/>
   <tile/>
   <tile/>
   <tile/>
   <tile/>
   <tile/>
   <tile/>
   <tile/>
   <tile/>
   <tile/>
   <tile/>
   <tile/>
   <tile/>
   <tile/>
   <tile/>
   <tile/>
   <tile/>
   <tile/>
   <tile/>
   <tile gid="209"/>
   <tile gid="209"/>
   <tile/>
   <tile/>
   <tile/>
   <tile/>
   <tile/>
   <tile/>
   <tile gid="212"/>
   <tile gid="213"/>
   <tile gid="213"/>
   <tile gid="178"/>
   <tile gid="179"/>
   <tile/>
   <tile/>
   <tile/>
   <tile/>
   <tile/>
   <tile/>
   <tile gid="955"/>
   <tile gid="956"/>
   <tile/>
   <tile/>
   <tile/>
   <tile/>
   <tile/>
   <tile/>
   <tile gid="161"/>
   <tile gid="162"/>
   <tile gid="162"/>
   <tile gid="162"/>
   <tile gid="162"/>
   <tile gid="162"/>
   <tile gid="162"/>
   <tile gid="162"/>
   <tile gid="162"/>
   <tile gid="162"/>
   <tile gid="162"/>
   <tile gid="163"/>
   <tile/>
   <tile/>
   <tile/>
   <tile/>
   <tile/>
   <tile/>
   <tile/>
   <tile/>
   <tile/>
   <tile/>
   <tile/>
   <tile/>
   <tile/>
   <tile/>
   <tile/>
   <tile/>
   <tile/>
   <tile/>
   <tile/>
   <tile/>
   <tile/>
   <tile gid="209"/>
   <tile gid="209"/>
   <tile/>
   <tile/>
   <tile/>
   <tile/>
   <tile/>
   <tile/>
   <tile/>
   <tile/>
   <tile gid="193"/>
   <tile gid="178"/>
   <tile gid="179"/>
   <tile/>
   <tile/>
   <tile/>
   <tile/>
   <tile/>
   <tile/>
   <tile gid="971"/>
   <tile gid="972"/>
   <tile gid="161"/>
   <tile gid="162"/>
   <tile gid="162"/>
   <tile gid="163"/>
   <tile/>
   <tile/>
   <tile/>
   <tile/>
   <tile gid="193"/>
   <tile gid="194"/>
   <tile gid="194"/>
   <tile gid="194"/>
   <tile gid="194"/>
   <tile gid="194"/>
   <tile gid="194"/>
   <tile gid="195"/>
   <tile/>
   <tile/>
   <tile/>
   <tile/>
   <tile/>
   <tile/>
   <tile/>
   <tile/>
   <tile/>
   <tile/>
   <tile/>
   <tile/>
   <tile/>
   <tile/>
   <tile/>
   <tile/>
   <tile/>
   <tile/>
   <tile/>
   <tile/>
   <tile/>
   <tile/>
   <tile/>
   <tile gid="209"/>
   <tile gid="209"/>
   <tile/>
   <tile/>
   <tile/>
   <tile/>
   <tile/>
   <tile/>
   <tile/>
   <tile/>
   <tile/>
   <tile gid="177"/>
   <tile gid="179"/>
   <tile/>
   <tile/>
   <tile/>
   <tile/>
   <tile/>
   <tile/>
   <tile gid="987"/>
   <tile gid="988"/>
   <tile/>
   <tile gid="193"/>
   <tile gid="195"/>
   <tile/>
   <tile/>
   <tile/>
   <tile/>
   <tile/>
   <tile/>
   <tile/>
   <tile/>
   <tile/>
   <tile/>
   <tile/>
   <tile/>
   <tile/>
   <tile/>
   <tile/>
   <tile/>
   <tile/>
   <tile/>
   <tile/>
   <tile/>
   <tile/>
   <tile/>
   <tile/>
   <tile/>
   <tile/>
   <tile/>
   <tile/>
   <tile/>
   <tile/>
   <tile/>
   <tile/>
   <tile/>
   <tile/>
   <tile/>
   <tile/>
   <tile/>
   <tile gid="209"/>
   <tile gid="209"/>
   <tile/>
   <tile/>
   <tile/>
   <tile/>
   <tile/>
   <tile/>
   <tile/>
   <tile/>
   <tile/>
   <tile gid="177"/>
   <tile gid="179"/>
   <tile/>
   <tile/>
   <tile/>
   <tile/>
   <tile/>
   <tile/>
   <tile gid="939"/>
   <tile gid="940"/>
   <tile/>
   <tile/>
   <tile/>
   <tile/>
   <tile/>
   <tile/>
   <tile/>
   <tile/>
   <tile/>
   <tile/>
   <tile/>
   <tile/>
   <tile/>
   <tile/>
   <tile/>
   <tile/>
   <tile/>
   <tile/>
   <tile/>
   <tile/>
   <tile/>
   <tile/>
   <tile/>
   <tile/>
   <tile/>
   <tile/>
   <tile/>
   <tile/>
   <tile/>
   <tile/>
   <tile/>
   <tile/>
   <tile/>
   <tile gid="161"/>
   <tile gid="213"/>
   <tile gid="213"/>
   <tile gid="163"/>
   <tile gid="210"/>
   <tile/>
   <tile gid="209"/>
   <tile gid="209"/>
   <tile/>
   <tile/>
   <tile/>
   <tile/>
   <tile/>
   <tile/>
   <tile/>
   <tile/>
   <tile/>
   <tile gid="177"/>
   <tile gid="179"/>
   <tile/>
   <tile/>
   <tile/>
   <tile/>
   <tile/>
   <tile/>
   <tile gid="955"/>
   <tile gid="956"/>
   <tile/>
   <tile/>
   <tile/>
   <tile/>
   <tile/>
   <tile/>
   <tile/>
   <tile/>
   <tile/>
   <tile/>
   <tile/>
   <tile/>
   <tile/>
   <tile/>
   <tile/>
   <tile/>
   <tile/>
   <tile/>
   <tile/>
   <tile/>
   <tile/>
   <tile/>
   <tile/>
   <tile/>
   <tile/>
   <tile/>
   <tile/>
   <tile/>
   <tile/>
   <tile/>
   <tile/>
   <tile/>
   <tile/>
   <tile gid="177"/>
   <tile gid="178"/>
   <tile gid="178"/>
   <tile gid="179"/>
   <tile gid="210"/>
   <tile gid="209"/>
   <tile gid="209"/>
   <tile gid="209"/>
   <tile/>
   <tile/>
   <tile/>
   <tile/>
   <tile/>
   <tile/>
   <tile/>
   <tile/>
   <tile/>
   <tile gid="177"/>
   <tile gid="179"/>
   <tile/>
   <tile/>
   <tile/>
   <tile/>
   <tile/>
   <tile/>
   <tile gid="971"/>
   <tile gid="972"/>
   <tile/>
   <tile/>
   <tile/>
   <tile/>
   <tile/>
   <tile/>
   <tile/>
   <tile/>
   <tile/>
   <tile/>
   <tile/>
   <tile/>
   <tile/>
   <tile/>
   <tile/>
   <tile/>
   <tile/>
   <tile/>
   <tile/>
   <tile/>
   <tile/>
   <tile/>
   <tile/>
   <tile/>
   <tile/>
   <tile/>
   <tile/>
   <tile/>
   <tile/>
   <tile/>
   <tile/>
   <tile/>
   <tile/>
   <tile gid="193"/>
   <tile gid="178"/>
   <tile gid="178"/>
   <tile gid="179"/>
   <tile gid="210"/>
   <tile gid="209"/>
   <tile gid="209"/>
   <tile gid="209"/>
   <tile/>
   <tile/>
   <tile/>
   <tile/>
   <tile/>
   <tile/>
   <tile/>
   <tile/>
   <tile/>
   <tile gid="177"/>
   <tile gid="179"/>
   <tile/>
   <tile/>
   <tile/>
   <tile/>
   <tile/>
   <tile/>
   <tile gid="987"/>
   <tile gid="988"/>
   <tile/>
   <tile/>
   <tile/>
   <tile/>
   <tile/>
   <tile/>
   <tile/>
   <tile/>
   <tile/>
   <tile/>
   <tile/>
   <tile/>
   <tile/>
   <tile/>
   <tile/>
   <tile/>
   <tile/>
   <tile/>
   <tile/>
   <tile/>
   <tile/>
   <tile/>
   <tile/>
   <tile/>
   <tile/>
   <tile/>
   <tile/>
   <tile/>
   <tile/>
   <tile/>
   <tile/>
   <tile/>
   <tile/>
   <tile/>
   <tile gid="193"/>
   <tile gid="178"/>
   <tile gid="178"/>
   <tile gid="162"/>
   <tile gid="162"/>
   <tile gid="162"/>
   <tile gid="162"/>
   <tile gid="162"/>
   <tile gid="162"/>
   <tile gid="162"/>
   <tile gid="162"/>
   <tile gid="162"/>
   <tile gid="162"/>
   <tile gid="162"/>
   <tile gid="162"/>
   <tile gid="162"/>
   <tile gid="178"/>
   <tile gid="179"/>
   <tile/>
   <tile/>
   <tile/>
   <tile/>
   <tile/>
   <tile/>
   <tile gid="939"/>
   <tile gid="940"/>
   <tile gid="161"/>
   <tile gid="162"/>
   <tile gid="162"/>
   <tile gid="163"/>
   <tile/>
   <tile/>
   <tile/>
   <tile/>
   <tile/>
   <tile/>
   <tile/>
   <tile/>
   <tile/>
   <tile/>
   <tile/>
   <tile/>
   <tile/>
   <tile/>
   <tile/>
   <tile/>
   <tile/>
   <tile/>
   <tile/>
   <tile/>
   <tile/>
   <tile/>
   <tile/>
   <tile/>
   <tile/>
   <tile/>
   <tile/>
   <tile/>
   <tile/>
   <tile/>
   <tile/>
   <tile gid="177"/>
   <tile gid="178"/>
   <tile gid="178"/>
   <tile gid="178"/>
   <tile gid="178"/>
   <tile gid="178"/>
   <tile gid="178"/>
   <tile gid="178"/>
   <tile gid="178"/>
   <tile gid="178"/>
   <tile gid="178"/>
   <tile gid="178"/>
   <tile gid="178"/>
   <tile gid="178"/>
   <tile gid="178"/>
   <tile gid="178"/>
   <tile gid="179"/>
   <tile/>
   <tile/>
   <tile/>
   <tile/>
   <tile/>
   <tile/>
   <tile gid="955"/>
   <tile gid="956"/>
   <tile/>
   <tile gid="193"/>
   <tile gid="195"/>
   <tile/>
   <tile/>
   <tile/>
   <tile/>
   <tile gid="161"/>
   <tile gid="162"/>
   <tile gid="162"/>
   <tile gid="163"/>
   <tile/>
   <tile/>
   <tile/>
   <tile/>
   <tile/>
   <tile/>
   <tile/>
   <tile/>
   <tile/>
   <tile/>
   <tile/>
   <tile/>
   <tile/>
   <tile/>
   <tile/>
   <tile/>
   <tile/>
   <tile/>
   <tile/>
   <tile/>
   <tile/>
   <tile/>
   <tile/>
   <tile/>
   <tile gid="193"/>
   <tile gid="194"/>
   <tile gid="194"/>
   <tile gid="194"/>
   <tile gid="194"/>
   <tile gid="194"/>
   <tile gid="194"/>
   <tile gid="194"/>
   <tile gid="194"/>
   <tile gid="194"/>
   <tile gid="194"/>
   <tile gid="194"/>
   <tile gid="194"/>
   <tile gid="194"/>
   <tile gid="194"/>
   <tile gid="194"/>
   <tile gid="179"/>
   <tile/>
   <tile/>
   <tile/>
   <tile/>
   <tile/>
   <tile/>
   <tile gid="971"/>
   <tile gid="972"/>
   <tile/>
   <tile/>
   <tile/>
   <tile/>
   <tile/>
   <tile/>
   <tile/>
   <tile gid="193"/>
   <tile gid="194"/>
   <tile gid="194"/>
   <tile gid="195"/>
   <tile/>
   <tile/>
   <tile/>
   <tile/>
   <tile/>
   <tile/>
   <tile/>
   <tile/>
   <tile/>
   <tile/>
   <tile/>
   <tile/>
   <tile/>
   <tile/>
   <tile/>
   <tile/>
   <tile/>
   <tile/>
   <tile/>
   <tile/>
   <tile/>
   <tile/>
   <tile/>
   <tile/>
   <tile/>
   <tile/>
   <tile/>
   <tile/>
   <tile gid="209"/>
   <tile gid="209"/>
   <tile/>
   <tile/>
   <tile/>
   <tile/>
   <tile/>
   <tile/>
   <tile/>
   <tile/>
   <tile/>
   <tile gid="209"/>
   <tile gid="179"/>
   <tile/>
   <tile/>
   <tile/>
   <tile/>
   <tile/>
   <tile/>
   <tile gid="987"/>
   <tile gid="988"/>
   <tile/>
   <tile/>
   <tile/>
   <tile/>
   <tile/>
   <tile/>
   <tile/>
   <tile/>
   <tile/>
   <tile/>
   <tile/>
   <tile/>
   <tile/>
   <tile/>
   <tile gid="161"/>
   <tile gid="162"/>
   <tile gid="162"/>
   <tile gid="162"/>
   <tile gid="162"/>
   <tile gid="162"/>
   <tile gid="162"/>
   <tile gid="162"/>
   <tile gid="163"/>
   <tile gid="210"/>
   <tile/>
   <tile/>
   <tile/>
   <tile/>
   <tile/>
   <tile/>
   <tile/>
   <tile/>
   <tile/>
   <tile/>
   <tile/>
   <tile/>
   <tile/>
   <tile/>
   <tile/>
   <tile/>
   <tile gid="209"/>
   <tile/>
   <tile/>
   <tile/>
   <tile/>
   <tile/>
   <tile/>
   <tile/>
   <tile/>
   <tile/>
   <tile/>
   <tile gid="179"/>
   <tile/>
   <tile/>
   <tile/>
   <tile/>
   <tile/>
   <tile/>
   <tile gid="985"/>
   <tile gid="986"/>
   <tile/>
   <tile/>
   <tile/>
   <tile/>
   <tile/>
   <tile/>
   <tile/>
   <tile/>
   <tile/>
   <tile/>
   <tile/>
   <tile/>
   <tile gid="161"/>
   <tile gid="162"/>
   <tile gid="178"/>
   <tile gid="178"/>
   <tile gid="178"/>
   <tile gid="178"/>
   <tile gid="178"/>
   <tile gid="178"/>
   <tile gid="178"/>
   <tile gid="178"/>
   <tile gid="178"/>
   <tile gid="162"/>
   <tile gid="162"/>
   <tile gid="163"/>
   <tile/>
   <tile/>
   <tile/>
   <tile/>
   <tile/>
   <tile/>
   <tile/>
   <tile/>
   <tile/>
   <tile/>
   <tile/>
   <tile/>
   <tile/>
   <tile/>
   <tile gid="209"/>
   <tile/>
   <tile/>
   <tile/>
   <tile/>
   <tile/>
   <tile/>
   <tile/>
   <tile/>
   <tile/>
   <tile/>
   <tile gid="178"/>
   <tile gid="162"/>
   <tile gid="162"/>
   <tile gid="162"/>
   <tile gid="162"/>
   <tile gid="162"/>
   <tile gid="932"/>
   <tile gid="162"/>
   <tile gid="162"/>
   <tile gid="162"/>
   <tile gid="162"/>
   <tile gid="162"/>
   <tile gid="162"/>
   <tile gid="162"/>
   <tile gid="162"/>
   <tile gid="162"/>
   <tile gid="162"/>
   <tile gid="162"/>
   <tile gid="162"/>
   <tile gid="162"/>
   <tile gid="162"/>
   <tile gid="178"/>
   <tile gid="178"/>
   <tile gid="178"/>
   <tile gid="178"/>
   <tile gid="178"/>
   <tile gid="178"/>
   <tile gid="178"/>
   <tile gid="178"/>
   <tile gid="178"/>
   <tile gid="178"/>
   <tile gid="178"/>
   <tile gid="178"/>
   <tile gid="178"/>
   <tile gid="178"/>
   <tile gid="162"/>
   <tile gid="162"/>
   <tile gid="162"/>
   <tile gid="162"/>
   <tile gid="162"/>
   <tile gid="162"/>
   <tile gid="162"/>
   <tile gid="162"/>
   <tile gid="162"/>
   <tile gid="162"/>
   <tile gid="162"/>
   <tile gid="162"/>
   <tile gid="162"/>
   <tile gid="162"/>
   <tile gid="162"/>
   <tile gid="162"/>
   <tile gid="162"/>
   <tile gid="162"/>
   <tile gid="162"/>
   <tile gid="162"/>
   <tile gid="162"/>
   <tile gid="162"/>
   <tile gid="162"/>
   <tile gid="162"/>
   <tile gid="162"/>
  </data>
 </layer>
 <layer id="2" name="Map" width="60" height="34">
  <properties>
   <property name="Draw" type="bool" value="true"/>
  </properties>
  <data>
   <tile/>
   <tile/>
   <tile/>
   <tile/>
   <tile/>
   <tile/>
   <tile/>
   <tile/>
   <tile/>
   <tile/>
   <tile/>
   <tile/>
   <tile/>
   <tile/>
   <tile/>
   <tile/>
   <tile/>
   <tile/>
   <tile/>
   <tile/>
   <tile/>
   <tile/>
   <tile/>
   <tile/>
   <tile/>
   <tile gid="939"/>
   <tile gid="940"/>
   <tile/>
   <tile/>
   <tile/>
   <tile/>
   <tile/>
   <tile/>
   <tile/>
   <tile/>
   <tile/>
   <tile/>
   <tile/>
   <tile/>
   <tile/>
   <tile/>
   <tile/>
   <tile/>
   <tile/>
   <tile/>
   <tile/>
   <tile/>
   <tile/>
   <tile/>
   <tile/>
   <tile/>
   <tile/>
   <tile gid="971"/>
   <tile gid="972"/>
   <tile/>
   <tile/>
   <tile/>
   <tile/>
   <tile/>
   <tile/>
   <tile/>
   <tile/>
   <tile/>
   <tile/>
   <tile/>
   <tile/>
   <tile/>
   <tile/>
   <tile/>
   <tile/>
   <tile/>
   <tile/>
   <tile/>
   <tile/>
   <tile/>
   <tile/>
   <tile/>
   <tile/>
   <tile/>
   <tile/>
   <tile/>
   <tile/>
   <tile/>
   <tile/>
   <tile/>
   <tile gid="955"/>
   <tile gid="956"/>
   <tile/>
   <tile/>
   <tile/>
   <tile/>
   <tile/>
   <tile/>
   <tile/>
   <tile/>
   <tile/>
   <tile/>
   <tile/>
   <tile/>
   <tile/>
   <tile/>
   <tile/>
   <tile/>
   <tile/>
   <tile/>
   <tile/>
   <tile/>
   <tile/>
   <tile/>
   <tile/>
   <tile/>
   <tile/>
   <tile gid="987"/>
   <tile gid="988"/>
   <tile/>
   <tile/>
   <tile/>
   <tile/>
   <tile/>
   <tile/>
   <tile/>
   <tile/>
   <tile/>
   <tile/>
   <tile/>
   <tile/>
   <tile/>
   <tile/>
   <tile/>
   <tile/>
   <tile/>
   <tile/>
   <tile/>
   <tile/>
   <tile/>
   <tile/>
   <tile/>
   <tile/>
   <tile/>
   <tile/>
   <tile/>
   <tile/>
   <tile/>
   <tile/>
   <tile/>
   <tile gid="971"/>
   <tile gid="972"/>
   <tile/>
   <tile/>
   <tile/>
   <tile/>
   <tile/>
   <tile/>
   <tile/>
   <tile/>
   <tile/>
   <tile/>
   <tile/>
   <tile/>
   <tile/>
   <tile/>
   <tile/>
   <tile/>
   <tile/>
   <tile/>
   <tile/>
   <tile/>
   <tile gid="921"/>
   <tile gid="922"/>
   <tile/>
   <tile/>
   <tile/>
   <tile gid="939"/>
   <tile gid="940"/>
   <tile/>
   <tile/>
   <tile gid="921"/>
   <tile gid="922"/>
   <tile/>
   <tile/>
   <tile/>
   <tile/>
   <tile/>
   <tile/>
   <tile/>
   <tile/>
   <tile/>
   <tile/>
   <tile/>
   <tile/>
   <tile/>
   <tile/>
   <tile/>
   <tile/>
   <tile/>
   <tile/>
   <tile/>
   <tile/>
   <tile/>
   <tile/>
   <tile/>
   <tile/>
   <tile/>
   <tile/>
   <tile/>
   <tile gid="987"/>
   <tile gid="988"/>
   <tile/>
   <tile/>
   <tile/>
   <tile/>
   <tile/>
   <tile/>
   <tile/>
   <tile/>
   <tile/>
   <tile/>
   <tile/>
   <tile/>
   <tile/>
   <tile/>
   <tile/>
   <tile/>
   <tile/>
   <tile/>
   <tile/>
   <tile/>
   <tile gid="939"/>
   <tile gid="940"/>
   <tile/>
   <tile/>
   <tile/>
   <tile gid="955"/>
   <tile gid="956"/>
   <tile/>
   <tile/>
   <tile gid="939"/>
   <tile gid="940"/>
   <tile/>
   <tile/>
   <tile/>
   <tile/>
   <tile/>
   <tile/>
   <tile/>
   <tile/>
   <tile/>
   <tile/>
   <tile/>
   <tile/>
   <tile/>
   <tile/>
   <tile/>
   <tile/>
   <tile/>
   <tile/>
   <tile/>
   <tile/>
   <tile/>
   <tile/>
   <tile/>
   <tile/>
   <tile/>
   <tile/>
   <tile/>
   <tile gid="939"/>
   <tile gid="940"/>
   <tile/>
   <tile/>
   <tile/>
   <tile/>
   <tile/>
   <tile/>
   <tile/>
   <tile/>
   <tile/>
   <tile/>
   <tile/>
   <tile/>
   <tile/>
   <tile/>
   <tile/>
   <tile/>
   <tile/>
   <tile/>
   <tile/>
   <tile/>
   <tile gid="955"/>
   <tile gid="956"/>
   <tile/>
   <tile/>
   <tile/>
   <tile gid="971"/>
   <tile gid="972"/>
   <tile/>
   <tile/>
   <tile gid="955"/>
   <tile gid="956"/>
   <tile/>
   <tile/>
   <tile/>
   <tile gid="197"/>
   <tile gid="197"/>
   <tile gid="968"/>
   <tile/>
   <tile/>
   <tile/>
   <tile/>
   <tile/>
   <tile/>
   <tile/>
   <tile/>
   <tile/>
   <tile/>
   <tile/>
   <tile/>
   <tile/>
   <tile/>
   <tile/>
   <tile/>
   <tile/>
   <tile/>
   <tile/>
   <tile/>
   <tile/>
   <tile gid="955"/>
   <tile gid="956"/>
   <tile/>
   <tile/>
   <tile/>
   <tile/>
   <tile/>
   <tile/>
   <tile/>
   <tile/>
   <tile/>
   <tile/>
   <tile/>
   <tile/>
   <tile/>
   <tile/>
   <tile/>
   <tile/>
   <tile/>
   <tile/>
   <tile/>
   <tile/>
   <tile gid="971"/>
   <tile gid="972"/>
   <tile/>
   <tile/>
   <tile/>
   <tile gid="987"/>
   <tile gid="988"/>
   <tile/>
   <tile/>
   <tile gid="971"/>
   <tile gid="972"/>
   <tile/>
   <tile/>
   <tile/>
   <tile/>
   <tile/>
   <tile/>
   <tile/>
   <tile/>
   <tile/>
   <tile/>
   <tile/>
   <tile/>
   <tile/>
   <tile/>
   <tile/>
   <tile/>
   <tile/>
   <tile/>
   <tile/>
   <tile/>
   <tile/>
   <tile/>
   <tile/>
   <tile/>
   <tile/>
   <tile/>
   <tile/>
   <tile gid="971"/>
   <tile gid="972"/>
   <tile/>
   <tile/>
   <tile/>
   <tile/>
   <tile/>
   <tile/>
   <tile/>
   <tile/>
   <tile/>
   <tile/>
   <tile/>
   <tile/>
   <tile/>
   <tile/>
   <tile/>
   <tile/>
   <tile/>
   <tile gid="966"/>
   <tile gid="968"/>
   <tile/>
   <tile gid="987"/>
   <tile gid="988"/>
   <tile/>
   <tile/>
   <tile/>
   <tile gid="939"/>
   <tile gid="940"/>
   <tile/>
   <tile/>
   <tile gid="987"/>
   <tile gid="988"/>
   <tile/>
   <tile/>
   <tile/>
   <tile/>
   <tile/>
   <tile/>
   <tile/>
   <tile/>
   <tile/>
   <tile/>
   <tile/>
   <tile/>
   <tile/>
   <tile/>
   <tile/>
   <tile/>
   <tile/>
   <tile/>
   <tile/>
   <tile/>
   <tile/>
   <tile/>
   <tile/>
   <tile/>
   <tile/>
   <tile/>
   <tile/>
   <tile gid="987"/>
   <tile gid="988"/>
   <tile/>
   <tile/>
   <tile/>
   <tile/>
   <tile/>
   <tile/>
   <tile/>
   <tile/>
   <tile/>
   <tile/>
   <tile/>
   <tile/>
   <tile/>
   <tile/>
   <tile gid="966"/>
   <tile gid="967"/>
   <tile gid="967"/>
   <tile/>
   <tile/>
   <tile/>
   <tile gid="955"/>
   <tile gid="956"/>
   <tile/>
   <tile/>
   <tile/>
   <tile gid="955"/>
   <tile gid="956"/>
   <tile/>
   <tile/>
   <tile gid="939"/>
   <tile gid="940"/>
   <tile/>
   <tile/>
   <tile/>
   <tile/>
   <tile/>
   <tile/>
   <tile/>
   <tile gid="196"/>
   <tile gid="197"/>
   <tile gid="197"/>
   <tile gid="197"/>
   <tile gid="968"/>
   <tile/>
   <tile/>
   <tile/>
   <tile/>
   <tile/>
   <tile/>
   <tile/>
   <tile/>
   <tile/>
   <tile/>
   <tile/>
   <tile/>
   <tile/>
   <tile/>
   <tile/>
   <tile gid="939"/>
   <tile gid="940"/>
   <tile/>
   <tile/>
   <tile/>
   <tile/>
   <tile/>
   <tile/>
   <tile/>
   <tile/>
   <tile/>
   <tile/>
   <tile/>
   <tile/>
   <tile/>
   <tile/>
   <tile/>
   <tile/>
   <tile/>
   <tile/>
   <tile/>
   <tile/>
   <tile gid="971"/>
   <tile gid="972"/>
   <tile/>
   <tile/>
   <tile/>
   <tile gid="971"/>
   <tile gid="972"/>
   <tile/>
   <tile/>
   <tile gid="955"/>
   <tile gid="956"/>
   <tile/>
   <tile/>
   <tile/>
   <tile/>
   <tile/>
   <tile/>
   <tile/>
   <tile/>
   <tile/>
   <tile/>
   <tile/>
   <tile/>
   <tile/>
   <tile/>
   <tile/>
   <tile/>
   <tile/>
   <tile/>
   <tile/>
   <tile/>
   <tile/>
   <tile/>
   <tile/>
   <tile/>
   <tile/>
   <tile/>
   <tile/>
   <tile gid="955"/>
   <tile gid="956"/>
   <tile/>
   <tile/>
   <tile/>
   <tile/>
   <tile/>
   <tile/>
   <tile/>
   <tile/>
   <tile/>
   <tile/>
   <tile/>
   <tile/>
   <tile/>
   <tile/>
   <tile/>
   <tile/>
   <tile/>
   <tile/>
   <tile/>
   <tile/>
   <tile gid="987"/>
   <tile gid="988"/>
   <tile/>
   <tile/>
   <tile/>
   <tile gid="987"/>
   <tile gid="988"/>
   <tile/>
   <tile/>
   <tile gid="971"/>
   <tile gid="972"/>
   <tile/>
   <tile/>
   <tile/>
   <tile/>
   <tile/>
   <tile/>
   <tile/>
   <tile/>
   <tile/>
   <tile/>
   <tile/>
   <tile/>
   <tile/>
   <tile/>
   <tile/>
   <tile/>
   <tile/>
   <tile/>
   <tile/>
   <tile/>
   <tile/>
   <tile/>
   <tile gid="196"/>
   <tile gid="197"/>
   <tile gid="968"/>
   <tile/>
   <tile/>
   <tile/>
   <tile/>
   <tile/>
   <tile/>
   <tile/>
   <tile/>
   <tile/>
   <tile/>
   <tile/>
   <tile/>
   <tile/>
   <tile gid="967"/>
   <tile gid="967"/>
   <tile gid="967"/>
   <tile gid="967"/>
   <tile gid="967"/>
   <tile/>
   <tile/>
   <tile/>
   <tile/>
   <tile/>
   <tile/>
   <tile gid="939"/>
   <tile gid="940"/>
   <tile/>
   <tile/>
   <tile/>
   <tile gid="939"/>
   <tile gid="940"/>
   <tile/>
   <tile/>
   <tile gid="987"/>
   <tile gid="988"/>
   <tile/>
   <tile/>
   <tile/>
   <tile/>
   <tile/>
   <tile/>
   <tile/>
   <tile/>
   <tile/>
   <tile/>
   <tile/>
   <tile/>
   <tile/>
   <tile/>
   <tile/>
   <tile/>
   <tile gid="966"/>
   <tile gid="967"/>
   <tile gid="968"/>
   <tile/>
   <tile/>
   <tile/>
   <tile/>
   <tile/>
   <tile/>
   <tile/>
   <tile/>
   <tile/>
   <tile/>
   <tile/>
   <tile/>
   <tile/>
   <tile/>
   <tile/>
   <tile/>
   <tile/>
   <tile/>
   <tile/>
   <tile/>
   <tile/>
   <tile/>
   <tile/>
   <tile/>
   <tile/>
   <tile/>
   <tile/>
   <tile/>
   <tile/>
   <tile/>
   <tile gid="955"/>
   <tile gid="956"/>
   <tile/>
   <tile/>
   <tile/>
   <tile gid="955"/>
   <tile gid="956"/>
   <tile/>
   <tile/>
   <tile gid="939"/>
   <tile gid="940"/>
   <tile/>
   <tile/>
   <tile/>
   <tile/>
   <tile/>
   <tile/>
   <tile/>
   <tile/>
   <tile/>
   <tile/>
   <tile/>
   <tile/>
   <tile/>
   <tile/>
   <tile/>
   <tile/>
   <tile/>
   <tile/>
   <tile/>
   <tile/>
   <tile/>
   <tile/>
   <tile/>
   <tile/>
   <tile/>
   <tile/>
   <tile/>
   <tile/>
   <tile/>
   <tile/>
   <tile/>
   <tile/>
   <tile/>
   <tile/>
   <tile/>
   <tile/>
   <tile/>
   <tile/>
   <tile/>
   <tile/>
   <tile/>
   <tile/>
   <tile/>
   <tile/>
   <tile/>
   <tile/>
   <tile/>
   <tile/>
   <tile/>
   <tile gid="971"/>
   <tile gid="972"/>
   <tile/>
   <tile/>
   <tile/>
   <tile gid="971"/>
   <tile gid="972"/>
   <tile/>
   <tile/>
   <tile gid="955"/>
   <tile gid="956"/>
   <tile/>
   <tile/>
   <tile/>
   <tile/>
   <tile/>
   <tile/>
   <tile/>
   <tile/>
   <tile/>
   <tile/>
   <tile/>
   <tile/>
   <tile/>
   <tile/>
   <tile/>
   <tile/>
   <tile/>
   <tile/>
   <tile/>
   <tile/>
   <tile/>
   <tile/>
   <tile/>
   <tile/>
   <tile/>
   <tile/>
   <tile/>
   <tile/>
   <tile/>
   <tile/>
   <tile/>
   <tile/>
   <tile/>
   <tile/>
   <tile/>
   <tile/>
   <tile/>
   <tile/>
   <tile/>
   <tile/>
   <tile/>
   <tile/>
   <tile/>
   <tile/>
   <tile/>
   <tile/>
   <tile/>
   <tile/>
   <tile/>
   <tile gid="987"/>
   <tile gid="988"/>
   <tile/>
   <tile/>
   <tile/>
   <tile gid="987"/>
   <tile gid="988"/>
   <tile/>
   <tile/>
   <tile gid="971"/>
   <tile gid="972"/>
   <tile/>
   <tile/>
   <tile/>
   <tile/>
   <tile/>
   <tile/>
   <tile/>
   <tile/>
   <tile/>
   <tile/>
   <tile/>
   <tile/>
   <tile/>
   <tile/>
   <tile/>
   <tile/>
   <tile/>
   <tile/>
   <tile/>
   <tile/>
   <tile/>
   <tile/>
   <tile/>
   <tile/>
   <tile/>
   <tile/>
   <tile/>
   <tile/>
   <tile/>
   <tile/>
   <tile/>
   <tile/>
   <tile/>
   <tile/>
   <tile/>
   <tile/>
   <tile/>
   <tile/>
   <tile/>
   <tile/>
   <tile/>
   <tile/>
   <tile/>
   <tile/>
   <tile/>
   <tile/>
   <tile/>
   <tile/>
   <tile/>
   <tile gid="939"/>
   <tile gid="940"/>
   <tile/>
   <tile/>
   <tile/>
   <tile gid="939"/>
   <tile gid="940"/>
   <tile/>
   <tile/>
   <tile gid="987"/>
   <tile gid="988"/>
   <tile/>
   <tile/>
   <tile/>
   <tile/>
   <tile/>
   <tile/>
   <tile/>
   <tile/>
   <tile/>
   <tile/>
   <tile/>
   <tile gid="966"/>
   <tile gid="967"/>
   <tile gid="967"/>
   <tile gid="967"/>
   <tile gid="967"/>
   <tile/>
   <tile/>
   <tile/>
   <tile gid="967"/>
   <tile gid="967"/>
   <tile gid="967"/>
   <tile gid="967"/>
   <tile gid="967"/>
   <tile gid="967"/>
   <tile gid="968"/>
   <tile/>
   <tile/>
   <tile/>
   <tile/>
   <tile/>
   <tile/>
   <tile/>
   <tile gid="966"/>
   <tile gid="967"/>
   <tile gid="967"/>
   <tile gid="967"/>
   <tile gid="967"/>
   <tile gid="967"/>
   <tile gid="967"/>
   <tile gid="967"/>
   <tile gid="967"/>
   <tile gid="967"/>
   <tile gid="967"/>
   <tile gid="967"/>
   <tile gid="968"/>
   <tile/>
   <tile/>
   <tile/>
   <tile gid="955"/>
   <tile gid="956"/>
   <tile/>
   <tile/>
   <tile/>
   <tile gid="955"/>
   <tile gid="956"/>
   <tile/>
   <tile/>
   <tile gid="939"/>
   <tile gid="940"/>
   <tile/>
   <tile/>
   <tile/>
   <tile/>
   <tile/>
   <tile/>
   <tile/>
   <tile/>
   <tile gid="966"/>
   <tile gid="967"/>
   <tile gid="967"/>
   <tile/>
   <tile/>
   <tile/>
   <tile/>
   <tile/>
   <tile/>
   <tile/>
   <tile/>
   <tile/>
   <tile/>
   <tile/>
   <tile/>
   <tile/>
   <tile/>
   <tile/>
   <tile/>
   <tile/>
   <tile/>
   <tile/>
   <tile/>
   <tile/>
   <tile/>
   <tile/>
   <tile/>
   <tile/>
   <tile/>
   <tile/>
   <tile/>
   <tile/>
   <tile/>
   <tile/>
   <tile/>
   <tile/>
   <tile/>
   <tile/>
   <tile/>
   <tile/>
   <tile/>
   <tile gid="971"/>
   <tile gid="972"/>
   <tile/>
   <tile/>
   <tile/>
   <tile gid="971"/>
   <tile gid="972"/>
   <tile/>
   <tile/>
   <tile gid="955"/>
   <tile gid="956"/>
   <tile/>
   <tile/>
   <tile/>
   <tile/>
   <tile/>
   <tile/>
   <tile/>
   <tile/>
   <tile/>
   <tile/>
   <tile/>
   <tile/>
   <tile/>
   <tile/>
   <tile/>
   <tile/>
   <tile/>
   <tile/>
   <tile/>
   <tile/>
   <tile/>
   <tile/>
   <tile/>
   <tile/>
   <tile/>
   <tile/>
   <tile/>
   <tile/>
   <tile/>
   <tile/>
   <tile/>
   <tile/>
   <tile/>
   <tile/>
   <tile/>
   <tile/>
   <tile/>
   <tile/>
   <tile/>
   <tile/>
   <tile/>
   <tile/>
   <tile/>
   <tile/>
   <tile/>
   <tile/>
   <tile/>
   <tile/>
   <tile/>
   <tile gid="987"/>
   <tile gid="988"/>
   <tile/>
   <tile/>
   <tile/>
   <tile gid="987"/>
   <tile gid="988"/>
   <tile/>
   <tile/>
   <tile gid="971"/>
   <tile gid="972"/>
   <tile/>
   <tile/>
   <tile/>
   <tile gid="197"/>
   <tile gid="968"/>
   <tile/>
   <tile/>
   <tile/>
   <tile/>
   <tile/>
   <tile/>
   <tile/>
   <tile/>
   <tile/>
   <tile/>
   <tile/>
   <tile/>
   <tile/>
   <tile/>
   <tile/>
   <tile/>
   <tile/>
   <tile/>
   <tile/>
   <tile/>
   <tile/>
   <tile/>
   <tile/>
   <tile/>
   <tile/>
   <tile/>
   <tile/>
   <tile/>
   <tile/>
   <tile/>
   <tile/>
   <tile/>
   <tile/>
   <tile/>
   <tile/>
   <tile/>
   <tile gid="921"/>
   <tile gid="922"/>
   <tile/>
   <tile/>
   <tile/>
   <tile/>
   <tile/>
   <tile/>
   <tile gid="939"/>
   <tile gid="940"/>
   <tile/>
   <tile/>
   <tile/>
   <tile gid="939"/>
   <tile gid="940"/>
   <tile/>
   <tile/>
   <tile gid="987"/>
   <tile gid="988"/>
   <tile/>
   <tile/>
   <tile/>
   <tile/>
   <tile/>
   <tile/>
   <tile/>
   <tile/>
   <tile/>
   <tile/>
   <tile/>
   <tile/>
   <tile/>
   <tile/>
   <tile/>
   <tile/>
   <tile/>
   <tile/>
   <tile/>
   <tile/>
   <tile/>
   <tile/>
   <tile/>
   <tile/>
   <tile/>
   <tile/>
   <tile/>
   <tile/>
   <tile/>
   <tile/>
   <tile/>
   <tile/>
   <tile/>
   <tile/>
   <tile/>
   <tile/>
   <tile/>
   <tile/>
   <tile/>
   <tile/>
   <tile/>
   <tile gid="937"/>
   <tile gid="938"/>
   <tile/>
   <tile/>
   <tile/>
   <tile/>
   <tile/>
   <tile/>
   <tile gid="955"/>
   <tile gid="956"/>
   <tile/>
   <tile/>
   <tile/>
   <tile gid="955"/>
   <tile gid="956"/>
   <tile/>
   <tile/>
   <tile gid="985"/>
   <tile gid="986"/>
   <tile gid="967"/>
   <tile/>
   <tile/>
   <tile/>
   <tile/>
   <tile/>
   <tile/>
   <tile/>
   <tile/>
   <tile/>
   <tile/>
   <tile/>
   <tile/>
   <tile/>
   <tile/>
   <tile/>
   <tile/>
   <tile gid="196"/>
   <tile gid="197"/>
   <tile gid="197"/>
   <tile gid="197"/>
   <tile gid="197"/>
   <tile gid="197"/>
   <tile gid="197"/>
   <tile gid="197"/>
   <tile gid="197"/>
   <tile gid="197"/>
   <tile gid="197"/>
   <tile gid="968"/>
   <tile/>
   <tile/>
   <tile/>
   <tile/>
   <tile/>
   <tile/>
   <tile/>
   <tile/>
   <tile/>
   <tile/>
   <tile/>
   <tile/>
   <tile gid="939"/>
   <tile gid="940"/>
   <tile/>
   <tile/>
   <tile/>
   <tile/>
   <tile/>
   <tile/>
   <tile gid="971"/>
   <tile gid="972"/>
   <tile/>
   <tile/>
   <tile/>
   <tile gid="971"/>
   <tile gid="972"/>
   <tile/>
   <tile/>
   <tile gid="931"/>
   <tile gid="932"/>
   <tile gid="932"/>
   <tile/>
   <tile/>
   <tile/>
   <tile/>
   <tile/>
   <tile/>
   <tile/>
   <tile/>
   <tile/>
   <tile/>
   <tile gid="196"/>
   <tile gid="197"/>
   <tile gid="197"/>
   <tile gid="968"/>
   <tile/>
   <tile/>
   <tile/>
   <tile/>
   <tile/>
   <tile/>
   <tile/>
   <tile/>
   <tile/>
   <tile/>
   <tile/>
   <tile/>
   <tile/>
   <tile/>
   <tile/>
   <tile/>
   <tile/>
   <tile/>
   <tile/>
   <tile/>
   <tile/>
   <tile/>
   <tile/>
   <tile/>
   <tile/>
   <tile/>
   <tile gid="955"/>
   <tile gid="956"/>
   <tile/>
   <tile/>
   <tile/>
   <tile/>
   <tile/>
   <tile/>
   <tile gid="987"/>
   <tile gid="988"/>
   <tile/>
   <tile/>
   <tile/>
   <tile gid="987"/>
   <tile gid="988"/>
   <tile/>
   <tile/>
   <tile/>
   <tile/>
   <tile/>
   <tile/>
   <tile/>
   <tile/>
   <tile/>
   <tile/>
   <tile/>
   <tile/>
   <tile/>
   <tile/>
   <tile/>
   <tile/>
   <tile/>
   <tile/>
   <tile/>
   <tile/>
   <tile/>
   <tile/>
   <tile/>
   <tile/>
   <tile/>
   <tile/>
   <tile/>
   <tile/>
   <tile/>
   <tile/>
   <tile/>
   <tile/>
   <tile/>
   <tile/>
   <tile/>
   <tile/>
   <tile/>
   <tile/>
   <tile/>
   <tile/>
   <tile/>
   <tile/>
   <tile/>
   <tile/>
   <tile/>
   <tile gid="939"/>
   <tile gid="940"/>
   <tile/>
   <tile/>
   <tile/>
   <tile/>
   <tile/>
   <tile/>
   <tile gid="939"/>
   <tile gid="940"/>
   <tile/>
   <tile/>
   <tile/>
   <tile gid="939"/>
   <tile gid="940"/>
   <tile/>
   <tile/>
   <tile/>
   <tile/>
   <tile/>
   <tile/>
   <tile/>
   <tile/>
   <tile/>
   <tile/>
   <tile/>
   <tile/>
   <tile/>
   <tile/>
   <tile/>
   <tile/>
   <tile/>
   <tile/>
   <tile/>
   <tile/>
   <tile/>
   <tile/>
   <tile/>
   <tile/>
   <tile/>
   <tile/>
   <tile/>
   <tile/>
   <tile/>
   <tile/>
   <tile/>
   <tile/>
   <tile/>
   <tile/>
   <tile/>
   <tile/>
   <tile/>
   <tile/>
   <tile/>
   <tile/>
   <tile/>
   <tile/>
   <tile/>
   <tile/>
   <tile/>
   <tile gid="955"/>
   <tile gid="956"/>
   <tile/>
   <tile gid="966"/>
   <tile gid="967"/>
   <tile gid="967"/>
   <tile gid="968"/>
   <tile/>
   <tile gid="955"/>
   <tile gid="956"/>
   <tile/>
   <tile/>
   <tile/>
   <tile gid="955"/>
   <tile gid="956"/>
   <tile/>
   <tile/>
   <tile/>
   <tile/>
   <tile/>
   <tile/>
   <tile/>
   <tile/>
   <tile/>
   <tile/>
   <tile/>
   <tile/>
   <tile/>
   <tile/>
   <tile/>
   <tile/>
   <tile/>
   <tile/>
   <tile/>
   <tile/>
   <tile/>
   <tile/>
   <tile/>
   <tile/>
   <tile/>
   <tile/>
   <tile/>
   <tile/>
   <tile/>
   <tile/>
   <tile/>
   <tile/>
   <tile/>
   <tile/>
   <tile/>
   <tile/>
   <tile/>
   <tile/>
   <tile/>
   <tile/>
   <tile/>
   <tile/>
   <tile/>
   <tile/>
   <tile/>
   <tile gid="953"/>
   <tile gid="954"/>
   <tile/>
   <tile/>
   <tile gid="932"/>
   <tile gid="932"/>
   <tile gid="933"/>
   <tile/>
   <tile gid="971"/>
   <tile gid="972"/>
   <tile/>
   <tile/>
   <tile/>
   <tile gid="971"/>
   <tile gid="972"/>
   <tile/>
   <tile/>
   <tile/>
   <tile/>
   <tile/>
   <tile/>
   <tile/>
   <tile/>
   <tile/>
   <tile/>
   <tile/>
   <tile/>
   <tile/>
   <tile/>
   <tile/>
   <tile/>
   <tile/>
   <tile/>
   <tile/>
   <tile/>
   <tile/>
   <tile/>
   <tile/>
   <tile/>
   <tile/>
   <tile/>
   <tile/>
   <tile/>
   <tile/>
   <tile/>
   <tile/>
   <tile/>
   <tile/>
   <tile/>
   <tile/>
   <tile/>
   <tile/>
   <tile/>
   <tile/>
   <tile/>
   <tile/>
   <tile/>
   <tile/>
   <tile/>
   <tile/>
   <tile gid="939"/>
   <tile gid="940"/>
   <tile/>
   <tile/>
   <tile/>
   <tile/>
   <tile/>
   <tile/>
   <tile gid="987"/>
   <tile gid="988"/>
   <tile/>
   <tile/>
   <tile/>
   <tile gid="987"/>
   <tile gid="988"/>
   <tile/>
   <tile/>
   <tile/>
   <tile/>
   <tile/>
   <tile/>
   <tile/>
   <tile/>
   <tile/>
   <tile/>
   <tile/>
   <tile/>
   <tile/>
   <tile/>
   <tile/>
   <tile/>
   <tile/>
   <tile/>
   <tile/>
   <tile/>
   <tile/>
   <tile/>
   <tile/>
   <tile/>
   <tile/>
   <tile/>
   <tile/>
   <tile/>
   <tile/>
   <tile/>
   <tile/>
   <tile/>
   <tile/>
   <tile/>
   <tile/>
   <tile/>
   <tile/>
   <tile/>
   <tile/>
   <tile/>
   <tile/>
   <tile/>
   <tile/>
   <tile/>
   <tile/>
   <tile gid="955"/>
   <tile gid="956"/>
   <tile/>
   <tile/>
   <tile/>
   <tile/>
   <tile/>
   <tile gid="967"/>
   <tile gid="985"/>
   <tile gid="986"/>
   <tile gid="967"/>
   <tile gid="967"/>
   <tile gid="967"/>
   <tile gid="985"/>
   <tile gid="986"/>
   <tile gid="967"/>
   <tile gid="967"/>
   <tile gid="967"/>
   <tile gid="967"/>
   <tile gid="967"/>
   <tile/>
   <tile/>
   <tile/>
   <tile/>
   <tile/>
   <tile/>
   <tile/>
   <tile/>
   <tile/>
   <tile/>
   <tile gid="196"/>
   <tile gid="197"/>
   <tile gid="197"/>
   <tile gid="968"/>
   <tile/>
   <tile/>
   <tile/>
   <tile/>
   <tile/>
   <tile/>
   <tile/>
   <tile/>
   <tile/>
   <tile/>
   <tile/>
   <tile/>
   <tile/>
   <tile/>
   <tile/>
   <tile/>
   <tile/>
   <tile/>
   <tile/>
   <tile/>
   <tile/>
   <tile/>
   <tile/>
   <tile/>
   <tile/>
   <tile/>
   <tile gid="971"/>
   <tile gid="972"/>
   <tile/>
   <tile/>
   <tile/>
   <tile/>
   <tile/>
   <tile/>
   <tile/>
   <tile/>
   <tile/>
   <tile/>
   <tile/>
   <tile/>
   <tile/>
   <tile/>
   <tile/>
   <tile/>
   <tile/>
   <tile/>
   <tile/>
   <tile/>
   <tile/>
   <tile/>
   <tile/>
   <tile/>
   <tile/>
   <tile/>
   <tile/>
   <tile/>
   <tile/>
   <tile/>
   <tile/>
   <tile/>
   <tile/>
   <tile/>
   <tile gid="501"/>
   <tile gid="966"/>
   <tile gid="967"/>
   <tile gid="967"/>
   <tile gid="968"/>
   <tile gid="501"/>
   <tile/>
   <tile/>
   <tile/>
   <tile/>
   <tile/>
   <tile/>
   <tile/>
   <tile/>
   <tile/>
   <tile/>
   <tile/>
   <tile/>
   <tile/>
   <tile/>
   <tile/>
   <tile/>
   <tile/>
   <tile/>
   <tile gid="987"/>
   <tile gid="988"/>
   <tile/>
   <tile/>
   <tile/>
   <tile/>
   <tile/>
   <tile/>
   <tile/>
   <tile/>
   <tile/>
   <tile/>
   <tile/>
   <tile/>
   <tile/>
   <tile/>
   <tile/>
   <tile/>
   <tile/>
   <tile/>
   <tile/>
   <tile/>
   <tile/>
   <tile/>
   <tile/>
   <tile/>
   <tile/>
   <tile/>
   <tile/>
   <tile/>
   <tile/>
   <tile/>
   <tile/>
   <tile/>
   <tile/>
   <tile/>
   <tile/>
   <tile/>
   <tile/>
   <tile/>
   <tile/>
   <tile/>
   <tile/>
   <tile/>
   <tile/>
   <tile/>
   <tile/>
   <tile/>
   <tile/>
   <tile/>
   <tile/>
   <tile/>
   <tile/>
   <tile/>
   <tile/>
   <tile/>
   <tile/>
   <tile/>
   <tile/>
   <tile/>
   <tile gid="937"/>
   <tile gid="938"/>
   <tile/>
   <tile/>
   <tile/>
   <tile/>
   <tile/>
   <tile/>
   <tile/>
   <tile/>
   <tile/>
   <tile/>
   <tile/>
   <tile/>
   <tile/>
   <tile/>
   <tile/>
   <tile/>
   <tile/>
   <tile/>
   <tile/>
   <tile/>
   <tile/>
   <tile/>
   <tile/>
   <tile/>
   <tile/>
   <tile/>
   <tile/>
   <tile/>
   <tile/>
   <tile/>
   <tile/>
   <tile/>
   <tile/>
   <tile/>
   <tile/>
   <tile/>
   <tile/>
   <tile/>
   <tile/>
   <tile/>
   <tile/>
   <tile/>
   <tile/>
   <tile/>
   <tile/>
   <tile/>
   <tile/>
   <tile/>
   <tile/>
   <tile/>
   <tile/>
   <tile/>
   <tile/>
   <tile/>
   <tile/>
   <tile/>
   <tile/>
   <tile/>
   <tile gid="953"/>
   <tile gid="954"/>
   <tile/>
   <tile/>
   <tile/>
   <tile/>
   <tile/>
   <tile/>
   <tile/>
   <tile/>
   <tile/>
   <tile/>
   <tile/>
   <tile/>
   <tile/>
   <tile/>
   <tile/>
   <tile/>
   <tile/>
   <tile/>
   <tile/>
   <tile/>
   <tile/>
   <tile/>
   <tile/>
   <tile/>
   <tile/>
   <tile/>
   <tile/>
   <tile/>
   <tile/>
   <tile/>
   <tile/>
   <tile/>
   <tile/>
   <tile/>
   <tile/>
   <tile/>
   <tile/>
   <tile/>
   <tile/>
   <tile/>
   <tile/>
   <tile/>
   <tile/>
   <tile/>
   <tile/>
   <tile/>
   <tile/>
   <tile/>
   <tile/>
   <tile/>
   <tile/>
   <tile/>
   <tile/>
   <tile/>
   <tile/>
   <tile/>
   <tile/>
   <tile/>
   <tile gid="969"/>
   <tile gid="970"/>
   <tile/>
   <tile/>
   <tile/>
   <tile/>
   <tile/>
   <tile/>
   <tile/>
   <tile/>
   <tile/>
   <tile/>
   <tile/>
   <tile/>
   <tile/>
   <tile/>
   <tile/>
   <tile/>
   <tile/>
   <tile/>
   <tile/>
   <tile/>
   <tile/>
   <tile/>
   <tile/>
   <tile/>
   <tile/>
   <tile/>
   <tile/>
   <tile/>
   <tile/>
   <tile/>
   <tile/>
   <tile/>
   <tile/>
   <tile/>
   <tile/>
   <tile/>
   <tile/>
   <tile/>
   <tile/>
   <tile/>
   <tile/>
   <tile/>
   <tile/>
   <tile/>
   <tile/>
   <tile/>
   <tile/>
   <tile/>
   <tile/>
   <tile/>
   <tile/>
   <tile/>
   <tile/>
   <tile/>
   <tile/>
   <tile/>
   <tile/>
   <tile/>
   <tile gid="985"/>
   <tile gid="986"/>
   <tile/>
   <tile/>
   <tile/>
   <tile/>
   <tile/>
   <tile/>
   <tile/>
   <tile/>
   <tile/>
   <tile/>
   <tile/>
   <tile/>
   <tile/>
   <tile/>
   <tile/>
   <tile/>
   <tile/>
   <tile/>
   <tile/>
   <tile/>
   <tile/>
   <tile/>
   <tile/>
   <tile/>
   <tile/>
   <tile/>
   <tile/>
   <tile/>
   <tile/>
   <tile/>
   <tile/>
   <tile/>
   <tile/>
   <tile/>
   <tile/>
   <tile/>
   <tile/>
   <tile/>
   <tile/>
   <tile/>
   <tile/>
   <tile/>
   <tile/>
   <tile/>
   <tile/>
   <tile/>
   <tile/>
   <tile/>
   <tile/>
   <tile/>
   <tile/>
   <tile/>
   <tile/>
   <tile/>
   <tile/>
   <tile/>
   <tile/>
   <tile/>
   <tile/>
   <tile/>
   <tile/>
   <tile/>
   <tile/>
   <tile/>
   <tile/>
   <tile/>
   <tile/>
   <tile/>
   <tile/>
   <tile/>
   <tile/>
   <tile/>
   <tile/>
   <tile/>
   <tile/>
   <tile/>
   <tile/>
   <tile/>
   <tile/>
  </data>
 </layer>
 <layer id="3" name="Collisions" width="60" height="34">
  <data>
   <tile gid="258"/>
   <tile/>
   <tile/>
   <tile/>
   <tile/>
   <tile gid="258"/>
   <tile/>
   <tile/>
   <tile/>
   <tile/>
   <tile/>
   <tile/>
   <tile/>
   <tile/>
   <tile/>
   <tile/>
   <tile/>
   <tile/>
   <tile/>
   <tile/>
   <tile/>
   <tile/>
   <tile/>
   <tile gid="258"/>
   <tile/>
   <tile/>
   <tile/>
   <tile/>
   <tile/>
   <tile gid="258"/>
   <tile/>
   <tile/>
   <tile/>
   <tile/>
   <tile/>
   <tile/>
   <tile/>
   <tile/>
   <tile/>
   <tile/>
   <tile/>
   <tile/>
   <tile/>
   <tile/>
   <tile/>
   <tile/>
   <tile/>
   <tile/>
   <tile gid="258"/>
   <tile/>
   <tile/>
   <tile/>
   <tile/>
   <tile/>
   <tile gid="258"/>
   <tile/>
   <tile/>
   <tile/>
   <tile/>
   <tile/>
   <tile gid="258"/>
   <tile/>
   <tile/>
   <tile/>
   <tile/>
   <tile gid="258"/>
   <tile/>
   <tile/>
   <tile/>
   <tile/>
   <tile/>
   <tile/>
   <tile/>
   <tile/>
   <tile/>
   <tile/>
   <tile/>
   <tile/>
   <tile/>
   <tile/>
   <tile/>
   <tile/>
   <tile/>
   <tile gid="258"/>
   <tile/>
   <tile/>
   <tile/>
   <tile/>
   <tile/>
   <tile gid="258"/>
   <tile/>
   <tile/>
   <tile/>
   <tile/>
   <tile/>
   <tile/>
   <tile/>
   <tile/>
   <tile/>
   <tile/>
   <tile/>
   <tile/>
   <tile/>
   <tile/>
   <tile/>
   <tile/>
   <tile/>
   <tile/>
   <tile gid="258"/>
   <tile/>
   <tile/>
   <tile/>
   <tile/>
   <tile/>
   <tile gid="258"/>
   <tile/>
   <tile/>
   <tile/>
   <tile/>
   <tile/>
   <tile gid="258"/>
   <tile/>
   <tile/>
   <tile/>
   <tile/>
   <tile/>
   <tile gid="258"/>
   <tile gid="258"/>
   <tile gid="258"/>
   <tile gid="258"/>
   <tile gid="258"/>
   <tile gid="258"/>
   <tile gid="258"/>
   <tile gid="258"/>
   <tile gid="258"/>
   <tile gid="258"/>
   <tile gid="258"/>
   <tile gid="258"/>
   <tile gid="258"/>
   <tile gid="258"/>
   <tile gid="258"/>
   <tile gid="258"/>
   <tile gid="258"/>
   <tile/>
   <tile/>
   <tile/>
   <tile/>
   <tile/>
   <tile/>
   <tile gid="258"/>
   <tile/>
   <tile/>
   <tile/>
   <tile/>
   <tile/>
   <tile/>
   <tile/>
   <tile/>
   <tile/>
   <tile/>
   <tile/>
   <tile/>
   <tile/>
   <tile/>
   <tile gid="258"/>
   <tile gid="258"/>
   <tile gid="258"/>
   <tile gid="258"/>
   <tile gid="258"/>
   <tile/>
   <tile/>
   <tile/>
   <tile/>
   <tile/>
   <tile gid="258"/>
   <tile gid="258"/>
   <tile gid="258"/>
   <tile gid="258"/>
   <tile gid="258"/>
   <tile/>
   <tile gid="258"/>
   <tile/>
   <tile/>
   <tile/>
   <tile/>
   <tile/>
   <tile/>
   <tile/>
   <tile/>
   <tile/>
   <tile/>
   <tile/>
   <tile/>
   <tile/>
   <tile/>
   <tile/>
   <tile/>
   <tile/>
   <tile/>
   <tile/>
   <tile/>
   <tile/>
   <tile/>
   <tile/>
   <tile/>
   <tile/>
   <tile/>
   <tile/>
   <tile/>
   <tile gid="258"/>
   <tile/>
   <tile/>
   <tile/>
   <tile/>
   <tile/>
   <tile/>
   <tile gid="258"/>
   <tile gid="258"/>
   <tile gid="258"/>
   <tile gid="258"/>
   <tile gid="258"/>
   <tile gid="258"/>
   <tile gid="258"/>
   <tile gid="258"/>
   <tile/>
   <tile/>
   <tile/>
   <tile/>
   <tile/>
   <tile/>
   <tile/>
   <tile/>
   <tile/>
   <tile/>
   <tile/>
   <tile/>
   <tile/>
   <tile/>
   <tile/>
   <tile gid="258"/>
   <tile gid="258"/>
   <tile/>
   <tile/>
   <tile/>
   <tile/>
   <tile/>
   <tile/>
   <tile/>
   <tile/>
   <tile/>
   <tile/>
   <tile/>
   <tile/>
   <tile/>
   <tile/>
   <tile/>
   <tile/>
   <tile/>
   <tile/>
   <tile/>
   <tile/>
   <tile/>
   <tile/>
   <tile/>
   <tile/>
   <tile/>
   <tile/>
   <tile/>
   <tile/>
   <tile/>
   <tile gid="258"/>
   <tile gid="258"/>
   <tile/>
   <tile/>
   <tile/>
   <tile gid="258"/>
   <tile/>
   <tile/>
   <tile/>
   <tile/>
   <tile/>
   <tile/>
   <tile/>
   <tile/>
   <tile/>
   <tile/>
   <tile/>
   <tile/>
   <tile/>
   <tile/>
   <tile/>
   <tile/>
   <tile/>
   <tile/>
   <tile/>
   <tile/>
   <tile/>
   <tile/>
   <tile/>
   <tile gid="258"/>
   <tile gid="258"/>
   <tile/>
   <tile/>
   <tile/>
   <tile/>
   <tile/>
   <tile/>
   <tile/>
   <tile/>
   <tile/>
   <tile/>
   <tile/>
   <tile/>
   <tile/>
   <tile/>
   <tile/>
   <tile/>
   <tile/>
   <tile/>
   <tile/>
   <tile/>
   <tile/>
   <tile/>
   <tile/>
   <tile/>
   <tile/>
   <tile/>
   <tile/>
   <tile/>
   <tile/>
   <tile/>
   <tile/>
   <tile gid="258"/>
   <tile/>
   <tile/>
   <tile gid="258"/>
   <tile/>
   <tile/>
   <tile/>
   <tile/>
   <tile/>
   <tile/>
   <tile/>
   <tile/>
   <tile/>
   <tile/>
   <tile/>
   <tile/>
   <tile/>
   <tile/>
   <tile/>
   <tile/>
   <tile/>
   <tile/>
   <tile/>
   <tile/>
   <tile/>
   <tile/>
   <tile/>
   <tile gid="258"/>
   <tile/>
   <tile gid="258"/>
   <tile gid="258"/>
   <tile gid="258"/>
   <tile/>
   <tile/>
   <tile/>
   <tile/>
   <tile/>
   <tile/>
   <tile/>
   <tile/>
   <tile/>
   <tile/>
   <tile/>
   <tile/>
   <tile/>
   <tile/>
   <tile/>
   <tile/>
   <tile/>
   <tile/>
   <tile/>
   <tile/>
   <tile/>
   <tile/>
   <tile/>
   <tile/>
   <tile/>
   <tile/>
   <tile/>
   <tile/>
   <tile gid="258"/>
   <tile/>
   <tile/>
   <tile gid="258"/>
   <tile/>
   <tile/>
   <tile/>
   <tile/>
   <tile/>
   <tile/>
   <tile/>
   <tile/>
   <tile/>
   <tile/>
   <tile/>
   <tile/>
   <tile/>
   <tile/>
   <tile/>
   <tile/>
   <tile/>
   <tile/>
   <tile/>
   <tile/>
   <tile/>
   <tile/>
   <tile/>
   <tile gid="258"/>
   <tile/>
   <tile gid="258"/>
   <tile/>
   <tile/>
   <tile/>
   <tile/>
   <tile/>
   <tile/>
   <tile/>
   <tile/>
   <tile/>
   <tile/>
   <tile/>
   <tile/>
   <tile/>
   <tile/>
   <tile/>
   <tile/>
   <tile/>
   <tile/>
   <tile/>
   <tile/>
   <tile/>
   <tile/>
   <tile/>
   <tile/>
   <tile/>
   <tile/>
   <tile/>
   <tile/>
   <tile/>
   <tile/>
   <tile/>
   <tile gid="258"/>
   <tile/>
   <tile gid="258"/>
   <tile/>
   <tile/>
   <tile/>
   <tile/>
   <tile/>
   <tile/>
   <tile/>
   <tile/>
   <tile gid="258"/>
   <tile gid="258"/>
   <tile/>
   <tile/>
   <tile/>
   <tile/>
   <tile/>
   <tile/>
   <tile/>
   <tile/>
   <tile/>
   <tile/>
   <tile/>
   <tile/>
   <tile/>
   <tile gid="258"/>
   <tile gid="258"/>
   <tile/>
   <tile/>
   <tile/>
   <tile/>
   <tile/>
   <tile/>
   <tile/>
   <tile/>
   <tile/>
   <tile/>
   <tile/>
   <tile/>
   <tile/>
   <tile/>
   <tile/>
   <tile/>
   <tile/>
   <tile/>
   <tile/>
   <tile/>
   <tile/>
   <tile/>
   <tile/>
   <tile/>
   <tile/>
   <tile/>
   <tile/>
   <tile/>
   <tile/>
   <tile/>
   <tile/>
   <tile/>
   <tile gid="258"/>
   <tile/>
   <tile gid="258"/>
   <tile/>
   <tile/>
   <tile/>
   <tile/>
   <tile/>
   <tile gid="258"/>
   <tile gid="258"/>
   <tile gid="258"/>
   <tile gid="258"/>
   <tile/>
   <tile/>
   <tile/>
   <tile/>
   <tile/>
   <tile/>
   <tile/>
   <tile/>
   <tile/>
   <tile/>
   <tile/>
   <tile/>
   <tile/>
   <tile/>
   <tile gid="258"/>
   <tile gid="258"/>
   <tile/>
   <tile/>
   <tile/>
   <tile/>
   <tile gid="258"/>
   <tile gid="258"/>
   <tile gid="258"/>
   <tile gid="258"/>
   <tile gid="258"/>
   <tile/>
   <tile/>
   <tile/>
   <tile/>
   <tile/>
   <tile/>
   <tile/>
   <tile/>
   <tile/>
   <tile/>
   <tile/>
   <tile/>
   <tile/>
   <tile/>
   <tile/>
   <tile/>
   <tile/>
   <tile/>
   <tile/>
   <tile/>
   <tile/>
   <tile/>
   <tile/>
   <tile gid="258"/>
   <tile/>
   <tile gid="258"/>
   <tile/>
   <tile/>
   <tile/>
   <tile/>
   <tile/>
   <tile gid="258"/>
   <tile/>
   <tile gid="258"/>
   <tile/>
   <tile/>
   <tile/>
   <tile/>
   <tile/>
   <tile/>
   <tile/>
   <tile/>
   <tile/>
   <tile/>
   <tile/>
   <tile/>
   <tile/>
   <tile/>
   <tile/>
   <tile gid="258"/>
   <tile gid="258"/>
   <tile/>
   <tile/>
   <tile/>
   <tile/>
   <tile/>
   <tile gid="258"/>
   <tile gid="258"/>
   <tile gid="258"/>
   <tile/>
   <tile/>
   <tile/>
   <tile/>
   <tile/>
   <tile/>
   <tile/>
   <tile/>
   <tile/>
   <tile/>
   <tile/>
   <tile/>
   <tile/>
   <tile/>
   <tile/>
   <tile/>
   <tile/>
   <tile/>
   <tile/>
   <tile/>
   <tile/>
   <tile/>
   <tile/>
   <tile/>
   <tile/>
   <tile gid="258"/>
   <tile gid="258"/>
   <tile/>
   <tile/>
   <tile/>
   <tile/>
   <tile/>
   <tile gid="258"/>
   <tile/>
   <tile gid="258"/>
   <tile/>
   <tile/>
   <tile/>
   <tile/>
   <tile/>
   <tile/>
   <tile/>
   <tile/>
   <tile/>
   <tile/>
   <tile/>
   <tile/>
   <tile/>
   <tile/>
   <tile/>
   <tile gid="258"/>
   <tile gid="258"/>
   <tile/>
   <tile/>
   <tile/>
   <tile/>
   <tile/>
   <tile/>
   <tile/>
   <tile/>
   <tile/>
   <tile/>
   <tile/>
   <tile/>
   <tile/>
   <tile/>
   <tile/>
   <tile/>
   <tile/>
   <tile/>
   <tile/>
   <tile gid="258"/>
   <tile gid="258"/>
   <tile gid="258"/>
   <tile/>
   <tile/>
   <tile/>
   <tile/>
   <tile/>
   <tile/>
   <tile/>
   <tile/>
   <tile/>
   <tile/>
   <tile/>
   <tile gid="258"/>
   <tile/>
   <tile gid="258"/>
   <tile gid="258"/>
   <tile gid="258"/>
   <tile gid="258"/>
   <tile gid="258"/>
   <tile/>
   <tile gid="258"/>
   <tile/>
   <tile/>
   <tile/>
   <tile/>
   <tile/>
   <tile/>
   <tile/>
   <tile/>
   <tile/>
   <tile/>
   <tile/>
   <tile/>
   <tile/>
   <tile/>
   <tile/>
   <tile/>
   <tile gid="258"/>
   <tile gid="258"/>
   <tile/>
   <tile/>
   <tile/>
   <tile/>
   <tile/>
   <tile/>
   <tile/>
   <tile/>
   <tile/>
   <tile/>
   <tile/>
   <tile/>
   <tile/>
   <tile gid="258"/>
   <tile gid="258"/>
   <tile gid="258"/>
   <tile/>
   <tile/>
   <tile/>
   <tile/>
   <tile/>
   <tile/>
   <tile/>
   <tile/>
   <tile/>
   <tile/>
   <tile/>
   <tile/>
   <tile/>
   <tile/>
   <tile/>
   <tile/>
   <tile/>
   <tile/>
   <tile gid="258"/>
   <tile gid="258"/>
   <tile gid="258"/>
   <tile gid="258"/>
   <tile gid="258"/>
   <tile gid="258"/>
   <tile gid="258"/>
   <tile/>
   <tile/>
   <tile/>
   <tile/>
   <tile/>
   <tile/>
   <tile/>
   <tile/>
   <tile/>
   <tile/>
   <tile/>
   <tile/>
   <tile/>
   <tile/>
   <tile/>
   <tile/>
   <tile/>
   <tile gid="258"/>
   <tile gid="258"/>
   <tile/>
   <tile/>
   <tile/>
   <tile/>
   <tile/>
   <tile/>
   <tile/>
   <tile/>
   <tile/>
   <tile/>
   <tile/>
   <tile/>
   <tile/>
   <tile gid="258"/>
   <tile/>
   <tile gid="258"/>
   <tile/>
   <tile/>
   <tile/>
   <tile/>
   <tile/>
   <tile/>
   <tile/>
   <tile/>
   <tile/>
   <tile/>
   <tile/>
   <tile/>
   <tile/>
   <tile/>
   <tile/>
   <tile/>
   <tile/>
   <tile/>
   <tile/>
   <tile/>
   <tile/>
   <tile/>
   <tile/>
   <tile/>
   <tile/>
   <tile/>
   <tile/>
   <tile/>
   <tile/>
   <tile/>
   <tile/>
   <tile/>
   <tile/>
   <tile/>
   <tile/>
   <tile/>
   <tile/>
   <tile/>
   <tile/>
   <tile/>
   <tile/>
   <tile/>
   <tile gid="258"/>
   <tile gid="258"/>
   <tile/>
   <tile/>
   <tile/>
   <tile/>
   <tile/>
   <tile/>
   <tile/>
   <tile/>
   <tile/>
   <tile/>
   <tile/>
   <tile/>
   <tile/>
   <tile gid="258"/>
   <tile/>
   <tile gid="258"/>
   <tile/>
   <tile/>
   <tile/>
   <tile/>
   <tile/>
   <tile/>
   <tile/>
   <tile/>
   <tile/>
   <tile/>
   <tile/>
   <tile/>
   <tile/>
   <tile/>
   <tile/>
   <tile/>
   <tile/>
   <tile/>
   <tile/>
   <tile/>
   <tile/>
   <tile/>
   <tile/>
   <tile/>
   <tile/>
   <tile/>
   <tile/>
   <tile/>
   <tile/>
   <tile/>
   <tile/>
   <tile/>
   <tile/>
   <tile/>
   <tile/>
   <tile/>
   <tile/>
   <tile/>
   <tile/>
   <tile/>
   <tile/>
   <tile/>
   <tile gid="258"/>
   <tile gid="258"/>
   <tile/>
   <tile/>
   <tile/>
   <tile/>
   <tile/>
   <tile/>
   <tile/>
   <tile/>
   <tile/>
   <tile/>
   <tile/>
   <tile/>
   <tile/>
   <tile gid="258"/>
   <tile/>
   <tile gid="258"/>
   <tile/>
   <tile/>
   <tile/>
   <tile/>
   <tile/>
   <tile/>
   <tile/>
   <tile/>
   <tile/>
   <tile/>
   <tile/>
   <tile/>
   <tile/>
   <tile/>
   <tile/>
   <tile/>
   <tile/>
   <tile/>
   <tile/>
   <tile/>
   <tile/>
   <tile/>
   <tile/>
   <tile/>
   <tile/>
   <tile/>
   <tile/>
   <tile/>
   <tile/>
   <tile/>
   <tile/>
   <tile/>
   <tile/>
   <tile/>
   <tile/>
   <tile/>
   <tile/>
   <tile/>
   <tile/>
   <tile/>
   <tile/>
   <tile/>
   <tile gid="258"/>
   <tile gid="258"/>
   <tile/>
   <tile/>
   <tile/>
   <tile/>
   <tile/>
   <tile/>
   <tile/>
   <tile/>
   <tile gid="258"/>
   <tile gid="258"/>
   <tile gid="258"/>
   <tile gid="258"/>
   <tile gid="258"/>
   <tile/>
   <tile/>
   <tile/>
   <tile gid="258"/>
   <tile gid="258"/>
   <tile gid="258"/>
   <tile gid="258"/>
   <tile gid="258"/>
   <tile gid="258"/>
   <tile gid="258"/>
   <tile/>
   <tile/>
   <tile/>
   <tile/>
   <tile/>
   <tile/>
   <tile/>
   <tile gid="258"/>
   <tile gid="258"/>
   <tile gid="258"/>
   <tile gid="258"/>
   <tile gid="258"/>
   <tile gid="258"/>
   <tile gid="258"/>
   <tile gid="258"/>
   <tile gid="258"/>
   <tile gid="258"/>
   <tile gid="258"/>
   <tile gid="258"/>
   <tile gid="258"/>
   <tile/>
   <tile/>
   <tile/>
   <tile/>
   <tile/>
   <tile/>
   <tile/>
   <tile/>
   <tile/>
   <tile/>
   <tile/>
   <tile/>
   <tile/>
   <tile/>
   <tile/>
   <tile gid="258"/>
   <tile gid="258"/>
   <tile/>
   <tile/>
   <tile/>
   <tile/>
   <tile/>
   <tile gid="258"/>
   <tile gid="258"/>
   <tile gid="258"/>
   <tile gid="258"/>
   <tile gid="258"/>
   <tile gid="258"/>
   <tile gid="258"/>
   <tile gid="258"/>
   <tile gid="258"/>
   <tile gid="258"/>
   <tile gid="258"/>
   <tile gid="258"/>
   <tile gid="258"/>
   <tile gid="258"/>
   <tile gid="258"/>
   <tile gid="258"/>
   <tile gid="258"/>
   <tile/>
   <tile/>
   <tile/>
   <tile/>
   <tile/>
   <tile/>
   <tile/>
   <tile/>
   <tile/>
   <tile gid="258"/>
   <tile gid="258"/>
   <tile gid="258"/>
   <tile/>
   <tile/>
   <tile/>
   <tile/>
   <tile/>
   <tile/>
   <tile gid="258"/>
   <tile gid="258"/>
   <tile/>
   <tile/>
   <tile/>
   <tile/>
   <tile/>
   <tile/>
   <tile/>
   <tile/>
   <tile/>
   <tile/>
   <tile/>
   <tile/>
   <tile/>
   <tile/>
   <tile/>
   <tile/>
   <tile gid="258"/>
   <tile gid="258"/>
   <tile/>
   <tile/>
   <tile/>
   <tile/>
   <tile/>
   <tile gid="258"/>
   <tile gid="258"/>
   <tile gid="258"/>
   <tile gid="258"/>
   <tile gid="258"/>
   <tile/>
   <tile/>
   <tile/>
   <tile/>
   <tile/>
   <tile/>
   <tile/>
   <tile/>
   <tile/>
   <tile/>
   <tile/>
   <tile/>
   <tile/>
   <tile/>
   <tile/>
   <tile/>
   <tile/>
   <tile/>
   <tile/>
   <tile/>
   <tile/>
   <tile/>
   <tile/>
   <tile/>
   <tile gid="258"/>
   <tile gid="258"/>
   <tile gid="258"/>
   <tile gid="258"/>
   <tile gid="258"/>
   <tile gid="258"/>
   <tile/>
   <tile/>
   <tile/>
   <tile/>
   <tile/>
   <tile/>
   <tile/>
   <tile/>
   <tile/>
   <tile/>
   <tile/>
   <tile/>
   <tile/>
   <tile/>
   <tile/>
   <tile/>
   <tile/>
   <tile/>
   <tile gid="258"/>
   <tile/>
   <tile gid="258"/>
   <tile gid="258"/>
   <tile/>
   <tile/>
   <tile/>
   <tile/>
   <tile/>
   <tile/>
   <tile/>
   <tile/>
   <tile/>
   <tile/>
   <tile/>
   <tile/>
   <tile/>
   <tile/>
   <tile/>
   <tile/>
   <tile/>
   <tile/>
   <tile/>
   <tile/>
   <tile/>
   <tile/>
   <tile/>
   <tile/>
   <tile/>
   <tile/>
   <tile/>
   <tile/>
   <tile/>
   <tile/>
   <tile/>
   <tile/>
   <tile/>
   <tile/>
   <tile/>
   <tile/>
   <tile/>
   <tile/>
   <tile/>
   <tile/>
   <tile/>
   <tile/>
   <tile/>
   <tile/>
   <tile/>
   <tile/>
   <tile/>
   <tile/>
   <tile/>
   <tile/>
   <tile/>
   <tile/>
   <tile/>
   <tile/>
   <tile/>
   <tile/>
   <tile gid="258"/>
   <tile gid="258"/>
   <tile/>
   <tile/>
   <tile/>
   <tile/>
   <tile/>
   <tile/>
   <tile/>
   <tile/>
   <tile/>
   <tile/>
   <tile/>
   <tile/>
   <tile/>
   <tile/>
   <tile/>
   <tile/>
   <tile/>
   <tile/>
   <tile/>
   <tile/>
   <tile/>
   <tile/>
   <tile/>
   <tile/>
   <tile/>
   <tile/>
   <tile/>
   <tile/>
   <tile/>
   <tile/>
   <tile/>
   <tile/>
   <tile/>
   <tile/>
   <tile/>
   <tile/>
   <tile/>
   <tile/>
   <tile/>
   <tile/>
   <tile/>
   <tile/>
   <tile/>
   <tile/>
   <tile/>
   <tile/>
   <tile/>
   <tile/>
   <tile/>
   <tile/>
   <tile/>
   <tile/>
   <tile/>
   <tile/>
   <tile/>
   <tile gid="258"/>
   <tile gid="258"/>
   <tile gid="258"/>
   <tile/>
   <tile gid="258"/>
   <tile/>
   <tile/>
   <tile/>
   <tile/>
   <tile/>
   <tile/>
   <tile/>
   <tile/>
   <tile/>
   <tile/>
   <tile/>
   <tile/>
   <tile/>
   <tile/>
   <tile gid="258"/>
   <tile gid="258"/>
   <tile gid="258"/>
   <tile gid="258"/>
   <tile gid="258"/>
   <tile gid="258"/>
   <tile gid="258"/>
   <tile gid="258"/>
   <tile gid="258"/>
   <tile gid="258"/>
   <tile gid="258"/>
   <tile gid="258"/>
   <tile/>
   <tile/>
   <tile/>
   <tile/>
   <tile/>
   <tile/>
   <tile/>
   <tile/>
   <tile/>
   <tile/>
   <tile/>
   <tile/>
   <tile/>
   <tile/>
   <tile/>
   <tile/>
   <tile/>
   <tile/>
   <tile/>
   <tile/>
   <tile/>
   <tile/>
   <tile/>
   <tile/>
   <tile/>
   <tile/>
   <tile/>
   <tile/>
   <tile/>
   <tile/>
   <tile/>
   <tile gid="258"/>
   <tile/>
   <tile gid="258"/>
   <tile/>
   <tile/>
   <tile/>
   <tile/>
   <tile/>
   <tile/>
   <tile/>
   <tile/>
   <tile gid="258"/>
   <tile gid="258"/>
   <tile gid="258"/>
   <tile gid="258"/>
   <tile/>
   <tile/>
   <tile/>
   <tile/>
   <tile gid="258"/>
   <tile gid="258"/>
   <tile gid="258"/>
   <tile gid="258"/>
   <tile gid="258"/>
   <tile gid="258"/>
   <tile gid="258"/>
   <tile gid="258"/>
   <tile/>
   <tile/>
   <tile/>
   <tile/>
   <tile/>
   <tile/>
   <tile/>
   <tile/>
   <tile/>
   <tile/>
   <tile/>
   <tile/>
   <tile/>
   <tile/>
   <tile/>
   <tile/>
   <tile/>
   <tile/>
   <tile/>
   <tile/>
   <tile/>
   <tile/>
   <tile/>
   <tile/>
   <tile/>
   <tile/>
   <tile/>
   <tile/>
   <tile/>
   <tile/>
   <tile/>
   <tile/>
   <tile/>
   <tile/>
   <tile gid="258"/>
   <tile gid="258"/>
   <tile/>
   <tile/>
   <tile/>
   <tile/>
   <tile/>
   <tile/>
   <tile/>
   <tile/>
   <tile/>
   <tile gid="258"/>
   <tile gid="258"/>
   <tile/>
   <tile/>
   <tile/>
   <tile/>
   <tile/>
   <tile/>
   <tile/>
   <tile/>
   <tile/>
   <tile/>
   <tile/>
   <tile/>
   <tile/>
   <tile/>
   <tile/>
   <tile/>
   <tile/>
   <tile/>
   <tile/>
   <tile/>
   <tile/>
   <tile/>
   <tile/>
   <tile/>
   <tile/>
   <tile/>
   <tile/>
   <tile/>
   <tile/>
   <tile/>
   <tile/>
   <tile/>
   <tile/>
   <tile/>
   <tile/>
   <tile/>
   <tile/>
   <tile/>
   <tile/>
   <tile/>
   <tile/>
   <tile/>
   <tile/>
   <tile/>
   <tile/>
   <tile/>
   <tile/>
   <tile gid="258"/>
   <tile gid="258"/>
   <tile/>
   <tile/>
   <tile/>
   <tile/>
   <tile/>
   <tile/>
   <tile/>
   <tile/>
   <tile/>
   <tile/>
   <tile/>
   <tile/>
   <tile/>
   <tile/>
   <tile/>
   <tile/>
   <tile/>
   <tile/>
   <tile/>
   <tile/>
   <tile/>
   <tile/>
   <tile/>
   <tile/>
   <tile/>
   <tile/>
   <tile/>
   <tile/>
   <tile/>
   <tile/>
   <tile/>
   <tile/>
   <tile/>
   <tile/>
   <tile/>
   <tile/>
   <tile/>
   <tile/>
   <tile/>
   <tile/>
   <tile/>
   <tile gid="258"/>
   <tile gid="258"/>
   <tile gid="258"/>
   <tile gid="258"/>
   <tile/>
   <tile/>
   <tile/>
   <tile/>
   <tile/>
   <tile/>
   <tile/>
   <tile/>
   <tile/>
   <tile/>
   <tile/>
   <tile/>
   <tile/>
   <tile gid="258"/>
   <tile gid="258"/>
   <tile/>
   <tile/>
   <tile/>
   <tile/>
   <tile/>
   <tile/>
   <tile/>
   <tile/>
   <tile/>
   <tile/>
   <tile/>
   <tile/>
   <tile/>
   <tile/>
   <tile/>
   <tile/>
   <tile/>
   <tile/>
   <tile/>
   <tile/>
   <tile/>
   <tile/>
   <tile/>
   <tile/>
   <tile/>
   <tile/>
   <tile/>
   <tile/>
   <tile/>
   <tile/>
   <tile/>
   <tile/>
   <tile/>
   <tile/>
   <tile/>
   <tile/>
   <tile/>
   <tile/>
   <tile/>
   <tile/>
   <tile/>
   <tile gid="258"/>
   <tile/>
   <tile/>
   <tile gid="258"/>
   <tile/>
   <tile/>
   <tile/>
   <tile/>
   <tile/>
   <tile/>
   <tile/>
   <tile/>
   <tile/>
   <tile/>
   <tile/>
   <tile/>
   <tile/>
   <tile gid="258"/>
   <tile gid="258"/>
   <tile/>
   <tile/>
   <tile/>
   <tile/>
   <tile/>
   <tile/>
   <tile/>
   <tile/>
   <tile/>
   <tile/>
   <tile/>
   <tile/>
   <tile/>
   <tile/>
   <tile/>
   <tile/>
   <tile/>
   <tile/>
   <tile/>
   <tile/>
   <tile/>
   <tile/>
   <tile/>
   <tile/>
   <tile/>
   <tile/>
   <tile/>
   <tile/>
   <tile/>
   <tile/>
   <tile/>
   <tile/>
   <tile/>
   <tile/>
   <tile/>
   <tile/>
   <tile/>
   <tile/>
   <tile/>
   <tile/>
   <tile/>
   <tile gid="258"/>
   <tile/>
   <tile/>
   <tile gid="258"/>
   <tile/>
   <tile/>
   <tile/>
   <tile/>
   <tile/>
   <tile/>
   <tile/>
   <tile/>
   <tile/>
   <tile/>
   <tile/>
   <tile/>
   <tile/>
   <tile gid="258"/>
   <tile gid="258"/>
   <tile/>
   <tile/>
   <tile/>
   <tile/>
   <tile/>
   <tile/>
   <tile/>
   <tile/>
   <tile/>
   <tile/>
   <tile/>
   <tile/>
   <tile/>
   <tile/>
   <tile/>
   <tile/>
   <tile/>
   <tile/>
   <tile/>
   <tile/>
   <tile/>
   <tile/>
   <tile/>
   <tile/>
   <tile/>
   <tile/>
   <tile/>
   <tile/>
   <tile/>
   <tile/>
   <tile/>
   <tile/>
   <tile/>
   <tile/>
   <tile/>
   <tile/>
   <tile/>
   <tile/>
   <tile/>
   <tile/>
   <tile/>
   <tile/>
   <tile gid="258"/>
   <tile/>
   <tile/>
   <tile gid="258"/>
   <tile gid="258"/>
   <tile gid="258"/>
   <tile gid="258"/>
   <tile gid="258"/>
   <tile gid="258"/>
   <tile gid="258"/>
   <tile gid="258"/>
   <tile gid="258"/>
   <tile gid="258"/>
   <tile gid="258"/>
   <tile gid="258"/>
   <tile gid="258"/>
   <tile/>
   <tile gid="258"/>
   <tile/>
   <tile/>
   <tile/>
   <tile/>
   <tile/>
   <tile/>
   <tile/>
   <tile/>
   <tile gid="258"/>
   <tile gid="258"/>
   <tile gid="258"/>
   <tile gid="258"/>
   <tile/>
   <tile/>
   <tile/>
   <tile/>
   <tile/>
   <tile/>
   <tile/>
   <tile/>
   <tile/>
   <tile/>
   <tile/>
   <tile/>
   <tile/>
   <tile/>
   <tile/>
   <tile/>
   <tile/>
   <tile/>
   <tile/>
   <tile/>
   <tile/>
   <tile/>
   <tile/>
   <tile/>
   <tile/>
   <tile/>
   <tile/>
   <tile/>
   <tile/>
   <tile/>
   <tile/>
   <tile gid="258"/>
   <tile/>
   <tile/>
   <tile/>
   <tile/>
   <tile/>
   <tile/>
   <tile/>
   <tile/>
   <tile/>
   <tile/>
   <tile/>
   <tile/>
   <tile/>
   <tile/>
   <tile/>
   <tile gid="258"/>
   <tile/>
   <tile/>
   <tile/>
   <tile/>
   <tile/>
   <tile/>
   <tile/>
   <tile/>
   <tile/>
   <tile gid="258"/>
   <tile gid="258"/>
   <tile/>
   <tile/>
   <tile/>
   <tile/>
   <tile gid="258"/>
   <tile gid="258"/>
   <tile gid="258"/>
   <tile gid="258"/>
   <tile/>
   <tile/>
   <tile/>
   <tile/>
   <tile/>
   <tile/>
   <tile/>
   <tile/>
   <tile/>
   <tile/>
   <tile/>
   <tile/>
   <tile/>
   <tile/>
   <tile/>
   <tile/>
   <tile/>
   <tile/>
   <tile/>
   <tile/>
   <tile/>
   <tile/>
   <tile/>
   <tile/>
   <tile gid="258"/>
   <tile gid="258"/>
   <tile gid="258"/>
   <tile gid="258"/>
   <tile gid="258"/>
   <tile gid="258"/>
   <tile gid="258"/>
   <tile gid="258"/>
   <tile gid="258"/>
   <tile gid="258"/>
   <tile gid="258"/>
   <tile gid="258"/>
   <tile gid="258"/>
   <tile gid="258"/>
   <tile gid="258"/>
   <tile gid="258"/>
   <tile gid="258"/>
   <tile/>
   <tile/>
   <tile/>
   <tile/>
   <tile/>
   <tile/>
   <tile/>
   <tile/>
   <tile/>
   <tile/>
   <tile/>
   <tile/>
   <tile/>
   <tile/>
   <tile/>
   <tile gid="258"/>
   <tile gid="258"/>
   <tile gid="258"/>
   <tile gid="258"/>
   <tile/>
   <tile/>
   <tile/>
   <tile/>
   <tile/>
   <tile/>
   <tile/>
   <tile/>
   <tile/>
   <tile/>
   <tile/>
   <tile/>
   <tile/>
   <tile/>
   <tile/>
   <tile/>
   <tile/>
   <tile/>
   <tile/>
   <tile/>
   <tile/>
   <tile/>
   <tile/>
   <tile/>
   <tile/>
   <tile/>
   <tile/>
   <tile/>
   <tile/>
   <tile/>
   <tile/>
   <tile/>
   <tile/>
   <tile/>
   <tile/>
   <tile/>
   <tile/>
   <tile/>
   <tile/>
   <tile/>
   <tile gid="258"/>
   <tile/>
   <tile/>
   <tile/>
   <tile/>
   <tile/>
   <tile/>
   <tile/>
   <tile/>
   <tile/>
   <tile/>
   <tile/>
   <tile/>
   <tile/>
   <tile/>
   <tile/>
   <tile/>
   <tile/>
   <tile/>
   <tile/>
   <tile/>
   <tile/>
   <tile/>
   <tile gid="258"/>
   <tile gid="258"/>
   <tile gid="258"/>
   <tile gid="258"/>
   <tile gid="258"/>
   <tile gid="258"/>
   <tile gid="258"/>
   <tile gid="258"/>
   <tile gid="258"/>
   <tile/>
   <tile/>
   <tile/>
   <tile/>
   <tile/>
   <tile/>
   <tile/>
   <tile/>
   <tile/>
   <tile/>
   <tile/>
   <tile/>
   <tile/>
   <tile/>
   <tile/>
   <tile/>
   <tile/>
   <tile/>
   <tile/>
   <tile/>
   <tile/>
   <tile/>
   <tile/>
   <tile/>
   <tile/>
   <tile/>
   <tile/>
   <tile/>
   <tile gid="258"/>
   <tile/>
   <tile/>
   <tile/>
   <tile/>
   <tile/>
   <tile/>
   <tile/>
   <tile/>
   <tile/>
   <tile/>
   <tile/>
   <tile/>
   <tile/>
   <tile/>
   <tile/>
   <tile/>
   <tile/>
   <tile/>
   <tile/>
   <tile/>
   <tile gid="258"/>
   <tile gid="258"/>
   <tile/>
   <tile/>
   <tile/>
   <tile/>
   <tile/>
   <tile/>
   <tile/>
   <tile/>
   <tile/>
   <tile gid="258"/>
   <tile gid="258"/>
   <tile gid="258"/>
   <tile/>
   <tile/>
   <tile/>
   <tile/>
   <tile/>
   <tile/>
   <tile/>
   <tile/>
   <tile/>
   <tile/>
   <tile/>
   <tile/>
   <tile/>
   <tile/>
   <tile/>
   <tile/>
   <tile/>
   <tile/>
   <tile/>
   <tile/>
   <tile/>
   <tile/>
   <tile/>
   <tile/>
   <tile/>
   <tile/>
   <tile gid="258"/>
   <tile gid="258"/>
   <tile gid="258"/>
   <tile gid="258"/>
   <tile gid="258"/>
   <tile gid="258"/>
   <tile gid="258"/>
   <tile gid="258"/>
   <tile gid="258"/>
   <tile gid="258"/>
   <tile gid="258"/>
   <tile gid="258"/>
   <tile gid="258"/>
   <tile gid="258"/>
   <tile gid="258"/>
   <tile gid="258"/>
   <tile gid="258"/>
   <tile gid="258"/>
   <tile gid="258"/>
   <tile gid="258"/>
   <tile/>
   <tile/>
   <tile/>
   <tile/>
   <tile/>
   <tile/>
   <tile/>
   <tile/>
   <tile/>
   <tile/>
   <tile/>
   <tile/>
   <tile/>
   <tile/>
   <tile gid="258"/>
   <tile gid="258"/>
   <tile gid="258"/>
   <tile gid="258"/>
   <tile gid="258"/>
   <tile gid="258"/>
   <tile gid="258"/>
   <tile gid="258"/>
   <tile gid="258"/>
   <tile gid="258"/>
   <tile gid="258"/>
   <tile gid="258"/>
   <tile gid="258"/>
   <tile gid="258"/>
   <tile gid="258"/>
   <tile gid="258"/>
   <tile gid="258"/>
   <tile gid="258"/>
   <tile gid="258"/>
   <tile gid="258"/>
   <tile gid="258"/>
   <tile gid="258"/>
   <tile gid="258"/>
   <tile gid="258"/>
   <tile gid="258"/>
  </data>
 </layer>
 <objectgroup id="5" name="Entities">
  <object id="121" name="Door" type="Door" x="3814" y="1914" width="32" height="204">
   <properties>
    <property name="Destination" value="MapCor_Sala16.tmx"/>
    <property name="Type" value="Door"/>
    <property name="playerX" type="float" value="272"/>
    <property name="playerY" type="float" value="10720"/>
   </properties>
  </object>
  <object id="122" name="Door" type="Door" x="3120" y="-14" width="364" height="24">
   <properties>
    <property name="Destination" value="MapPulmo_Sala2.tmx"/>
    <property name="Type" value="Door"/>
    <property name="playerX" type="float" value="3603"/>
    <property name="playerY" type="float" value="1975"/>
   </properties>
  </object>
  <object id="123" name="Door" type="Door" x="1510" y="-6" width="364" height="24">
   <properties>
    <property name="Destination" value="MapPulmo_Sala2.tmx"/>
    <property name="Type" value="Door"/>
    <property name="playerX" type="float" value="1457"/>
    <property name="playerY" type="float" value="1984"/>
   </properties>
  </object>
  <object id="124" name="Door" type="Door" x="46" y="-6" width="290" height="24">
   <properties>
    <property name="Destination" value="MapPulmo_Sala2.tmx"/>
    <property name="Type" value="Door"/>
    <property name="playerX" type="float" value="481"/>
    <property name="playerY" type="float" value="0"/>
   </properties>
  </object>
  <object id="128" name="Player" type="Player" x="2379.19" y="1946.18">
   <point/>
  </object>
  <object id="129" name="Climbable" type="Climbable" x="2537.33" y="1212" width="48" height="898.667">
   <properties>
    <property name="Type" value="Climbable"/>
   </properties>
  </object>
  <object id="130" name="Climbable" type="Climbable" x="3053.33" y="184" width="48" height="1530.67">
   <properties>
    <property name="Type" value="Climbable"/>
   </properties>
  </object>
  <object id="131" name="Climbable" type="Climbable" x="3373.33" y="-8" width="48" height="1730.67">
   <properties>
    <property name="Type" value="Climbable"/>
   </properties>
  </object>
  <object id="132" name="Climbable" type="Climbable" x="3637.33" y="176" width="48" height="1090.67">
   <properties>
    <property name="Type" value="Climbable"/>
   </properties>
  </object>
  <object id="133" name="Climbable" type="Climbable" x="1643.33" y="-18" width="48" height="658.667">
   <properties>
    <property name="Type" value="Climbable"/>
   </properties>
  </object>
  <object id="135" name="Climbable" type="Climbable" x="478.788" y="1224.24" width="69.697" height="887.758">
   <properties>
    <property name="Type" value="Climbable"/>
   </properties>
  </object>
 </objectgroup>
 <objectgroup id="4" name="Anim_Tiles" visible="0">
  <object id="1" name="part_superior_animada_pulmons" type="anim_tile" x="64" y="1984" width="64" height="64">
   <properties>
    <property name="Texture" value="part_superior_animada_pulmons"/>
    <property name="Type" value="anim_tile"/>
   </properties>
  </object>
  <object id="8" name="part_superior_animada_pulmons" type="anim_tile" x="128" y="1984" width="64" height="64">
   <properties>
    <property name="Texture" value="part_superior_animada_pulmons"/>
    <property name="Type" value="anim_tile"/>
   </properties>
  </object>
  <object id="10" name="part_superior_animada_pulmons" type="anim_tile" x="192" y="1984" width="64" height="64">
   <properties>
    <property name="Texture" value="part_superior_animada_pulmons"/>
    <property name="Type" value="anim_tile"/>
   </properties>
  </object>
  <object id="12" name="part_superior_animada_pulmons" type="anim_tile" x="256" y="1984" width="64" height="64">
   <properties>
    <property name="Texture" value="part_superior_animada_pulmons"/>
    <property name="Type" value="anim_tile"/>
   </properties>
  </object>
  <object id="14" name="part_superior_animada_pulmons" type="anim_tile" x="320" y="1984" width="64" height="64">
   <properties>
    <property name="Texture" value="part_superior_animada_pulmons"/>
    <property name="Type" value="anim_tile"/>
   </properties>
  </object>
  <object id="16" name="part_superior_animada_pulmons" type="anim_tile" x="448" y="1984" width="64" height="64">
   <properties>
    <property name="Texture" value="part_superior_animada_pulmons"/>
    <property name="Type" value="anim_tile"/>
   </properties>
  </object>
  <object id="139" name="part_superior_animada_pulmons" type="anim_tile" x="384" y="1984" width="64" height="64">
   <properties>
    <property name="Texture" value="part_superior_animada_pulmons"/>
    <property name="Type" value="anim_tile"/>
   </properties>
  </object>
  <object id="18" name="part_superior_animada_pulmons" type="anim_tile" x="512" y="1984" width="64" height="64">
   <properties>
    <property name="Texture" value="part_superior_animada_pulmons"/>
    <property name="Type" value="anim_tile"/>
   </properties>
  </object>
  <object id="20" name="part_superior_animada_pulmons" type="anim_tile" x="576" y="1984" width="64" height="64">
   <properties>
    <property name="Texture" value="part_superior_animada_pulmons"/>
    <property name="Type" value="anim_tile"/>
   </properties>
  </object>
  <object id="22" name="part_superior_animada_pulmons" type="anim_tile" x="640" y="1984" width="64" height="64">
   <properties>
    <property name="Texture" value="part_superior_animada_pulmons"/>
    <property name="Type" value="anim_tile"/>
   </properties>
  </object>
  <object id="24" name="part_superior_animada_pulmons" type="anim_tile" x="704" y="1984" width="64" height="64">
   <properties>
    <property name="Texture" value="part_superior_animada_pulmons"/>
    <property name="Type" value="anim_tile"/>
   </properties>
  </object>
  <object id="26" name="part_superior_animada_pulmons" type="anim_tile" x="768" y="1984" width="64" height="64">
   <properties>
    <property name="Texture" value="part_superior_animada_pulmons"/>
    <property name="Type" value="anim_tile"/>
   </properties>
  </object>
  <object id="28" name="part_superior_animada_pulmons" type="anim_tile" x="832" y="1984" width="64" height="64">
   <properties>
    <property name="Texture" value="part_superior_animada_pulmons"/>
    <property name="Type" value="anim_tile"/>
   </properties>
  </object>
  <object id="30" name="part_superior_animada_pulmons" type="anim_tile" x="896" y="1984" width="64" height="64">
   <properties>
    <property name="Texture" value="part_superior_animada_pulmons"/>
    <property name="Type" value="anim_tile"/>
   </properties>
  </object>
  <object id="32" name="part_superior_animada_pulmons" type="anim_tile" x="960" y="1984" width="64" height="64">
   <properties>
    <property name="Texture" value="part_superior_animada_pulmons"/>
    <property name="Type" value="anim_tile"/>
   </properties>
  </object>
  <object id="34" name="part_superior_animada_pulmons" type="anim_tile" x="1024" y="1984" width="64" height="64">
   <properties>
    <property name="Texture" value="part_superior_animada_pulmons"/>
    <property name="Type" value="anim_tile"/>
   </properties>
  </object>
  <object id="36" name="part_superior_animada_pulmons" type="anim_tile" x="1088" y="1984" width="64" height="64">
   <properties>
    <property name="Texture" value="part_superior_animada_pulmons"/>
    <property name="Type" value="anim_tile"/>
   </properties>
  </object>
  <object id="38" name="part_superior_animada_pulmons" type="anim_tile" x="1152" y="1984" width="64" height="64">
   <properties>
    <property name="Texture" value="part_superior_animada_pulmons"/>
    <property name="Type" value="anim_tile"/>
   </properties>
  </object>
  <object id="40" name="part_superior_animada_pulmons" type="anim_tile" x="1216" y="1984" width="64" height="64">
   <properties>
    <property name="Texture" value="part_superior_animada_pulmons"/>
    <property name="Type" value="anim_tile"/>
   </properties>
  </object>
  <object id="42" name="part_superior_animada_pulmons" type="anim_tile" x="1280" y="1984" width="64" height="64">
   <properties>
    <property name="Texture" value="part_superior_animada_pulmons"/>
    <property name="Type" value="anim_tile"/>
   </properties>
  </object>
  <object id="44" name="part_superior_animada_pulmons" type="anim_tile" x="1344" y="1920" width="64" height="64">
   <properties>
    <property name="Texture" value="part_superior_animada_pulmons"/>
    <property name="Type" value="anim_tile"/>
   </properties>
  </object>
  <object id="46" name="part_superior_animada_pulmons" type="anim_tile" x="1408" y="1920" width="64" height="64">
   <properties>
    <property name="Texture" value="part_superior_animada_pulmons"/>
    <property name="Type" value="anim_tile"/>
   </properties>
  </object>
  <object id="48" name="part_superior_animada_pulmons" type="anim_tile" x="1472" y="1856" width="64" height="64">
   <properties>
    <property name="Texture" value="part_superior_animada_pulmons"/>
    <property name="Type" value="anim_tile"/>
   </properties>
  </object>
  <object id="50" name="part_superior_animada_pulmons" type="anim_tile" x="1536" y="1856" width="64" height="64">
   <properties>
    <property name="Texture" value="part_superior_animada_pulmons"/>
    <property name="Type" value="anim_tile"/>
   </properties>
  </object>
  <object id="52" name="part_superior_animada_pulmons" type="anim_tile" x="1600" y="1856" width="64" height="64">
   <properties>
    <property name="Texture" value="part_superior_animada_pulmons"/>
    <property name="Type" value="anim_tile"/>
   </properties>
  </object>
  <object id="54" name="part_superior_animada_pulmons" type="anim_tile" x="1664" y="1856" width="64" height="64">
   <properties>
    <property name="Texture" value="part_superior_animada_pulmons"/>
    <property name="Type" value="anim_tile"/>
   </properties>
  </object>
  <object id="56" name="part_superior_animada_pulmons" type="anim_tile" x="1728" y="1856" width="64" height="64">
   <properties>
    <property name="Texture" value="part_superior_animada_pulmons"/>
    <property name="Type" value="anim_tile"/>
   </properties>
  </object>
  <object id="58" name="part_superior_animada_pulmons" type="anim_tile" x="1792" y="1856" width="64" height="64">
   <properties>
    <property name="Texture" value="part_superior_animada_pulmons"/>
    <property name="Type" value="anim_tile"/>
   </properties>
  </object>
  <object id="60" name="part_superior_animada_pulmons" type="anim_tile" x="1856" y="1856" width="64" height="64">
   <properties>
    <property name="Texture" value="part_superior_animada_pulmons"/>
    <property name="Type" value="anim_tile"/>
   </properties>
  </object>
  <object id="62" name="part_superior_animada_pulmons" type="anim_tile" x="1920" y="1856" width="64" height="64">
   <properties>
    <property name="Texture" value="part_superior_animada_pulmons"/>
    <property name="Type" value="anim_tile"/>
   </properties>
  </object>
  <object id="64" name="part_superior_animada_pulmons" type="anim_tile" x="1984" y="1856" width="64" height="64">
   <properties>
    <property name="Texture" value="part_superior_animada_pulmons"/>
    <property name="Type" value="anim_tile"/>
   </properties>
  </object>
  <object id="66" name="part_superior_animada_pulmons" type="anim_tile" x="2048" y="1920" width="64" height="64">
   <properties>
    <property name="Texture" value="part_superior_animada_pulmons"/>
    <property name="Type" value="anim_tile"/>
   </properties>
  </object>
  <object id="68" name="part_superior_animada_pulmons" type="anim_tile" x="2112" y="1920" width="64" height="64">
   <properties>
    <property name="Texture" value="part_superior_animada_pulmons"/>
    <property name="Type" value="anim_tile"/>
   </properties>
  </object>
  <object id="70" name="part_superior_animada_pulmons" type="anim_tile" x="2176" y="1920" width="64" height="64">
   <properties>
    <property name="Texture" value="part_superior_animada_pulmons"/>
    <property name="Type" value="anim_tile"/>
   </properties>
  </object>
  <object id="72" name="part_superior_animada_pulmons" type="anim_tile" x="2240" y="1984" width="64" height="64">
   <properties>
    <property name="Texture" value="part_superior_animada_pulmons"/>
    <property name="Type" value="anim_tile"/>
   </properties>
  </object>
  <object id="74" name="part_superior_animada_pulmons" type="anim_tile" x="2304" y="1984" width="64" height="64">
   <properties>
    <property name="Texture" value="part_superior_animada_pulmons"/>
    <property name="Type" value="anim_tile"/>
   </properties>
  </object>
  <object id="76" name="part_superior_animada_pulmons" type="anim_tile" x="2368" y="1984" width="64" height="64">
   <properties>
    <property name="Texture" value="part_superior_animada_pulmons"/>
    <property name="Type" value="anim_tile"/>
   </properties>
  </object>
  <object id="78" name="part_superior_animada_pulmons" type="anim_tile" x="2432" y="1984" width="64" height="64">
   <properties>
    <property name="Texture" value="part_superior_animada_pulmons"/>
    <property name="Type" value="anim_tile"/>
   </properties>
  </object>
  <object id="80" name="part_superior_animada_pulmons" type="anim_tile" x="2496" y="1984" width="64" height="64">
   <properties>
    <property name="Texture" value="part_superior_animada_pulmons"/>
    <property name="Type" value="anim_tile"/>
   </properties>
  </object>
  <object id="82" name="part_superior_animada_pulmons" type="anim_tile" x="2560" y="1984" width="64" height="64">
   <properties>
    <property name="Texture" value="part_superior_animada_pulmons"/>
    <property name="Type" value="anim_tile"/>
   </properties>
  </object>
  <object id="84" name="part_superior_animada_pulmons" type="anim_tile" x="2624" y="1984" width="64" height="64">
   <properties>
    <property name="Texture" value="part_superior_animada_pulmons"/>
    <property name="Type" value="anim_tile"/>
   </properties>
  </object>
  <object id="86" name="part_superior_animada_pulmons" type="anim_tile" x="2688" y="1984" width="64" height="64">
   <properties>
    <property name="Texture" value="part_superior_animada_pulmons"/>
    <property name="Type" value="anim_tile"/>
   </properties>
  </object>
  <object id="88" name="part_superior_animada_pulmons" type="anim_tile" x="2752" y="1984" width="64" height="64">
   <properties>
    <property name="Texture" value="part_superior_animada_pulmons"/>
    <property name="Type" value="anim_tile"/>
   </properties>
  </object>
  <object id="90" name="part_superior_animada_pulmons" type="anim_tile" x="2816" y="1984" width="64" height="64">
   <properties>
    <property name="Texture" value="part_superior_animada_pulmons"/>
    <property name="Type" value="anim_tile"/>
   </properties>
  </object>
  <object id="92" name="part_superior_animada_pulmons" type="anim_tile" x="2880" y="1984" width="64" height="64">
   <properties>
    <property name="Texture" value="part_superior_animada_pulmons"/>
    <property name="Type" value="anim_tile"/>
   </properties>
  </object>
  <object id="94" name="part_superior_animada_pulmons" type="anim_tile" x="2944" y="1984" width="64" height="64">
   <properties>
    <property name="Texture" value="part_superior_animada_pulmons"/>
    <property name="Type" value="anim_tile"/>
   </properties>
  </object>
  <object id="96" name="part_superior_animada_pulmons" type="anim_tile" x="3008" y="1984" width="64" height="64">
   <properties>
    <property name="Texture" value="part_superior_animada_pulmons"/>
    <property name="Type" value="anim_tile"/>
   </properties>
  </object>
  <object id="98" name="part_superior_animada_pulmons" type="anim_tile" x="3072" y="1984" width="64" height="64">
   <properties>
    <property name="Texture" value="part_superior_animada_pulmons"/>
    <property name="Type" value="anim_tile"/>
   </properties>
  </object>
  <object id="100" name="part_superior_animada_pulmons" type="anim_tile" x="3136" y="1984" width="64" height="64">
   <properties>
    <property name="Texture" value="part_superior_animada_pulmons"/>
    <property name="Type" value="anim_tile"/>
   </properties>
  </object>
  <object id="102" name="part_superior_animada_pulmons" type="anim_tile" x="3200" y="1984" width="64" height="64">
   <properties>
    <property name="Texture" value="part_superior_animada_pulmons"/>
    <property name="Type" value="anim_tile"/>
   </properties>
  </object>
  <object id="104" name="part_superior_animada_pulmons" type="anim_tile" x="3264" y="1984" width="64" height="64">
   <properties>
    <property name="Texture" value="part_superior_animada_pulmons"/>
    <property name="Type" value="anim_tile"/>
   </properties>
  </object>
  <object id="106" name="part_superior_animada_pulmons" type="anim_tile" x="3328" y="1984" width="64" height="64">
   <properties>
    <property name="Texture" value="part_superior_animada_pulmons"/>
    <property name="Type" value="anim_tile"/>
   </properties>
  </object>
  <object id="108" name="part_superior_animada_pulmons" type="anim_tile" x="3392" y="1984" width="64" height="64">
   <properties>
    <property name="Texture" value="part_superior_animada_pulmons"/>
    <property name="Type" value="anim_tile"/>
   </properties>
  </object>
  <object id="110" name="part_superior_animada_pulmons" type="anim_tile" x="3456" y="1984" width="64" height="64">
   <properties>
    <property name="Texture" value="part_superior_animada_pulmons"/>
    <property name="Type" value="anim_tile"/>
   </properties>
  </object>
  <object id="112" name="part_superior_animada_pulmons" type="anim_tile" x="3520" y="1984" width="64" height="64">
   <properties>
    <property name="Texture" value="part_superior_animada_pulmons"/>
    <property name="Type" value="anim_tile"/>
   </properties>
  </object>
  <object id="114" name="part_superior_animada_pulmons" type="anim_tile" x="3584" y="1984" width="64" height="64">
   <properties>
    <property name="Texture" value="part_superior_animada_pulmons"/>
    <property name="Type" value="anim_tile"/>
   </properties>
  </object>
  <object id="116" name="part_superior_animada_pulmons" type="anim_tile" x="3648" y="1984" width="64" height="64">
   <properties>
    <property name="Texture" value="part_superior_animada_pulmons"/>
    <property name="Type" value="anim_tile"/>
   </properties>
  </object>
  <object id="118" name="part_superior_animada_pulmons" type="anim_tile" x="3712" y="1984" width="64" height="64">
   <properties>
    <property name="Texture" value="part_superior_animada_pulmons"/>
    <property name="Type" value="anim_tile"/>
   </properties>
  </object>
  <object id="120" name="part_superior_animada_pulmons" type="anim_tile" x="3776" y="1984" width="64" height="64">
   <properties>
    <property name="Texture" value="part_superior_animada_pulmons"/>
    <property name="Type" value="anim_tile"/>
   </properties>
  </object>
  <object id="2" name="base_animada_pulmons" type="anim_tile" x="64" y="2048" width="64" height="64">
   <properties>
    <property name="Texture" value="base_animada_pulmons"/>
    <property name="Type" value="anim_tile"/>
   </properties>
  </object>
  <object id="7" name="base_animada_pulmons" type="anim_tile" x="128" y="2048" width="64" height="64">
   <properties>
    <property name="Texture" value="base_animada_pulmons"/>
    <property name="Type" value="anim_tile"/>
   </properties>
  </object>
  <object id="9" name="base_animada_pulmons" type="anim_tile" x="192" y="2048" width="64" height="64">
   <properties>
    <property name="Texture" value="base_animada_pulmons"/>
    <property name="Type" value="anim_tile"/>
   </properties>
  </object>
  <object id="11" name="base_animada_pulmons" type="anim_tile" x="256" y="2048" width="64" height="64">
   <properties>
    <property name="Texture" value="base_animada_pulmons"/>
    <property name="Type" value="anim_tile"/>
   </properties>
  </object>
  <object id="13" name="base_animada_pulmons" type="anim_tile" x="320" y="2048" width="64" height="64">
   <properties>
    <property name="Texture" value="base_animada_pulmons"/>
    <property name="Type" value="anim_tile"/>
   </properties>
  </object>
  <object id="15" name="base_animada_pulmons" type="anim_tile" x="448" y="2048" width="64" height="64">
   <properties>
    <property name="Texture" value="base_animada_pulmons"/>
    <property name="Type" value="anim_tile"/>
   </properties>
  </object>
  <object id="138" name="base_animada_pulmons" type="anim_tile" x="384" y="2048" width="64" height="64">
   <properties>
    <property name="Texture" value="base_animada_pulmons"/>
    <property name="Type" value="anim_tile"/>
   </properties>
  </object>
  <object id="17" name="base_animada_pulmons" type="anim_tile" x="512" y="2048" width="64" height="64">
   <properties>
    <property name="Texture" value="base_animada_pulmons"/>
    <property name="Type" value="anim_tile"/>
   </properties>
  </object>
  <object id="19" name="base_animada_pulmons" type="anim_tile" x="576" y="2048" width="64" height="64">
   <properties>
    <property name="Texture" value="base_animada_pulmons"/>
    <property name="Type" value="anim_tile"/>
   </properties>
  </object>
  <object id="21" name="base_animada_pulmons" type="anim_tile" x="640" y="2048" width="64" height="64">
   <properties>
    <property name="Texture" value="base_animada_pulmons"/>
    <property name="Type" value="anim_tile"/>
   </properties>
  </object>
  <object id="23" name="base_animada_pulmons" type="anim_tile" x="704" y="2048" width="64" height="64">
   <properties>
    <property name="Texture" value="base_animada_pulmons"/>
    <property name="Type" value="anim_tile"/>
   </properties>
  </object>
  <object id="25" name="base_animada_pulmons" type="anim_tile" x="768" y="2048" width="64" height="64">
   <properties>
    <property name="Texture" value="base_animada_pulmons"/>
    <property name="Type" value="anim_tile"/>
   </properties>
  </object>
  <object id="27" name="base_animada_pulmons" type="anim_tile" x="832" y="2048" width="64" height="64">
   <properties>
    <property name="Texture" value="base_animada_pulmons"/>
    <property name="Type" value="anim_tile"/>
   </properties>
  </object>
  <object id="29" name="base_animada_pulmons" type="anim_tile" x="896" y="2048" width="64" height="64">
   <properties>
    <property name="Texture" value="base_animada_pulmons"/>
    <property name="Type" value="anim_tile"/>
   </properties>
  </object>
  <object id="31" name="base_animada_pulmons" type="anim_tile" x="960" y="2048" width="64" height="64">
   <properties>
    <property name="Texture" value="base_animada_pulmons"/>
    <property name="Type" value="anim_tile"/>
   </properties>
  </object>
  <object id="33" name="base_animada_pulmons" type="anim_tile" x="1024" y="2048" width="64" height="64">
   <properties>
    <property name="Texture" value="base_animada_pulmons"/>
    <property name="Type" value="anim_tile"/>
   </properties>
  </object>
  <object id="35" name="base_animada_pulmons" type="anim_tile" x="1088" y="2048" width="64" height="64">
   <properties>
    <property name="Texture" value="base_animada_pulmons"/>
    <property name="Type" value="anim_tile"/>
   </properties>
  </object>
  <object id="37" name="base_animada_pulmons" type="anim_tile" x="1152" y="2048" width="64" height="64">
   <properties>
    <property name="Texture" value="base_animada_pulmons"/>
    <property name="Type" value="anim_tile"/>
   </properties>
  </object>
  <object id="39" name="base_animada_pulmons" type="anim_tile" x="1216" y="2048" width="64" height="64">
   <properties>
    <property name="Texture" value="base_animada_pulmons"/>
    <property name="Type" value="anim_tile"/>
   </properties>
  </object>
  <object id="41" name="base_animada_pulmons" type="anim_tile" x="1280" y="2048" width="64" height="64">
   <properties>
    <property name="Texture" value="base_animada_pulmons"/>
    <property name="Type" value="anim_tile"/>
   </properties>
  </object>
  <object id="43" name="base_animada_pulmons" type="anim_tile" x="1344" y="1984" width="64" height="64">
   <properties>
    <property name="Texture" value="base_animada_pulmons"/>
    <property name="Type" value="anim_tile"/>
   </properties>
  </object>
  <object id="45" name="base_animada_pulmons" type="anim_tile" x="1408" y="1984" width="64" height="64">
   <properties>
    <property name="Texture" value="base_animada_pulmons"/>
    <property name="Type" value="anim_tile"/>
   </properties>
  </object>
  <object id="47" name="base_animada_pulmons" type="anim_tile" x="1472" y="1920" width="64" height="64">
   <properties>
    <property name="Texture" value="base_animada_pulmons"/>
    <property name="Type" value="anim_tile"/>
   </properties>
  </object>
  <object id="49" name="base_animada_pulmons" type="anim_tile" x="1536" y="1920" width="64" height="64">
   <properties>
    <property name="Texture" value="base_animada_pulmons"/>
    <property name="Type" value="anim_tile"/>
   </properties>
  </object>
  <object id="51" name="base_animada_pulmons" type="anim_tile" x="1600" y="1920" width="64" height="64">
   <properties>
    <property name="Texture" value="base_animada_pulmons"/>
    <property name="Type" value="anim_tile"/>
   </properties>
  </object>
  <object id="53" name="base_animada_pulmons" type="anim_tile" x="1664" y="1920" width="64" height="64">
   <properties>
    <property name="Texture" value="base_animada_pulmons"/>
    <property name="Type" value="anim_tile"/>
   </properties>
  </object>
  <object id="55" name="base_animada_pulmons" type="anim_tile" x="1728" y="1920" width="64" height="64">
   <properties>
    <property name="Texture" value="base_animada_pulmons"/>
    <property name="Type" value="anim_tile"/>
   </properties>
  </object>
  <object id="57" name="base_animada_pulmons" type="anim_tile" x="1792" y="1920" width="64" height="64">
   <properties>
    <property name="Texture" value="base_animada_pulmons"/>
    <property name="Type" value="anim_tile"/>
   </properties>
  </object>
  <object id="59" name="base_animada_pulmons" type="anim_tile" x="1856" y="1920" width="64" height="64">
   <properties>
    <property name="Texture" value="base_animada_pulmons"/>
    <property name="Type" value="anim_tile"/>
   </properties>
  </object>
  <object id="61" name="base_animada_pulmons" type="anim_tile" x="1920" y="1920" width="64" height="64">
   <properties>
    <property name="Texture" value="base_animada_pulmons"/>
    <property name="Type" value="anim_tile"/>
   </properties>
  </object>
  <object id="63" name="base_animada_pulmons" type="anim_tile" x="1984" y="1920" width="64" height="64">
   <properties>
    <property name="Texture" value="base_animada_pulmons"/>
    <property name="Type" value="anim_tile"/>
   </properties>
  </object>
  <object id="65" name="base_animada_pulmons" type="anim_tile" x="2048" y="1984" width="64" height="64">
   <properties>
    <property name="Texture" value="base_animada_pulmons"/>
    <property name="Type" value="anim_tile"/>
   </properties>
  </object>
  <object id="67" name="base_animada_pulmons" type="anim_tile" x="2112" y="1984" width="64" height="64">
   <properties>
    <property name="Texture" value="base_animada_pulmons"/>
    <property name="Type" value="anim_tile"/>
   </properties>
  </object>
  <object id="69" name="base_animada_pulmons" type="anim_tile" x="2176" y="1984" width="64" height="64">
   <properties>
    <property name="Texture" value="base_animada_pulmons"/>
    <property name="Type" value="anim_tile"/>
   </properties>
  </object>
  <object id="71" name="base_animada_pulmons" type="anim_tile" x="2240" y="2048" width="64" height="64">
   <properties>
    <property name="Texture" value="base_animada_pulmons"/>
    <property name="Type" value="anim_tile"/>
   </properties>
  </object>
  <object id="73" name="base_animada_pulmons" type="anim_tile" x="2304" y="2048" width="64" height="64">
   <properties>
    <property name="Texture" value="base_animada_pulmons"/>
    <property name="Type" value="anim_tile"/>
   </properties>
  </object>
  <object id="75" name="base_animada_pulmons" type="anim_tile" x="2368" y="2048" width="64" height="64">
   <properties>
    <property name="Texture" value="base_animada_pulmons"/>
    <property name="Type" value="anim_tile"/>
   </properties>
  </object>
  <object id="77" name="base_animada_pulmons" type="anim_tile" x="2432" y="2048" width="64" height="64">
   <properties>
    <property name="Texture" value="base_animada_pulmons"/>
    <property name="Type" value="anim_tile"/>
   </properties>
  </object>
  <object id="79" name="base_animada_pulmons" type="anim_tile" x="2496" y="2048" width="64" height="64">
   <properties>
    <property name="Texture" value="base_animada_pulmons"/>
    <property name="Type" value="anim_tile"/>
   </properties>
  </object>
  <object id="81" name="base_animada_pulmons" type="anim_tile" x="2560" y="2048" width="64" height="64">
   <properties>
    <property name="Texture" value="base_animada_pulmons"/>
    <property name="Type" value="anim_tile"/>
   </properties>
  </object>
  <object id="83" name="base_animada_pulmons" type="anim_tile" x="2624" y="2048" width="64" height="64">
   <properties>
    <property name="Texture" value="base_animada_pulmons"/>
    <property name="Type" value="anim_tile"/>
   </properties>
  </object>
  <object id="85" name="base_animada_pulmons" type="anim_tile" x="2688" y="2048" width="64" height="64">
   <properties>
    <property name="Texture" value="base_animada_pulmons"/>
    <property name="Type" value="anim_tile"/>
   </properties>
  </object>
  <object id="87" name="base_animada_pulmons" type="anim_tile" x="2752" y="2048" width="64" height="64">
   <properties>
    <property name="Texture" value="base_animada_pulmons"/>
    <property name="Type" value="anim_tile"/>
   </properties>
  </object>
  <object id="89" name="base_animada_pulmons" type="anim_tile" x="2816" y="2048" width="64" height="64">
   <properties>
    <property name="Texture" value="base_animada_pulmons"/>
    <property name="Type" value="anim_tile"/>
   </properties>
  </object>
  <object id="91" name="base_animada_pulmons" type="anim_tile" x="2880" y="2048" width="64" height="64">
   <properties>
    <property name="Texture" value="base_animada_pulmons"/>
    <property name="Type" value="anim_tile"/>
   </properties>
  </object>
  <object id="93" name="base_animada_pulmons" type="anim_tile" x="2944" y="2048" width="64" height="64">
   <properties>
    <property name="Texture" value="base_animada_pulmons"/>
    <property name="Type" value="anim_tile"/>
   </properties>
  </object>
  <object id="95" name="base_animada_pulmons" type="anim_tile" x="3008" y="2048" width="64" height="64">
   <properties>
    <property name="Texture" value="base_animada_pulmons"/>
    <property name="Type" value="anim_tile"/>
   </properties>
  </object>
  <object id="97" name="base_animada_pulmons" type="anim_tile" x="3072" y="2048" width="64" height="64">
   <properties>
    <property name="Texture" value="base_animada_pulmons"/>
    <property name="Type" value="anim_tile"/>
   </properties>
  </object>
  <object id="99" name="base_animada_pulmons" type="anim_tile" x="3136" y="2048" width="64" height="64">
   <properties>
    <property name="Texture" value="base_animada_pulmons"/>
    <property name="Type" value="anim_tile"/>
   </properties>
  </object>
  <object id="101" name="base_animada_pulmons" type="anim_tile" x="3200" y="2048" width="64" height="64">
   <properties>
    <property name="Texture" value="base_animada_pulmons"/>
    <property name="Type" value="anim_tile"/>
   </properties>
  </object>
  <object id="103" name="base_animada_pulmons" type="anim_tile" x="3264" y="2048" width="64" height="64">
   <properties>
    <property name="Texture" value="base_animada_pulmons"/>
    <property name="Type" value="anim_tile"/>
   </properties>
  </object>
  <object id="105" name="base_animada_pulmons" type="anim_tile" x="3328" y="2048" width="64" height="64">
   <properties>
    <property name="Texture" value="base_animada_pulmons"/>
    <property name="Type" value="anim_tile"/>
   </properties>
  </object>
  <object id="107" name="base_animada_pulmons" type="anim_tile" x="3392" y="2048" width="64" height="64">
   <properties>
    <property name="Texture" value="base_animada_pulmons"/>
    <property name="Type" value="anim_tile"/>
   </properties>
  </object>
  <object id="109" name="base_animada_pulmons" type="anim_tile" x="3456" y="2048" width="64" height="64">
   <properties>
    <property name="Texture" value="base_animada_pulmons"/>
    <property name="Type" value="anim_tile"/>
   </properties>
  </object>
  <object id="111" name="base_animada_pulmons" type="anim_tile" x="3520" y="2048" width="64" height="64">
   <properties>
    <property name="Texture" value="base_animada_pulmons"/>
    <property name="Type" value="anim_tile"/>
   </properties>
  </object>
  <object id="113" name="base_animada_pulmons" type="anim_tile" x="3584" y="2048" width="64" height="64">
   <properties>
    <property name="Texture" value="base_animada_pulmons"/>
    <property name="Type" value="anim_tile"/>
   </properties>
  </object>
  <object id="115" name="base_animada_pulmons" type="anim_tile" x="3648" y="2048" width="64" height="64">
   <properties>
    <property name="Texture" value="base_animada_pulmons"/>
    <property name="Type" value="anim_tile"/>
   </properties>
  </object>
  <object id="117" name="base_animada_pulmons" type="anim_tile" x="3712" y="2048" width="64" height="64">
   <properties>
    <property name="Texture" value="base_animada_pulmons"/>
    <property name="Type" value="anim_tile"/>
   </properties>
  </object>
  <object id="119" name="base_animada_pulmons" type="anim_tile" x="3776" y="2048" width="64" height="64">
   <properties>
    <property name="Texture" value="base_animada_pulmons"/>
    <property name="Type" value="anim_tile"/>
   </properties>
  </object>
 </objectgroup>
</map>
