<?xml version="1.0" encoding="UTF-8"?>
<map version="1.10" tiledversion="1.11.2" orientation="orthogonal" renderorder="right-down" width="60" height="34" tilewidth="64" tileheight="64" infinite="0" nextlayerid="10" nextobjectid="95">
 <properties>
  <property name="Draw" type="bool" value="true"/>
 </properties>
 <tileset firstgid="1" name="atlas_2.4" tilewidth="64" tileheight="64" tilecount="256" columns="16">
  <image source="atlas_2.4.png" width="1024" height="1024"/>
 </tileset>
 <tileset firstgid="257" name="TileMetadata" tilewidth="64" tileheight="64" tilecount="2" columns="2">
  <image source="TileMetadata.png" width="128" height="64"/>
 </tileset>
 <tileset firstgid="259" source="../Textures/Backgrounds/Pulmones/Background Pulmones.tsx"/>
 <tileset firstgid="817" name="Background Pulmón1" tilewidth="64" tileheight="64" tilecount="558" columns="31">
  <image source="../Textures/Backgrounds/Pulmones/Background Pulmón1.png" width="2020" height="1180"/>
 </tileset>
 <tileset firstgid="1375" name="Middleground_Pulmon" tilewidth="3840" tileheight="2176" tilecount="1" columns="1">
  <image source="../Textures/Backgrounds/Pulmones/Middleground_Sala3.png" width="3840" height="2176"/>
 </tileset>
 <tileset firstgid="1376" name="atñas_2.6" tilewidth="64" tileheight="64" tilecount="256" columns="16">
  <image source="atñas_2.6.png" width="1024" height="1024"/>
 </tileset>
 <layer id="6" name="Background" width="60" height="34" parallaxx="1.1" parallaxy="1.1">
  <properties>
   <property name="Draw" type="bool" value="true"/>
  </properties>
  <data>
   <tile gid="817"/>
   <tile gid="818"/>
   <tile gid="819"/>
   <tile gid="820"/>
   <tile gid="821"/>
   <tile gid="822"/>
   <tile gid="823"/>
   <tile gid="824"/>
   <tile gid="825"/>
   <tile gid="826"/>
   <tile gid="827"/>
   <tile gid="828"/>
   <tile gid="829"/>
   <tile gid="830"/>
   <tile gid="831"/>
   <tile gid="832"/>
   <tile gid="833"/>
   <tile gid="834"/>
   <tile gid="835"/>
   <tile gid="836"/>
   <tile gid="837"/>
   <tile gid="838"/>
   <tile gid="839"/>
   <tile gid="840"/>
   <tile gid="841"/>
   <tile gid="842"/>
   <tile gid="843"/>
   <tile gid="844"/>
   <tile gid="845"/>
   <tile gid="846"/>
   <tile gid="847"/>
   <tile gid="817"/>
   <tile gid="818"/>
   <tile gid="819"/>
   <tile gid="820"/>
   <tile gid="821"/>
   <tile gid="822"/>
   <tile gid="823"/>
   <tile gid="824"/>
   <tile gid="825"/>
   <tile gid="826"/>
   <tile gid="827"/>
   <tile gid="828"/>
   <tile gid="829"/>
   <tile gid="830"/>
   <tile gid="831"/>
   <tile gid="832"/>
   <tile gid="833"/>
   <tile gid="834"/>
   <tile gid="835"/>
   <tile gid="836"/>
   <tile gid="837"/>
   <tile gid="838"/>
   <tile gid="839"/>
   <tile gid="840"/>
   <tile gid="841"/>
   <tile gid="842"/>
   <tile gid="843"/>
   <tile gid="844"/>
   <tile gid="845"/>
   <tile gid="848"/>
   <tile gid="849"/>
   <tile gid="850"/>
   <tile gid="851"/>
   <tile gid="852"/>
   <tile gid="853"/>
   <tile gid="854"/>
   <tile gid="855"/>
   <tile gid="856"/>
   <tile gid="857"/>
   <tile gid="858"/>
   <tile gid="859"/>
   <tile gid="860"/>
   <tile gid="861"/>
   <tile gid="862"/>
   <tile gid="863"/>
   <tile gid="864"/>
   <tile gid="865"/>
   <tile gid="866"/>
   <tile gid="867"/>
   <tile gid="868"/>
   <tile gid="869"/>
   <tile gid="870"/>
   <tile gid="871"/>
   <tile gid="872"/>
   <tile gid="873"/>
   <tile gid="874"/>
   <tile gid="875"/>
   <tile gid="876"/>
   <tile gid="877"/>
   <tile gid="878"/>
   <tile gid="848"/>
   <tile gid="849"/>
   <tile gid="850"/>
   <tile gid="851"/>
   <tile gid="852"/>
   <tile gid="853"/>
   <tile gid="854"/>
   <tile gid="855"/>
   <tile gid="856"/>
   <tile gid="857"/>
   <tile gid="858"/>
   <tile gid="859"/>
   <tile gid="860"/>
   <tile gid="861"/>
   <tile gid="862"/>
   <tile gid="863"/>
   <tile gid="864"/>
   <tile gid="865"/>
   <tile gid="866"/>
   <tile gid="867"/>
   <tile gid="868"/>
   <tile gid="869"/>
   <tile gid="870"/>
   <tile gid="871"/>
   <tile gid="872"/>
   <tile gid="873"/>
   <tile gid="874"/>
   <tile gid="875"/>
   <tile gid="876"/>
   <tile gid="879"/>
   <tile gid="880"/>
   <tile gid="881"/>
   <tile gid="882"/>
   <tile gid="883"/>
   <tile gid="884"/>
   <tile gid="885"/>
   <tile gid="886"/>
   <tile gid="887"/>
   <tile gid="888"/>
   <tile gid="889"/>
   <tile gid="890"/>
   <tile gid="891"/>
   <tile gid="892"/>
   <tile gid="893"/>
   <tile gid="894"/>
   <tile gid="895"/>
   <tile gid="896"/>
   <tile gid="897"/>
   <tile gid="898"/>
   <tile gid="899"/>
   <tile gid="900"/>
   <tile gid="901"/>
   <tile gid="902"/>
   <tile gid="903"/>
   <tile gid="904"/>
   <tile gid="905"/>
   <tile gid="906"/>
   <tile gid="907"/>
   <tile gid="908"/>
   <tile gid="909"/>
   <tile gid="879"/>
   <tile gid="880"/>
   <tile gid="881"/>
   <tile gid="882"/>
   <tile gid="883"/>
   <tile gid="884"/>
   <tile gid="885"/>
   <tile gid="886"/>
   <tile gid="887"/>
   <tile gid="888"/>
   <tile gid="889"/>
   <tile gid="890"/>
   <tile gid="891"/>
   <tile gid="892"/>
   <tile gid="893"/>
   <tile gid="894"/>
   <tile gid="895"/>
   <tile gid="896"/>
   <tile gid="897"/>
   <tile gid="898"/>
   <tile gid="899"/>
   <tile gid="900"/>
   <tile gid="901"/>
   <tile gid="902"/>
   <tile gid="903"/>
   <tile gid="904"/>
   <tile gid="905"/>
   <tile gid="906"/>
   <tile gid="907"/>
   <tile gid="910"/>
   <tile gid="911"/>
   <tile gid="912"/>
   <tile gid="913"/>
   <tile gid="914"/>
   <tile gid="915"/>
   <tile gid="916"/>
   <tile gid="917"/>
   <tile gid="918"/>
   <tile gid="919"/>
   <tile gid="920"/>
   <tile gid="921"/>
   <tile gid="922"/>
   <tile gid="923"/>
   <tile gid="924"/>
   <tile gid="925"/>
   <tile gid="926"/>
   <tile gid="927"/>
   <tile gid="928"/>
   <tile gid="929"/>
   <tile gid="930"/>
   <tile gid="931"/>
   <tile gid="932"/>
   <tile gid="933"/>
   <tile gid="934"/>
   <tile gid="935"/>
   <tile gid="936"/>
   <tile gid="937"/>
   <tile gid="938"/>
   <tile gid="939"/>
   <tile gid="940"/>
   <tile gid="910"/>
   <tile gid="911"/>
   <tile gid="912"/>
   <tile gid="913"/>
   <tile gid="914"/>
   <tile gid="915"/>
   <tile gid="916"/>
   <tile gid="917"/>
   <tile gid="918"/>
   <tile gid="919"/>
   <tile gid="920"/>
   <tile gid="921"/>
   <tile gid="922"/>
   <tile gid="923"/>
   <tile gid="924"/>
   <tile gid="925"/>
   <tile gid="926"/>
   <tile gid="927"/>
   <tile gid="928"/>
   <tile gid="929"/>
   <tile gid="930"/>
   <tile gid="931"/>
   <tile gid="932"/>
   <tile gid="933"/>
   <tile gid="934"/>
   <tile gid="935"/>
   <tile gid="936"/>
   <tile gid="937"/>
   <tile gid="938"/>
   <tile gid="941"/>
   <tile gid="942"/>
   <tile gid="943"/>
   <tile gid="944"/>
   <tile gid="945"/>
   <tile gid="946"/>
   <tile gid="947"/>
   <tile gid="948"/>
   <tile gid="949"/>
   <tile gid="950"/>
   <tile gid="951"/>
   <tile gid="952"/>
   <tile gid="953"/>
   <tile gid="954"/>
   <tile gid="955"/>
   <tile gid="956"/>
   <tile gid="957"/>
   <tile gid="958"/>
   <tile gid="959"/>
   <tile gid="960"/>
   <tile gid="961"/>
   <tile gid="962"/>
   <tile gid="963"/>
   <tile gid="964"/>
   <tile gid="965"/>
   <tile gid="966"/>
   <tile gid="967"/>
   <tile gid="968"/>
   <tile gid="969"/>
   <tile gid="970"/>
   <tile gid="971"/>
   <tile gid="941"/>
   <tile gid="942"/>
   <tile gid="943"/>
   <tile gid="944"/>
   <tile gid="945"/>
   <tile gid="946"/>
   <tile gid="947"/>
   <tile gid="948"/>
   <tile gid="949"/>
   <tile gid="950"/>
   <tile gid="951"/>
   <tile gid="952"/>
   <tile gid="953"/>
   <tile gid="954"/>
   <tile gid="955"/>
   <tile gid="956"/>
   <tile gid="957"/>
   <tile gid="958"/>
   <tile gid="959"/>
   <tile gid="960"/>
   <tile gid="961"/>
   <tile gid="962"/>
   <tile gid="963"/>
   <tile gid="964"/>
   <tile gid="965"/>
   <tile gid="966"/>
   <tile gid="967"/>
   <tile gid="968"/>
   <tile gid="969"/>
   <tile gid="972"/>
   <tile gid="973"/>
   <tile gid="974"/>
   <tile gid="975"/>
   <tile gid="976"/>
   <tile gid="977"/>
   <tile gid="978"/>
   <tile gid="979"/>
   <tile gid="980"/>
   <tile gid="981"/>
   <tile gid="982"/>
   <tile gid="983"/>
   <tile gid="984"/>
   <tile gid="985"/>
   <tile gid="986"/>
   <tile gid="987"/>
   <tile gid="988"/>
   <tile gid="989"/>
   <tile gid="990"/>
   <tile gid="991"/>
   <tile gid="992"/>
   <tile gid="993"/>
   <tile gid="994"/>
   <tile gid="995"/>
   <tile gid="996"/>
   <tile gid="997"/>
   <tile gid="998"/>
   <tile gid="999"/>
   <tile gid="1000"/>
   <tile gid="1001"/>
   <tile gid="1002"/>
   <tile gid="972"/>
   <tile gid="973"/>
   <tile gid="974"/>
   <tile gid="975"/>
   <tile gid="976"/>
   <tile gid="977"/>
   <tile gid="978"/>
   <tile gid="979"/>
   <tile gid="980"/>
   <tile gid="981"/>
   <tile gid="982"/>
   <tile gid="983"/>
   <tile gid="984"/>
   <tile gid="985"/>
   <tile gid="986"/>
   <tile gid="987"/>
   <tile gid="988"/>
   <tile gid="989"/>
   <tile gid="990"/>
   <tile gid="991"/>
   <tile gid="992"/>
   <tile gid="993"/>
   <tile gid="994"/>
   <tile gid="995"/>
   <tile gid="996"/>
   <tile gid="997"/>
   <tile gid="998"/>
   <tile gid="999"/>
   <tile gid="1000"/>
   <tile gid="1003"/>
   <tile gid="1004"/>
   <tile gid="1005"/>
   <tile gid="1006"/>
   <tile gid="1007"/>
   <tile gid="1008"/>
   <tile gid="1009"/>
   <tile gid="1010"/>
   <tile gid="1011"/>
   <tile gid="1012"/>
   <tile gid="1013"/>
   <tile gid="1014"/>
   <tile gid="1015"/>
   <tile gid="1016"/>
   <tile gid="1017"/>
   <tile gid="1018"/>
   <tile gid="1019"/>
   <tile gid="1020"/>
   <tile gid="1021"/>
   <tile gid="1022"/>
   <tile gid="1023"/>
   <tile gid="1024"/>
   <tile gid="1025"/>
   <tile gid="1026"/>
   <tile gid="1027"/>
   <tile gid="1028"/>
   <tile gid="1029"/>
   <tile gid="1030"/>
   <tile gid="1031"/>
   <tile gid="1032"/>
   <tile gid="1033"/>
   <tile gid="1003"/>
   <tile gid="1004"/>
   <tile gid="1005"/>
   <tile gid="1006"/>
   <tile gid="1007"/>
   <tile gid="1008"/>
   <tile gid="1009"/>
   <tile gid="1010"/>
   <tile gid="1011"/>
   <tile gid="1012"/>
   <tile gid="1013"/>
   <tile gid="1014"/>
   <tile gid="1015"/>
   <tile gid="1016"/>
   <tile gid="1017"/>
   <tile gid="1018"/>
   <tile gid="1019"/>
   <tile gid="1020"/>
   <tile gid="1021"/>
   <tile gid="1022"/>
   <tile gid="1023"/>
   <tile gid="1024"/>
   <tile gid="1025"/>
   <tile gid="1026"/>
   <tile gid="1027"/>
   <tile gid="1028"/>
   <tile gid="1029"/>
   <tile gid="1030"/>
   <tile gid="1031"/>
   <tile gid="1034"/>
   <tile gid="1035"/>
   <tile gid="1036"/>
   <tile gid="1037"/>
   <tile gid="1038"/>
   <tile gid="1039"/>
   <tile gid="1040"/>
   <tile gid="1041"/>
   <tile gid="1042"/>
   <tile gid="1043"/>
   <tile gid="1044"/>
   <tile gid="1045"/>
   <tile gid="1046"/>
   <tile gid="1047"/>
   <tile gid="1048"/>
   <tile gid="1049"/>
   <tile gid="1050"/>
   <tile gid="1051"/>
   <tile gid="1052"/>
   <tile gid="1053"/>
   <tile gid="1054"/>
   <tile gid="1055"/>
   <tile gid="1056"/>
   <tile gid="1057"/>
   <tile gid="1058"/>
   <tile gid="1059"/>
   <tile gid="1060"/>
   <tile gid="1061"/>
   <tile gid="1062"/>
   <tile gid="1063"/>
   <tile gid="1064"/>
   <tile gid="1034"/>
   <tile gid="1035"/>
   <tile gid="1036"/>
   <tile gid="1037"/>
   <tile gid="1038"/>
   <tile gid="1039"/>
   <tile gid="1040"/>
   <tile gid="1041"/>
   <tile gid="1042"/>
   <tile gid="1043"/>
   <tile gid="1044"/>
   <tile gid="1045"/>
   <tile gid="1046"/>
   <tile gid="1047"/>
   <tile gid="1048"/>
   <tile gid="1049"/>
   <tile gid="1050"/>
   <tile gid="1051"/>
   <tile gid="1052"/>
   <tile gid="1053"/>
   <tile gid="1054"/>
   <tile gid="1055"/>
   <tile gid="1056"/>
   <tile gid="1057"/>
   <tile gid="1058"/>
   <tile gid="1059"/>
   <tile gid="1060"/>
   <tile gid="1061"/>
   <tile gid="1062"/>
   <tile gid="1065"/>
   <tile gid="1066"/>
   <tile gid="1067"/>
   <tile gid="1068"/>
   <tile gid="1069"/>
   <tile gid="1070"/>
   <tile gid="1071"/>
   <tile gid="1072"/>
   <tile gid="1073"/>
   <tile gid="1074"/>
   <tile gid="1075"/>
   <tile gid="1076"/>
   <tile gid="1077"/>
   <tile gid="1078"/>
   <tile gid="1079"/>
   <tile gid="1080"/>
   <tile gid="1081"/>
   <tile gid="1082"/>
   <tile gid="1083"/>
   <tile gid="1084"/>
   <tile gid="1085"/>
   <tile gid="1086"/>
   <tile gid="1087"/>
   <tile gid="1088"/>
   <tile gid="1089"/>
   <tile gid="1090"/>
   <tile gid="1091"/>
   <tile gid="1092"/>
   <tile gid="1093"/>
   <tile gid="1094"/>
   <tile gid="1095"/>
   <tile gid="1065"/>
   <tile gid="1066"/>
   <tile gid="1067"/>
   <tile gid="1068"/>
   <tile gid="1069"/>
   <tile gid="1070"/>
   <tile gid="1071"/>
   <tile gid="1072"/>
   <tile gid="1073"/>
   <tile gid="1074"/>
   <tile gid="1075"/>
   <tile gid="1076"/>
   <tile gid="1077"/>
   <tile gid="1078"/>
   <tile gid="1079"/>
   <tile gid="1080"/>
   <tile gid="1081"/>
   <tile gid="1082"/>
   <tile gid="1083"/>
   <tile gid="1084"/>
   <tile gid="1085"/>
   <tile gid="1086"/>
   <tile gid="1087"/>
   <tile gid="1088"/>
   <tile gid="1089"/>
   <tile gid="1090"/>
   <tile gid="1091"/>
   <tile gid="1092"/>
   <tile gid="1093"/>
   <tile gid="1096"/>
   <tile gid="1097"/>
   <tile gid="1098"/>
   <tile gid="1099"/>
   <tile gid="1100"/>
   <tile gid="1101"/>
   <tile gid="1102"/>
   <tile gid="1103"/>
   <tile gid="1104"/>
   <tile gid="1105"/>
   <tile gid="1106"/>
   <tile gid="1107"/>
   <tile gid="1108"/>
   <tile gid="1109"/>
   <tile gid="1110"/>
   <tile gid="1111"/>
   <tile gid="1112"/>
   <tile gid="1113"/>
   <tile gid="1114"/>
   <tile gid="1115"/>
   <tile gid="1116"/>
   <tile gid="1117"/>
   <tile gid="1118"/>
   <tile gid="1119"/>
   <tile gid="1120"/>
   <tile gid="1121"/>
   <tile gid="1122"/>
   <tile gid="1123"/>
   <tile gid="1124"/>
   <tile gid="1125"/>
   <tile gid="1126"/>
   <tile gid="1096"/>
   <tile gid="1097"/>
   <tile gid="1098"/>
   <tile gid="1099"/>
   <tile gid="1100"/>
   <tile gid="1101"/>
   <tile gid="1102"/>
   <tile gid="1103"/>
   <tile gid="1104"/>
   <tile gid="1105"/>
   <tile gid="1106"/>
   <tile gid="1107"/>
   <tile gid="1108"/>
   <tile gid="1109"/>
   <tile gid="1110"/>
   <tile gid="1111"/>
   <tile gid="1112"/>
   <tile gid="1113"/>
   <tile gid="1114"/>
   <tile gid="1115"/>
   <tile gid="1116"/>
   <tile gid="1117"/>
   <tile gid="1118"/>
   <tile gid="1119"/>
   <tile gid="1120"/>
   <tile gid="1121"/>
   <tile gid="1122"/>
   <tile gid="1123"/>
   <tile gid="1124"/>
   <tile gid="1127"/>
   <tile gid="1128"/>
   <tile gid="1129"/>
   <tile gid="1130"/>
   <tile gid="1131"/>
   <tile gid="1132"/>
   <tile gid="1133"/>
   <tile gid="1134"/>
   <tile gid="1135"/>
   <tile gid="1136"/>
   <tile gid="1137"/>
   <tile gid="1138"/>
   <tile gid="1139"/>
   <tile gid="1140"/>
   <tile gid="1141"/>
   <tile gid="1142"/>
   <tile gid="1143"/>
   <tile gid="1144"/>
   <tile gid="1145"/>
   <tile gid="1146"/>
   <tile gid="1147"/>
   <tile gid="1148"/>
   <tile gid="1149"/>
   <tile gid="1150"/>
   <tile gid="1151"/>
   <tile gid="1152"/>
   <tile gid="1153"/>
   <tile gid="1154"/>
   <tile gid="1155"/>
   <tile gid="1156"/>
   <tile gid="1157"/>
   <tile gid="1127"/>
   <tile gid="1128"/>
   <tile gid="1129"/>
   <tile gid="1130"/>
   <tile gid="1131"/>
   <tile gid="1132"/>
   <tile gid="1133"/>
   <tile gid="1134"/>
   <tile gid="1135"/>
   <tile gid="1136"/>
   <tile gid="1137"/>
   <tile gid="1138"/>
   <tile gid="1139"/>
   <tile gid="1140"/>
   <tile gid="1141"/>
   <tile gid="1142"/>
   <tile gid="1143"/>
   <tile gid="1144"/>
   <tile gid="1145"/>
   <tile gid="1146"/>
   <tile gid="1147"/>
   <tile gid="1148"/>
   <tile gid="1149"/>
   <tile gid="1150"/>
   <tile gid="1151"/>
   <tile gid="1152"/>
   <tile gid="1153"/>
   <tile gid="1154"/>
   <tile gid="1155"/>
   <tile gid="1158"/>
   <tile gid="1159"/>
   <tile gid="1160"/>
   <tile gid="1161"/>
   <tile gid="1162"/>
   <tile gid="1163"/>
   <tile gid="1164"/>
   <tile gid="1165"/>
   <tile gid="1166"/>
   <tile gid="1167"/>
   <tile gid="1168"/>
   <tile gid="1169"/>
   <tile gid="1170"/>
   <tile gid="1171"/>
   <tile gid="1172"/>
   <tile gid="1173"/>
   <tile gid="1174"/>
   <tile gid="1175"/>
   <tile gid="1176"/>
   <tile gid="1177"/>
   <tile gid="1178"/>
   <tile gid="1179"/>
   <tile gid="1180"/>
   <tile gid="1181"/>
   <tile gid="1182"/>
   <tile gid="1183"/>
   <tile gid="1184"/>
   <tile gid="1185"/>
   <tile gid="1186"/>
   <tile gid="1187"/>
   <tile gid="1188"/>
   <tile gid="1158"/>
   <tile gid="1159"/>
   <tile gid="1160"/>
   <tile gid="1161"/>
   <tile gid="1162"/>
   <tile gid="1163"/>
   <tile gid="1164"/>
   <tile gid="1165"/>
   <tile gid="1166"/>
   <tile gid="1167"/>
   <tile gid="1168"/>
   <tile gid="1169"/>
   <tile gid="1170"/>
   <tile gid="1171"/>
   <tile gid="1172"/>
   <tile gid="1173"/>
   <tile gid="1174"/>
   <tile gid="1175"/>
   <tile gid="1176"/>
   <tile gid="1177"/>
   <tile gid="1178"/>
   <tile gid="1179"/>
   <tile gid="1180"/>
   <tile gid="1181"/>
   <tile gid="1182"/>
   <tile gid="1183"/>
   <tile gid="1184"/>
   <tile gid="1185"/>
   <tile gid="1186"/>
   <tile gid="1189"/>
   <tile gid="1190"/>
   <tile gid="1191"/>
   <tile gid="1192"/>
   <tile gid="1193"/>
   <tile gid="1194"/>
   <tile gid="1195"/>
   <tile gid="1196"/>
   <tile gid="1197"/>
   <tile gid="1198"/>
   <tile gid="1199"/>
   <tile gid="1200"/>
   <tile gid="1201"/>
   <tile gid="1202"/>
   <tile gid="1203"/>
   <tile gid="1204"/>
   <tile gid="1205"/>
   <tile gid="1206"/>
   <tile gid="1207"/>
   <tile gid="1208"/>
   <tile gid="1209"/>
   <tile gid="1210"/>
   <tile gid="1211"/>
   <tile gid="1212"/>
   <tile gid="1213"/>
   <tile gid="1214"/>
   <tile gid="1215"/>
   <tile gid="1216"/>
   <tile gid="1217"/>
   <tile gid="1218"/>
   <tile gid="1219"/>
   <tile gid="1189"/>
   <tile gid="1190"/>
   <tile gid="1191"/>
   <tile gid="1192"/>
   <tile gid="1193"/>
   <tile gid="1194"/>
   <tile gid="1195"/>
   <tile gid="1196"/>
   <tile gid="1197"/>
   <tile gid="1198"/>
   <tile gid="1199"/>
   <tile gid="1200"/>
   <tile gid="1201"/>
   <tile gid="1202"/>
   <tile gid="1203"/>
   <tile gid="1204"/>
   <tile gid="1205"/>
   <tile gid="1206"/>
   <tile gid="1207"/>
   <tile gid="1208"/>
   <tile gid="1209"/>
   <tile gid="1210"/>
   <tile gid="1211"/>
   <tile gid="1212"/>
   <tile gid="1213"/>
   <tile gid="1214"/>
   <tile gid="1215"/>
   <tile gid="1216"/>
   <tile gid="1217"/>
   <tile gid="1220"/>
   <tile gid="1221"/>
   <tile gid="1222"/>
   <tile gid="1223"/>
   <tile gid="1224"/>
   <tile gid="1225"/>
   <tile gid="1226"/>
   <tile gid="1227"/>
   <tile gid="1228"/>
   <tile gid="1229"/>
   <tile gid="1230"/>
   <tile gid="1231"/>
   <tile gid="1232"/>
   <tile gid="1233"/>
   <tile gid="1234"/>
   <tile gid="1235"/>
   <tile gid="1236"/>
   <tile gid="1237"/>
   <tile gid="1238"/>
   <tile gid="1239"/>
   <tile gid="1240"/>
   <tile gid="1241"/>
   <tile gid="1242"/>
   <tile gid="1243"/>
   <tile gid="1244"/>
   <tile gid="1245"/>
   <tile gid="1246"/>
   <tile gid="1247"/>
   <tile gid="1248"/>
   <tile gid="1249"/>
   <tile gid="1250"/>
   <tile gid="1220"/>
   <tile gid="1221"/>
   <tile gid="1222"/>
   <tile gid="1223"/>
   <tile gid="1224"/>
   <tile gid="1225"/>
   <tile gid="1226"/>
   <tile gid="1227"/>
   <tile gid="1228"/>
   <tile gid="1229"/>
   <tile gid="1230"/>
   <tile gid="1231"/>
   <tile gid="1232"/>
   <tile gid="1233"/>
   <tile gid="1234"/>
   <tile gid="1235"/>
   <tile gid="1236"/>
   <tile gid="1237"/>
   <tile gid="1238"/>
   <tile gid="1239"/>
   <tile gid="1240"/>
   <tile gid="1241"/>
   <tile gid="1242"/>
   <tile gid="1243"/>
   <tile gid="1244"/>
   <tile gid="1245"/>
   <tile gid="1246"/>
   <tile gid="1247"/>
   <tile gid="1248"/>
   <tile gid="1251"/>
   <tile gid="1252"/>
   <tile gid="1253"/>
   <tile gid="1254"/>
   <tile gid="1255"/>
   <tile gid="1256"/>
   <tile gid="1257"/>
   <tile gid="1258"/>
   <tile gid="1259"/>
   <tile gid="1260"/>
   <tile gid="1261"/>
   <tile gid="1262"/>
   <tile gid="1263"/>
   <tile gid="1264"/>
   <tile gid="1265"/>
   <tile gid="1266"/>
   <tile gid="1267"/>
   <tile gid="1268"/>
   <tile gid="1269"/>
   <tile gid="1270"/>
   <tile gid="1271"/>
   <tile gid="1272"/>
   <tile gid="1273"/>
   <tile gid="1274"/>
   <tile gid="1275"/>
   <tile gid="1276"/>
   <tile gid="1277"/>
   <tile gid="1278"/>
   <tile gid="1279"/>
   <tile gid="1280"/>
   <tile gid="1281"/>
   <tile gid="1251"/>
   <tile gid="1252"/>
   <tile gid="1253"/>
   <tile gid="1254"/>
   <tile gid="1255"/>
   <tile gid="1256"/>
   <tile gid="1257"/>
   <tile gid="1258"/>
   <tile gid="1259"/>
   <tile gid="1260"/>
   <tile gid="1261"/>
   <tile gid="1262"/>
   <tile gid="1263"/>
   <tile gid="1264"/>
   <tile gid="1265"/>
   <tile gid="1266"/>
   <tile gid="1267"/>
   <tile gid="1268"/>
   <tile gid="1269"/>
   <tile gid="1270"/>
   <tile gid="1271"/>
   <tile gid="1272"/>
   <tile gid="1273"/>
   <tile gid="1274"/>
   <tile gid="1275"/>
   <tile gid="1276"/>
   <tile gid="1277"/>
   <tile gid="1278"/>
   <tile gid="1279"/>
   <tile gid="1282"/>
   <tile gid="1283"/>
   <tile gid="1284"/>
   <tile gid="1285"/>
   <tile gid="1286"/>
   <tile gid="1287"/>
   <tile gid="1288"/>
   <tile gid="1289"/>
   <tile gid="1290"/>
   <tile gid="1291"/>
   <tile gid="1292"/>
   <tile gid="1293"/>
   <tile gid="1294"/>
   <tile gid="1295"/>
   <tile gid="1296"/>
   <tile gid="1297"/>
   <tile gid="1298"/>
   <tile gid="1299"/>
   <tile gid="1300"/>
   <tile gid="1301"/>
   <tile gid="1302"/>
   <tile gid="1303"/>
   <tile gid="1304"/>
   <tile gid="1305"/>
   <tile gid="1306"/>
   <tile gid="1307"/>
   <tile gid="1308"/>
   <tile gid="1309"/>
   <tile gid="1310"/>
   <tile gid="1311"/>
   <tile gid="1312"/>
   <tile gid="1282"/>
   <tile gid="1283"/>
   <tile gid="1284"/>
   <tile gid="1285"/>
   <tile gid="1286"/>
   <tile gid="1287"/>
   <tile gid="1288"/>
   <tile gid="1289"/>
   <tile gid="1290"/>
   <tile gid="1291"/>
   <tile gid="1292"/>
   <tile gid="1293"/>
   <tile gid="1294"/>
   <tile gid="1295"/>
   <tile gid="1296"/>
   <tile gid="1297"/>
   <tile gid="1298"/>
   <tile gid="1299"/>
   <tile gid="1300"/>
   <tile gid="1301"/>
   <tile gid="1302"/>
   <tile gid="1303"/>
   <tile gid="1304"/>
   <tile gid="1305"/>
   <tile gid="1306"/>
   <tile gid="1307"/>
   <tile gid="1308"/>
   <tile gid="1309"/>
   <tile gid="1310"/>
   <tile gid="1313"/>
   <tile gid="1314"/>
   <tile gid="1315"/>
   <tile gid="1316"/>
   <tile gid="1317"/>
   <tile gid="1318"/>
   <tile gid="1319"/>
   <tile gid="1320"/>
   <tile gid="1321"/>
   <tile gid="1322"/>
   <tile gid="1323"/>
   <tile gid="1324"/>
   <tile gid="1325"/>
   <tile gid="1326"/>
   <tile gid="1327"/>
   <tile gid="1328"/>
   <tile gid="1329"/>
   <tile gid="1330"/>
   <tile gid="1331"/>
   <tile gid="1332"/>
   <tile gid="1333"/>
   <tile gid="1334"/>
   <tile gid="1335"/>
   <tile gid="1336"/>
   <tile gid="1337"/>
   <tile gid="1338"/>
   <tile gid="1339"/>
   <tile gid="1340"/>
   <tile gid="1341"/>
   <tile gid="1342"/>
   <tile gid="1343"/>
   <tile gid="1313"/>
   <tile gid="1314"/>
   <tile gid="1315"/>
   <tile gid="1316"/>
   <tile gid="1317"/>
   <tile gid="1318"/>
   <tile gid="1319"/>
   <tile gid="1320"/>
   <tile gid="1321"/>
   <tile gid="1322"/>
   <tile gid="1323"/>
   <tile gid="1324"/>
   <tile gid="1325"/>
   <tile gid="1326"/>
   <tile gid="1327"/>
   <tile gid="1328"/>
   <tile gid="1329"/>
   <tile gid="1330"/>
   <tile gid="1331"/>
   <tile gid="1332"/>
   <tile gid="1333"/>
   <tile gid="1334"/>
   <tile gid="1335"/>
   <tile gid="1336"/>
   <tile gid="1337"/>
   <tile gid="1338"/>
   <tile gid="1339"/>
   <tile gid="1340"/>
   <tile gid="1341"/>
   <tile gid="1344"/>
   <tile gid="1345"/>
   <tile gid="1346"/>
   <tile gid="1347"/>
   <tile gid="1348"/>
   <tile gid="1349"/>
   <tile gid="1350"/>
   <tile gid="1351"/>
   <tile gid="1352"/>
   <tile gid="1353"/>
   <tile gid="1354"/>
   <tile gid="1355"/>
   <tile gid="1356"/>
   <tile gid="1357"/>
   <tile gid="1358"/>
   <tile gid="1359"/>
   <tile gid="1360"/>
   <tile gid="1361"/>
   <tile gid="1362"/>
   <tile gid="1363"/>
   <tile gid="1364"/>
   <tile gid="1365"/>
   <tile gid="1366"/>
   <tile gid="1367"/>
   <tile gid="1368"/>
   <tile gid="1369"/>
   <tile gid="1370"/>
   <tile gid="1371"/>
   <tile gid="1372"/>
   <tile gid="1373"/>
   <tile gid="1374"/>
   <tile gid="1344"/>
   <tile gid="1345"/>
   <tile gid="1346"/>
   <tile gid="1347"/>
   <tile gid="1348"/>
   <tile gid="1349"/>
   <tile gid="1350"/>
   <tile gid="1351"/>
   <tile gid="1352"/>
   <tile gid="1353"/>
   <tile gid="1354"/>
   <tile gid="1355"/>
   <tile gid="1356"/>
   <tile gid="1357"/>
   <tile gid="1358"/>
   <tile gid="1359"/>
   <tile gid="1360"/>
   <tile gid="1361"/>
   <tile gid="1362"/>
   <tile gid="1363"/>
   <tile gid="1364"/>
   <tile gid="1365"/>
   <tile gid="1366"/>
   <tile gid="1367"/>
   <tile gid="1368"/>
   <tile gid="1369"/>
   <tile gid="1370"/>
   <tile gid="1371"/>
   <tile gid="1372"/>
   <tile gid="817"/>
   <tile gid="818"/>
   <tile gid="819"/>
   <tile gid="820"/>
   <tile gid="821"/>
   <tile gid="822"/>
   <tile gid="823"/>
   <tile gid="824"/>
   <tile gid="825"/>
   <tile gid="826"/>
   <tile gid="827"/>
   <tile gid="828"/>
   <tile gid="829"/>
   <tile gid="830"/>
   <tile gid="831"/>
   <tile gid="832"/>
   <tile gid="833"/>
   <tile gid="834"/>
   <tile gid="835"/>
   <tile gid="836"/>
   <tile gid="837"/>
   <tile gid="838"/>
   <tile gid="839"/>
   <tile gid="840"/>
   <tile gid="841"/>
   <tile gid="842"/>
   <tile gid="843"/>
   <tile gid="844"/>
   <tile gid="845"/>
   <tile gid="846"/>
   <tile gid="847"/>
   <tile gid="817"/>
   <tile gid="818"/>
   <tile gid="819"/>
   <tile gid="820"/>
   <tile gid="821"/>
   <tile gid="822"/>
   <tile gid="823"/>
   <tile gid="824"/>
   <tile gid="825"/>
   <tile gid="826"/>
   <tile gid="827"/>
   <tile gid="828"/>
   <tile gid="829"/>
   <tile gid="830"/>
   <tile gid="831"/>
   <tile gid="832"/>
   <tile gid="833"/>
   <tile gid="834"/>
   <tile gid="835"/>
   <tile gid="836"/>
   <tile gid="837"/>
   <tile gid="838"/>
   <tile gid="839"/>
   <tile gid="840"/>
   <tile gid="841"/>
   <tile gid="842"/>
   <tile gid="843"/>
   <tile gid="844"/>
   <tile gid="845"/>
   <tile gid="848"/>
   <tile gid="849"/>
   <tile gid="850"/>
   <tile gid="851"/>
   <tile gid="852"/>
   <tile gid="853"/>
   <tile gid="854"/>
   <tile gid="855"/>
   <tile gid="856"/>
   <tile gid="857"/>
   <tile gid="858"/>
   <tile gid="859"/>
   <tile gid="860"/>
   <tile gid="861"/>
   <tile gid="862"/>
   <tile gid="863"/>
   <tile gid="864"/>
   <tile gid="865"/>
   <tile gid="866"/>
   <tile gid="867"/>
   <tile gid="868"/>
   <tile gid="869"/>
   <tile gid="870"/>
   <tile gid="871"/>
   <tile gid="872"/>
   <tile gid="873"/>
   <tile gid="874"/>
   <tile gid="875"/>
   <tile gid="876"/>
   <tile gid="877"/>
   <tile gid="878"/>
   <tile gid="848"/>
   <tile gid="849"/>
   <tile gid="850"/>
   <tile gid="851"/>
   <tile gid="852"/>
   <tile gid="853"/>
   <tile gid="854"/>
   <tile gid="855"/>
   <tile gid="856"/>
   <tile gid="857"/>
   <tile gid="858"/>
   <tile gid="859"/>
   <tile gid="860"/>
   <tile gid="861"/>
   <tile gid="862"/>
   <tile gid="863"/>
   <tile gid="864"/>
   <tile gid="865"/>
   <tile gid="866"/>
   <tile gid="867"/>
   <tile gid="868"/>
   <tile gid="869"/>
   <tile gid="870"/>
   <tile gid="871"/>
   <tile gid="872"/>
   <tile gid="873"/>
   <tile gid="874"/>
   <tile gid="875"/>
   <tile gid="876"/>
   <tile gid="879"/>
   <tile gid="880"/>
   <tile gid="881"/>
   <tile gid="882"/>
   <tile gid="883"/>
   <tile gid="884"/>
   <tile gid="885"/>
   <tile gid="886"/>
   <tile gid="887"/>
   <tile gid="888"/>
   <tile gid="889"/>
   <tile gid="890"/>
   <tile gid="891"/>
   <tile gid="892"/>
   <tile gid="893"/>
   <tile gid="894"/>
   <tile gid="895"/>
   <tile gid="896"/>
   <tile gid="897"/>
   <tile gid="898"/>
   <tile gid="899"/>
   <tile gid="900"/>
   <tile gid="901"/>
   <tile gid="902"/>
   <tile gid="903"/>
   <tile gid="904"/>
   <tile gid="905"/>
   <tile gid="906"/>
   <tile gid="907"/>
   <tile gid="908"/>
   <tile gid="909"/>
   <tile gid="879"/>
   <tile gid="880"/>
   <tile gid="881"/>
   <tile gid="882"/>
   <tile gid="883"/>
   <tile gid="884"/>
   <tile gid="885"/>
   <tile gid="886"/>
   <tile gid="887"/>
   <tile gid="888"/>
   <tile gid="889"/>
   <tile gid="890"/>
   <tile gid="891"/>
   <tile gid="892"/>
   <tile gid="893"/>
   <tile gid="894"/>
   <tile gid="895"/>
   <tile gid="896"/>
   <tile gid="897"/>
   <tile gid="898"/>
   <tile gid="899"/>
   <tile gid="900"/>
   <tile gid="901"/>
   <tile gid="902"/>
   <tile gid="903"/>
   <tile gid="904"/>
   <tile gid="905"/>
   <tile gid="906"/>
   <tile gid="907"/>
   <tile gid="910"/>
   <tile gid="911"/>
   <tile gid="912"/>
   <tile gid="913"/>
   <tile gid="914"/>
   <tile gid="915"/>
   <tile gid="916"/>
   <tile gid="917"/>
   <tile gid="918"/>
   <tile gid="919"/>
   <tile gid="920"/>
   <tile gid="921"/>
   <tile gid="922"/>
   <tile gid="923"/>
   <tile gid="924"/>
   <tile gid="925"/>
   <tile gid="926"/>
   <tile gid="927"/>
   <tile gid="928"/>
   <tile gid="929"/>
   <tile gid="930"/>
   <tile gid="931"/>
   <tile gid="932"/>
   <tile gid="933"/>
   <tile gid="934"/>
   <tile gid="935"/>
   <tile gid="936"/>
   <tile gid="937"/>
   <tile gid="938"/>
   <tile gid="939"/>
   <tile gid="940"/>
   <tile gid="910"/>
   <tile gid="911"/>
   <tile gid="912"/>
   <tile gid="913"/>
   <tile gid="914"/>
   <tile gid="915"/>
   <tile gid="916"/>
   <tile gid="917"/>
   <tile gid="918"/>
   <tile gid="919"/>
   <tile gid="920"/>
   <tile gid="921"/>
   <tile gid="922"/>
   <tile gid="923"/>
   <tile gid="924"/>
   <tile gid="925"/>
   <tile gid="926"/>
   <tile gid="927"/>
   <tile gid="928"/>
   <tile gid="929"/>
   <tile gid="930"/>
   <tile gid="931"/>
   <tile gid="932"/>
   <tile gid="933"/>
   <tile gid="934"/>
   <tile gid="935"/>
   <tile gid="936"/>
   <tile gid="937"/>
   <tile gid="938"/>
   <tile gid="941"/>
   <tile gid="942"/>
   <tile gid="943"/>
   <tile gid="944"/>
   <tile gid="945"/>
   <tile gid="946"/>
   <tile gid="947"/>
   <tile gid="948"/>
   <tile gid="949"/>
   <tile gid="950"/>
   <tile gid="951"/>
   <tile gid="952"/>
   <tile gid="953"/>
   <tile gid="954"/>
   <tile gid="955"/>
   <tile gid="956"/>
   <tile gid="957"/>
   <tile gid="958"/>
   <tile gid="959"/>
   <tile gid="960"/>
   <tile gid="961"/>
   <tile gid="962"/>
   <tile gid="963"/>
   <tile gid="964"/>
   <tile gid="965"/>
   <tile gid="966"/>
   <tile gid="967"/>
   <tile gid="968"/>
   <tile gid="969"/>
   <tile gid="970"/>
   <tile gid="971"/>
   <tile gid="941"/>
   <tile gid="942"/>
   <tile gid="943"/>
   <tile gid="944"/>
   <tile gid="945"/>
   <tile gid="946"/>
   <tile gid="947"/>
   <tile gid="948"/>
   <tile gid="949"/>
   <tile gid="950"/>
   <tile gid="951"/>
   <tile gid="952"/>
   <tile gid="953"/>
   <tile gid="954"/>
   <tile gid="955"/>
   <tile gid="956"/>
   <tile gid="957"/>
   <tile gid="958"/>
   <tile gid="959"/>
   <tile gid="960"/>
   <tile gid="961"/>
   <tile gid="962"/>
   <tile gid="963"/>
   <tile gid="964"/>
   <tile gid="965"/>
   <tile gid="966"/>
   <tile gid="967"/>
   <tile gid="968"/>
   <tile gid="969"/>
   <tile gid="972"/>
   <tile gid="973"/>
   <tile gid="974"/>
   <tile gid="975"/>
   <tile gid="976"/>
   <tile gid="977"/>
   <tile gid="978"/>
   <tile gid="979"/>
   <tile gid="980"/>
   <tile gid="981"/>
   <tile gid="982"/>
   <tile gid="983"/>
   <tile gid="984"/>
   <tile gid="985"/>
   <tile gid="986"/>
   <tile gid="987"/>
   <tile gid="988"/>
   <tile gid="989"/>
   <tile gid="990"/>
   <tile gid="991"/>
   <tile gid="992"/>
   <tile gid="993"/>
   <tile gid="994"/>
   <tile gid="995"/>
   <tile gid="996"/>
   <tile gid="997"/>
   <tile gid="998"/>
   <tile gid="999"/>
   <tile gid="1000"/>
   <tile gid="1001"/>
   <tile gid="1002"/>
   <tile gid="972"/>
   <tile gid="973"/>
   <tile gid="974"/>
   <tile gid="975"/>
   <tile gid="976"/>
   <tile gid="977"/>
   <tile gid="978"/>
   <tile gid="979"/>
   <tile gid="980"/>
   <tile gid="981"/>
   <tile gid="982"/>
   <tile gid="983"/>
   <tile gid="984"/>
   <tile gid="985"/>
   <tile gid="986"/>
   <tile gid="987"/>
   <tile gid="988"/>
   <tile gid="989"/>
   <tile gid="990"/>
   <tile gid="991"/>
   <tile gid="992"/>
   <tile gid="993"/>
   <tile gid="994"/>
   <tile gid="995"/>
   <tile gid="996"/>
   <tile gid="997"/>
   <tile gid="998"/>
   <tile gid="999"/>
   <tile gid="1000"/>
   <tile gid="1003"/>
   <tile gid="1004"/>
   <tile gid="1005"/>
   <tile gid="1006"/>
   <tile gid="1007"/>
   <tile gid="1008"/>
   <tile gid="1009"/>
   <tile gid="1010"/>
   <tile gid="1011"/>
   <tile gid="1012"/>
   <tile gid="1013"/>
   <tile gid="1014"/>
   <tile gid="1015"/>
   <tile gid="1016"/>
   <tile gid="1017"/>
   <tile gid="1018"/>
   <tile gid="1019"/>
   <tile gid="1020"/>
   <tile gid="1021"/>
   <tile gid="1022"/>
   <tile gid="1023"/>
   <tile gid="1024"/>
   <tile gid="1025"/>
   <tile gid="1026"/>
   <tile gid="1027"/>
   <tile gid="1028"/>
   <tile gid="1029"/>
   <tile gid="1030"/>
   <tile gid="1031"/>
   <tile gid="1032"/>
   <tile gid="1033"/>
   <tile gid="1003"/>
   <tile gid="1004"/>
   <tile gid="1005"/>
   <tile gid="1006"/>
   <tile gid="1007"/>
   <tile gid="1008"/>
   <tile gid="1009"/>
   <tile gid="1010"/>
   <tile gid="1011"/>
   <tile gid="1012"/>
   <tile gid="1013"/>
   <tile gid="1014"/>
   <tile gid="1015"/>
   <tile gid="1016"/>
   <tile gid="1017"/>
   <tile gid="1018"/>
   <tile gid="1019"/>
   <tile gid="1020"/>
   <tile gid="1021"/>
   <tile gid="1022"/>
   <tile gid="1023"/>
   <tile gid="1024"/>
   <tile gid="1025"/>
   <tile gid="1026"/>
   <tile gid="1027"/>
   <tile gid="1028"/>
   <tile gid="1029"/>
   <tile gid="1030"/>
   <tile gid="1031"/>
   <tile gid="1034"/>
   <tile gid="1035"/>
   <tile gid="1036"/>
   <tile gid="1037"/>
   <tile gid="1038"/>
   <tile gid="1039"/>
   <tile gid="1040"/>
   <tile gid="1041"/>
   <tile gid="1042"/>
   <tile gid="1043"/>
   <tile gid="1044"/>
   <tile gid="1045"/>
   <tile gid="1046"/>
   <tile gid="1047"/>
   <tile gid="1048"/>
   <tile gid="1049"/>
   <tile gid="1050"/>
   <tile gid="1051"/>
   <tile gid="1052"/>
   <tile gid="1053"/>
   <tile gid="1054"/>
   <tile gid="1055"/>
   <tile gid="1056"/>
   <tile gid="1057"/>
   <tile gid="1058"/>
   <tile gid="1059"/>
   <tile gid="1060"/>
   <tile gid="1061"/>
   <tile gid="1062"/>
   <tile gid="1063"/>
   <tile gid="1064"/>
   <tile gid="1034"/>
   <tile gid="1035"/>
   <tile gid="1036"/>
   <tile gid="1037"/>
   <tile gid="1038"/>
   <tile gid="1039"/>
   <tile gid="1040"/>
   <tile gid="1041"/>
   <tile gid="1042"/>
   <tile gid="1043"/>
   <tile gid="1044"/>
   <tile gid="1045"/>
   <tile gid="1046"/>
   <tile gid="1047"/>
   <tile gid="1048"/>
   <tile gid="1049"/>
   <tile gid="1050"/>
   <tile gid="1051"/>
   <tile gid="1052"/>
   <tile gid="1053"/>
   <tile gid="1054"/>
   <tile gid="1055"/>
   <tile gid="1056"/>
   <tile gid="1057"/>
   <tile gid="1058"/>
   <tile gid="1059"/>
   <tile gid="1060"/>
   <tile gid="1061"/>
   <tile gid="1062"/>
   <tile gid="1065"/>
   <tile gid="1066"/>
   <tile gid="1067"/>
   <tile gid="1068"/>
   <tile gid="1069"/>
   <tile gid="1070"/>
   <tile gid="1071"/>
   <tile gid="1072"/>
   <tile gid="1073"/>
   <tile gid="1074"/>
   <tile gid="1075"/>
   <tile gid="1076"/>
   <tile gid="1077"/>
   <tile gid="1078"/>
   <tile gid="1079"/>
   <tile gid="1080"/>
   <tile gid="1081"/>
   <tile gid="1082"/>
   <tile gid="1083"/>
   <tile gid="1084"/>
   <tile gid="1085"/>
   <tile gid="1086"/>
   <tile gid="1087"/>
   <tile gid="1088"/>
   <tile gid="1089"/>
   <tile gid="1090"/>
   <tile gid="1091"/>
   <tile gid="1092"/>
   <tile gid="1093"/>
   <tile gid="1094"/>
   <tile gid="1095"/>
   <tile gid="1065"/>
   <tile gid="1066"/>
   <tile gid="1067"/>
   <tile gid="1068"/>
   <tile gid="1069"/>
   <tile gid="1070"/>
   <tile gid="1071"/>
   <tile gid="1072"/>
   <tile gid="1073"/>
   <tile gid="1074"/>
   <tile gid="1075"/>
   <tile gid="1076"/>
   <tile gid="1077"/>
   <tile gid="1078"/>
   <tile gid="1079"/>
   <tile gid="1080"/>
   <tile gid="1081"/>
   <tile gid="1082"/>
   <tile gid="1083"/>
   <tile gid="1084"/>
   <tile gid="1085"/>
   <tile gid="1086"/>
   <tile gid="1087"/>
   <tile gid="1088"/>
   <tile gid="1089"/>
   <tile gid="1090"/>
   <tile gid="1091"/>
   <tile gid="1092"/>
   <tile gid="1093"/>
   <tile gid="1096"/>
   <tile gid="1097"/>
   <tile gid="1098"/>
   <tile gid="1099"/>
   <tile gid="1100"/>
   <tile gid="1101"/>
   <tile gid="1102"/>
   <tile gid="1103"/>
   <tile gid="1104"/>
   <tile gid="1105"/>
   <tile gid="1106"/>
   <tile gid="1107"/>
   <tile gid="1108"/>
   <tile gid="1109"/>
   <tile gid="1110"/>
   <tile gid="1111"/>
   <tile gid="1112"/>
   <tile gid="1113"/>
   <tile gid="1114"/>
   <tile gid="1115"/>
   <tile gid="1116"/>
   <tile gid="1117"/>
   <tile gid="1118"/>
   <tile gid="1119"/>
   <tile gid="1120"/>
   <tile gid="1121"/>
   <tile gid="1122"/>
   <tile gid="1123"/>
   <tile gid="1124"/>
   <tile gid="1125"/>
   <tile gid="1126"/>
   <tile gid="1096"/>
   <tile gid="1097"/>
   <tile gid="1098"/>
   <tile gid="1099"/>
   <tile gid="1100"/>
   <tile gid="1101"/>
   <tile gid="1102"/>
   <tile gid="1103"/>
   <tile gid="1104"/>
   <tile gid="1105"/>
   <tile gid="1106"/>
   <tile gid="1107"/>
   <tile gid="1108"/>
   <tile gid="1109"/>
   <tile gid="1110"/>
   <tile gid="1111"/>
   <tile gid="1112"/>
   <tile gid="1113"/>
   <tile gid="1114"/>
   <tile gid="1115"/>
   <tile gid="1116"/>
   <tile gid="1117"/>
   <tile gid="1118"/>
   <tile gid="1119"/>
   <tile gid="1120"/>
   <tile gid="1121"/>
   <tile gid="1122"/>
   <tile gid="1123"/>
   <tile gid="1124"/>
   <tile gid="1127"/>
   <tile gid="1128"/>
   <tile gid="1129"/>
   <tile gid="1130"/>
   <tile gid="1131"/>
   <tile gid="1132"/>
   <tile gid="1133"/>
   <tile gid="1134"/>
   <tile gid="1135"/>
   <tile gid="1136"/>
   <tile gid="1137"/>
   <tile gid="1138"/>
   <tile gid="1139"/>
   <tile gid="1140"/>
   <tile gid="1141"/>
   <tile gid="1142"/>
   <tile gid="1143"/>
   <tile gid="1144"/>
   <tile gid="1145"/>
   <tile gid="1146"/>
   <tile gid="1147"/>
   <tile gid="1148"/>
   <tile gid="1149"/>
   <tile gid="1150"/>
   <tile gid="1151"/>
   <tile gid="1152"/>
   <tile gid="1153"/>
   <tile gid="1154"/>
   <tile gid="1155"/>
   <tile gid="1156"/>
   <tile gid="1157"/>
   <tile gid="1127"/>
   <tile gid="1128"/>
   <tile gid="1129"/>
   <tile gid="1130"/>
   <tile gid="1131"/>
   <tile gid="1132"/>
   <tile gid="1133"/>
   <tile gid="1134"/>
   <tile gid="1135"/>
   <tile gid="1136"/>
   <tile gid="1137"/>
   <tile gid="1138"/>
   <tile gid="1139"/>
   <tile gid="1140"/>
   <tile gid="1141"/>
   <tile gid="1142"/>
   <tile gid="1143"/>
   <tile gid="1144"/>
   <tile gid="1145"/>
   <tile gid="1146"/>
   <tile gid="1147"/>
   <tile gid="1148"/>
   <tile gid="1149"/>
   <tile gid="1150"/>
   <tile gid="1151"/>
   <tile gid="1152"/>
   <tile gid="1153"/>
   <tile gid="1154"/>
   <tile gid="1155"/>
   <tile gid="1158"/>
   <tile gid="1159"/>
   <tile gid="1160"/>
   <tile gid="1161"/>
   <tile gid="1162"/>
   <tile gid="1163"/>
   <tile gid="1164"/>
   <tile gid="1165"/>
   <tile gid="1166"/>
   <tile gid="1167"/>
   <tile gid="1168"/>
   <tile gid="1169"/>
   <tile gid="1170"/>
   <tile gid="1171"/>
   <tile gid="1172"/>
   <tile gid="1173"/>
   <tile gid="1174"/>
   <tile gid="1175"/>
   <tile gid="1176"/>
   <tile gid="1177"/>
   <tile gid="1178"/>
   <tile gid="1179"/>
   <tile gid="1180"/>
   <tile gid="1181"/>
   <tile gid="1182"/>
   <tile gid="1183"/>
   <tile gid="1184"/>
   <tile gid="1185"/>
   <tile gid="1186"/>
   <tile gid="1187"/>
   <tile gid="1188"/>
   <tile gid="1158"/>
   <tile gid="1159"/>
   <tile gid="1160"/>
   <tile gid="1161"/>
   <tile gid="1162"/>
   <tile gid="1163"/>
   <tile gid="1164"/>
   <tile gid="1165"/>
   <tile gid="1166"/>
   <tile gid="1167"/>
   <tile gid="1168"/>
   <tile gid="1169"/>
   <tile gid="1170"/>
   <tile gid="1171"/>
   <tile gid="1172"/>
   <tile gid="1173"/>
   <tile gid="1174"/>
   <tile gid="1175"/>
   <tile gid="1176"/>
   <tile gid="1177"/>
   <tile gid="1178"/>
   <tile gid="1179"/>
   <tile gid="1180"/>
   <tile gid="1181"/>
   <tile gid="1182"/>
   <tile gid="1183"/>
   <tile gid="1184"/>
   <tile gid="1185"/>
   <tile gid="1186"/>
   <tile gid="1189"/>
   <tile gid="1190"/>
   <tile gid="1191"/>
   <tile gid="1192"/>
   <tile gid="1193"/>
   <tile gid="1194"/>
   <tile gid="1195"/>
   <tile gid="1196"/>
   <tile gid="1197"/>
   <tile gid="1198"/>
   <tile gid="1199"/>
   <tile gid="1200"/>
   <tile gid="1201"/>
   <tile gid="1202"/>
   <tile gid="1203"/>
   <tile gid="1204"/>
   <tile gid="1205"/>
   <tile gid="1206"/>
   <tile gid="1207"/>
   <tile gid="1208"/>
   <tile gid="1209"/>
   <tile gid="1210"/>
   <tile gid="1211"/>
   <tile gid="1212"/>
   <tile gid="1213"/>
   <tile gid="1214"/>
   <tile gid="1215"/>
   <tile gid="1216"/>
   <tile gid="1217"/>
   <tile gid="1218"/>
   <tile gid="1219"/>
   <tile gid="1189"/>
   <tile gid="1190"/>
   <tile gid="1191"/>
   <tile gid="1192"/>
   <tile gid="1193"/>
   <tile gid="1194"/>
   <tile gid="1195"/>
   <tile gid="1196"/>
   <tile gid="1197"/>
   <tile gid="1198"/>
   <tile gid="1199"/>
   <tile gid="1200"/>
   <tile gid="1201"/>
   <tile gid="1202"/>
   <tile gid="1203"/>
   <tile gid="1204"/>
   <tile gid="1205"/>
   <tile gid="1206"/>
   <tile gid="1207"/>
   <tile gid="1208"/>
   <tile gid="1209"/>
   <tile gid="1210"/>
   <tile gid="1211"/>
   <tile gid="1212"/>
   <tile gid="1213"/>
   <tile gid="1214"/>
   <tile gid="1215"/>
   <tile gid="1216"/>
   <tile gid="1217"/>
   <tile gid="1220"/>
   <tile gid="1221"/>
   <tile gid="1222"/>
   <tile gid="1223"/>
   <tile gid="1224"/>
   <tile gid="1225"/>
   <tile gid="1226"/>
   <tile gid="1227"/>
   <tile gid="1228"/>
   <tile gid="1229"/>
   <tile gid="1230"/>
   <tile gid="1231"/>
   <tile gid="1232"/>
   <tile gid="1233"/>
   <tile gid="1234"/>
   <tile gid="1235"/>
   <tile gid="1236"/>
   <tile gid="1237"/>
   <tile gid="1238"/>
   <tile gid="1239"/>
   <tile gid="1240"/>
   <tile gid="1241"/>
   <tile gid="1242"/>
   <tile gid="1243"/>
   <tile gid="1244"/>
   <tile gid="1245"/>
   <tile gid="1246"/>
   <tile gid="1247"/>
   <tile gid="1248"/>
   <tile gid="1249"/>
   <tile gid="1250"/>
   <tile gid="1220"/>
   <tile gid="1221"/>
   <tile gid="1222"/>
   <tile gid="1223"/>
   <tile gid="1224"/>
   <tile gid="1225"/>
   <tile gid="1226"/>
   <tile gid="1227"/>
   <tile gid="1228"/>
   <tile gid="1229"/>
   <tile gid="1230"/>
   <tile gid="1231"/>
   <tile gid="1232"/>
   <tile gid="1233"/>
   <tile gid="1234"/>
   <tile gid="1235"/>
   <tile gid="1236"/>
   <tile gid="1237"/>
   <tile gid="1238"/>
   <tile gid="1239"/>
   <tile gid="1240"/>
   <tile gid="1241"/>
   <tile gid="1242"/>
   <tile gid="1243"/>
   <tile gid="1244"/>
   <tile gid="1245"/>
   <tile gid="1246"/>
   <tile gid="1247"/>
   <tile gid="1248"/>
   <tile gid="1251"/>
   <tile gid="1252"/>
   <tile gid="1253"/>
   <tile gid="1254"/>
   <tile gid="1255"/>
   <tile gid="1256"/>
   <tile gid="1257"/>
   <tile gid="1258"/>
   <tile gid="1259"/>
   <tile gid="1260"/>
   <tile gid="1261"/>
   <tile gid="1262"/>
   <tile gid="1263"/>
   <tile gid="1264"/>
   <tile gid="1265"/>
   <tile gid="1266"/>
   <tile gid="1267"/>
   <tile gid="1268"/>
   <tile gid="1269"/>
   <tile gid="1270"/>
   <tile gid="1271"/>
   <tile gid="1272"/>
   <tile gid="1273"/>
   <tile gid="1274"/>
   <tile gid="1275"/>
   <tile gid="1276"/>
   <tile gid="1277"/>
   <tile gid="1278"/>
   <tile gid="1279"/>
   <tile gid="1280"/>
   <tile gid="1281"/>
   <tile gid="1251"/>
   <tile gid="1252"/>
   <tile gid="1253"/>
   <tile gid="1254"/>
   <tile gid="1255"/>
   <tile gid="1256"/>
   <tile gid="1257"/>
   <tile gid="1258"/>
   <tile gid="1259"/>
   <tile gid="1260"/>
   <tile gid="1261"/>
   <tile gid="1262"/>
   <tile gid="1263"/>
   <tile gid="1264"/>
   <tile gid="1265"/>
   <tile gid="1266"/>
   <tile gid="1267"/>
   <tile gid="1268"/>
   <tile gid="1269"/>
   <tile gid="1270"/>
   <tile gid="1271"/>
   <tile gid="1272"/>
   <tile gid="1273"/>
   <tile gid="1274"/>
   <tile gid="1275"/>
   <tile gid="1276"/>
   <tile gid="1277"/>
   <tile gid="1278"/>
   <tile gid="1279"/>
   <tile gid="1282"/>
   <tile gid="1283"/>
   <tile gid="1284"/>
   <tile gid="1285"/>
   <tile gid="1286"/>
   <tile gid="1287"/>
   <tile gid="1288"/>
   <tile gid="1289"/>
   <tile gid="1290"/>
   <tile gid="1291"/>
   <tile gid="1292"/>
   <tile gid="1293"/>
   <tile gid="1294"/>
   <tile gid="1295"/>
   <tile gid="1296"/>
   <tile gid="1297"/>
   <tile gid="1298"/>
   <tile gid="1299"/>
   <tile gid="1300"/>
   <tile gid="1301"/>
   <tile gid="1302"/>
   <tile gid="1303"/>
   <tile gid="1304"/>
   <tile gid="1305"/>
   <tile gid="1306"/>
   <tile gid="1307"/>
   <tile gid="1308"/>
   <tile gid="1309"/>
   <tile gid="1310"/>
   <tile gid="1311"/>
   <tile gid="1312"/>
   <tile gid="1282"/>
   <tile gid="1283"/>
   <tile gid="1284"/>
   <tile gid="1285"/>
   <tile gid="1286"/>
   <tile gid="1287"/>
   <tile gid="1288"/>
   <tile gid="1289"/>
   <tile gid="1290"/>
   <tile gid="1291"/>
   <tile gid="1292"/>
   <tile gid="1293"/>
   <tile gid="1294"/>
   <tile gid="1295"/>
   <tile gid="1296"/>
   <tile gid="1297"/>
   <tile gid="1298"/>
   <tile gid="1299"/>
   <tile gid="1300"/>
   <tile gid="1301"/>
   <tile gid="1302"/>
   <tile gid="1303"/>
   <tile gid="1304"/>
   <tile gid="1305"/>
   <tile gid="1306"/>
   <tile gid="1307"/>
   <tile gid="1308"/>
   <tile gid="1309"/>
   <tile gid="1310"/>
  </data>
 </layer>
 <layer id="9" name="Middleground" width="60" height="34" parallaxx="1.2" parallaxy="1.2">
  <properties>
   <property name="Draw" type="bool" value="true"/>
  </properties>
  <data>
   <tile/>
   <tile/>
   <tile/>
   <tile/>
   <tile/>
   <tile/>
   <tile/>
   <tile/>
   <tile/>
   <tile/>
   <tile/>
   <tile/>
   <tile/>
   <tile/>
   <tile/>
   <tile/>
   <tile/>
   <tile/>
   <tile/>
   <tile/>
   <tile/>
   <tile/>
   <tile/>
   <tile/>
   <tile/>
   <tile/>
   <tile/>
   <tile/>
   <tile/>
   <tile/>
   <tile/>
   <tile/>
   <tile/>
   <tile/>
   <tile/>
   <tile/>
   <tile/>
   <tile/>
   <tile/>
   <tile/>
   <tile/>
   <tile/>
   <tile/>
   <tile/>
   <tile/>
   <tile/>
   <tile/>
   <tile/>
   <tile/>
   <tile/>
   <tile/>
   <tile/>
   <tile/>
   <tile/>
   <tile/>
   <tile/>
   <tile/>
   <tile/>
   <tile/>
   <tile/>
   <tile/>
   <tile/>
   <tile/>
   <tile/>
   <tile/>
   <tile/>
   <tile/>
   <tile/>
   <tile/>
   <tile/>
   <tile/>
   <tile/>
   <tile/>
   <tile/>
   <tile/>
   <tile/>
   <tile/>
   <tile/>
   <tile/>
   <tile/>
   <tile/>
   <tile/>
   <tile/>
   <tile/>
   <tile/>
   <tile/>
   <tile/>
   <tile/>
   <tile/>
   <tile/>
   <tile/>
   <tile/>
   <tile/>
   <tile/>
   <tile/>
   <tile/>
   <tile/>
   <tile/>
   <tile/>
   <tile/>
   <tile/>
   <tile/>
   <tile/>
   <tile/>
   <tile/>
   <tile/>
   <tile/>
   <tile/>
   <tile/>
   <tile/>
   <tile/>
   <tile/>
   <tile/>
   <tile/>
   <tile/>
   <tile/>
   <tile/>
   <tile/>
   <tile/>
   <tile/>
   <tile/>
   <tile/>
   <tile/>
   <tile/>
   <tile/>
   <tile/>
   <tile/>
   <tile/>
   <tile/>
   <tile/>
   <tile/>
   <tile/>
   <tile/>
   <tile/>
   <tile/>
   <tile/>
   <tile/>
   <tile/>
   <tile/>
   <tile/>
   <tile/>
   <tile/>
   <tile/>
   <tile/>
   <tile/>
   <tile/>
   <tile/>
   <tile/>
   <tile/>
   <tile/>
   <tile/>
   <tile/>
   <tile/>
   <tile/>
   <tile/>
   <tile/>
   <tile/>
   <tile/>
   <tile/>
   <tile/>
   <tile/>
   <tile/>
   <tile/>
   <tile/>
   <tile/>
   <tile/>
   <tile/>
   <tile/>
   <tile/>
   <tile/>
   <tile/>
   <tile/>
   <tile/>
   <tile/>
   <tile/>
   <tile/>
   <tile/>
   <tile/>
   <tile/>
   <tile/>
   <tile/>
   <tile/>
   <tile/>
   <tile/>
   <tile/>
   <tile/>
   <tile/>
   <tile/>
   <tile/>
   <tile/>
   <tile/>
   <tile/>
   <tile/>
   <tile/>
   <tile/>
   <tile/>
   <tile/>
   <tile/>
   <tile/>
   <tile/>
   <tile/>
   <tile/>
   <tile/>
   <tile/>
   <tile/>
   <tile/>
   <tile/>
   <tile/>
   <tile/>
   <tile/>
   <tile/>
   <tile/>
   <tile/>
   <tile/>
   <tile/>
   <tile/>
   <tile/>
   <tile/>
   <tile/>
   <tile/>
   <tile/>
   <tile/>
   <tile/>
   <tile/>
   <tile/>
   <tile/>
   <tile/>
   <tile/>
   <tile/>
   <tile/>
   <tile/>
   <tile/>
   <tile/>
   <tile/>
   <tile/>
   <tile/>
   <tile/>
   <tile/>
   <tile/>
   <tile/>
   <tile/>
   <tile/>
   <tile/>
   <tile/>
   <tile/>
   <tile/>
   <tile/>
   <tile/>
   <tile/>
   <tile/>
   <tile/>
   <tile/>
   <tile/>
   <tile/>
   <tile/>
   <tile/>
   <tile/>
   <tile/>
   <tile/>
   <tile/>
   <tile/>
   <tile/>
   <tile/>
   <tile/>
   <tile/>
   <tile/>
   <tile/>
   <tile/>
   <tile/>
   <tile/>
   <tile/>
   <tile/>
   <tile/>
   <tile/>
   <tile/>
   <tile/>
   <tile/>
   <tile/>
   <tile/>
   <tile/>
   <tile/>
   <tile/>
   <tile/>
   <tile/>
   <tile/>
   <tile/>
   <tile/>
   <tile/>
   <tile/>
   <tile/>
   <tile/>
   <tile/>
   <tile/>
   <tile/>
   <tile/>
   <tile/>
   <tile/>
   <tile/>
   <tile/>
   <tile/>
   <tile/>
   <tile/>
   <tile/>
   <tile/>
   <tile/>
   <tile/>
   <tile/>
   <tile/>
   <tile/>
   <tile/>
   <tile/>
   <tile/>
   <tile/>
   <tile/>
   <tile/>
   <tile/>
   <tile/>
   <tile/>
   <tile/>
   <tile/>
   <tile/>
   <tile/>
   <tile/>
   <tile/>
   <tile/>
   <tile/>
   <tile/>
   <tile/>
   <tile/>
   <tile/>
   <tile/>
   <tile/>
   <tile/>
   <tile/>
   <tile/>
   <tile/>
   <tile/>
   <tile/>
   <tile/>
   <tile/>
   <tile/>
   <tile/>
   <tile/>
   <tile/>
   <tile/>
   <tile/>
   <tile/>
   <tile/>
   <tile/>
   <tile/>
   <tile/>
   <tile/>
   <tile/>
   <tile/>
   <tile/>
   <tile/>
   <tile/>
   <tile/>
   <tile/>
   <tile/>
   <tile/>
   <tile/>
   <tile/>
   <tile/>
   <tile/>
   <tile/>
   <tile/>
   <tile/>
   <tile/>
   <tile/>
   <tile/>
   <tile/>
   <tile/>
   <tile/>
   <tile/>
   <tile/>
   <tile/>
   <tile/>
   <tile/>
   <tile/>
   <tile/>
   <tile/>
   <tile/>
   <tile/>
   <tile/>
   <tile/>
   <tile/>
   <tile/>
   <tile/>
   <tile/>
   <tile/>
   <tile/>
   <tile/>
   <tile/>
   <tile/>
   <tile/>
   <tile/>
   <tile/>
   <tile/>
   <tile/>
   <tile/>
   <tile/>
   <tile/>
   <tile/>
   <tile/>
   <tile/>
   <tile/>
   <tile/>
   <tile/>
   <tile/>
   <tile/>
   <tile/>
   <tile/>
   <tile/>
   <tile/>
   <tile/>
   <tile/>
   <tile/>
   <tile/>
   <tile/>
   <tile/>
   <tile/>
   <tile/>
   <tile/>
   <tile/>
   <tile/>
   <tile/>
   <tile/>
   <tile/>
   <tile/>
   <tile/>
   <tile/>
   <tile/>
   <tile/>
   <tile/>
   <tile/>
   <tile/>
   <tile/>
   <tile/>
   <tile/>
   <tile/>
   <tile/>
   <tile/>
   <tile/>
   <tile/>
   <tile/>
   <tile/>
   <tile/>
   <tile/>
   <tile/>
   <tile/>
   <tile/>
   <tile/>
   <tile/>
   <tile/>
   <tile/>
   <tile/>
   <tile/>
   <tile/>
   <tile/>
   <tile/>
   <tile/>
   <tile/>
   <tile/>
   <tile/>
   <tile/>
   <tile/>
   <tile/>
   <tile/>
   <tile/>
   <tile/>
   <tile/>
   <tile/>
   <tile/>
   <tile/>
   <tile/>
   <tile/>
   <tile/>
   <tile/>
   <tile/>
   <tile/>
   <tile/>
   <tile/>
   <tile/>
   <tile/>
   <tile/>
   <tile/>
   <tile/>
   <tile/>
   <tile/>
   <tile/>
   <tile/>
   <tile/>
   <tile/>
   <tile/>
   <tile/>
   <tile/>
   <tile/>
   <tile/>
   <tile/>
   <tile/>
   <tile/>
   <tile/>
   <tile/>
   <tile/>
   <tile/>
   <tile/>
   <tile/>
   <tile/>
   <tile/>
   <tile/>
   <tile/>
   <tile/>
   <tile/>
   <tile/>
   <tile/>
   <tile/>
   <tile/>
   <tile/>
   <tile/>
   <tile/>
   <tile/>
   <tile/>
   <tile/>
   <tile/>
   <tile/>
   <tile/>
   <tile/>
   <tile/>
   <tile/>
   <tile/>
   <tile/>
   <tile/>
   <tile/>
   <tile/>
   <tile/>
   <tile/>
   <tile/>
   <tile/>
   <tile/>
   <tile/>
   <tile/>
   <tile/>
   <tile/>
   <tile/>
   <tile/>
   <tile/>
   <tile/>
   <tile/>
   <tile/>
   <tile/>
   <tile/>
   <tile/>
   <tile/>
   <tile/>
   <tile/>
   <tile/>
   <tile/>
   <tile/>
   <tile/>
   <tile/>
   <tile/>
   <tile/>
   <tile/>
   <tile/>
   <tile/>
   <tile/>
   <tile/>
   <tile/>
   <tile/>
   <tile/>
   <tile/>
   <tile/>
   <tile/>
   <tile/>
   <tile/>
   <tile/>
   <tile/>
   <tile/>
   <tile/>
   <tile/>
   <tile/>
   <tile/>
   <tile/>
   <tile/>
   <tile/>
   <tile/>
   <tile/>
   <tile/>
   <tile/>
   <tile/>
   <tile/>
   <tile/>
   <tile/>
   <tile/>
   <tile/>
   <tile/>
   <tile/>
   <tile/>
   <tile/>
   <tile/>
   <tile/>
   <tile/>
   <tile/>
   <tile/>
   <tile/>
   <tile/>
   <tile/>
   <tile/>
   <tile/>
   <tile/>
   <tile/>
   <tile/>
   <tile/>
   <tile/>
   <tile/>
   <tile/>
   <tile/>
   <tile/>
   <tile/>
   <tile/>
   <tile/>
   <tile/>
   <tile/>
   <tile/>
   <tile/>
   <tile/>
   <tile/>
   <tile/>
   <tile/>
   <tile/>
   <tile/>
   <tile/>
   <tile/>
   <tile/>
   <tile/>
   <tile/>
   <tile/>
   <tile/>
   <tile/>
   <tile/>
   <tile/>
   <tile/>
   <tile/>
   <tile/>
   <tile/>
   <tile/>
   <tile/>
   <tile/>
   <tile/>
   <tile/>
   <tile/>
   <tile/>
   <tile/>
   <tile/>
   <tile/>
   <tile/>
   <tile/>
   <tile/>
   <tile/>
   <tile/>
   <tile/>
   <tile/>
   <tile/>
   <tile/>
   <tile/>
   <tile/>
   <tile/>
   <tile/>
   <tile/>
   <tile/>
   <tile/>
   <tile/>
   <tile/>
   <tile/>
   <tile/>
   <tile/>
   <tile/>
   <tile/>
   <tile/>
   <tile/>
   <tile/>
   <tile/>
   <tile/>
   <tile/>
   <tile/>
   <tile/>
   <tile/>
   <tile/>
   <tile/>
   <tile/>
   <tile/>
   <tile/>
   <tile/>
   <tile/>
   <tile/>
   <tile/>
   <tile/>
   <tile/>
   <tile/>
   <tile/>
   <tile/>
   <tile/>
   <tile/>
   <tile/>
   <tile/>
   <tile/>
   <tile/>
   <tile/>
   <tile/>
   <tile/>
   <tile/>
   <tile/>
   <tile/>
   <tile/>
   <tile/>
   <tile/>
   <tile/>
   <tile/>
   <tile/>
   <tile/>
   <tile/>
   <tile/>
   <tile/>
   <tile/>
   <tile/>
   <tile/>
   <tile/>
   <tile/>
   <tile/>
   <tile/>
   <tile/>
   <tile/>
   <tile/>
   <tile/>
   <tile/>
   <tile/>
   <tile/>
   <tile/>
   <tile/>
   <tile/>
   <tile/>
   <tile/>
   <tile/>
   <tile/>
   <tile/>
   <tile/>
   <tile/>
   <tile/>
   <tile/>
   <tile/>
   <tile/>
   <tile/>
   <tile/>
   <tile/>
   <tile/>
   <tile/>
   <tile/>
   <tile/>
   <tile/>
   <tile/>
   <tile/>
   <tile/>
   <tile/>
   <tile/>
   <tile/>
   <tile/>
   <tile/>
   <tile/>
   <tile/>
   <tile/>
   <tile/>
   <tile/>
   <tile/>
   <tile/>
   <tile/>
   <tile/>
   <tile/>
   <tile/>
   <tile/>
   <tile/>
   <tile/>
   <tile/>
   <tile/>
   <tile/>
   <tile/>
   <tile/>
   <tile/>
   <tile/>
   <tile/>
   <tile/>
   <tile/>
   <tile/>
   <tile/>
   <tile/>
   <tile/>
   <tile/>
   <tile/>
   <tile/>
   <tile/>
   <tile/>
   <tile/>
   <tile/>
   <tile/>
   <tile/>
   <tile/>
   <tile/>
   <tile/>
   <tile/>
   <tile/>
   <tile/>
   <tile/>
   <tile/>
   <tile/>
   <tile/>
   <tile/>
   <tile/>
   <tile/>
   <tile/>
   <tile/>
   <tile/>
   <tile/>
   <tile/>
   <tile/>
   <tile/>
   <tile/>
   <tile/>
   <tile/>
   <tile/>
   <tile/>
   <tile/>
   <tile/>
   <tile/>
   <tile/>
   <tile/>
   <tile/>
   <tile/>
   <tile/>
   <tile/>
   <tile/>
   <tile/>
   <tile/>
   <tile/>
   <tile/>
   <tile/>
   <tile/>
   <tile/>
   <tile/>
   <tile/>
   <tile/>
   <tile/>
   <tile/>
   <tile/>
   <tile/>
   <tile/>
   <tile/>
   <tile/>
   <tile/>
   <tile/>
   <tile/>
   <tile/>
   <tile/>
   <tile/>
   <tile/>
   <tile/>
   <tile/>
   <tile/>
   <tile/>
   <tile/>
   <tile/>
   <tile/>
   <tile/>
   <tile/>
   <tile/>
   <tile/>
   <tile/>
   <tile/>
   <tile/>
   <tile/>
   <tile/>
   <tile/>
   <tile/>
   <tile/>
   <tile/>
   <tile/>
   <tile/>
   <tile/>
   <tile/>
   <tile/>
   <tile/>
   <tile/>
   <tile/>
   <tile/>
   <tile/>
   <tile/>
   <tile/>
   <tile/>
   <tile/>
   <tile/>
   <tile/>
   <tile/>
   <tile/>
   <tile/>
   <tile/>
   <tile/>
   <tile/>
   <tile/>
   <tile/>
   <tile/>
   <tile/>
   <tile/>
   <tile/>
   <tile/>
   <tile/>
   <tile/>
   <tile/>
   <tile/>
   <tile/>
   <tile/>
   <tile/>
   <tile/>
   <tile/>
   <tile/>
   <tile/>
   <tile/>
   <tile/>
   <tile/>
   <tile/>
   <tile/>
   <tile/>
   <tile/>
   <tile/>
   <tile/>
   <tile/>
   <tile/>
   <tile/>
   <tile/>
   <tile/>
   <tile/>
   <tile/>
   <tile/>
   <tile/>
   <tile/>
   <tile/>
   <tile/>
   <tile/>
   <tile/>
   <tile/>
   <tile/>
   <tile/>
   <tile/>
   <tile/>
   <tile/>
   <tile/>
   <tile/>
   <tile/>
   <tile/>
   <tile/>
   <tile/>
   <tile/>
   <tile/>
   <tile/>
   <tile/>
   <tile/>
   <tile/>
   <tile/>
   <tile/>
   <tile/>
   <tile/>
   <tile/>
   <tile/>
   <tile/>
   <tile/>
   <tile/>
   <tile/>
   <tile/>
   <tile/>
   <tile/>
   <tile/>
   <tile/>
   <tile/>
   <tile/>
   <tile/>
   <tile/>
   <tile/>
   <tile/>
   <tile/>
   <tile/>
   <tile/>
   <tile/>
   <tile/>
   <tile/>
   <tile/>
   <tile/>
   <tile/>
   <tile/>
   <tile/>
   <tile/>
   <tile/>
   <tile/>
   <tile/>
   <tile/>
   <tile/>
   <tile/>
   <tile/>
   <tile/>
   <tile/>
   <tile/>
   <tile/>
   <tile/>
   <tile/>
   <tile/>
   <tile/>
   <tile/>
   <tile/>
   <tile/>
   <tile/>
   <tile/>
   <tile/>
   <tile/>
   <tile/>
   <tile/>
   <tile/>
   <tile/>
   <tile/>
   <tile/>
   <tile/>
   <tile/>
   <tile/>
   <tile/>
   <tile/>
   <tile/>
   <tile/>
   <tile/>
   <tile/>
   <tile/>
   <tile/>
   <tile/>
   <tile/>
   <tile/>
   <tile/>
   <tile/>
   <tile/>
   <tile/>
   <tile/>
   <tile/>
   <tile/>
   <tile/>
   <tile/>
   <tile/>
   <tile/>
   <tile/>
   <tile/>
   <tile/>
   <tile/>
   <tile/>
   <tile/>
   <tile/>
   <tile/>
   <tile/>
   <tile/>
   <tile/>
   <tile/>
   <tile/>
   <tile/>
   <tile/>
   <tile/>
   <tile/>
   <tile/>
   <tile/>
   <tile/>
   <tile/>
   <tile/>
   <tile/>
   <tile/>
   <tile/>
   <tile/>
   <tile/>
   <tile/>
   <tile/>
   <tile/>
   <tile/>
   <tile/>
   <tile/>
   <tile/>
   <tile/>
   <tile/>
   <tile/>
   <tile/>
   <tile/>
   <tile/>
   <tile/>
   <tile/>
   <tile/>
   <tile/>
   <tile/>
   <tile/>
   <tile/>
   <tile/>
   <tile/>
   <tile/>
   <tile/>
   <tile/>
   <tile/>
   <tile/>
   <tile/>
   <tile/>
   <tile/>
   <tile/>
   <tile/>
   <tile/>
   <tile/>
   <tile/>
   <tile/>
   <tile/>
   <tile/>
   <tile/>
   <tile/>
   <tile/>
   <tile/>
   <tile/>
   <tile/>
   <tile/>
   <tile/>
   <tile/>
   <tile/>
   <tile/>
   <tile/>
   <tile/>
   <tile/>
   <tile/>
   <tile/>
   <tile/>
   <tile/>
   <tile/>
   <tile/>
   <tile/>
   <tile/>
   <tile/>
   <tile/>
   <tile/>
   <tile/>
   <tile/>
   <tile/>
   <tile/>
   <tile/>
   <tile/>
   <tile/>
   <tile/>
   <tile/>
   <tile/>
   <tile/>
   <tile/>
   <tile/>
   <tile/>
   <tile/>
   <tile/>
   <tile/>
   <tile/>
   <tile/>
   <tile/>
   <tile/>
   <tile/>
   <tile/>
   <tile/>
   <tile/>
   <tile/>
   <tile/>
   <tile/>
   <tile/>
   <tile/>
   <tile/>
   <tile/>
   <tile/>
   <tile/>
   <tile/>
   <tile/>
   <tile/>
   <tile/>
   <tile/>
   <tile/>
   <tile/>
   <tile/>
   <tile/>
   <tile/>
   <tile/>
   <tile/>
   <tile/>
   <tile/>
   <tile/>
   <tile/>
   <tile/>
   <tile/>
   <tile/>
   <tile/>
   <tile/>
   <tile/>
   <tile/>
   <tile/>
   <tile/>
   <tile/>
   <tile/>
   <tile/>
   <tile/>
   <tile/>
   <tile/>
   <tile/>
   <tile/>
   <tile/>
   <tile/>
   <tile/>
   <tile/>
   <tile/>
   <tile/>
   <tile/>
   <tile/>
   <tile/>
   <tile/>
   <tile/>
   <tile/>
   <tile/>
   <tile/>
   <tile/>
   <tile/>
   <tile/>
   <tile/>
   <tile/>
   <tile/>
   <tile/>
   <tile/>
   <tile/>
   <tile/>
   <tile/>
   <tile/>
   <tile/>
   <tile/>
   <tile/>
   <tile/>
   <tile/>
   <tile/>
   <tile/>
   <tile/>
   <tile/>
   <tile/>
   <tile/>
   <tile/>
   <tile/>
   <tile/>
   <tile/>
   <tile/>
   <tile/>
   <tile/>
   <tile/>
   <tile/>
   <tile/>
   <tile/>
   <tile/>
   <tile/>
   <tile/>
   <tile/>
   <tile/>
   <tile/>
   <tile/>
   <tile/>
   <tile/>
   <tile/>
   <tile/>
   <tile/>
   <tile/>
   <tile/>
   <tile/>
   <tile/>
   <tile/>
   <tile/>
   <tile/>
   <tile/>
   <tile/>
   <tile/>
   <tile/>
   <tile/>
   <tile/>
   <tile/>
   <tile/>
   <tile/>
   <tile/>
   <tile/>
   <tile/>
   <tile/>
   <tile/>
   <tile/>
   <tile/>
   <tile/>
   <tile/>
   <tile/>
   <tile/>
   <tile/>
   <tile/>
   <tile/>
   <tile/>
   <tile/>
   <tile/>
   <tile/>
   <tile/>
   <tile/>
   <tile/>
   <tile/>
   <tile/>
   <tile/>
   <tile/>
   <tile/>
   <tile/>
   <tile/>
   <tile/>
   <tile/>
   <tile/>
   <tile/>
   <tile/>
   <tile/>
   <tile/>
   <tile/>
   <tile/>
   <tile/>
   <tile/>
   <tile/>
   <tile/>
   <tile/>
   <tile/>
   <tile/>
   <tile/>
   <tile/>
   <tile/>
   <tile/>
   <tile/>
   <tile/>
   <tile/>
   <tile/>
   <tile/>
   <tile/>
   <tile/>
   <tile/>
   <tile/>
   <tile/>
   <tile/>
   <tile/>
   <tile/>
   <tile/>
   <tile/>
   <tile/>
   <tile/>
   <tile/>
   <tile/>
   <tile/>
   <tile/>
   <tile/>
   <tile/>
   <tile/>
   <tile/>
   <tile/>
   <tile/>
   <tile/>
   <tile/>
   <tile/>
   <tile/>
   <tile/>
   <tile/>
   <tile/>
   <tile/>
   <tile/>
   <tile/>
   <tile/>
   <tile/>
   <tile/>
   <tile/>
   <tile/>
   <tile/>
   <tile/>
   <tile/>
   <tile/>
   <tile/>
   <tile/>
   <tile/>
   <tile/>
   <tile/>
   <tile/>
   <tile/>
   <tile/>
   <tile/>
   <tile/>
   <tile/>
   <tile/>
   <tile/>
   <tile/>
   <tile/>
   <tile/>
   <tile/>
   <tile/>
   <tile/>
   <tile/>
   <tile/>
   <tile/>
   <tile/>
   <tile/>
   <tile/>
   <tile/>
   <tile/>
   <tile/>
   <tile/>
   <tile/>
   <tile/>
   <tile/>
   <tile/>
   <tile/>
   <tile/>
   <tile/>
   <tile/>
   <tile/>
   <tile/>
   <tile/>
   <tile/>
   <tile/>
   <tile/>
   <tile/>
   <tile/>
   <tile/>
   <tile/>
   <tile/>
   <tile/>
   <tile/>
   <tile/>
   <tile/>
   <tile/>
   <tile/>
   <tile/>
   <tile/>
   <tile/>
   <tile/>
   <tile/>
   <tile/>
   <tile/>
   <tile/>
   <tile/>
   <tile/>
   <tile/>
   <tile/>
   <tile/>
   <tile/>
   <tile/>
   <tile/>
   <tile/>
   <tile/>
   <tile/>
   <tile/>
   <tile/>
   <tile/>
   <tile/>
   <tile/>
   <tile/>
   <tile/>
   <tile/>
   <tile/>
   <tile/>
   <tile/>
   <tile/>
   <tile/>
   <tile/>
   <tile/>
   <tile/>
   <tile/>
   <tile/>
   <tile/>
   <tile/>
   <tile/>
   <tile/>
   <tile/>
   <tile/>
   <tile/>
   <tile/>
   <tile/>
   <tile/>
   <tile/>
   <tile/>
   <tile/>
   <tile/>
   <tile/>
   <tile/>
   <tile/>
   <tile/>
   <tile/>
   <tile/>
   <tile/>
   <tile/>
   <tile/>
   <tile/>
   <tile/>
   <tile/>
   <tile/>
   <tile/>
   <tile/>
   <tile/>
   <tile/>
   <tile/>
   <tile/>
   <tile/>
   <tile/>
   <tile/>
   <tile/>
   <tile/>
   <tile/>
   <tile/>
   <tile/>
   <tile/>
   <tile/>
   <tile/>
   <tile/>
   <tile/>
   <tile/>
   <tile/>
   <tile/>
   <tile/>
   <tile/>
   <tile/>
   <tile/>
   <tile/>
   <tile/>
   <tile/>
   <tile/>
   <tile/>
   <tile/>
   <tile/>
   <tile/>
   <tile/>
   <tile/>
   <tile/>
   <tile/>
   <tile/>
   <tile/>
   <tile/>
   <tile/>
   <tile/>
   <tile/>
   <tile/>
   <tile/>
   <tile/>
   <tile/>
   <tile/>
   <tile/>
   <tile/>
   <tile/>
   <tile/>
   <tile/>
   <tile/>
   <tile/>
   <tile/>
   <tile/>
   <tile/>
   <tile/>
   <tile/>
   <tile/>
   <tile/>
   <tile/>
   <tile/>
   <tile/>
   <tile/>
   <tile/>
   <tile/>
   <tile/>
   <tile/>
   <tile/>
   <tile/>
   <tile/>
   <tile/>
   <tile/>
   <tile/>
   <tile/>
   <tile/>
   <tile/>
   <tile/>
   <tile/>
   <tile/>
   <tile/>
   <tile/>
   <tile/>
   <tile/>
   <tile/>
   <tile/>
   <tile/>
   <tile/>
   <tile/>
   <tile/>
   <tile/>
   <tile/>
   <tile/>
   <tile/>
   <tile/>
   <tile/>
   <tile/>
   <tile/>
   <tile/>
   <tile/>
   <tile/>
   <tile/>
   <tile/>
   <tile/>
   <tile/>
   <tile/>
   <tile/>
   <tile/>
   <tile/>
   <tile/>
   <tile/>
   <tile/>
   <tile/>
   <tile/>
   <tile/>
   <tile/>
   <tile/>
   <tile/>
   <tile/>
   <tile/>
   <tile/>
   <tile/>
   <tile/>
   <tile/>
   <tile/>
   <tile/>
   <tile/>
   <tile/>
   <tile/>
   <tile/>
   <tile/>
   <tile/>
   <tile/>
   <tile/>
   <tile/>
   <tile/>
   <tile/>
   <tile/>
   <tile/>
   <tile/>
   <tile/>
   <tile/>
   <tile/>
   <tile/>
   <tile/>
   <tile/>
   <tile/>
   <tile/>
   <tile/>
   <tile/>
   <tile/>
   <tile/>
   <tile/>
   <tile/>
   <tile/>
   <tile/>
   <tile/>
   <tile/>
   <tile/>
   <tile/>
   <tile/>
   <tile/>
   <tile/>
   <tile/>
   <tile/>
   <tile/>
   <tile/>
   <tile/>
   <tile/>
   <tile/>
   <tile/>
   <tile/>
   <tile/>
   <tile/>
   <tile/>
   <tile/>
   <tile/>
   <tile/>
   <tile/>
   <tile/>
   <tile/>
   <tile/>
   <tile/>
   <tile/>
   <tile/>
   <tile/>
   <tile/>
   <tile/>
   <tile/>
   <tile/>
   <tile/>
   <tile/>
   <tile/>
   <tile/>
   <tile/>
   <tile/>
   <tile/>
   <tile/>
   <tile/>
   <tile/>
   <tile/>
   <tile/>
   <tile/>
   <tile/>
   <tile/>
   <tile/>
   <tile/>
   <tile/>
   <tile/>
   <tile/>
   <tile/>
   <tile/>
   <tile/>
   <tile/>
   <tile/>
   <tile/>
   <tile/>
   <tile/>
   <tile/>
   <tile/>
   <tile/>
   <tile/>
   <tile/>
   <tile/>
   <tile/>
   <tile/>
   <tile/>
   <tile/>
   <tile/>
   <tile/>
   <tile/>
   <tile/>
   <tile/>
   <tile/>
   <tile/>
   <tile/>
   <tile/>
   <tile/>
   <tile/>
   <tile/>
   <tile/>
   <tile/>
   <tile/>
   <tile/>
   <tile/>
   <tile/>
   <tile/>
   <tile/>
   <tile/>
   <tile/>
   <tile/>
   <tile/>
   <tile/>
   <tile/>
   <tile/>
   <tile/>
   <tile/>
   <tile/>
   <tile/>
   <tile/>
   <tile/>
   <tile/>
   <tile/>
   <tile/>
   <tile/>
   <tile/>
   <tile/>
   <tile/>
   <tile/>
   <tile/>
   <tile/>
   <tile/>
   <tile/>
   <tile/>
   <tile/>
   <tile/>
   <tile/>
   <tile/>
   <tile/>
   <tile/>
   <tile/>
   <tile/>
   <tile/>
   <tile/>
   <tile/>
   <tile/>
   <tile/>
   <tile/>
   <tile/>
   <tile/>
   <tile/>
   <tile/>
   <tile/>
   <tile/>
   <tile/>
   <tile/>
   <tile/>
   <tile/>
   <tile/>
   <tile/>
   <tile/>
   <tile/>
   <tile/>
   <tile/>
   <tile/>
   <tile/>
   <tile/>
   <tile/>
   <tile/>
   <tile/>
   <tile/>
   <tile/>
   <tile/>
   <tile/>
   <tile/>
   <tile/>
   <tile/>
   <tile/>
   <tile/>
   <tile/>
   <tile/>
   <tile/>
   <tile/>
   <tile/>
   <tile/>
   <tile/>
   <tile/>
   <tile/>
   <tile/>
   <tile/>
   <tile/>
   <tile/>
   <tile/>
   <tile/>
   <tile/>
   <tile/>
   <tile/>
   <tile/>
   <tile/>
   <tile/>
   <tile/>
   <tile/>
   <tile/>
   <tile/>
   <tile/>
   <tile/>
   <tile/>
   <tile/>
   <tile/>
   <tile/>
   <tile/>
   <tile/>
   <tile/>
   <tile/>
   <tile/>
   <tile/>
   <tile/>
   <tile/>
   <tile/>
   <tile/>
   <tile/>
   <tile/>
   <tile/>
   <tile/>
   <tile/>
   <tile/>
   <tile/>
   <tile/>
   <tile/>
   <tile/>
   <tile/>
   <tile/>
   <tile/>
   <tile/>
   <tile/>
   <tile/>
   <tile/>
   <tile/>
   <tile/>
   <tile/>
   <tile/>
   <tile/>
   <tile/>
   <tile/>
   <tile/>
   <tile/>
   <tile/>
   <tile/>
   <tile/>
   <tile/>
   <tile/>
   <tile/>
   <tile/>
   <tile/>
   <tile/>
   <tile/>
   <tile/>
   <tile/>
   <tile/>
   <tile/>
   <tile/>
   <tile/>
   <tile/>
   <tile/>
   <tile/>
   <tile/>
   <tile/>
   <tile/>
   <tile/>
   <tile/>
   <tile/>
   <tile/>
   <tile/>
   <tile/>
   <tile/>
   <tile/>
   <tile/>
   <tile/>
   <tile/>
   <tile/>
   <tile/>
   <tile/>
   <tile/>
   <tile/>
   <tile/>
   <tile/>
   <tile/>
   <tile/>
   <tile/>
   <tile/>
   <tile/>
   <tile/>
   <tile/>
   <tile/>
   <tile/>
   <tile/>
   <tile/>
   <tile/>
   <tile/>
   <tile/>
   <tile/>
   <tile/>
   <tile/>
   <tile/>
   <tile/>
   <tile/>
   <tile/>
   <tile/>
   <tile/>
   <tile/>
   <tile/>
   <tile/>
   <tile/>
   <tile/>
   <tile/>
   <tile/>
   <tile/>
   <tile/>
   <tile/>
   <tile/>
   <tile/>
   <tile/>
   <tile/>
   <tile/>
   <tile/>
   <tile/>
   <tile/>
   <tile/>
   <tile/>
   <tile/>
   <tile/>
   <tile/>
   <tile/>
   <tile/>
   <tile/>
   <tile/>
   <tile/>
   <tile/>
   <tile/>
   <tile/>
   <tile/>
   <tile gid="1375"/>
   <tile/>
   <tile/>
   <tile/>
   <tile/>
   <tile/>
   <tile/>
   <tile/>
   <tile/>
   <tile/>
   <tile/>
   <tile/>
   <tile/>
   <tile/>
   <tile/>
   <tile/>
   <tile/>
   <tile/>
   <tile/>
   <tile/>
   <tile/>
   <tile/>
   <tile/>
   <tile/>
   <tile/>
   <tile/>
   <tile/>
   <tile/>
   <tile/>
   <tile/>
   <tile/>
   <tile/>
   <tile/>
   <tile/>
   <tile/>
   <tile/>
   <tile/>
   <tile/>
   <tile/>
   <tile/>
   <tile/>
   <tile/>
   <tile/>
   <tile/>
   <tile/>
   <tile/>
   <tile/>
   <tile/>
   <tile/>
   <tile/>
   <tile/>
   <tile/>
   <tile/>
   <tile/>
   <tile/>
   <tile/>
   <tile/>
   <tile/>
   <tile/>
   <tile/>
  </data>
 </layer>
 <layer id="2" name="Solid" width="60" height="34">
  <properties>
   <property name="Draw" type="bool" value="true"/>
  </properties>
  <data>
   <tile gid="178"/>
   <tile gid="194"/>
   <tile gid="194"/>
   <tile gid="194"/>
   <tile gid="194"/>
   <tile gid="194"/>
   <tile gid="194"/>
   <tile gid="194"/>
   <tile gid="194"/>
   <tile gid="194"/>
   <tile gid="194"/>
   <tile gid="194"/>
   <tile gid="194"/>
   <tile gid="194"/>
   <tile gid="195"/>
   <tile gid="225"/>
   <tile gid="225"/>
   <tile gid="225"/>
   <tile gid="225"/>
   <tile gid="225"/>
   <tile gid="193"/>
   <tile gid="194"/>
   <tile gid="194"/>
   <tile gid="194"/>
   <tile gid="194"/>
   <tile gid="194"/>
   <tile gid="194"/>
   <tile gid="194"/>
   <tile gid="194"/>
   <tile gid="194"/>
   <tile gid="194"/>
   <tile gid="194"/>
   <tile gid="194"/>
   <tile gid="194"/>
   <tile gid="194"/>
   <tile gid="194"/>
   <tile gid="194"/>
   <tile gid="194"/>
   <tile gid="194"/>
   <tile gid="194"/>
   <tile gid="194"/>
   <tile gid="194"/>
   <tile gid="194"/>
   <tile gid="194"/>
   <tile gid="194"/>
   <tile gid="194"/>
   <tile gid="194"/>
   <tile gid="194"/>
   <tile gid="194"/>
   <tile gid="194"/>
   <tile gid="194"/>
   <tile gid="194"/>
   <tile gid="194"/>
   <tile gid="194"/>
   <tile gid="194"/>
   <tile gid="194"/>
   <tile gid="194"/>
   <tile gid="194"/>
   <tile gid="194"/>
   <tile gid="178"/>
   <tile gid="179"/>
   <tile/>
   <tile/>
   <tile/>
   <tile/>
   <tile/>
   <tile/>
   <tile/>
   <tile/>
   <tile/>
   <tile/>
   <tile/>
   <tile/>
   <tile/>
   <tile/>
   <tile/>
   <tile/>
   <tile/>
   <tile/>
   <tile/>
   <tile/>
   <tile/>
   <tile/>
   <tile/>
   <tile/>
   <tile/>
   <tile/>
   <tile/>
   <tile/>
   <tile/>
   <tile/>
   <tile/>
   <tile/>
   <tile/>
   <tile/>
   <tile/>
   <tile/>
   <tile/>
   <tile/>
   <tile/>
   <tile/>
   <tile/>
   <tile/>
   <tile/>
   <tile/>
   <tile/>
   <tile/>
   <tile/>
   <tile/>
   <tile/>
   <tile/>
   <tile/>
   <tile/>
   <tile/>
   <tile/>
   <tile/>
   <tile/>
   <tile/>
   <tile/>
   <tile gid="177"/>
   <tile gid="179"/>
   <tile/>
   <tile/>
   <tile/>
   <tile/>
   <tile/>
   <tile/>
   <tile/>
   <tile/>
   <tile/>
   <tile/>
   <tile/>
   <tile/>
   <tile/>
   <tile/>
   <tile/>
   <tile/>
   <tile/>
   <tile/>
   <tile/>
   <tile/>
   <tile/>
   <tile/>
   <tile/>
   <tile/>
   <tile/>
   <tile/>
   <tile/>
   <tile/>
   <tile/>
   <tile/>
   <tile/>
   <tile/>
   <tile/>
   <tile/>
   <tile/>
   <tile/>
   <tile/>
   <tile/>
   <tile/>
   <tile/>
   <tile/>
   <tile/>
   <tile/>
   <tile/>
   <tile/>
   <tile/>
   <tile/>
   <tile/>
   <tile/>
   <tile/>
   <tile/>
   <tile/>
   <tile/>
   <tile/>
   <tile/>
   <tile/>
   <tile/>
   <tile/>
   <tile gid="177"/>
   <tile gid="179"/>
   <tile/>
   <tile/>
   <tile/>
   <tile/>
   <tile/>
   <tile/>
   <tile/>
   <tile/>
   <tile/>
   <tile/>
   <tile/>
   <tile/>
   <tile/>
   <tile/>
   <tile/>
   <tile/>
   <tile/>
   <tile/>
   <tile/>
   <tile/>
   <tile/>
   <tile/>
   <tile/>
   <tile/>
   <tile/>
   <tile/>
   <tile/>
   <tile/>
   <tile/>
   <tile/>
   <tile/>
   <tile/>
   <tile/>
   <tile/>
   <tile/>
   <tile/>
   <tile/>
   <tile/>
   <tile/>
   <tile/>
   <tile/>
   <tile/>
   <tile/>
   <tile/>
   <tile/>
   <tile/>
   <tile/>
   <tile/>
   <tile/>
   <tile/>
   <tile/>
   <tile/>
   <tile/>
   <tile/>
   <tile/>
   <tile/>
   <tile/>
   <tile/>
   <tile gid="177"/>
   <tile gid="179"/>
   <tile/>
   <tile/>
   <tile/>
   <tile/>
   <tile/>
   <tile/>
   <tile/>
   <tile/>
   <tile/>
   <tile/>
   <tile/>
   <tile/>
   <tile/>
   <tile/>
   <tile/>
   <tile/>
   <tile/>
   <tile/>
   <tile/>
   <tile/>
   <tile/>
   <tile/>
   <tile/>
   <tile/>
   <tile/>
   <tile/>
   <tile/>
   <tile/>
   <tile/>
   <tile/>
   <tile/>
   <tile/>
   <tile/>
   <tile/>
   <tile/>
   <tile/>
   <tile/>
   <tile/>
   <tile/>
   <tile/>
   <tile gid="161"/>
   <tile gid="162"/>
   <tile gid="162"/>
   <tile gid="162"/>
   <tile gid="162"/>
   <tile gid="163"/>
   <tile/>
   <tile/>
   <tile/>
   <tile/>
   <tile/>
   <tile/>
   <tile/>
   <tile/>
   <tile/>
   <tile/>
   <tile/>
   <tile/>
   <tile gid="177"/>
   <tile gid="179"/>
   <tile/>
   <tile/>
   <tile/>
   <tile/>
   <tile/>
   <tile/>
   <tile/>
   <tile/>
   <tile/>
   <tile/>
   <tile/>
   <tile/>
   <tile/>
   <tile/>
   <tile/>
   <tile/>
   <tile/>
   <tile/>
   <tile/>
   <tile/>
   <tile/>
   <tile/>
   <tile/>
   <tile/>
   <tile/>
   <tile/>
   <tile/>
   <tile/>
   <tile/>
   <tile/>
   <tile/>
   <tile/>
   <tile/>
   <tile/>
   <tile/>
   <tile/>
   <tile/>
   <tile/>
   <tile/>
   <tile/>
   <tile gid="193"/>
   <tile gid="194"/>
   <tile gid="194"/>
   <tile gid="194"/>
   <tile gid="195"/>
   <tile/>
   <tile/>
   <tile/>
   <tile/>
   <tile/>
   <tile/>
   <tile/>
   <tile/>
   <tile/>
   <tile/>
   <tile/>
   <tile/>
   <tile/>
   <tile gid="177"/>
   <tile gid="179"/>
   <tile/>
   <tile/>
   <tile/>
   <tile/>
   <tile/>
   <tile/>
   <tile/>
   <tile/>
   <tile gid="161"/>
   <tile gid="162"/>
   <tile gid="162"/>
   <tile gid="162"/>
   <tile gid="162"/>
   <tile gid="162"/>
   <tile gid="162"/>
   <tile gid="162"/>
   <tile gid="162"/>
   <tile gid="162"/>
   <tile gid="162"/>
   <tile gid="162"/>
   <tile gid="163"/>
   <tile/>
   <tile/>
   <tile/>
   <tile/>
   <tile/>
   <tile/>
   <tile/>
   <tile/>
   <tile/>
   <tile/>
   <tile/>
   <tile/>
   <tile/>
   <tile/>
   <tile/>
   <tile/>
   <tile/>
   <tile/>
   <tile/>
   <tile/>
   <tile/>
   <tile/>
   <tile/>
   <tile/>
   <tile/>
   <tile/>
   <tile/>
   <tile/>
   <tile/>
   <tile/>
   <tile/>
   <tile/>
   <tile/>
   <tile/>
   <tile/>
   <tile/>
   <tile/>
   <tile gid="177"/>
   <tile gid="179"/>
   <tile/>
   <tile/>
   <tile/>
   <tile/>
   <tile/>
   <tile/>
   <tile/>
   <tile/>
   <tile/>
   <tile gid="193"/>
   <tile gid="194"/>
   <tile gid="194"/>
   <tile gid="194"/>
   <tile gid="194"/>
   <tile gid="194"/>
   <tile gid="194"/>
   <tile gid="194"/>
   <tile gid="194"/>
   <tile gid="194"/>
   <tile gid="195"/>
   <tile/>
   <tile/>
   <tile/>
   <tile/>
   <tile/>
   <tile/>
   <tile/>
   <tile/>
   <tile/>
   <tile/>
   <tile/>
   <tile/>
   <tile/>
   <tile/>
   <tile/>
   <tile/>
   <tile/>
   <tile/>
   <tile/>
   <tile/>
   <tile/>
   <tile/>
   <tile/>
   <tile/>
   <tile/>
   <tile/>
   <tile/>
   <tile/>
   <tile/>
   <tile/>
   <tile/>
   <tile/>
   <tile/>
   <tile/>
   <tile/>
   <tile/>
   <tile/>
   <tile/>
   <tile gid="177"/>
   <tile gid="179"/>
   <tile/>
   <tile/>
   <tile/>
   <tile/>
   <tile/>
   <tile/>
   <tile/>
   <tile/>
   <tile/>
   <tile/>
   <tile/>
   <tile/>
   <tile/>
   <tile/>
   <tile/>
   <tile/>
   <tile/>
   <tile/>
   <tile/>
   <tile/>
   <tile/>
   <tile/>
   <tile/>
   <tile/>
   <tile/>
   <tile/>
   <tile/>
   <tile/>
   <tile/>
   <tile/>
   <tile/>
   <tile/>
   <tile/>
   <tile/>
   <tile/>
   <tile/>
   <tile/>
   <tile/>
   <tile/>
   <tile/>
   <tile/>
   <tile/>
   <tile/>
   <tile/>
   <tile/>
   <tile/>
   <tile/>
   <tile/>
   <tile/>
   <tile/>
   <tile/>
   <tile/>
   <tile/>
   <tile/>
   <tile/>
   <tile/>
   <tile/>
   <tile/>
   <tile gid="177"/>
   <tile gid="179"/>
   <tile/>
   <tile/>
   <tile/>
   <tile/>
   <tile/>
   <tile/>
   <tile/>
   <tile/>
   <tile/>
   <tile/>
   <tile/>
   <tile/>
   <tile/>
   <tile/>
   <tile/>
   <tile/>
   <tile/>
   <tile/>
   <tile/>
   <tile/>
   <tile/>
   <tile/>
   <tile/>
   <tile/>
   <tile/>
   <tile/>
   <tile/>
   <tile/>
   <tile/>
   <tile/>
   <tile/>
   <tile/>
   <tile/>
   <tile/>
   <tile/>
   <tile/>
   <tile/>
   <tile/>
   <tile/>
   <tile/>
   <tile/>
   <tile/>
   <tile/>
   <tile/>
   <tile/>
   <tile/>
   <tile/>
   <tile/>
   <tile/>
   <tile/>
   <tile/>
   <tile/>
   <tile/>
   <tile/>
   <tile/>
   <tile/>
   <tile/>
   <tile/>
   <tile gid="177"/>
   <tile gid="179"/>
   <tile/>
   <tile/>
   <tile/>
   <tile/>
   <tile/>
   <tile/>
   <tile/>
   <tile/>
   <tile/>
   <tile/>
   <tile/>
   <tile/>
   <tile/>
   <tile/>
   <tile/>
   <tile/>
   <tile/>
   <tile/>
   <tile/>
   <tile/>
   <tile/>
   <tile/>
   <tile/>
   <tile/>
   <tile/>
   <tile/>
   <tile/>
   <tile/>
   <tile/>
   <tile/>
   <tile/>
   <tile/>
   <tile/>
   <tile/>
   <tile/>
   <tile/>
   <tile/>
   <tile/>
   <tile/>
   <tile/>
   <tile/>
   <tile/>
   <tile/>
   <tile/>
   <tile gid="179"/>
   <tile/>
   <tile/>
   <tile/>
   <tile/>
   <tile/>
   <tile/>
   <tile/>
   <tile/>
   <tile/>
   <tile/>
   <tile/>
   <tile/>
   <tile/>
   <tile gid="177"/>
   <tile gid="179"/>
   <tile/>
   <tile/>
   <tile/>
   <tile/>
   <tile/>
   <tile/>
   <tile/>
   <tile/>
   <tile/>
   <tile/>
   <tile/>
   <tile/>
   <tile/>
   <tile/>
   <tile/>
   <tile/>
   <tile/>
   <tile/>
   <tile/>
   <tile/>
   <tile/>
   <tile/>
   <tile/>
   <tile/>
   <tile/>
   <tile/>
   <tile/>
   <tile/>
   <tile/>
   <tile/>
   <tile/>
   <tile/>
   <tile/>
   <tile/>
   <tile/>
   <tile/>
   <tile/>
   <tile/>
   <tile/>
   <tile/>
   <tile/>
   <tile/>
   <tile/>
   <tile/>
   <tile gid="179"/>
   <tile/>
   <tile/>
   <tile/>
   <tile/>
   <tile/>
   <tile/>
   <tile/>
   <tile/>
   <tile/>
   <tile/>
   <tile/>
   <tile/>
   <tile/>
   <tile gid="177"/>
   <tile gid="179"/>
   <tile/>
   <tile/>
   <tile/>
   <tile/>
   <tile/>
   <tile/>
   <tile/>
   <tile/>
   <tile/>
   <tile/>
   <tile/>
   <tile/>
   <tile/>
   <tile/>
   <tile/>
   <tile/>
   <tile/>
   <tile/>
   <tile/>
   <tile/>
   <tile/>
   <tile/>
   <tile/>
   <tile/>
   <tile/>
   <tile/>
   <tile/>
   <tile/>
   <tile/>
   <tile/>
   <tile/>
   <tile/>
   <tile/>
   <tile/>
   <tile/>
   <tile/>
   <tile/>
   <tile/>
   <tile/>
   <tile/>
   <tile/>
   <tile/>
   <tile/>
   <tile/>
   <tile gid="179"/>
   <tile/>
   <tile/>
   <tile/>
   <tile/>
   <tile/>
   <tile/>
   <tile/>
   <tile/>
   <tile/>
   <tile/>
   <tile/>
   <tile/>
   <tile/>
   <tile gid="177"/>
   <tile gid="178"/>
   <tile gid="162"/>
   <tile gid="162"/>
   <tile gid="162"/>
   <tile gid="163"/>
   <tile/>
   <tile/>
   <tile/>
   <tile/>
   <tile/>
   <tile/>
   <tile/>
   <tile/>
   <tile/>
   <tile/>
   <tile/>
   <tile/>
   <tile/>
   <tile/>
   <tile/>
   <tile/>
   <tile/>
   <tile/>
   <tile/>
   <tile/>
   <tile/>
   <tile/>
   <tile/>
   <tile/>
   <tile/>
   <tile/>
   <tile/>
   <tile/>
   <tile/>
   <tile/>
   <tile/>
   <tile/>
   <tile/>
   <tile/>
   <tile/>
   <tile/>
   <tile/>
   <tile/>
   <tile/>
   <tile gid="161"/>
   <tile gid="179"/>
   <tile/>
   <tile/>
   <tile/>
   <tile/>
   <tile/>
   <tile/>
   <tile/>
   <tile/>
   <tile/>
   <tile/>
   <tile/>
   <tile/>
   <tile/>
   <tile gid="177"/>
   <tile gid="178"/>
   <tile gid="194"/>
   <tile gid="194"/>
   <tile gid="195"/>
   <tile/>
   <tile/>
   <tile/>
   <tile/>
   <tile/>
   <tile/>
   <tile/>
   <tile/>
   <tile/>
   <tile/>
   <tile/>
   <tile/>
   <tile/>
   <tile/>
   <tile/>
   <tile/>
   <tile/>
   <tile/>
   <tile gid="161"/>
   <tile gid="162"/>
   <tile gid="162"/>
   <tile gid="163"/>
   <tile/>
   <tile/>
   <tile/>
   <tile gid="161"/>
   <tile gid="162"/>
   <tile gid="162"/>
   <tile gid="162"/>
   <tile gid="162"/>
   <tile gid="162"/>
   <tile gid="162"/>
   <tile gid="162"/>
   <tile gid="162"/>
   <tile gid="162"/>
   <tile gid="162"/>
   <tile gid="163"/>
   <tile/>
   <tile/>
   <tile/>
   <tile gid="193"/>
   <tile gid="195"/>
   <tile/>
   <tile/>
   <tile/>
   <tile/>
   <tile/>
   <tile/>
   <tile/>
   <tile/>
   <tile/>
   <tile/>
   <tile/>
   <tile/>
   <tile/>
   <tile gid="177"/>
   <tile gid="179"/>
   <tile/>
   <tile/>
   <tile/>
   <tile/>
   <tile/>
   <tile/>
   <tile/>
   <tile gid="161"/>
   <tile gid="162"/>
   <tile gid="162"/>
   <tile gid="162"/>
   <tile gid="162"/>
   <tile gid="162"/>
   <tile gid="162"/>
   <tile gid="162"/>
   <tile gid="162"/>
   <tile gid="162"/>
   <tile gid="162"/>
   <tile gid="163"/>
   <tile/>
   <tile/>
   <tile/>
   <tile gid="193"/>
   <tile gid="195"/>
   <tile/>
   <tile/>
   <tile/>
   <tile/>
   <tile/>
   <tile gid="193"/>
   <tile gid="194"/>
   <tile gid="194"/>
   <tile gid="194"/>
   <tile gid="194"/>
   <tile gid="194"/>
   <tile gid="194"/>
   <tile gid="194"/>
   <tile gid="195"/>
   <tile/>
   <tile/>
   <tile/>
   <tile/>
   <tile/>
   <tile/>
   <tile/>
   <tile/>
   <tile/>
   <tile/>
   <tile gid="161"/>
   <tile/>
   <tile/>
   <tile/>
   <tile/>
   <tile/>
   <tile/>
   <tile/>
   <tile/>
   <tile/>
   <tile gid="177"/>
   <tile gid="179"/>
   <tile/>
   <tile/>
   <tile/>
   <tile/>
   <tile/>
   <tile/>
   <tile/>
   <tile/>
   <tile gid="193"/>
   <tile gid="194"/>
   <tile gid="194"/>
   <tile gid="194"/>
   <tile gid="194"/>
   <tile gid="194"/>
   <tile gid="194"/>
   <tile gid="194"/>
   <tile gid="195"/>
   <tile/>
   <tile/>
   <tile/>
   <tile/>
   <tile/>
   <tile/>
   <tile/>
   <tile/>
   <tile/>
   <tile/>
   <tile/>
   <tile/>
   <tile/>
   <tile/>
   <tile/>
   <tile/>
   <tile/>
   <tile/>
   <tile/>
   <tile/>
   <tile/>
   <tile/>
   <tile/>
   <tile/>
   <tile/>
   <tile/>
   <tile/>
   <tile/>
   <tile/>
   <tile/>
   <tile/>
   <tile gid="177"/>
   <tile gid="163"/>
   <tile/>
   <tile/>
   <tile/>
   <tile/>
   <tile/>
   <tile/>
   <tile/>
   <tile/>
   <tile gid="177"/>
   <tile gid="179"/>
   <tile/>
   <tile/>
   <tile/>
   <tile/>
   <tile/>
   <tile/>
   <tile/>
   <tile/>
   <tile/>
   <tile/>
   <tile/>
   <tile/>
   <tile/>
   <tile/>
   <tile/>
   <tile/>
   <tile/>
   <tile/>
   <tile/>
   <tile/>
   <tile/>
   <tile/>
   <tile/>
   <tile/>
   <tile/>
   <tile/>
   <tile/>
   <tile/>
   <tile/>
   <tile/>
   <tile/>
   <tile/>
   <tile/>
   <tile/>
   <tile/>
   <tile/>
   <tile/>
   <tile/>
   <tile/>
   <tile/>
   <tile/>
   <tile/>
   <tile/>
   <tile/>
   <tile/>
   <tile/>
   <tile/>
   <tile/>
   <tile gid="177"/>
   <tile gid="195"/>
   <tile/>
   <tile/>
   <tile/>
   <tile/>
   <tile/>
   <tile/>
   <tile/>
   <tile/>
   <tile gid="177"/>
   <tile gid="179"/>
   <tile/>
   <tile/>
   <tile/>
   <tile/>
   <tile/>
   <tile/>
   <tile/>
   <tile/>
   <tile/>
   <tile/>
   <tile/>
   <tile/>
   <tile/>
   <tile/>
   <tile/>
   <tile/>
   <tile/>
   <tile/>
   <tile/>
   <tile/>
   <tile/>
   <tile/>
   <tile/>
   <tile/>
   <tile/>
   <tile/>
   <tile/>
   <tile/>
   <tile/>
   <tile/>
   <tile/>
   <tile/>
   <tile/>
   <tile/>
   <tile/>
   <tile/>
   <tile/>
   <tile/>
   <tile/>
   <tile/>
   <tile/>
   <tile/>
   <tile/>
   <tile/>
   <tile/>
   <tile/>
   <tile/>
   <tile/>
   <tile gid="177"/>
   <tile/>
   <tile/>
   <tile/>
   <tile/>
   <tile/>
   <tile/>
   <tile/>
   <tile/>
   <tile/>
   <tile gid="177"/>
   <tile gid="179"/>
   <tile/>
   <tile/>
   <tile/>
   <tile/>
   <tile/>
   <tile/>
   <tile/>
   <tile/>
   <tile/>
   <tile/>
   <tile/>
   <tile/>
   <tile/>
   <tile/>
   <tile/>
   <tile/>
   <tile/>
   <tile/>
   <tile/>
   <tile/>
   <tile/>
   <tile/>
   <tile/>
   <tile/>
   <tile/>
   <tile/>
   <tile/>
   <tile/>
   <tile/>
   <tile/>
   <tile/>
   <tile/>
   <tile/>
   <tile/>
   <tile/>
   <tile/>
   <tile/>
   <tile/>
   <tile/>
   <tile/>
   <tile gid="161"/>
   <tile gid="162"/>
   <tile gid="162"/>
   <tile gid="162"/>
   <tile gid="163"/>
   <tile/>
   <tile/>
   <tile/>
   <tile gid="193"/>
   <tile/>
   <tile/>
   <tile/>
   <tile/>
   <tile/>
   <tile gid="161"/>
   <tile gid="162"/>
   <tile gid="162"/>
   <tile gid="162"/>
   <tile gid="178"/>
   <tile gid="179"/>
   <tile/>
   <tile/>
   <tile/>
   <tile/>
   <tile/>
   <tile/>
   <tile/>
   <tile/>
   <tile/>
   <tile/>
   <tile/>
   <tile/>
   <tile/>
   <tile/>
   <tile/>
   <tile/>
   <tile/>
   <tile/>
   <tile/>
   <tile/>
   <tile/>
   <tile/>
   <tile/>
   <tile/>
   <tile/>
   <tile/>
   <tile/>
   <tile/>
   <tile/>
   <tile/>
   <tile/>
   <tile/>
   <tile/>
   <tile/>
   <tile/>
   <tile/>
   <tile/>
   <tile/>
   <tile/>
   <tile/>
   <tile/>
   <tile gid="193"/>
   <tile gid="178"/>
   <tile gid="195"/>
   <tile/>
   <tile/>
   <tile/>
   <tile/>
   <tile/>
   <tile/>
   <tile/>
   <tile/>
   <tile/>
   <tile/>
   <tile gid="177"/>
   <tile gid="178"/>
   <tile gid="178"/>
   <tile gid="178"/>
   <tile gid="178"/>
   <tile gid="179"/>
   <tile/>
   <tile/>
   <tile/>
   <tile/>
   <tile/>
   <tile/>
   <tile/>
   <tile/>
   <tile/>
   <tile/>
   <tile/>
   <tile/>
   <tile/>
   <tile/>
   <tile/>
   <tile/>
   <tile/>
   <tile/>
   <tile/>
   <tile/>
   <tile/>
   <tile/>
   <tile/>
   <tile/>
   <tile/>
   <tile/>
   <tile/>
   <tile/>
   <tile/>
   <tile/>
   <tile/>
   <tile/>
   <tile/>
   <tile/>
   <tile/>
   <tile/>
   <tile/>
   <tile/>
   <tile/>
   <tile/>
   <tile/>
   <tile/>
   <tile/>
   <tile/>
   <tile/>
   <tile/>
   <tile/>
   <tile/>
   <tile/>
   <tile/>
   <tile/>
   <tile/>
   <tile/>
   <tile/>
   <tile gid="177"/>
   <tile gid="178"/>
   <tile gid="178"/>
   <tile gid="178"/>
   <tile gid="178"/>
   <tile gid="179"/>
   <tile/>
   <tile/>
   <tile/>
   <tile/>
   <tile/>
   <tile/>
   <tile/>
   <tile/>
   <tile/>
   <tile/>
   <tile/>
   <tile/>
   <tile/>
   <tile/>
   <tile/>
   <tile/>
   <tile/>
   <tile/>
   <tile/>
   <tile/>
   <tile/>
   <tile/>
   <tile/>
   <tile/>
   <tile/>
   <tile/>
   <tile/>
   <tile/>
   <tile/>
   <tile/>
   <tile/>
   <tile/>
   <tile/>
   <tile/>
   <tile/>
   <tile/>
   <tile/>
   <tile/>
   <tile/>
   <tile/>
   <tile/>
   <tile/>
   <tile/>
   <tile/>
   <tile/>
   <tile/>
   <tile/>
   <tile/>
   <tile/>
   <tile/>
   <tile/>
   <tile/>
   <tile/>
   <tile/>
   <tile gid="177"/>
   <tile gid="178"/>
   <tile gid="178"/>
   <tile gid="178"/>
   <tile gid="178"/>
   <tile gid="179"/>
   <tile/>
   <tile/>
   <tile/>
   <tile/>
   <tile/>
   <tile/>
   <tile/>
   <tile/>
   <tile/>
   <tile/>
   <tile/>
   <tile/>
   <tile/>
   <tile/>
   <tile/>
   <tile/>
   <tile/>
   <tile/>
   <tile/>
   <tile/>
   <tile/>
   <tile/>
   <tile/>
   <tile gid="161"/>
   <tile gid="162"/>
   <tile gid="162"/>
   <tile gid="162"/>
   <tile gid="163"/>
   <tile/>
   <tile/>
   <tile/>
   <tile/>
   <tile/>
   <tile/>
   <tile/>
   <tile/>
   <tile/>
   <tile/>
   <tile/>
   <tile/>
   <tile/>
   <tile/>
   <tile/>
   <tile/>
   <tile/>
   <tile/>
   <tile/>
   <tile/>
   <tile/>
   <tile/>
   <tile/>
   <tile/>
   <tile/>
   <tile/>
   <tile gid="177"/>
   <tile gid="178"/>
   <tile gid="178"/>
   <tile gid="178"/>
   <tile gid="178"/>
   <tile gid="179"/>
   <tile/>
   <tile/>
   <tile/>
   <tile/>
   <tile/>
   <tile/>
   <tile/>
   <tile/>
   <tile/>
   <tile/>
   <tile/>
   <tile/>
   <tile/>
   <tile/>
   <tile/>
   <tile/>
   <tile/>
   <tile/>
   <tile/>
   <tile/>
   <tile/>
   <tile/>
   <tile/>
   <tile/>
   <tile gid="193"/>
   <tile gid="194"/>
   <tile gid="195"/>
   <tile/>
   <tile/>
   <tile/>
   <tile/>
   <tile/>
   <tile/>
   <tile/>
   <tile/>
   <tile/>
   <tile/>
   <tile/>
   <tile/>
   <tile/>
   <tile/>
   <tile/>
   <tile/>
   <tile/>
   <tile/>
   <tile/>
   <tile/>
   <tile/>
   <tile/>
   <tile/>
   <tile/>
   <tile gid="161"/>
   <tile gid="162"/>
   <tile gid="162"/>
   <tile gid="178"/>
   <tile gid="178"/>
   <tile gid="178"/>
   <tile gid="178"/>
   <tile gid="178"/>
   <tile gid="179"/>
   <tile/>
   <tile/>
   <tile/>
   <tile/>
   <tile/>
   <tile/>
   <tile/>
   <tile/>
   <tile/>
   <tile/>
   <tile/>
   <tile/>
   <tile/>
   <tile/>
   <tile/>
   <tile/>
   <tile/>
   <tile/>
   <tile/>
   <tile/>
   <tile/>
   <tile/>
   <tile/>
   <tile/>
   <tile/>
   <tile/>
   <tile/>
   <tile/>
   <tile/>
   <tile/>
   <tile/>
   <tile/>
   <tile/>
   <tile/>
   <tile/>
   <tile/>
   <tile/>
   <tile/>
   <tile/>
   <tile/>
   <tile/>
   <tile/>
   <tile/>
   <tile/>
   <tile/>
   <tile/>
   <tile/>
   <tile/>
   <tile/>
   <tile/>
   <tile/>
   <tile gid="177"/>
   <tile gid="178"/>
   <tile gid="178"/>
   <tile gid="178"/>
   <tile gid="178"/>
   <tile gid="178"/>
   <tile gid="178"/>
   <tile gid="178"/>
   <tile gid="179"/>
   <tile/>
   <tile/>
   <tile/>
   <tile/>
   <tile/>
   <tile/>
   <tile/>
   <tile/>
   <tile/>
   <tile/>
   <tile/>
   <tile/>
   <tile/>
   <tile/>
   <tile/>
   <tile/>
   <tile/>
   <tile/>
   <tile/>
   <tile/>
   <tile/>
   <tile/>
   <tile/>
   <tile/>
   <tile/>
   <tile/>
   <tile/>
   <tile/>
   <tile/>
   <tile/>
   <tile/>
   <tile/>
   <tile/>
   <tile/>
   <tile/>
   <tile/>
   <tile/>
   <tile/>
   <tile/>
   <tile/>
   <tile/>
   <tile/>
   <tile/>
   <tile/>
   <tile/>
   <tile/>
   <tile/>
   <tile/>
   <tile/>
   <tile/>
   <tile/>
   <tile gid="177"/>
   <tile gid="178"/>
   <tile gid="178"/>
   <tile gid="178"/>
   <tile gid="178"/>
   <tile gid="178"/>
   <tile gid="178"/>
   <tile gid="178"/>
   <tile gid="179"/>
   <tile/>
   <tile/>
   <tile/>
   <tile/>
   <tile/>
   <tile/>
   <tile/>
   <tile/>
   <tile/>
   <tile/>
   <tile/>
   <tile/>
   <tile/>
   <tile/>
   <tile/>
   <tile/>
   <tile/>
   <tile/>
   <tile/>
   <tile/>
   <tile/>
   <tile/>
   <tile/>
   <tile/>
   <tile/>
   <tile/>
   <tile/>
   <tile/>
   <tile/>
   <tile/>
   <tile/>
   <tile/>
   <tile/>
   <tile/>
   <tile/>
   <tile/>
   <tile/>
   <tile/>
   <tile/>
   <tile/>
   <tile/>
   <tile/>
   <tile/>
   <tile/>
   <tile/>
   <tile/>
   <tile/>
   <tile/>
   <tile/>
   <tile/>
   <tile/>
   <tile gid="177"/>
   <tile gid="178"/>
   <tile gid="178"/>
   <tile gid="178"/>
   <tile gid="178"/>
   <tile gid="178"/>
   <tile gid="178"/>
   <tile gid="178"/>
   <tile gid="195"/>
   <tile/>
   <tile/>
   <tile/>
   <tile/>
   <tile/>
   <tile/>
   <tile/>
   <tile/>
   <tile/>
   <tile/>
   <tile/>
   <tile/>
   <tile/>
   <tile/>
   <tile/>
   <tile/>
   <tile/>
   <tile/>
   <tile/>
   <tile/>
   <tile/>
   <tile/>
   <tile/>
   <tile/>
   <tile/>
   <tile/>
   <tile/>
   <tile/>
   <tile/>
   <tile/>
   <tile/>
   <tile/>
   <tile/>
   <tile/>
   <tile/>
   <tile/>
   <tile/>
   <tile/>
   <tile/>
   <tile/>
   <tile/>
   <tile/>
   <tile/>
   <tile/>
   <tile/>
   <tile/>
   <tile/>
   <tile/>
   <tile/>
   <tile/>
   <tile/>
   <tile gid="177"/>
   <tile gid="178"/>
   <tile gid="178"/>
   <tile gid="178"/>
   <tile gid="178"/>
   <tile gid="178"/>
   <tile gid="178"/>
   <tile gid="178"/>
   <tile gid="225"/>
   <tile/>
   <tile/>
   <tile/>
   <tile gid="161"/>
   <tile gid="162"/>
   <tile gid="162"/>
   <tile gid="162"/>
   <tile gid="163"/>
   <tile/>
   <tile/>
   <tile/>
   <tile/>
   <tile/>
   <tile/>
   <tile/>
   <tile/>
   <tile/>
   <tile/>
   <tile/>
   <tile/>
   <tile gid="161"/>
   <tile gid="162"/>
   <tile gid="162"/>
   <tile gid="162"/>
   <tile gid="162"/>
   <tile gid="162"/>
   <tile gid="162"/>
   <tile gid="163"/>
   <tile/>
   <tile/>
   <tile/>
   <tile/>
   <tile/>
   <tile/>
   <tile/>
   <tile/>
   <tile/>
   <tile/>
   <tile/>
   <tile/>
   <tile/>
   <tile/>
   <tile/>
   <tile/>
   <tile/>
   <tile/>
   <tile/>
   <tile/>
   <tile/>
   <tile/>
   <tile/>
   <tile gid="177"/>
   <tile gid="178"/>
   <tile gid="178"/>
   <tile gid="178"/>
   <tile gid="178"/>
   <tile gid="178"/>
   <tile gid="178"/>
   <tile gid="178"/>
   <tile gid="225"/>
   <tile/>
   <tile/>
   <tile/>
   <tile/>
   <tile/>
   <tile/>
   <tile/>
   <tile/>
   <tile/>
   <tile/>
   <tile/>
   <tile/>
   <tile/>
   <tile/>
   <tile/>
   <tile/>
   <tile/>
   <tile/>
   <tile/>
   <tile/>
   <tile gid="177"/>
   <tile gid="178"/>
   <tile gid="178"/>
   <tile gid="178"/>
   <tile gid="178"/>
   <tile gid="178"/>
   <tile gid="178"/>
   <tile gid="179"/>
   <tile/>
   <tile/>
   <tile/>
   <tile/>
   <tile/>
   <tile/>
   <tile/>
   <tile/>
   <tile/>
   <tile/>
   <tile/>
   <tile/>
   <tile/>
   <tile/>
   <tile/>
   <tile/>
   <tile/>
   <tile/>
   <tile/>
   <tile/>
   <tile/>
   <tile/>
   <tile/>
   <tile gid="177"/>
   <tile gid="178"/>
   <tile gid="178"/>
   <tile gid="178"/>
   <tile gid="178"/>
   <tile gid="178"/>
   <tile gid="178"/>
   <tile gid="178"/>
   <tile gid="225"/>
   <tile/>
   <tile/>
   <tile/>
   <tile/>
   <tile/>
   <tile/>
   <tile/>
   <tile/>
   <tile/>
   <tile/>
   <tile/>
   <tile/>
   <tile/>
   <tile/>
   <tile/>
   <tile/>
   <tile/>
   <tile/>
   <tile/>
   <tile/>
   <tile gid="177"/>
   <tile gid="178"/>
   <tile gid="178"/>
   <tile gid="178"/>
   <tile gid="178"/>
   <tile gid="178"/>
   <tile gid="178"/>
   <tile gid="179"/>
   <tile/>
   <tile/>
   <tile/>
   <tile/>
   <tile/>
   <tile/>
   <tile/>
   <tile/>
   <tile/>
   <tile/>
   <tile/>
   <tile/>
   <tile/>
   <tile/>
   <tile/>
   <tile/>
   <tile/>
   <tile/>
   <tile/>
   <tile/>
   <tile/>
   <tile/>
   <tile/>
   <tile gid="177"/>
   <tile gid="178"/>
   <tile gid="178"/>
   <tile gid="178"/>
   <tile gid="178"/>
   <tile gid="178"/>
   <tile gid="178"/>
   <tile gid="178"/>
   <tile gid="225"/>
   <tile/>
   <tile/>
   <tile/>
   <tile/>
   <tile/>
   <tile/>
   <tile/>
   <tile/>
   <tile/>
   <tile/>
   <tile/>
   <tile/>
   <tile/>
   <tile/>
   <tile/>
   <tile/>
   <tile/>
   <tile/>
   <tile/>
   <tile/>
   <tile gid="177"/>
   <tile gid="178"/>
   <tile gid="178"/>
   <tile gid="178"/>
   <tile gid="178"/>
   <tile gid="178"/>
   <tile gid="178"/>
   <tile gid="179"/>
   <tile/>
   <tile/>
   <tile/>
   <tile/>
   <tile/>
   <tile/>
   <tile/>
   <tile/>
   <tile/>
   <tile/>
   <tile/>
   <tile/>
   <tile/>
   <tile/>
   <tile/>
   <tile/>
   <tile/>
   <tile/>
   <tile/>
   <tile/>
   <tile/>
   <tile/>
   <tile/>
   <tile gid="177"/>
   <tile gid="178"/>
   <tile gid="178"/>
   <tile gid="178"/>
   <tile gid="178"/>
   <tile gid="178"/>
   <tile gid="178"/>
   <tile gid="178"/>
   <tile gid="162"/>
   <tile gid="162"/>
   <tile gid="162"/>
   <tile gid="162"/>
   <tile gid="162"/>
   <tile gid="162"/>
   <tile gid="162"/>
   <tile gid="162"/>
   <tile gid="163"/>
   <tile gid="225"/>
   <tile gid="225"/>
   <tile gid="225"/>
   <tile gid="225"/>
   <tile gid="225"/>
   <tile gid="161"/>
   <tile gid="162"/>
   <tile gid="162"/>
   <tile gid="162"/>
   <tile gid="162"/>
   <tile gid="162"/>
   <tile gid="162"/>
   <tile gid="178"/>
   <tile gid="178"/>
   <tile gid="178"/>
   <tile gid="178"/>
   <tile gid="178"/>
   <tile gid="178"/>
   <tile gid="178"/>
   <tile gid="178"/>
   <tile gid="162"/>
   <tile gid="162"/>
   <tile gid="162"/>
   <tile gid="162"/>
   <tile gid="162"/>
   <tile gid="162"/>
   <tile gid="162"/>
   <tile gid="162"/>
   <tile gid="162"/>
   <tile gid="162"/>
   <tile gid="162"/>
   <tile gid="162"/>
   <tile gid="162"/>
   <tile gid="162"/>
   <tile gid="162"/>
   <tile gid="162"/>
   <tile gid="162"/>
   <tile gid="162"/>
   <tile gid="162"/>
   <tile gid="162"/>
   <tile gid="162"/>
   <tile gid="162"/>
   <tile gid="162"/>
   <tile gid="178"/>
   <tile gid="178"/>
   <tile gid="178"/>
   <tile gid="178"/>
   <tile gid="178"/>
   <tile gid="178"/>
   <tile gid="178"/>
   <tile gid="178"/>
  </data>
 </layer>
 <layer id="1" name="Map" width="60" height="34">
  <properties>
   <property name="Draw" type="bool" value="true"/>
  </properties>
  <data>
   <tile/>
   <tile/>
   <tile gid="1526"/>
   <tile gid="1527"/>
   <tile/>
   <tile/>
   <tile/>
   <tile/>
   <tile/>
   <tile/>
   <tile/>
   <tile/>
   <tile/>
   <tile/>
   <tile/>
   <tile/>
   <tile/>
   <tile gid="1544"/>
   <tile gid="1545"/>
   <tile/>
   <tile/>
   <tile/>
   <tile/>
   <tile/>
   <tile/>
   <tile/>
   <tile/>
   <tile/>
   <tile/>
   <tile/>
   <tile/>
   <tile/>
   <tile/>
   <tile/>
   <tile/>
   <tile/>
   <tile/>
   <tile/>
   <tile/>
   <tile/>
   <tile/>
   <tile/>
   <tile/>
   <tile/>
   <tile/>
   <tile/>
   <tile/>
   <tile/>
   <tile/>
   <tile/>
   <tile/>
   <tile/>
   <tile/>
   <tile/>
   <tile/>
   <tile/>
   <tile/>
   <tile/>
   <tile/>
   <tile/>
   <tile/>
   <tile/>
   <tile gid="1544"/>
   <tile gid="1545"/>
   <tile/>
   <tile/>
   <tile/>
   <tile/>
   <tile/>
   <tile/>
   <tile/>
   <tile/>
   <tile/>
   <tile/>
   <tile/>
   <tile/>
   <tile/>
   <tile gid="1560"/>
   <tile gid="1561"/>
   <tile/>
   <tile/>
   <tile/>
   <tile/>
   <tile/>
   <tile/>
   <tile/>
   <tile/>
   <tile/>
   <tile/>
   <tile/>
   <tile/>
   <tile/>
   <tile/>
   <tile/>
   <tile/>
   <tile/>
   <tile/>
   <tile/>
   <tile/>
   <tile/>
   <tile/>
   <tile/>
   <tile/>
   <tile/>
   <tile/>
   <tile/>
   <tile/>
   <tile/>
   <tile/>
   <tile/>
   <tile/>
   <tile/>
   <tile/>
   <tile/>
   <tile/>
   <tile/>
   <tile/>
   <tile/>
   <tile/>
   <tile/>
   <tile/>
   <tile/>
   <tile gid="1560"/>
   <tile gid="1561"/>
   <tile/>
   <tile/>
   <tile/>
   <tile/>
   <tile/>
   <tile/>
   <tile/>
   <tile/>
   <tile/>
   <tile/>
   <tile/>
   <tile/>
   <tile/>
   <tile gid="1576"/>
   <tile gid="1577"/>
   <tile/>
   <tile/>
   <tile/>
   <tile/>
   <tile/>
   <tile/>
   <tile/>
   <tile/>
   <tile/>
   <tile/>
   <tile/>
   <tile/>
   <tile/>
   <tile/>
   <tile/>
   <tile/>
   <tile/>
   <tile/>
   <tile/>
   <tile/>
   <tile/>
   <tile/>
   <tile/>
   <tile/>
   <tile/>
   <tile/>
   <tile/>
   <tile/>
   <tile/>
   <tile/>
   <tile/>
   <tile/>
   <tile/>
   <tile/>
   <tile/>
   <tile/>
   <tile/>
   <tile/>
   <tile/>
   <tile/>
   <tile/>
   <tile/>
   <tile/>
   <tile gid="1576"/>
   <tile gid="1577"/>
   <tile/>
   <tile/>
   <tile/>
   <tile/>
   <tile/>
   <tile/>
   <tile/>
   <tile/>
   <tile/>
   <tile/>
   <tile/>
   <tile/>
   <tile/>
   <tile gid="1592"/>
   <tile gid="1593"/>
   <tile/>
   <tile/>
   <tile/>
   <tile/>
   <tile/>
   <tile/>
   <tile/>
   <tile/>
   <tile/>
   <tile/>
   <tile/>
   <tile/>
   <tile/>
   <tile/>
   <tile/>
   <tile/>
   <tile/>
   <tile/>
   <tile/>
   <tile/>
   <tile/>
   <tile/>
   <tile gid="196"/>
   <tile gid="197"/>
   <tile gid="197"/>
   <tile gid="197"/>
   <tile gid="197"/>
   <tile gid="198"/>
   <tile/>
   <tile/>
   <tile/>
   <tile/>
   <tile/>
   <tile/>
   <tile/>
   <tile/>
   <tile/>
   <tile/>
   <tile/>
   <tile/>
   <tile/>
   <tile/>
   <tile/>
   <tile gid="1592"/>
   <tile gid="1593"/>
   <tile/>
   <tile/>
   <tile/>
   <tile/>
   <tile/>
   <tile/>
   <tile/>
   <tile/>
   <tile/>
   <tile/>
   <tile/>
   <tile/>
   <tile/>
   <tile/>
   <tile/>
   <tile/>
   <tile/>
   <tile/>
   <tile/>
   <tile/>
   <tile/>
   <tile/>
   <tile/>
   <tile/>
   <tile/>
   <tile/>
   <tile/>
   <tile/>
   <tile/>
   <tile/>
   <tile/>
   <tile/>
   <tile/>
   <tile/>
   <tile/>
   <tile/>
   <tile/>
   <tile/>
   <tile/>
   <tile/>
   <tile/>
   <tile/>
   <tile/>
   <tile/>
   <tile/>
   <tile/>
   <tile/>
   <tile/>
   <tile/>
   <tile/>
   <tile/>
   <tile/>
   <tile/>
   <tile/>
   <tile/>
   <tile/>
   <tile/>
   <tile/>
   <tile gid="1544"/>
   <tile gid="1545"/>
   <tile/>
   <tile/>
   <tile/>
   <tile/>
   <tile/>
   <tile gid="196"/>
   <tile gid="197"/>
   <tile gid="197"/>
   <tile gid="197"/>
   <tile gid="197"/>
   <tile gid="197"/>
   <tile gid="197"/>
   <tile gid="197"/>
   <tile gid="197"/>
   <tile gid="197"/>
   <tile gid="197"/>
   <tile gid="197"/>
   <tile gid="198"/>
   <tile/>
   <tile/>
   <tile/>
   <tile/>
   <tile/>
   <tile/>
   <tile/>
   <tile/>
   <tile/>
   <tile/>
   <tile/>
   <tile/>
   <tile/>
   <tile/>
   <tile/>
   <tile/>
   <tile/>
   <tile/>
   <tile/>
   <tile/>
   <tile/>
   <tile/>
   <tile/>
   <tile/>
   <tile/>
   <tile/>
   <tile/>
   <tile/>
   <tile/>
   <tile/>
   <tile/>
   <tile/>
   <tile/>
   <tile/>
   <tile/>
   <tile/>
   <tile/>
   <tile/>
   <tile/>
   <tile/>
   <tile gid="1560"/>
   <tile gid="1561"/>
   <tile/>
   <tile/>
   <tile/>
   <tile/>
   <tile/>
   <tile/>
   <tile/>
   <tile/>
   <tile/>
   <tile/>
   <tile/>
   <tile/>
   <tile/>
   <tile/>
   <tile/>
   <tile/>
   <tile/>
   <tile/>
   <tile/>
   <tile/>
   <tile/>
   <tile/>
   <tile/>
   <tile/>
   <tile/>
   <tile/>
   <tile/>
   <tile/>
   <tile/>
   <tile/>
   <tile/>
   <tile/>
   <tile/>
   <tile/>
   <tile/>
   <tile/>
   <tile/>
   <tile/>
   <tile/>
   <tile/>
   <tile/>
   <tile/>
   <tile/>
   <tile/>
   <tile/>
   <tile/>
   <tile/>
   <tile/>
   <tile/>
   <tile/>
   <tile/>
   <tile/>
   <tile/>
   <tile/>
   <tile/>
   <tile/>
   <tile/>
   <tile/>
   <tile gid="1576"/>
   <tile gid="1577"/>
   <tile/>
   <tile/>
   <tile/>
   <tile/>
   <tile/>
   <tile/>
   <tile gid="1526"/>
   <tile gid="1527"/>
   <tile/>
   <tile/>
   <tile/>
   <tile/>
   <tile/>
   <tile/>
   <tile/>
   <tile/>
   <tile/>
   <tile/>
   <tile/>
   <tile/>
   <tile/>
   <tile/>
   <tile/>
   <tile/>
   <tile/>
   <tile/>
   <tile/>
   <tile/>
   <tile/>
   <tile/>
   <tile/>
   <tile/>
   <tile/>
   <tile/>
   <tile/>
   <tile/>
   <tile/>
   <tile/>
   <tile/>
   <tile/>
   <tile/>
   <tile/>
   <tile/>
   <tile/>
   <tile/>
   <tile/>
   <tile/>
   <tile/>
   <tile/>
   <tile/>
   <tile/>
   <tile/>
   <tile/>
   <tile/>
   <tile/>
   <tile/>
   <tile/>
   <tile/>
   <tile gid="1592"/>
   <tile gid="1593"/>
   <tile/>
   <tile/>
   <tile/>
   <tile/>
   <tile/>
   <tile/>
   <tile gid="1576"/>
   <tile gid="1577"/>
   <tile/>
   <tile/>
   <tile/>
   <tile/>
   <tile/>
   <tile/>
   <tile/>
   <tile/>
   <tile/>
   <tile/>
   <tile/>
   <tile/>
   <tile/>
   <tile/>
   <tile/>
   <tile/>
   <tile/>
   <tile/>
   <tile/>
   <tile/>
   <tile/>
   <tile/>
   <tile/>
   <tile/>
   <tile/>
   <tile/>
   <tile/>
   <tile/>
   <tile/>
   <tile/>
   <tile/>
   <tile/>
   <tile/>
   <tile/>
   <tile/>
   <tile/>
   <tile/>
   <tile/>
   <tile/>
   <tile/>
   <tile/>
   <tile/>
   <tile/>
   <tile/>
   <tile/>
   <tile/>
   <tile/>
   <tile/>
   <tile/>
   <tile/>
   <tile gid="1544"/>
   <tile gid="1545"/>
   <tile/>
   <tile/>
   <tile/>
   <tile/>
   <tile/>
   <tile/>
   <tile gid="1592"/>
   <tile gid="1593"/>
   <tile/>
   <tile/>
   <tile/>
   <tile/>
   <tile/>
   <tile/>
   <tile/>
   <tile/>
   <tile/>
   <tile/>
   <tile/>
   <tile/>
   <tile/>
   <tile/>
   <tile/>
   <tile/>
   <tile/>
   <tile/>
   <tile/>
   <tile/>
   <tile/>
   <tile/>
   <tile/>
   <tile/>
   <tile/>
   <tile/>
   <tile/>
   <tile/>
   <tile/>
   <tile/>
   <tile/>
   <tile/>
   <tile/>
   <tile/>
   <tile/>
   <tile/>
   <tile/>
   <tile/>
   <tile/>
   <tile/>
   <tile/>
   <tile/>
   <tile/>
   <tile/>
   <tile/>
   <tile/>
   <tile/>
   <tile/>
   <tile/>
   <tile/>
   <tile gid="1560"/>
   <tile gid="1561"/>
   <tile/>
   <tile/>
   <tile/>
   <tile/>
   <tile/>
   <tile/>
   <tile gid="1544"/>
   <tile gid="1545"/>
   <tile/>
   <tile/>
   <tile/>
   <tile/>
   <tile/>
   <tile/>
   <tile/>
   <tile/>
   <tile/>
   <tile/>
   <tile/>
   <tile/>
   <tile/>
   <tile/>
   <tile/>
   <tile/>
   <tile/>
   <tile/>
   <tile/>
   <tile/>
   <tile/>
   <tile/>
   <tile/>
   <tile/>
   <tile/>
   <tile/>
   <tile/>
   <tile/>
   <tile/>
   <tile/>
   <tile/>
   <tile/>
   <tile/>
   <tile/>
   <tile/>
   <tile/>
   <tile/>
   <tile/>
   <tile/>
   <tile/>
   <tile/>
   <tile/>
   <tile/>
   <tile/>
   <tile/>
   <tile/>
   <tile/>
   <tile/>
   <tile/>
   <tile/>
   <tile/>
   <tile/>
   <tile/>
   <tile/>
   <tile/>
   <tile/>
   <tile/>
   <tile/>
   <tile gid="1560"/>
   <tile gid="1561"/>
   <tile/>
   <tile/>
   <tile/>
   <tile/>
   <tile/>
   <tile/>
   <tile/>
   <tile/>
   <tile/>
   <tile/>
   <tile/>
   <tile/>
   <tile/>
   <tile/>
   <tile/>
   <tile/>
   <tile/>
   <tile/>
   <tile/>
   <tile/>
   <tile/>
   <tile/>
   <tile/>
   <tile/>
   <tile/>
   <tile/>
   <tile/>
   <tile/>
   <tile/>
   <tile/>
   <tile/>
   <tile/>
   <tile/>
   <tile/>
   <tile/>
   <tile/>
   <tile/>
   <tile/>
   <tile/>
   <tile/>
   <tile/>
   <tile/>
   <tile/>
   <tile/>
   <tile/>
   <tile/>
   <tile/>
   <tile/>
   <tile/>
   <tile gid="197"/>
   <tile gid="197"/>
   <tile gid="197"/>
   <tile gid="198"/>
   <tile/>
   <tile/>
   <tile/>
   <tile/>
   <tile/>
   <tile gid="1576"/>
   <tile gid="1577"/>
   <tile/>
   <tile/>
   <tile/>
   <tile/>
   <tile/>
   <tile/>
   <tile/>
   <tile/>
   <tile/>
   <tile/>
   <tile/>
   <tile/>
   <tile/>
   <tile/>
   <tile/>
   <tile/>
   <tile/>
   <tile/>
   <tile/>
   <tile/>
   <tile/>
   <tile/>
   <tile/>
   <tile/>
   <tile/>
   <tile/>
   <tile/>
   <tile/>
   <tile/>
   <tile/>
   <tile/>
   <tile/>
   <tile gid="196"/>
   <tile/>
   <tile/>
   <tile/>
   <tile/>
   <tile/>
   <tile/>
   <tile/>
   <tile/>
   <tile/>
   <tile/>
   <tile/>
   <tile/>
   <tile/>
   <tile/>
   <tile/>
   <tile/>
   <tile/>
   <tile/>
   <tile/>
   <tile/>
   <tile/>
   <tile/>
   <tile/>
   <tile/>
   <tile/>
   <tile gid="1592"/>
   <tile gid="1593"/>
   <tile/>
   <tile/>
   <tile/>
   <tile/>
   <tile/>
   <tile/>
   <tile/>
   <tile/>
   <tile/>
   <tile/>
   <tile gid="196"/>
   <tile gid="197"/>
   <tile gid="197"/>
   <tile gid="198"/>
   <tile/>
   <tile/>
   <tile/>
   <tile gid="196"/>
   <tile gid="197"/>
   <tile gid="197"/>
   <tile gid="197"/>
   <tile gid="197"/>
   <tile gid="197"/>
   <tile gid="197"/>
   <tile gid="197"/>
   <tile gid="197"/>
   <tile gid="197"/>
   <tile gid="197"/>
   <tile gid="198"/>
   <tile/>
   <tile/>
   <tile/>
   <tile/>
   <tile/>
   <tile/>
   <tile/>
   <tile/>
   <tile/>
   <tile/>
   <tile/>
   <tile/>
   <tile/>
   <tile/>
   <tile/>
   <tile/>
   <tile/>
   <tile/>
   <tile/>
   <tile/>
   <tile/>
   <tile/>
   <tile/>
   <tile/>
   <tile/>
   <tile/>
   <tile/>
   <tile gid="196"/>
   <tile gid="197"/>
   <tile gid="1590"/>
   <tile gid="1591"/>
   <tile gid="197"/>
   <tile gid="197"/>
   <tile gid="197"/>
   <tile gid="197"/>
   <tile gid="197"/>
   <tile gid="197"/>
   <tile gid="197"/>
   <tile gid="198"/>
   <tile/>
   <tile/>
   <tile/>
   <tile/>
   <tile/>
   <tile/>
   <tile/>
   <tile/>
   <tile/>
   <tile/>
   <tile/>
   <tile/>
   <tile/>
   <tile/>
   <tile/>
   <tile/>
   <tile/>
   <tile/>
   <tile/>
   <tile/>
   <tile/>
   <tile/>
   <tile/>
   <tile/>
   <tile/>
   <tile/>
   <tile/>
   <tile/>
   <tile/>
   <tile/>
   <tile/>
   <tile/>
   <tile/>
   <tile/>
   <tile/>
   <tile/>
   <tile/>
   <tile/>
   <tile/>
   <tile/>
   <tile/>
   <tile/>
   <tile/>
   <tile/>
   <tile/>
   <tile/>
   <tile/>
   <tile/>
   <tile/>
   <tile/>
   <tile/>
   <tile/>
   <tile/>
   <tile/>
   <tile/>
   <tile/>
   <tile/>
   <tile/>
   <tile/>
   <tile/>
   <tile/>
   <tile/>
   <tile/>
   <tile/>
   <tile/>
   <tile/>
   <tile/>
   <tile/>
   <tile/>
   <tile/>
   <tile/>
   <tile gid="1526"/>
   <tile gid="1527"/>
   <tile/>
   <tile/>
   <tile/>
   <tile gid="1526"/>
   <tile gid="1527"/>
   <tile/>
   <tile/>
   <tile/>
   <tile/>
   <tile/>
   <tile/>
   <tile/>
   <tile/>
   <tile/>
   <tile/>
   <tile/>
   <tile/>
   <tile gid="198"/>
   <tile/>
   <tile/>
   <tile/>
   <tile/>
   <tile/>
   <tile/>
   <tile/>
   <tile/>
   <tile/>
   <tile/>
   <tile/>
   <tile/>
   <tile/>
   <tile/>
   <tile/>
   <tile/>
   <tile/>
   <tile/>
   <tile/>
   <tile gid="1526"/>
   <tile gid="1527"/>
   <tile/>
   <tile/>
   <tile/>
   <tile/>
   <tile/>
   <tile/>
   <tile/>
   <tile/>
   <tile/>
   <tile/>
   <tile/>
   <tile/>
   <tile/>
   <tile/>
   <tile/>
   <tile/>
   <tile/>
   <tile/>
   <tile/>
   <tile gid="1544"/>
   <tile gid="1545"/>
   <tile/>
   <tile/>
   <tile/>
   <tile gid="1544"/>
   <tile gid="1545"/>
   <tile/>
   <tile/>
   <tile/>
   <tile/>
   <tile/>
   <tile/>
   <tile/>
   <tile/>
   <tile/>
   <tile/>
   <tile/>
   <tile/>
   <tile/>
   <tile/>
   <tile/>
   <tile/>
   <tile/>
   <tile/>
   <tile/>
   <tile/>
   <tile/>
   <tile/>
   <tile/>
   <tile/>
   <tile/>
   <tile/>
   <tile/>
   <tile/>
   <tile/>
   <tile/>
   <tile/>
   <tile/>
   <tile gid="1544"/>
   <tile gid="1545"/>
   <tile/>
   <tile/>
   <tile/>
   <tile/>
   <tile/>
   <tile/>
   <tile/>
   <tile/>
   <tile/>
   <tile/>
   <tile/>
   <tile/>
   <tile/>
   <tile/>
   <tile/>
   <tile/>
   <tile/>
   <tile/>
   <tile/>
   <tile gid="1560"/>
   <tile gid="1561"/>
   <tile/>
   <tile/>
   <tile/>
   <tile gid="1560"/>
   <tile gid="1561"/>
   <tile/>
   <tile/>
   <tile/>
   <tile/>
   <tile/>
   <tile/>
   <tile/>
   <tile/>
   <tile/>
   <tile/>
   <tile/>
   <tile/>
   <tile/>
   <tile/>
   <tile/>
   <tile/>
   <tile/>
   <tile/>
   <tile/>
   <tile/>
   <tile/>
   <tile/>
   <tile/>
   <tile/>
   <tile/>
   <tile/>
   <tile/>
   <tile/>
   <tile/>
   <tile/>
   <tile/>
   <tile/>
   <tile gid="1560"/>
   <tile gid="1561"/>
   <tile/>
   <tile/>
   <tile/>
   <tile/>
   <tile/>
   <tile/>
   <tile/>
   <tile/>
   <tile/>
   <tile/>
   <tile/>
   <tile/>
   <tile/>
   <tile/>
   <tile/>
   <tile/>
   <tile/>
   <tile/>
   <tile/>
   <tile gid="1576"/>
   <tile gid="1577"/>
   <tile/>
   <tile/>
   <tile/>
   <tile gid="1576"/>
   <tile gid="1577"/>
   <tile/>
   <tile/>
   <tile/>
   <tile gid="196"/>
   <tile gid="197"/>
   <tile gid="197"/>
   <tile gid="197"/>
   <tile gid="198"/>
   <tile/>
   <tile/>
   <tile/>
   <tile/>
   <tile/>
   <tile/>
   <tile/>
   <tile/>
   <tile/>
   <tile gid="196"/>
   <tile gid="197"/>
   <tile gid="197"/>
   <tile gid="197"/>
   <tile/>
   <tile/>
   <tile/>
   <tile/>
   <tile/>
   <tile/>
   <tile/>
   <tile/>
   <tile/>
   <tile/>
   <tile/>
   <tile gid="1576"/>
   <tile gid="1577"/>
   <tile/>
   <tile/>
   <tile/>
   <tile/>
   <tile/>
   <tile/>
   <tile/>
   <tile/>
   <tile/>
   <tile/>
   <tile/>
   <tile/>
   <tile/>
   <tile/>
   <tile/>
   <tile/>
   <tile/>
   <tile/>
   <tile/>
   <tile gid="1592"/>
   <tile gid="1593"/>
   <tile/>
   <tile/>
   <tile/>
   <tile gid="1592"/>
   <tile gid="1593"/>
   <tile/>
   <tile/>
   <tile/>
   <tile/>
   <tile/>
   <tile/>
   <tile/>
   <tile/>
   <tile/>
   <tile/>
   <tile/>
   <tile/>
   <tile/>
   <tile/>
   <tile/>
   <tile/>
   <tile/>
   <tile/>
   <tile/>
   <tile/>
   <tile/>
   <tile/>
   <tile/>
   <tile/>
   <tile/>
   <tile/>
   <tile/>
   <tile/>
   <tile/>
   <tile/>
   <tile/>
   <tile/>
   <tile gid="1592"/>
   <tile gid="1593"/>
   <tile/>
   <tile/>
   <tile/>
   <tile/>
   <tile/>
   <tile/>
   <tile/>
   <tile/>
   <tile/>
   <tile/>
   <tile/>
   <tile/>
   <tile/>
   <tile/>
   <tile/>
   <tile/>
   <tile/>
   <tile/>
   <tile/>
   <tile gid="1544"/>
   <tile gid="1545"/>
   <tile/>
   <tile/>
   <tile/>
   <tile gid="1558"/>
   <tile gid="1559"/>
   <tile/>
   <tile/>
   <tile/>
   <tile/>
   <tile/>
   <tile/>
   <tile/>
   <tile/>
   <tile/>
   <tile/>
   <tile/>
   <tile/>
   <tile/>
   <tile/>
   <tile/>
   <tile/>
   <tile/>
   <tile/>
   <tile/>
   <tile/>
   <tile/>
   <tile/>
   <tile/>
   <tile/>
   <tile/>
   <tile/>
   <tile/>
   <tile/>
   <tile/>
   <tile/>
   <tile/>
   <tile/>
   <tile gid="1544"/>
   <tile gid="1545"/>
   <tile/>
   <tile/>
   <tile/>
   <tile/>
   <tile/>
   <tile/>
   <tile/>
   <tile/>
   <tile/>
   <tile/>
   <tile/>
   <tile/>
   <tile/>
   <tile/>
   <tile/>
   <tile/>
   <tile/>
   <tile/>
   <tile/>
   <tile gid="1560"/>
   <tile gid="1561"/>
   <tile/>
   <tile/>
   <tile/>
   <tile/>
   <tile/>
   <tile/>
   <tile/>
   <tile/>
   <tile/>
   <tile/>
   <tile/>
   <tile/>
   <tile/>
   <tile/>
   <tile/>
   <tile/>
   <tile/>
   <tile/>
   <tile/>
   <tile/>
   <tile/>
   <tile/>
   <tile/>
   <tile/>
   <tile/>
   <tile/>
   <tile/>
   <tile/>
   <tile/>
   <tile/>
   <tile/>
   <tile/>
   <tile/>
   <tile/>
   <tile/>
   <tile/>
   <tile/>
   <tile gid="1560"/>
   <tile gid="1561"/>
   <tile/>
   <tile/>
   <tile/>
   <tile/>
   <tile/>
   <tile/>
   <tile/>
   <tile/>
   <tile/>
   <tile/>
   <tile/>
   <tile/>
   <tile gid="196"/>
   <tile gid="197"/>
   <tile gid="197"/>
   <tile gid="197"/>
   <tile gid="198"/>
   <tile/>
   <tile/>
   <tile gid="1576"/>
   <tile gid="1577"/>
   <tile/>
   <tile/>
   <tile/>
   <tile/>
   <tile/>
   <tile/>
   <tile/>
   <tile/>
   <tile/>
   <tile/>
   <tile/>
   <tile/>
   <tile/>
   <tile/>
   <tile/>
   <tile/>
   <tile/>
   <tile/>
   <tile/>
   <tile/>
   <tile/>
   <tile/>
   <tile/>
   <tile/>
   <tile/>
   <tile/>
   <tile/>
   <tile/>
   <tile/>
   <tile/>
   <tile/>
   <tile/>
   <tile/>
   <tile/>
   <tile/>
   <tile/>
   <tile/>
   <tile gid="1576"/>
   <tile gid="1577"/>
   <tile/>
   <tile/>
   <tile/>
   <tile/>
   <tile/>
   <tile/>
   <tile/>
   <tile/>
   <tile/>
   <tile/>
   <tile/>
   <tile/>
   <tile/>
   <tile/>
   <tile/>
   <tile/>
   <tile/>
   <tile/>
   <tile/>
   <tile gid="1592"/>
   <tile gid="1593"/>
   <tile/>
   <tile/>
   <tile/>
   <tile/>
   <tile/>
   <tile/>
   <tile/>
   <tile/>
   <tile/>
   <tile/>
   <tile/>
   <tile/>
   <tile/>
   <tile/>
   <tile/>
   <tile/>
   <tile/>
   <tile/>
   <tile/>
   <tile gid="196"/>
   <tile gid="197"/>
   <tile gid="197"/>
   <tile/>
   <tile/>
   <tile/>
   <tile/>
   <tile/>
   <tile/>
   <tile/>
   <tile/>
   <tile/>
   <tile/>
   <tile/>
   <tile/>
   <tile/>
   <tile/>
   <tile/>
   <tile gid="1592"/>
   <tile gid="1593"/>
   <tile/>
   <tile/>
   <tile/>
   <tile/>
   <tile/>
   <tile/>
   <tile/>
   <tile/>
   <tile/>
   <tile/>
   <tile/>
   <tile/>
   <tile/>
   <tile/>
   <tile/>
   <tile/>
   <tile/>
   <tile/>
   <tile/>
   <tile/>
   <tile/>
   <tile/>
   <tile/>
   <tile/>
   <tile/>
   <tile/>
   <tile/>
   <tile/>
   <tile/>
   <tile/>
   <tile/>
   <tile/>
   <tile/>
   <tile/>
   <tile/>
   <tile/>
   <tile/>
   <tile/>
   <tile/>
   <tile/>
   <tile/>
   <tile/>
   <tile/>
   <tile/>
   <tile/>
   <tile/>
   <tile/>
   <tile/>
   <tile/>
   <tile/>
   <tile/>
   <tile/>
   <tile/>
   <tile/>
   <tile/>
   <tile/>
   <tile/>
   <tile/>
   <tile gid="1544"/>
   <tile gid="1545"/>
   <tile/>
   <tile/>
   <tile/>
   <tile/>
   <tile/>
   <tile/>
   <tile/>
   <tile/>
   <tile/>
   <tile/>
   <tile/>
   <tile/>
   <tile/>
   <tile/>
   <tile/>
   <tile/>
   <tile/>
   <tile/>
   <tile/>
   <tile/>
   <tile/>
   <tile/>
   <tile/>
   <tile/>
   <tile/>
   <tile/>
   <tile/>
   <tile/>
   <tile/>
   <tile/>
   <tile/>
   <tile/>
   <tile/>
   <tile/>
   <tile/>
   <tile/>
   <tile/>
   <tile/>
   <tile/>
   <tile/>
   <tile/>
   <tile/>
   <tile/>
   <tile/>
   <tile/>
   <tile/>
   <tile/>
   <tile/>
   <tile/>
   <tile/>
   <tile/>
   <tile/>
   <tile/>
   <tile/>
   <tile/>
   <tile/>
   <tile/>
   <tile/>
   <tile gid="1560"/>
   <tile gid="1561"/>
   <tile/>
   <tile/>
   <tile/>
   <tile/>
   <tile/>
   <tile/>
   <tile/>
   <tile/>
   <tile/>
   <tile/>
   <tile/>
   <tile/>
   <tile/>
   <tile/>
   <tile/>
   <tile/>
   <tile/>
   <tile/>
   <tile/>
   <tile/>
   <tile/>
   <tile/>
   <tile/>
   <tile/>
   <tile/>
   <tile/>
   <tile/>
   <tile/>
   <tile/>
   <tile/>
   <tile/>
   <tile/>
   <tile/>
   <tile/>
   <tile/>
   <tile/>
   <tile/>
   <tile/>
   <tile/>
   <tile/>
   <tile/>
   <tile/>
   <tile/>
   <tile/>
   <tile/>
   <tile/>
   <tile/>
   <tile/>
   <tile/>
   <tile/>
   <tile/>
   <tile/>
   <tile/>
   <tile/>
   <tile/>
   <tile/>
   <tile/>
   <tile/>
   <tile gid="1576"/>
   <tile gid="1577"/>
   <tile/>
   <tile/>
   <tile/>
   <tile/>
   <tile/>
   <tile/>
   <tile/>
   <tile/>
   <tile/>
   <tile/>
   <tile/>
   <tile/>
   <tile/>
   <tile/>
   <tile/>
   <tile/>
   <tile/>
   <tile/>
   <tile/>
   <tile/>
   <tile/>
   <tile/>
   <tile/>
   <tile/>
   <tile/>
   <tile/>
   <tile/>
   <tile/>
   <tile/>
   <tile/>
   <tile/>
   <tile/>
   <tile/>
   <tile/>
   <tile/>
   <tile/>
   <tile/>
   <tile/>
   <tile/>
   <tile/>
   <tile/>
   <tile/>
   <tile/>
   <tile/>
   <tile/>
   <tile/>
   <tile/>
   <tile/>
   <tile/>
   <tile/>
   <tile/>
   <tile/>
   <tile gid="196"/>
   <tile gid="197"/>
   <tile gid="197"/>
   <tile gid="197"/>
   <tile gid="198"/>
   <tile/>
   <tile gid="1592"/>
   <tile gid="1593"/>
   <tile/>
   <tile/>
   <tile/>
   <tile/>
   <tile/>
   <tile/>
   <tile/>
   <tile/>
   <tile/>
   <tile gid="196"/>
   <tile gid="197"/>
   <tile gid="197"/>
   <tile gid="197"/>
   <tile gid="197"/>
   <tile gid="197"/>
   <tile gid="197"/>
   <tile gid="198"/>
   <tile/>
   <tile/>
   <tile/>
   <tile/>
   <tile/>
   <tile/>
   <tile/>
   <tile/>
   <tile/>
   <tile/>
   <tile/>
   <tile/>
   <tile/>
   <tile/>
   <tile/>
   <tile/>
   <tile/>
   <tile/>
   <tile/>
   <tile/>
   <tile/>
   <tile/>
   <tile/>
   <tile/>
   <tile/>
   <tile/>
   <tile/>
   <tile/>
   <tile/>
   <tile/>
   <tile/>
   <tile/>
   <tile/>
   <tile/>
   <tile/>
   <tile/>
   <tile/>
   <tile/>
   <tile/>
   <tile/>
   <tile/>
   <tile gid="1544"/>
   <tile gid="1545"/>
   <tile/>
   <tile/>
   <tile/>
   <tile/>
   <tile/>
   <tile/>
   <tile/>
   <tile/>
   <tile/>
   <tile/>
   <tile/>
   <tile/>
   <tile/>
   <tile/>
   <tile/>
   <tile/>
   <tile/>
   <tile/>
   <tile/>
   <tile/>
   <tile/>
   <tile/>
   <tile/>
   <tile/>
   <tile/>
   <tile/>
   <tile/>
   <tile/>
   <tile/>
   <tile/>
   <tile/>
   <tile/>
   <tile/>
   <tile/>
   <tile/>
   <tile/>
   <tile/>
   <tile/>
   <tile/>
   <tile/>
   <tile/>
   <tile/>
   <tile/>
   <tile/>
   <tile/>
   <tile/>
   <tile/>
   <tile/>
   <tile/>
   <tile/>
   <tile/>
   <tile/>
   <tile/>
   <tile/>
   <tile/>
   <tile/>
   <tile/>
   <tile/>
   <tile gid="1560"/>
   <tile gid="1561"/>
   <tile/>
   <tile/>
   <tile/>
   <tile/>
   <tile/>
   <tile/>
   <tile/>
   <tile/>
   <tile/>
   <tile/>
   <tile/>
   <tile/>
   <tile/>
   <tile/>
   <tile/>
   <tile/>
   <tile/>
   <tile/>
   <tile/>
   <tile/>
   <tile/>
   <tile/>
   <tile/>
   <tile/>
   <tile/>
   <tile/>
   <tile/>
   <tile/>
   <tile/>
   <tile/>
   <tile/>
   <tile/>
   <tile/>
   <tile/>
   <tile/>
   <tile/>
   <tile/>
   <tile/>
   <tile/>
   <tile/>
   <tile/>
   <tile/>
   <tile/>
   <tile/>
   <tile/>
   <tile/>
   <tile/>
   <tile/>
   <tile/>
   <tile/>
   <tile/>
   <tile/>
   <tile/>
   <tile/>
   <tile/>
   <tile/>
   <tile/>
   <tile/>
   <tile gid="1576"/>
   <tile gid="1577"/>
   <tile/>
   <tile/>
   <tile/>
   <tile/>
   <tile/>
   <tile/>
   <tile/>
   <tile/>
   <tile/>
   <tile/>
   <tile/>
   <tile/>
   <tile/>
   <tile/>
   <tile/>
   <tile/>
   <tile/>
   <tile/>
   <tile/>
   <tile/>
   <tile/>
   <tile/>
   <tile/>
   <tile/>
   <tile/>
   <tile/>
   <tile/>
   <tile/>
   <tile/>
   <tile/>
   <tile/>
   <tile/>
   <tile/>
   <tile/>
   <tile/>
   <tile/>
   <tile/>
   <tile/>
   <tile/>
   <tile/>
   <tile/>
   <tile/>
   <tile/>
   <tile/>
   <tile/>
   <tile/>
   <tile/>
   <tile/>
   <tile gid="197"/>
   <tile gid="197"/>
   <tile gid="197"/>
   <tile gid="197"/>
   <tile gid="197"/>
   <tile gid="197"/>
   <tile gid="197"/>
   <tile gid="197"/>
   <tile gid="198"/>
   <tile/>
   <tile gid="1592"/>
   <tile gid="1593"/>
   <tile/>
   <tile/>
   <tile gid="196"/>
   <tile gid="197"/>
   <tile gid="197"/>
   <tile gid="197"/>
   <tile gid="197"/>
   <tile gid="197"/>
   <tile gid="197"/>
   <tile/>
   <tile/>
   <tile/>
   <tile/>
   <tile/>
   <tile/>
   <tile/>
   <tile/>
   <tile gid="197"/>
   <tile gid="197"/>
   <tile gid="197"/>
   <tile gid="197"/>
   <tile gid="197"/>
   <tile gid="197"/>
   <tile gid="197"/>
   <tile gid="197"/>
   <tile gid="197"/>
   <tile gid="197"/>
   <tile gid="197"/>
   <tile gid="197"/>
   <tile gid="197"/>
   <tile gid="197"/>
   <tile gid="197"/>
   <tile gid="197"/>
   <tile gid="197"/>
   <tile gid="197"/>
   <tile gid="197"/>
   <tile gid="197"/>
   <tile gid="197"/>
   <tile gid="197"/>
   <tile gid="197"/>
   <tile/>
   <tile/>
   <tile/>
   <tile/>
   <tile/>
   <tile/>
   <tile/>
   <tile/>
   <tile/>
   <tile/>
   <tile/>
   <tile/>
   <tile/>
   <tile/>
   <tile/>
   <tile/>
   <tile/>
   <tile/>
   <tile gid="1544"/>
   <tile gid="1545"/>
   <tile/>
   <tile/>
   <tile/>
   <tile/>
   <tile/>
   <tile/>
   <tile/>
   <tile/>
   <tile/>
   <tile/>
   <tile/>
   <tile/>
   <tile/>
   <tile/>
   <tile/>
   <tile/>
   <tile/>
   <tile/>
   <tile/>
   <tile/>
   <tile/>
   <tile/>
   <tile/>
   <tile/>
   <tile/>
   <tile/>
   <tile/>
   <tile/>
   <tile/>
   <tile/>
   <tile/>
   <tile/>
   <tile/>
   <tile/>
   <tile/>
   <tile/>
   <tile/>
   <tile/>
   <tile/>
   <tile/>
   <tile/>
   <tile/>
   <tile/>
   <tile/>
   <tile/>
   <tile/>
   <tile/>
   <tile/>
  </data>
 </layer>
 <layer id="3" name="Collisions" width="60" height="34" visible="0">
  <data>
   <tile gid="258"/>
   <tile gid="258"/>
   <tile gid="258"/>
   <tile gid="258"/>
   <tile gid="258"/>
   <tile gid="258"/>
   <tile gid="258"/>
   <tile gid="258"/>
   <tile gid="258"/>
   <tile gid="258"/>
   <tile gid="258"/>
   <tile gid="258"/>
   <tile gid="258"/>
   <tile gid="258"/>
   <tile gid="258"/>
   <tile/>
   <tile/>
   <tile/>
   <tile/>
   <tile/>
   <tile gid="258"/>
   <tile gid="258"/>
   <tile gid="258"/>
   <tile gid="258"/>
   <tile gid="258"/>
   <tile gid="258"/>
   <tile gid="258"/>
   <tile gid="258"/>
   <tile gid="258"/>
   <tile gid="258"/>
   <tile gid="258"/>
   <tile gid="258"/>
   <tile gid="258"/>
   <tile gid="258"/>
   <tile gid="258"/>
   <tile gid="258"/>
   <tile gid="258"/>
   <tile gid="258"/>
   <tile gid="258"/>
   <tile gid="258"/>
   <tile gid="258"/>
   <tile gid="258"/>
   <tile gid="258"/>
   <tile gid="258"/>
   <tile gid="258"/>
   <tile gid="258"/>
   <tile gid="258"/>
   <tile gid="258"/>
   <tile gid="258"/>
   <tile gid="258"/>
   <tile gid="258"/>
   <tile gid="258"/>
   <tile gid="258"/>
   <tile gid="258"/>
   <tile gid="258"/>
   <tile gid="258"/>
   <tile gid="258"/>
   <tile gid="258"/>
   <tile gid="258"/>
   <tile gid="258"/>
   <tile gid="258"/>
   <tile/>
   <tile/>
   <tile/>
   <tile/>
   <tile/>
   <tile/>
   <tile/>
   <tile/>
   <tile/>
   <tile/>
   <tile/>
   <tile/>
   <tile/>
   <tile/>
   <tile/>
   <tile/>
   <tile/>
   <tile/>
   <tile/>
   <tile/>
   <tile/>
   <tile/>
   <tile/>
   <tile/>
   <tile/>
   <tile/>
   <tile/>
   <tile/>
   <tile/>
   <tile/>
   <tile/>
   <tile/>
   <tile/>
   <tile/>
   <tile/>
   <tile/>
   <tile/>
   <tile/>
   <tile/>
   <tile/>
   <tile/>
   <tile/>
   <tile/>
   <tile/>
   <tile/>
   <tile/>
   <tile/>
   <tile/>
   <tile/>
   <tile/>
   <tile/>
   <tile/>
   <tile/>
   <tile/>
   <tile/>
   <tile/>
   <tile/>
   <tile/>
   <tile gid="258"/>
   <tile gid="258"/>
   <tile/>
   <tile/>
   <tile/>
   <tile/>
   <tile/>
   <tile/>
   <tile/>
   <tile/>
   <tile/>
   <tile/>
   <tile/>
   <tile/>
   <tile/>
   <tile/>
   <tile/>
   <tile/>
   <tile/>
   <tile/>
   <tile/>
   <tile/>
   <tile/>
   <tile/>
   <tile/>
   <tile/>
   <tile/>
   <tile/>
   <tile/>
   <tile/>
   <tile/>
   <tile/>
   <tile/>
   <tile/>
   <tile/>
   <tile/>
   <tile/>
   <tile/>
   <tile/>
   <tile/>
   <tile/>
   <tile/>
   <tile/>
   <tile/>
   <tile/>
   <tile/>
   <tile/>
   <tile/>
   <tile/>
   <tile/>
   <tile/>
   <tile/>
   <tile/>
   <tile/>
   <tile/>
   <tile/>
   <tile/>
   <tile/>
   <tile/>
   <tile/>
   <tile gid="258"/>
   <tile gid="258"/>
   <tile/>
   <tile/>
   <tile/>
   <tile/>
   <tile/>
   <tile/>
   <tile/>
   <tile/>
   <tile/>
   <tile/>
   <tile/>
   <tile/>
   <tile/>
   <tile/>
   <tile/>
   <tile/>
   <tile/>
   <tile/>
   <tile/>
   <tile/>
   <tile/>
   <tile/>
   <tile/>
   <tile/>
   <tile/>
   <tile/>
   <tile/>
   <tile/>
   <tile/>
   <tile/>
   <tile/>
   <tile/>
   <tile/>
   <tile/>
   <tile/>
   <tile/>
   <tile/>
   <tile/>
   <tile/>
   <tile/>
   <tile/>
   <tile/>
   <tile/>
   <tile/>
   <tile/>
   <tile/>
   <tile/>
   <tile/>
   <tile/>
   <tile/>
   <tile/>
   <tile/>
   <tile/>
   <tile/>
   <tile/>
   <tile/>
   <tile/>
   <tile/>
   <tile gid="258"/>
   <tile gid="258"/>
   <tile/>
   <tile/>
   <tile/>
   <tile/>
   <tile/>
   <tile/>
   <tile/>
   <tile/>
   <tile/>
   <tile/>
   <tile/>
   <tile/>
   <tile/>
   <tile/>
   <tile/>
   <tile/>
   <tile/>
   <tile/>
   <tile/>
   <tile/>
   <tile/>
   <tile/>
   <tile/>
   <tile/>
   <tile/>
   <tile/>
   <tile/>
   <tile/>
   <tile/>
   <tile/>
   <tile/>
   <tile/>
   <tile/>
   <tile/>
   <tile/>
   <tile/>
   <tile/>
   <tile/>
   <tile/>
   <tile/>
   <tile gid="258"/>
   <tile gid="258"/>
   <tile gid="258"/>
   <tile gid="258"/>
   <tile gid="258"/>
   <tile gid="258"/>
   <tile/>
   <tile/>
   <tile/>
   <tile/>
   <tile/>
   <tile/>
   <tile/>
   <tile/>
   <tile/>
   <tile/>
   <tile/>
   <tile/>
   <tile gid="258"/>
   <tile gid="258"/>
   <tile/>
   <tile/>
   <tile/>
   <tile/>
   <tile/>
   <tile/>
   <tile/>
   <tile/>
   <tile/>
   <tile/>
   <tile/>
   <tile/>
   <tile/>
   <tile/>
   <tile/>
   <tile/>
   <tile/>
   <tile/>
   <tile/>
   <tile/>
   <tile/>
   <tile/>
   <tile/>
   <tile/>
   <tile/>
   <tile/>
   <tile/>
   <tile/>
   <tile/>
   <tile/>
   <tile/>
   <tile/>
   <tile/>
   <tile/>
   <tile/>
   <tile/>
   <tile/>
   <tile/>
   <tile/>
   <tile/>
   <tile gid="258"/>
   <tile gid="258"/>
   <tile gid="258"/>
   <tile gid="258"/>
   <tile gid="258"/>
   <tile/>
   <tile/>
   <tile/>
   <tile/>
   <tile/>
   <tile/>
   <tile/>
   <tile/>
   <tile/>
   <tile/>
   <tile/>
   <tile/>
   <tile/>
   <tile gid="258"/>
   <tile gid="258"/>
   <tile/>
   <tile/>
   <tile/>
   <tile/>
   <tile/>
   <tile/>
   <tile/>
   <tile/>
   <tile gid="258"/>
   <tile gid="258"/>
   <tile gid="258"/>
   <tile gid="258"/>
   <tile gid="258"/>
   <tile gid="258"/>
   <tile gid="258"/>
   <tile gid="258"/>
   <tile gid="258"/>
   <tile gid="258"/>
   <tile gid="258"/>
   <tile gid="258"/>
   <tile gid="258"/>
   <tile/>
   <tile/>
   <tile/>
   <tile/>
   <tile/>
   <tile/>
   <tile/>
   <tile/>
   <tile/>
   <tile/>
   <tile/>
   <tile/>
   <tile/>
   <tile/>
   <tile/>
   <tile/>
   <tile/>
   <tile/>
   <tile/>
   <tile/>
   <tile/>
   <tile/>
   <tile/>
   <tile/>
   <tile/>
   <tile/>
   <tile/>
   <tile/>
   <tile/>
   <tile/>
   <tile/>
   <tile/>
   <tile/>
   <tile/>
   <tile/>
   <tile/>
   <tile/>
   <tile gid="258"/>
   <tile gid="258"/>
   <tile/>
   <tile/>
   <tile/>
   <tile/>
   <tile/>
   <tile/>
   <tile/>
   <tile/>
   <tile/>
   <tile gid="258"/>
   <tile gid="258"/>
   <tile gid="258"/>
   <tile gid="258"/>
   <tile gid="258"/>
   <tile gid="258"/>
   <tile gid="258"/>
   <tile gid="258"/>
   <tile gid="258"/>
   <tile gid="258"/>
   <tile gid="258"/>
   <tile/>
   <tile/>
   <tile/>
   <tile/>
   <tile/>
   <tile/>
   <tile/>
   <tile/>
   <tile/>
   <tile/>
   <tile/>
   <tile/>
   <tile/>
   <tile/>
   <tile/>
   <tile/>
   <tile/>
   <tile/>
   <tile/>
   <tile/>
   <tile/>
   <tile/>
   <tile/>
   <tile/>
   <tile/>
   <tile/>
   <tile/>
   <tile/>
   <tile/>
   <tile/>
   <tile/>
   <tile/>
   <tile/>
   <tile/>
   <tile/>
   <tile/>
   <tile/>
   <tile/>
   <tile gid="258"/>
   <tile gid="258"/>
   <tile/>
   <tile/>
   <tile/>
   <tile/>
   <tile/>
   <tile/>
   <tile/>
   <tile/>
   <tile/>
   <tile/>
   <tile/>
   <tile/>
   <tile/>
   <tile/>
   <tile/>
   <tile/>
   <tile/>
   <tile/>
   <tile/>
   <tile/>
   <tile/>
   <tile/>
   <tile/>
   <tile/>
   <tile/>
   <tile/>
   <tile/>
   <tile/>
   <tile/>
   <tile/>
   <tile/>
   <tile/>
   <tile/>
   <tile/>
   <tile/>
   <tile/>
   <tile/>
   <tile/>
   <tile/>
   <tile/>
   <tile/>
   <tile/>
   <tile/>
   <tile/>
   <tile/>
   <tile/>
   <tile/>
   <tile/>
   <tile/>
   <tile/>
   <tile/>
   <tile/>
   <tile/>
   <tile/>
   <tile/>
   <tile/>
   <tile/>
   <tile/>
   <tile gid="258"/>
   <tile gid="258"/>
   <tile/>
   <tile/>
   <tile/>
   <tile/>
   <tile/>
   <tile/>
   <tile/>
   <tile/>
   <tile/>
   <tile/>
   <tile/>
   <tile/>
   <tile/>
   <tile/>
   <tile/>
   <tile/>
   <tile/>
   <tile/>
   <tile/>
   <tile/>
   <tile/>
   <tile/>
   <tile/>
   <tile/>
   <tile/>
   <tile/>
   <tile/>
   <tile/>
   <tile/>
   <tile/>
   <tile/>
   <tile/>
   <tile/>
   <tile/>
   <tile/>
   <tile/>
   <tile/>
   <tile/>
   <tile/>
   <tile/>
   <tile/>
   <tile/>
   <tile/>
   <tile/>
   <tile/>
   <tile/>
   <tile/>
   <tile/>
   <tile/>
   <tile/>
   <tile/>
   <tile/>
   <tile/>
   <tile/>
   <tile/>
   <tile/>
   <tile/>
   <tile/>
   <tile gid="258"/>
   <tile gid="258"/>
   <tile/>
   <tile/>
   <tile/>
   <tile/>
   <tile/>
   <tile/>
   <tile/>
   <tile/>
   <tile/>
   <tile/>
   <tile/>
   <tile/>
   <tile/>
   <tile/>
   <tile/>
   <tile/>
   <tile/>
   <tile/>
   <tile/>
   <tile/>
   <tile/>
   <tile/>
   <tile/>
   <tile/>
   <tile/>
   <tile/>
   <tile/>
   <tile/>
   <tile/>
   <tile/>
   <tile/>
   <tile/>
   <tile/>
   <tile/>
   <tile/>
   <tile/>
   <tile/>
   <tile/>
   <tile/>
   <tile/>
   <tile/>
   <tile/>
   <tile/>
   <tile/>
   <tile gid="258"/>
   <tile/>
   <tile/>
   <tile/>
   <tile/>
   <tile/>
   <tile/>
   <tile/>
   <tile/>
   <tile/>
   <tile/>
   <tile/>
   <tile/>
   <tile/>
   <tile gid="258"/>
   <tile gid="258"/>
   <tile/>
   <tile/>
   <tile/>
   <tile/>
   <tile/>
   <tile/>
   <tile/>
   <tile/>
   <tile/>
   <tile/>
   <tile/>
   <tile/>
   <tile/>
   <tile/>
   <tile/>
   <tile/>
   <tile/>
   <tile/>
   <tile/>
   <tile/>
   <tile/>
   <tile/>
   <tile/>
   <tile/>
   <tile/>
   <tile/>
   <tile/>
   <tile/>
   <tile/>
   <tile/>
   <tile/>
   <tile/>
   <tile/>
   <tile/>
   <tile/>
   <tile/>
   <tile/>
   <tile/>
   <tile/>
   <tile/>
   <tile/>
   <tile/>
   <tile/>
   <tile/>
   <tile gid="258"/>
   <tile/>
   <tile/>
   <tile/>
   <tile/>
   <tile/>
   <tile/>
   <tile/>
   <tile/>
   <tile/>
   <tile/>
   <tile/>
   <tile/>
   <tile/>
   <tile gid="258"/>
   <tile gid="258"/>
   <tile/>
   <tile/>
   <tile/>
   <tile/>
   <tile/>
   <tile/>
   <tile/>
   <tile/>
   <tile/>
   <tile/>
   <tile/>
   <tile/>
   <tile/>
   <tile/>
   <tile/>
   <tile/>
   <tile/>
   <tile/>
   <tile/>
   <tile/>
   <tile/>
   <tile/>
   <tile/>
   <tile/>
   <tile/>
   <tile/>
   <tile/>
   <tile/>
   <tile/>
   <tile/>
   <tile/>
   <tile/>
   <tile/>
   <tile/>
   <tile/>
   <tile/>
   <tile/>
   <tile/>
   <tile/>
   <tile/>
   <tile/>
   <tile/>
   <tile/>
   <tile/>
   <tile gid="258"/>
   <tile/>
   <tile/>
   <tile/>
   <tile/>
   <tile/>
   <tile/>
   <tile/>
   <tile/>
   <tile/>
   <tile/>
   <tile/>
   <tile/>
   <tile/>
   <tile gid="258"/>
   <tile/>
   <tile gid="258"/>
   <tile gid="258"/>
   <tile gid="258"/>
   <tile gid="258"/>
   <tile/>
   <tile/>
   <tile/>
   <tile/>
   <tile/>
   <tile/>
   <tile/>
   <tile/>
   <tile/>
   <tile/>
   <tile/>
   <tile/>
   <tile/>
   <tile/>
   <tile/>
   <tile/>
   <tile/>
   <tile/>
   <tile/>
   <tile/>
   <tile/>
   <tile/>
   <tile/>
   <tile/>
   <tile/>
   <tile/>
   <tile/>
   <tile/>
   <tile/>
   <tile/>
   <tile/>
   <tile/>
   <tile/>
   <tile/>
   <tile/>
   <tile/>
   <tile/>
   <tile/>
   <tile/>
   <tile gid="258"/>
   <tile gid="258"/>
   <tile/>
   <tile/>
   <tile/>
   <tile/>
   <tile/>
   <tile/>
   <tile/>
   <tile/>
   <tile/>
   <tile/>
   <tile/>
   <tile/>
   <tile/>
   <tile gid="258"/>
   <tile/>
   <tile gid="258"/>
   <tile gid="258"/>
   <tile gid="258"/>
   <tile/>
   <tile/>
   <tile/>
   <tile/>
   <tile/>
   <tile/>
   <tile/>
   <tile/>
   <tile/>
   <tile/>
   <tile/>
   <tile/>
   <tile/>
   <tile/>
   <tile/>
   <tile/>
   <tile/>
   <tile/>
   <tile gid="258"/>
   <tile gid="258"/>
   <tile gid="258"/>
   <tile gid="258"/>
   <tile/>
   <tile/>
   <tile/>
   <tile gid="258"/>
   <tile gid="258"/>
   <tile gid="258"/>
   <tile gid="258"/>
   <tile gid="258"/>
   <tile gid="258"/>
   <tile gid="258"/>
   <tile gid="258"/>
   <tile gid="258"/>
   <tile gid="258"/>
   <tile gid="258"/>
   <tile gid="258"/>
   <tile/>
   <tile/>
   <tile/>
   <tile gid="258"/>
   <tile gid="258"/>
   <tile/>
   <tile/>
   <tile/>
   <tile/>
   <tile/>
   <tile/>
   <tile/>
   <tile/>
   <tile/>
   <tile/>
   <tile/>
   <tile/>
   <tile/>
   <tile gid="258"/>
   <tile gid="258"/>
   <tile/>
   <tile/>
   <tile/>
   <tile/>
   <tile/>
   <tile/>
   <tile/>
   <tile gid="258"/>
   <tile gid="258"/>
   <tile gid="258"/>
   <tile gid="258"/>
   <tile gid="258"/>
   <tile gid="258"/>
   <tile gid="258"/>
   <tile gid="258"/>
   <tile gid="258"/>
   <tile gid="258"/>
   <tile gid="258"/>
   <tile gid="258"/>
   <tile/>
   <tile/>
   <tile/>
   <tile gid="258"/>
   <tile gid="258"/>
   <tile/>
   <tile/>
   <tile/>
   <tile/>
   <tile/>
   <tile gid="258"/>
   <tile gid="258"/>
   <tile gid="258"/>
   <tile gid="258"/>
   <tile gid="258"/>
   <tile gid="258"/>
   <tile gid="258"/>
   <tile gid="258"/>
   <tile gid="258"/>
   <tile/>
   <tile/>
   <tile/>
   <tile/>
   <tile/>
   <tile/>
   <tile/>
   <tile/>
   <tile/>
   <tile/>
   <tile gid="258"/>
   <tile/>
   <tile/>
   <tile/>
   <tile/>
   <tile/>
   <tile/>
   <tile/>
   <tile/>
   <tile/>
   <tile gid="258"/>
   <tile gid="258"/>
   <tile/>
   <tile/>
   <tile/>
   <tile/>
   <tile/>
   <tile/>
   <tile/>
   <tile/>
   <tile gid="258"/>
   <tile gid="258"/>
   <tile gid="258"/>
   <tile gid="258"/>
   <tile gid="258"/>
   <tile gid="258"/>
   <tile gid="258"/>
   <tile gid="258"/>
   <tile gid="258"/>
   <tile/>
   <tile/>
   <tile/>
   <tile/>
   <tile/>
   <tile/>
   <tile/>
   <tile/>
   <tile/>
   <tile/>
   <tile/>
   <tile/>
   <tile/>
   <tile/>
   <tile/>
   <tile/>
   <tile/>
   <tile/>
   <tile/>
   <tile/>
   <tile/>
   <tile/>
   <tile/>
   <tile/>
   <tile/>
   <tile/>
   <tile/>
   <tile/>
   <tile/>
   <tile/>
   <tile/>
   <tile gid="258"/>
   <tile gid="258"/>
   <tile/>
   <tile/>
   <tile/>
   <tile/>
   <tile/>
   <tile/>
   <tile/>
   <tile/>
   <tile gid="258"/>
   <tile gid="258"/>
   <tile/>
   <tile/>
   <tile/>
   <tile/>
   <tile/>
   <tile/>
   <tile/>
   <tile/>
   <tile/>
   <tile/>
   <tile/>
   <tile/>
   <tile/>
   <tile/>
   <tile/>
   <tile/>
   <tile/>
   <tile/>
   <tile/>
   <tile/>
   <tile/>
   <tile/>
   <tile/>
   <tile/>
   <tile/>
   <tile/>
   <tile/>
   <tile/>
   <tile/>
   <tile/>
   <tile/>
   <tile/>
   <tile/>
   <tile/>
   <tile/>
   <tile/>
   <tile/>
   <tile/>
   <tile/>
   <tile/>
   <tile/>
   <tile/>
   <tile/>
   <tile/>
   <tile/>
   <tile/>
   <tile/>
   <tile/>
   <tile gid="258"/>
   <tile gid="258"/>
   <tile/>
   <tile/>
   <tile/>
   <tile/>
   <tile/>
   <tile/>
   <tile/>
   <tile/>
   <tile gid="258"/>
   <tile gid="258"/>
   <tile/>
   <tile/>
   <tile/>
   <tile/>
   <tile/>
   <tile/>
   <tile/>
   <tile/>
   <tile/>
   <tile/>
   <tile/>
   <tile/>
   <tile/>
   <tile/>
   <tile/>
   <tile/>
   <tile/>
   <tile/>
   <tile/>
   <tile/>
   <tile/>
   <tile/>
   <tile/>
   <tile/>
   <tile/>
   <tile/>
   <tile/>
   <tile/>
   <tile/>
   <tile/>
   <tile/>
   <tile/>
   <tile/>
   <tile/>
   <tile/>
   <tile/>
   <tile/>
   <tile/>
   <tile/>
   <tile/>
   <tile/>
   <tile/>
   <tile/>
   <tile/>
   <tile/>
   <tile/>
   <tile/>
   <tile/>
   <tile gid="258"/>
   <tile/>
   <tile/>
   <tile/>
   <tile/>
   <tile/>
   <tile/>
   <tile/>
   <tile/>
   <tile/>
   <tile gid="258"/>
   <tile gid="258"/>
   <tile/>
   <tile/>
   <tile/>
   <tile/>
   <tile/>
   <tile/>
   <tile/>
   <tile/>
   <tile/>
   <tile/>
   <tile/>
   <tile/>
   <tile/>
   <tile/>
   <tile/>
   <tile/>
   <tile/>
   <tile/>
   <tile/>
   <tile/>
   <tile/>
   <tile/>
   <tile/>
   <tile/>
   <tile/>
   <tile/>
   <tile/>
   <tile/>
   <tile/>
   <tile/>
   <tile/>
   <tile/>
   <tile/>
   <tile/>
   <tile/>
   <tile/>
   <tile/>
   <tile/>
   <tile/>
   <tile/>
   <tile gid="258"/>
   <tile gid="258"/>
   <tile gid="258"/>
   <tile gid="258"/>
   <tile gid="258"/>
   <tile/>
   <tile/>
   <tile/>
   <tile gid="258"/>
   <tile/>
   <tile/>
   <tile/>
   <tile/>
   <tile/>
   <tile gid="258"/>
   <tile gid="258"/>
   <tile gid="258"/>
   <tile gid="258"/>
   <tile/>
   <tile gid="258"/>
   <tile/>
   <tile/>
   <tile/>
   <tile/>
   <tile/>
   <tile/>
   <tile/>
   <tile/>
   <tile/>
   <tile/>
   <tile/>
   <tile/>
   <tile/>
   <tile/>
   <tile/>
   <tile/>
   <tile/>
   <tile/>
   <tile/>
   <tile/>
   <tile/>
   <tile/>
   <tile/>
   <tile/>
   <tile/>
   <tile/>
   <tile/>
   <tile/>
   <tile/>
   <tile/>
   <tile/>
   <tile/>
   <tile/>
   <tile/>
   <tile/>
   <tile/>
   <tile/>
   <tile/>
   <tile/>
   <tile/>
   <tile/>
   <tile gid="258"/>
   <tile gid="258"/>
   <tile gid="258"/>
   <tile/>
   <tile/>
   <tile/>
   <tile/>
   <tile/>
   <tile/>
   <tile/>
   <tile/>
   <tile/>
   <tile/>
   <tile gid="258"/>
   <tile/>
   <tile/>
   <tile/>
   <tile/>
   <tile gid="258"/>
   <tile/>
   <tile/>
   <tile/>
   <tile/>
   <tile/>
   <tile/>
   <tile/>
   <tile/>
   <tile/>
   <tile/>
   <tile/>
   <tile/>
   <tile/>
   <tile/>
   <tile/>
   <tile/>
   <tile/>
   <tile/>
   <tile/>
   <tile/>
   <tile/>
   <tile/>
   <tile/>
   <tile/>
   <tile/>
   <tile/>
   <tile/>
   <tile/>
   <tile/>
   <tile/>
   <tile/>
   <tile/>
   <tile/>
   <tile/>
   <tile/>
   <tile/>
   <tile/>
   <tile/>
   <tile/>
   <tile/>
   <tile/>
   <tile/>
   <tile/>
   <tile/>
   <tile/>
   <tile/>
   <tile/>
   <tile/>
   <tile/>
   <tile/>
   <tile/>
   <tile/>
   <tile/>
   <tile/>
   <tile gid="258"/>
   <tile/>
   <tile/>
   <tile/>
   <tile/>
   <tile gid="258"/>
   <tile/>
   <tile/>
   <tile/>
   <tile/>
   <tile/>
   <tile/>
   <tile/>
   <tile/>
   <tile/>
   <tile/>
   <tile/>
   <tile/>
   <tile/>
   <tile/>
   <tile/>
   <tile/>
   <tile/>
   <tile/>
   <tile/>
   <tile/>
   <tile/>
   <tile/>
   <tile/>
   <tile/>
   <tile/>
   <tile/>
   <tile/>
   <tile/>
   <tile/>
   <tile/>
   <tile/>
   <tile/>
   <tile/>
   <tile/>
   <tile/>
   <tile/>
   <tile/>
   <tile/>
   <tile/>
   <tile/>
   <tile/>
   <tile/>
   <tile/>
   <tile/>
   <tile/>
   <tile/>
   <tile/>
   <tile/>
   <tile/>
   <tile/>
   <tile/>
   <tile/>
   <tile/>
   <tile/>
   <tile gid="258"/>
   <tile/>
   <tile/>
   <tile/>
   <tile/>
   <tile gid="258"/>
   <tile/>
   <tile/>
   <tile/>
   <tile/>
   <tile/>
   <tile/>
   <tile/>
   <tile/>
   <tile/>
   <tile/>
   <tile/>
   <tile/>
   <tile/>
   <tile/>
   <tile/>
   <tile/>
   <tile/>
   <tile/>
   <tile/>
   <tile/>
   <tile/>
   <tile/>
   <tile/>
   <tile gid="258"/>
   <tile gid="258"/>
   <tile gid="258"/>
   <tile gid="258"/>
   <tile gid="258"/>
   <tile/>
   <tile/>
   <tile/>
   <tile/>
   <tile/>
   <tile/>
   <tile/>
   <tile/>
   <tile/>
   <tile/>
   <tile/>
   <tile/>
   <tile/>
   <tile/>
   <tile/>
   <tile/>
   <tile/>
   <tile/>
   <tile/>
   <tile/>
   <tile/>
   <tile/>
   <tile/>
   <tile/>
   <tile/>
   <tile/>
   <tile gid="258"/>
   <tile/>
   <tile/>
   <tile/>
   <tile/>
   <tile gid="258"/>
   <tile/>
   <tile/>
   <tile/>
   <tile/>
   <tile/>
   <tile/>
   <tile/>
   <tile/>
   <tile/>
   <tile/>
   <tile/>
   <tile/>
   <tile/>
   <tile/>
   <tile/>
   <tile/>
   <tile/>
   <tile/>
   <tile/>
   <tile/>
   <tile/>
   <tile/>
   <tile/>
   <tile/>
   <tile gid="258"/>
   <tile gid="258"/>
   <tile gid="258"/>
   <tile/>
   <tile/>
   <tile/>
   <tile/>
   <tile/>
   <tile/>
   <tile/>
   <tile/>
   <tile/>
   <tile/>
   <tile/>
   <tile/>
   <tile/>
   <tile/>
   <tile/>
   <tile/>
   <tile/>
   <tile/>
   <tile/>
   <tile/>
   <tile/>
   <tile/>
   <tile/>
   <tile/>
   <tile gid="258"/>
   <tile gid="258"/>
   <tile gid="258"/>
   <tile/>
   <tile/>
   <tile/>
   <tile/>
   <tile/>
   <tile gid="258"/>
   <tile/>
   <tile/>
   <tile/>
   <tile/>
   <tile/>
   <tile/>
   <tile/>
   <tile/>
   <tile/>
   <tile/>
   <tile/>
   <tile/>
   <tile/>
   <tile/>
   <tile/>
   <tile/>
   <tile/>
   <tile/>
   <tile/>
   <tile/>
   <tile/>
   <tile/>
   <tile/>
   <tile/>
   <tile/>
   <tile/>
   <tile/>
   <tile/>
   <tile/>
   <tile/>
   <tile/>
   <tile/>
   <tile/>
   <tile/>
   <tile/>
   <tile/>
   <tile/>
   <tile/>
   <tile/>
   <tile/>
   <tile/>
   <tile/>
   <tile/>
   <tile/>
   <tile/>
   <tile/>
   <tile/>
   <tile/>
   <tile/>
   <tile/>
   <tile/>
   <tile gid="258"/>
   <tile/>
   <tile/>
   <tile/>
   <tile/>
   <tile/>
   <tile/>
   <tile/>
   <tile gid="258"/>
   <tile/>
   <tile/>
   <tile/>
   <tile/>
   <tile/>
   <tile/>
   <tile/>
   <tile/>
   <tile/>
   <tile/>
   <tile/>
   <tile/>
   <tile/>
   <tile/>
   <tile/>
   <tile/>
   <tile/>
   <tile/>
   <tile/>
   <tile/>
   <tile/>
   <tile/>
   <tile/>
   <tile/>
   <tile/>
   <tile/>
   <tile/>
   <tile/>
   <tile/>
   <tile/>
   <tile/>
   <tile/>
   <tile/>
   <tile/>
   <tile/>
   <tile/>
   <tile/>
   <tile/>
   <tile/>
   <tile/>
   <tile/>
   <tile/>
   <tile/>
   <tile/>
   <tile/>
   <tile/>
   <tile/>
   <tile/>
   <tile/>
   <tile/>
   <tile/>
   <tile gid="258"/>
   <tile/>
   <tile/>
   <tile/>
   <tile/>
   <tile/>
   <tile/>
   <tile/>
   <tile gid="258"/>
   <tile/>
   <tile/>
   <tile/>
   <tile/>
   <tile/>
   <tile/>
   <tile/>
   <tile/>
   <tile/>
   <tile/>
   <tile/>
   <tile/>
   <tile/>
   <tile/>
   <tile/>
   <tile/>
   <tile/>
   <tile/>
   <tile/>
   <tile/>
   <tile/>
   <tile/>
   <tile/>
   <tile/>
   <tile/>
   <tile/>
   <tile/>
   <tile/>
   <tile/>
   <tile/>
   <tile/>
   <tile/>
   <tile/>
   <tile/>
   <tile/>
   <tile/>
   <tile/>
   <tile/>
   <tile/>
   <tile/>
   <tile/>
   <tile/>
   <tile/>
   <tile/>
   <tile/>
   <tile/>
   <tile/>
   <tile/>
   <tile/>
   <tile/>
   <tile/>
   <tile gid="258"/>
   <tile/>
   <tile/>
   <tile/>
   <tile/>
   <tile/>
   <tile/>
   <tile/>
   <tile gid="258"/>
   <tile/>
   <tile/>
   <tile/>
   <tile/>
   <tile/>
   <tile/>
   <tile/>
   <tile/>
   <tile/>
   <tile/>
   <tile/>
   <tile/>
   <tile/>
   <tile/>
   <tile/>
   <tile/>
   <tile/>
   <tile/>
   <tile/>
   <tile/>
   <tile/>
   <tile/>
   <tile/>
   <tile/>
   <tile/>
   <tile/>
   <tile/>
   <tile/>
   <tile/>
   <tile/>
   <tile/>
   <tile/>
   <tile/>
   <tile/>
   <tile/>
   <tile/>
   <tile/>
   <tile/>
   <tile/>
   <tile/>
   <tile/>
   <tile/>
   <tile/>
   <tile/>
   <tile/>
   <tile/>
   <tile/>
   <tile/>
   <tile/>
   <tile/>
   <tile/>
   <tile gid="258"/>
   <tile/>
   <tile/>
   <tile/>
   <tile/>
   <tile/>
   <tile/>
   <tile/>
   <tile/>
   <tile/>
   <tile/>
   <tile/>
   <tile gid="258"/>
   <tile gid="258"/>
   <tile gid="258"/>
   <tile gid="258"/>
   <tile gid="258"/>
   <tile/>
   <tile/>
   <tile/>
   <tile/>
   <tile/>
   <tile/>
   <tile/>
   <tile/>
   <tile/>
   <tile/>
   <tile/>
   <tile/>
   <tile gid="258"/>
   <tile gid="258"/>
   <tile gid="258"/>
   <tile gid="258"/>
   <tile gid="258"/>
   <tile gid="258"/>
   <tile gid="258"/>
   <tile gid="258"/>
   <tile/>
   <tile/>
   <tile/>
   <tile/>
   <tile/>
   <tile/>
   <tile/>
   <tile/>
   <tile/>
   <tile/>
   <tile/>
   <tile/>
   <tile/>
   <tile/>
   <tile/>
   <tile/>
   <tile/>
   <tile/>
   <tile/>
   <tile/>
   <tile/>
   <tile/>
   <tile/>
   <tile gid="258"/>
   <tile/>
   <tile/>
   <tile/>
   <tile/>
   <tile/>
   <tile/>
   <tile/>
   <tile/>
   <tile/>
   <tile/>
   <tile/>
   <tile/>
   <tile/>
   <tile/>
   <tile/>
   <tile/>
   <tile/>
   <tile/>
   <tile/>
   <tile/>
   <tile/>
   <tile/>
   <tile/>
   <tile/>
   <tile/>
   <tile/>
   <tile/>
   <tile/>
   <tile gid="258"/>
   <tile/>
   <tile/>
   <tile/>
   <tile/>
   <tile/>
   <tile/>
   <tile gid="258"/>
   <tile/>
   <tile/>
   <tile/>
   <tile/>
   <tile/>
   <tile/>
   <tile/>
   <tile/>
   <tile/>
   <tile/>
   <tile/>
   <tile/>
   <tile/>
   <tile/>
   <tile/>
   <tile/>
   <tile/>
   <tile/>
   <tile/>
   <tile/>
   <tile/>
   <tile/>
   <tile/>
   <tile gid="258"/>
   <tile/>
   <tile/>
   <tile/>
   <tile/>
   <tile/>
   <tile/>
   <tile/>
   <tile/>
   <tile/>
   <tile/>
   <tile/>
   <tile/>
   <tile/>
   <tile/>
   <tile/>
   <tile/>
   <tile/>
   <tile/>
   <tile/>
   <tile/>
   <tile/>
   <tile/>
   <tile/>
   <tile/>
   <tile/>
   <tile/>
   <tile/>
   <tile/>
   <tile gid="258"/>
   <tile/>
   <tile/>
   <tile/>
   <tile/>
   <tile/>
   <tile/>
   <tile gid="258"/>
   <tile/>
   <tile/>
   <tile/>
   <tile/>
   <tile/>
   <tile/>
   <tile/>
   <tile/>
   <tile/>
   <tile/>
   <tile/>
   <tile/>
   <tile/>
   <tile/>
   <tile/>
   <tile/>
   <tile/>
   <tile/>
   <tile/>
   <tile/>
   <tile/>
   <tile/>
   <tile/>
   <tile gid="258"/>
   <tile/>
   <tile/>
   <tile/>
   <tile/>
   <tile/>
   <tile/>
   <tile/>
   <tile/>
   <tile/>
   <tile/>
   <tile/>
   <tile/>
   <tile/>
   <tile/>
   <tile/>
   <tile/>
   <tile/>
   <tile/>
   <tile/>
   <tile/>
   <tile/>
   <tile/>
   <tile/>
   <tile/>
   <tile/>
   <tile/>
   <tile/>
   <tile/>
   <tile gid="258"/>
   <tile/>
   <tile/>
   <tile/>
   <tile/>
   <tile/>
   <tile/>
   <tile gid="258"/>
   <tile/>
   <tile/>
   <tile/>
   <tile/>
   <tile/>
   <tile/>
   <tile/>
   <tile/>
   <tile/>
   <tile/>
   <tile/>
   <tile/>
   <tile/>
   <tile/>
   <tile/>
   <tile/>
   <tile/>
   <tile/>
   <tile/>
   <tile/>
   <tile/>
   <tile/>
   <tile/>
   <tile gid="258"/>
   <tile/>
   <tile/>
   <tile/>
   <tile/>
   <tile/>
   <tile/>
   <tile/>
   <tile gid="258"/>
   <tile gid="258"/>
   <tile gid="258"/>
   <tile gid="258"/>
   <tile gid="258"/>
   <tile gid="258"/>
   <tile gid="258"/>
   <tile gid="258"/>
   <tile gid="258"/>
   <tile/>
   <tile/>
   <tile/>
   <tile/>
   <tile/>
   <tile gid="258"/>
   <tile gid="258"/>
   <tile gid="258"/>
   <tile gid="258"/>
   <tile gid="258"/>
   <tile gid="258"/>
   <tile gid="258"/>
   <tile/>
   <tile/>
   <tile/>
   <tile/>
   <tile/>
   <tile/>
   <tile/>
   <tile/>
   <tile gid="258"/>
   <tile gid="258"/>
   <tile gid="258"/>
   <tile gid="258"/>
   <tile gid="258"/>
   <tile gid="258"/>
   <tile gid="258"/>
   <tile gid="258"/>
   <tile gid="258"/>
   <tile gid="258"/>
   <tile gid="258"/>
   <tile gid="258"/>
   <tile gid="258"/>
   <tile gid="258"/>
   <tile gid="258"/>
   <tile gid="258"/>
   <tile gid="258"/>
   <tile gid="258"/>
   <tile gid="258"/>
   <tile gid="258"/>
   <tile gid="258"/>
   <tile gid="258"/>
   <tile gid="258"/>
   <tile/>
   <tile/>
   <tile/>
   <tile/>
   <tile/>
   <tile/>
   <tile/>
   <tile/>
  </data>
 </layer>
 <objectgroup id="4" name="Entities">
  <object id="1" name="Door" type="Door" x="541" y="2152" width="390" height="24">
   <properties>
    <property name="Destination" value="MapPulmo_Sala2.tmx"/>
    <property name="Type" value="Door"/>
    <property name="playerX" type="float" value="744"/>
    <property name="playerY" type="float" value="224"/>
   </properties>
  </object>
  <object id="3" name="Door" type="Door" x="-7" y="1836" width="38" height="296">
   <properties>
    <property name="Destination" value="MapPulmo_Sala4.tmx"/>
    <property name="Type" value="Door"/>
    <property name="playerX" type="float" value="1733"/>
    <property name="playerY" type="float" value="2000"/>
   </properties>
  </object>
  <object id="4" name="Door" type="Door" x="917" y="8" width="420" height="24">
   <properties>
    <property name="Destination" value="MapPulmo_Sala7.tmx"/>
    <property name="Type" value="Door"/>
    <property name="playerX" type="float" value="732"/>
    <property name="playerY" type="float" value="1960"/>
   </properties>
  </object>
  <object id="5" name="Player" type="Player" x="1100.42" y="225.22">
   <point/>
  </object>
  <object id="9" name="Climbable" type="Climbable" x="688" y="1082.66" width="48" height="1090.67">
   <properties>
    <property name="Type" value="Climbable"/>
   </properties>
  </object>
  <object id="10" name="Climbable" type="Climbable" x="172" y="60.3317" width="48" height="642.337">
   <properties>
    <property name="Type" value="Climbable"/>
   </properties>
  </object>
  <object id="11" name="Climbable" type="Climbable" x="678.061" y="502.756" width="48" height="448.397">
   <properties>
    <property name="Type" value="Climbable"/>
   </properties>
  </object>
  <object id="12" name="Climbable" type="Climbable" x="1132.52" y="3.75591" width="48" height="246.367">
   <properties>
    <property name="Type" value="Climbable"/>
   </properties>
  </object>
  <object id="13" name="Climbable" type="Climbable" x="2028.52" y="1019.76" width="48" height="510.367">
   <properties>
    <property name="Type" value="Climbable"/>
   </properties>
  </object>
  <object id="14" name="Climbable" type="Climbable" x="2344.52" y="1003.76" width="48" height="338.367">
   <properties>
    <property name="Type" value="Climbable"/>
   </properties>
  </object>
 </objectgroup>
 <objectgroup id="5" name="Anim_Tiles" visible="0">
  <object id="15" name="part_superior_animada_pulmons" type="anim_tile" x="1856" y="1984" width="64" height="64">
   <properties>
    <property name="Texture" value="part_superior_animada_pulmons"/>
    <property name="Type" value="anim_tile"/>
   </properties>
  </object>
  <object id="76" name="part_superior_animada_pulmons" type="anim_tile" x="896" y="1984" width="64" height="64">
   <properties>
    <property name="Texture" value="part_superior_animada_pulmons"/>
    <property name="Type" value="anim_tile"/>
   </properties>
  </object>
  <object id="90" name="part_superior_animada_pulmons" type="anim_tile" x="128" y="1984" width="64" height="64">
   <properties>
    <property name="Texture" value="part_superior_animada_pulmons"/>
    <property name="Type" value="anim_tile"/>
   </properties>
  </object>
  <object id="92" name="part_superior_animada_pulmons" type="anim_tile" x="64" y="1984" width="64" height="64">
   <properties>
    <property name="Texture" value="part_superior_animada_pulmons"/>
    <property name="Type" value="anim_tile"/>
   </properties>
  </object>
  <object id="94" name="part_superior_animada_pulmons" type="anim_tile" x="0" y="1984" width="64" height="64">
   <properties>
    <property name="Texture" value="part_superior_animada_pulmons"/>
    <property name="Type" value="anim_tile"/>
   </properties>
  </object>
  <object id="39" name="part_superior_animada_pulmons" type="anim_tile" x="2624" y="1984" width="64" height="64">
   <properties>
    <property name="Texture" value="part_superior_animada_pulmons"/>
    <property name="Type" value="anim_tile"/>
   </properties>
  </object>
  <object id="16" name="part_superior_animada_pulmons" type="anim_tile" x="1920" y="1984" width="64" height="64">
   <properties>
    <property name="Texture" value="part_superior_animada_pulmons"/>
    <property name="Type" value="anim_tile"/>
   </properties>
  </object>
  <object id="75" name="part_superior_animada_pulmons" type="anim_tile" x="960" y="1984" width="64" height="64">
   <properties>
    <property name="Texture" value="part_superior_animada_pulmons"/>
    <property name="Type" value="anim_tile"/>
   </properties>
  </object>
  <object id="89" name="part_superior_animada_pulmons" type="anim_tile" x="192" y="1984" width="64" height="64">
   <properties>
    <property name="Texture" value="part_superior_animada_pulmons"/>
    <property name="Type" value="anim_tile"/>
   </properties>
  </object>
  <object id="40" name="part_superior_animada_pulmons" type="anim_tile" x="2688" y="1984" width="64" height="64">
   <properties>
    <property name="Texture" value="part_superior_animada_pulmons"/>
    <property name="Type" value="anim_tile"/>
   </properties>
  </object>
  <object id="17" name="part_superior_animada_pulmons" type="anim_tile" x="1984" y="1984" width="64" height="64">
   <properties>
    <property name="Texture" value="part_superior_animada_pulmons"/>
    <property name="Type" value="anim_tile"/>
   </properties>
  </object>
  <object id="74" name="part_superior_animada_pulmons" type="anim_tile" x="1024" y="1984" width="64" height="64">
   <properties>
    <property name="Texture" value="part_superior_animada_pulmons"/>
    <property name="Type" value="anim_tile"/>
   </properties>
  </object>
  <object id="88" name="part_superior_animada_pulmons" type="anim_tile" x="256" y="1984" width="64" height="64">
   <properties>
    <property name="Texture" value="part_superior_animada_pulmons"/>
    <property name="Type" value="anim_tile"/>
   </properties>
  </object>
  <object id="41" name="part_superior_animada_pulmons" type="anim_tile" x="2752" y="1984" width="64" height="64">
   <properties>
    <property name="Texture" value="part_superior_animada_pulmons"/>
    <property name="Type" value="anim_tile"/>
   </properties>
  </object>
  <object id="18" name="part_superior_animada_pulmons" type="anim_tile" x="2048" y="1984" width="64" height="64">
   <properties>
    <property name="Texture" value="part_superior_animada_pulmons"/>
    <property name="Type" value="anim_tile"/>
   </properties>
  </object>
  <object id="73" name="part_superior_animada_pulmons" type="anim_tile" x="1088" y="1984" width="64" height="64">
   <properties>
    <property name="Texture" value="part_superior_animada_pulmons"/>
    <property name="Type" value="anim_tile"/>
   </properties>
  </object>
  <object id="87" name="part_superior_animada_pulmons" type="anim_tile" x="320" y="1984" width="64" height="64">
   <properties>
    <property name="Texture" value="part_superior_animada_pulmons"/>
    <property name="Type" value="anim_tile"/>
   </properties>
  </object>
  <object id="42" name="part_superior_animada_pulmons" type="anim_tile" x="2816" y="1984" width="64" height="64">
   <properties>
    <property name="Texture" value="part_superior_animada_pulmons"/>
    <property name="Type" value="anim_tile"/>
   </properties>
  </object>
  <object id="19" name="part_superior_animada_pulmons" type="anim_tile" x="2112" y="1984" width="64" height="64">
   <properties>
    <property name="Texture" value="part_superior_animada_pulmons"/>
    <property name="Type" value="anim_tile"/>
   </properties>
  </object>
  <object id="72" name="part_superior_animada_pulmons" type="anim_tile" x="1152" y="1984" width="64" height="64">
   <properties>
    <property name="Texture" value="part_superior_animada_pulmons"/>
    <property name="Type" value="anim_tile"/>
   </properties>
  </object>
  <object id="86" name="part_superior_animada_pulmons" type="anim_tile" x="384" y="1984" width="64" height="64">
   <properties>
    <property name="Texture" value="part_superior_animada_pulmons"/>
    <property name="Type" value="anim_tile"/>
   </properties>
  </object>
  <object id="43" name="part_superior_animada_pulmons" type="anim_tile" x="2880" y="1984" width="64" height="64">
   <properties>
    <property name="Texture" value="part_superior_animada_pulmons"/>
    <property name="Type" value="anim_tile"/>
   </properties>
  </object>
  <object id="20" name="part_superior_animada_pulmons" type="anim_tile" x="2176" y="1984" width="64" height="64">
   <properties>
    <property name="Texture" value="part_superior_animada_pulmons"/>
    <property name="Type" value="anim_tile"/>
   </properties>
  </object>
  <object id="71" name="part_superior_animada_pulmons" type="anim_tile" x="1216" y="1984" width="64" height="64">
   <properties>
    <property name="Texture" value="part_superior_animada_pulmons"/>
    <property name="Type" value="anim_tile"/>
   </properties>
  </object>
  <object id="85" name="part_superior_animada_pulmons" type="anim_tile" x="448" y="1984" width="64" height="64">
   <properties>
    <property name="Texture" value="part_superior_animada_pulmons"/>
    <property name="Type" value="anim_tile"/>
   </properties>
  </object>
  <object id="44" name="part_superior_animada_pulmons" type="anim_tile" x="2944" y="1984" width="64" height="64">
   <properties>
    <property name="Texture" value="part_superior_animada_pulmons"/>
    <property name="Type" value="anim_tile"/>
   </properties>
  </object>
  <object id="21" name="part_superior_animada_pulmons" type="anim_tile" x="2240" y="1984" width="64" height="64">
   <properties>
    <property name="Texture" value="part_superior_animada_pulmons"/>
    <property name="Type" value="anim_tile"/>
   </properties>
  </object>
  <object id="70" name="part_superior_animada_pulmons" type="anim_tile" x="1280" y="1984" width="64" height="64">
   <properties>
    <property name="Texture" value="part_superior_animada_pulmons"/>
    <property name="Type" value="anim_tile"/>
   </properties>
  </object>
  <object id="84" name="part_superior_animada_pulmons" type="anim_tile" x="512" y="1984" width="64" height="64">
   <properties>
    <property name="Texture" value="part_superior_animada_pulmons"/>
    <property name="Type" value="anim_tile"/>
   </properties>
  </object>
  <object id="45" name="part_superior_animada_pulmons" type="anim_tile" x="3008" y="1984" width="64" height="64">
   <properties>
    <property name="Texture" value="part_superior_animada_pulmons"/>
    <property name="Type" value="anim_tile"/>
   </properties>
  </object>
  <object id="22" name="part_superior_animada_pulmons" type="anim_tile" x="2304" y="1984" width="64" height="64">
   <properties>
    <property name="Texture" value="part_superior_animada_pulmons"/>
    <property name="Type" value="anim_tile"/>
   </properties>
  </object>
  <object id="46" name="part_superior_animada_pulmons" type="anim_tile" x="3072" y="1984" width="64" height="64">
   <properties>
    <property name="Texture" value="part_superior_animada_pulmons"/>
    <property name="Type" value="anim_tile"/>
   </properties>
  </object>
  <object id="23" name="part_superior_animada_pulmons" type="anim_tile" x="2368" y="1984" width="64" height="64">
   <properties>
    <property name="Texture" value="part_superior_animada_pulmons"/>
    <property name="Type" value="anim_tile"/>
   </properties>
  </object>
  <object id="47" name="part_superior_animada_pulmons" type="anim_tile" x="3136" y="1984" width="64" height="64">
   <properties>
    <property name="Texture" value="part_superior_animada_pulmons"/>
    <property name="Type" value="anim_tile"/>
   </properties>
  </object>
  <object id="24" name="part_superior_animada_pulmons" type="anim_tile" x="2432" y="1984" width="64" height="64">
   <properties>
    <property name="Texture" value="part_superior_animada_pulmons"/>
    <property name="Type" value="anim_tile"/>
   </properties>
  </object>
  <object id="48" name="part_superior_animada_pulmons" type="anim_tile" x="3200" y="1984" width="64" height="64">
   <properties>
    <property name="Texture" value="part_superior_animada_pulmons"/>
    <property name="Type" value="anim_tile"/>
   </properties>
  </object>
  <object id="25" name="part_superior_animada_pulmons" type="anim_tile" x="2496" y="1984" width="64" height="64">
   <properties>
    <property name="Texture" value="part_superior_animada_pulmons"/>
    <property name="Type" value="anim_tile"/>
   </properties>
  </object>
  <object id="49" name="part_superior_animada_pulmons" type="anim_tile" x="3264" y="1984" width="64" height="64">
   <properties>
    <property name="Texture" value="part_superior_animada_pulmons"/>
    <property name="Type" value="anim_tile"/>
   </properties>
  </object>
  <object id="26" name="part_superior_animada_pulmons" type="anim_tile" x="2560" y="1984" width="64" height="64">
   <properties>
    <property name="Texture" value="part_superior_animada_pulmons"/>
    <property name="Type" value="anim_tile"/>
   </properties>
  </object>
  <object id="27" name="base_animada_pulmons" type="anim_tile" x="1856" y="2048" width="64" height="64">
   <properties>
    <property name="Texture" value="base_animada_pulmons"/>
    <property name="Type" value="anim_tile"/>
   </properties>
  </object>
  <object id="69" name="base_animada_pulmons" type="anim_tile" x="896" y="2048" width="64" height="64">
   <properties>
    <property name="Texture" value="base_animada_pulmons"/>
    <property name="Type" value="anim_tile"/>
   </properties>
  </object>
  <object id="83" name="base_animada_pulmons" type="anim_tile" x="128" y="2048" width="64" height="64">
   <properties>
    <property name="Texture" value="base_animada_pulmons"/>
    <property name="Type" value="anim_tile"/>
   </properties>
  </object>
  <object id="91" name="base_animada_pulmons" type="anim_tile" x="64" y="2048" width="64" height="64">
   <properties>
    <property name="Texture" value="base_animada_pulmons"/>
    <property name="Type" value="anim_tile"/>
   </properties>
  </object>
  <object id="93" name="base_animada_pulmons" type="anim_tile" x="0" y="2048" width="64" height="64">
   <properties>
    <property name="Texture" value="base_animada_pulmons"/>
    <property name="Type" value="anim_tile"/>
   </properties>
  </object>
  <object id="51" name="base_animada_pulmons" type="anim_tile" x="2624" y="2048" width="64" height="64">
   <properties>
    <property name="Texture" value="base_animada_pulmons"/>
    <property name="Type" value="anim_tile"/>
   </properties>
  </object>
  <object id="28" name="base_animada_pulmons" type="anim_tile" x="1920" y="2048" width="64" height="64">
   <properties>
    <property name="Texture" value="base_animada_pulmons"/>
    <property name="Type" value="anim_tile"/>
   </properties>
  </object>
  <object id="68" name="base_animada_pulmons" type="anim_tile" x="960" y="2048" width="64" height="64">
   <properties>
    <property name="Texture" value="base_animada_pulmons"/>
    <property name="Type" value="anim_tile"/>
   </properties>
  </object>
  <object id="82" name="base_animada_pulmons" type="anim_tile" x="192" y="2048" width="64" height="64">
   <properties>
    <property name="Texture" value="base_animada_pulmons"/>
    <property name="Type" value="anim_tile"/>
   </properties>
  </object>
  <object id="52" name="base_animada_pulmons" type="anim_tile" x="2688" y="2048" width="64" height="64">
   <properties>
    <property name="Texture" value="base_animada_pulmons"/>
    <property name="Type" value="anim_tile"/>
   </properties>
  </object>
  <object id="29" name="base_animada_pulmons" type="anim_tile" x="1984" y="2048" width="64" height="64">
   <properties>
    <property name="Texture" value="base_animada_pulmons"/>
    <property name="Type" value="anim_tile"/>
   </properties>
  </object>
  <object id="67" name="base_animada_pulmons" type="anim_tile" x="1024" y="2048" width="64" height="64">
   <properties>
    <property name="Texture" value="base_animada_pulmons"/>
    <property name="Type" value="anim_tile"/>
   </properties>
  </object>
  <object id="81" name="base_animada_pulmons" type="anim_tile" x="256" y="2048" width="64" height="64">
   <properties>
    <property name="Texture" value="base_animada_pulmons"/>
    <property name="Type" value="anim_tile"/>
   </properties>
  </object>
  <object id="53" name="base_animada_pulmons" type="anim_tile" x="2752" y="2048" width="64" height="64">
   <properties>
    <property name="Texture" value="base_animada_pulmons"/>
    <property name="Type" value="anim_tile"/>
   </properties>
  </object>
  <object id="30" name="base_animada_pulmons" type="anim_tile" x="2048" y="2048" width="64" height="64">
   <properties>
    <property name="Texture" value="base_animada_pulmons"/>
    <property name="Type" value="anim_tile"/>
   </properties>
  </object>
  <object id="66" name="base_animada_pulmons" type="anim_tile" x="1088" y="2048" width="64" height="64">
   <properties>
    <property name="Texture" value="base_animada_pulmons"/>
    <property name="Type" value="anim_tile"/>
   </properties>
  </object>
  <object id="80" name="base_animada_pulmons" type="anim_tile" x="320" y="2048" width="64" height="64">
   <properties>
    <property name="Texture" value="base_animada_pulmons"/>
    <property name="Type" value="anim_tile"/>
   </properties>
  </object>
  <object id="54" name="base_animada_pulmons" type="anim_tile" x="2816" y="2048" width="64" height="64">
   <properties>
    <property name="Texture" value="base_animada_pulmons"/>
    <property name="Type" value="anim_tile"/>
   </properties>
  </object>
  <object id="31" name="base_animada_pulmons" type="anim_tile" x="2112" y="2048" width="64" height="64">
   <properties>
    <property name="Texture" value="base_animada_pulmons"/>
    <property name="Type" value="anim_tile"/>
   </properties>
  </object>
  <object id="65" name="base_animada_pulmons" type="anim_tile" x="1152" y="2048" width="64" height="64">
   <properties>
    <property name="Texture" value="base_animada_pulmons"/>
    <property name="Type" value="anim_tile"/>
   </properties>
  </object>
  <object id="79" name="base_animada_pulmons" type="anim_tile" x="384" y="2048" width="64" height="64">
   <properties>
    <property name="Texture" value="base_animada_pulmons"/>
    <property name="Type" value="anim_tile"/>
   </properties>
  </object>
  <object id="55" name="base_animada_pulmons" type="anim_tile" x="2880" y="2048" width="64" height="64">
   <properties>
    <property name="Texture" value="base_animada_pulmons"/>
    <property name="Type" value="anim_tile"/>
   </properties>
  </object>
  <object id="32" name="base_animada_pulmons" type="anim_tile" x="2176" y="2048" width="64" height="64">
   <properties>
    <property name="Texture" value="base_animada_pulmons"/>
    <property name="Type" value="anim_tile"/>
   </properties>
  </object>
  <object id="64" name="base_animada_pulmons" type="anim_tile" x="1216" y="2048" width="64" height="64">
   <properties>
    <property name="Texture" value="base_animada_pulmons"/>
    <property name="Type" value="anim_tile"/>
   </properties>
  </object>
  <object id="78" name="base_animada_pulmons" type="anim_tile" x="448" y="2048" width="64" height="64">
   <properties>
    <property name="Texture" value="base_animada_pulmons"/>
    <property name="Type" value="anim_tile"/>
   </properties>
  </object>
  <object id="56" name="base_animada_pulmons" type="anim_tile" x="2944" y="2048" width="64" height="64">
   <properties>
    <property name="Texture" value="base_animada_pulmons"/>
    <property name="Type" value="anim_tile"/>
   </properties>
  </object>
  <object id="33" name="base_animada_pulmons" type="anim_tile" x="2240" y="2048" width="64" height="64">
   <properties>
    <property name="Texture" value="base_animada_pulmons"/>
    <property name="Type" value="anim_tile"/>
   </properties>
  </object>
  <object id="63" name="base_animada_pulmons" type="anim_tile" x="1280" y="2048" width="64" height="64">
   <properties>
    <property name="Texture" value="base_animada_pulmons"/>
    <property name="Type" value="anim_tile"/>
   </properties>
  </object>
  <object id="77" name="base_animada_pulmons" type="anim_tile" x="512" y="2048" width="64" height="64">
   <properties>
    <property name="Texture" value="base_animada_pulmons"/>
    <property name="Type" value="anim_tile"/>
   </properties>
  </object>
  <object id="57" name="base_animada_pulmons" type="anim_tile" x="3008" y="2048" width="64" height="64">
   <properties>
    <property name="Texture" value="base_animada_pulmons"/>
    <property name="Type" value="anim_tile"/>
   </properties>
  </object>
  <object id="34" name="base_animada_pulmons" type="anim_tile" x="2304" y="2048" width="64" height="64">
   <properties>
    <property name="Texture" value="base_animada_pulmons"/>
    <property name="Type" value="anim_tile"/>
   </properties>
  </object>
  <object id="58" name="base_animada_pulmons" type="anim_tile" x="3072" y="2048" width="64" height="64">
   <properties>
    <property name="Texture" value="base_animada_pulmons"/>
    <property name="Type" value="anim_tile"/>
   </properties>
  </object>
  <object id="35" name="base_animada_pulmons" type="anim_tile" x="2368" y="2048" width="64" height="64">
   <properties>
    <property name="Texture" value="base_animada_pulmons"/>
    <property name="Type" value="anim_tile"/>
   </properties>
  </object>
  <object id="59" name="base_animada_pulmons" type="anim_tile" x="3136" y="2048" width="64" height="64">
   <properties>
    <property name="Texture" value="base_animada_pulmons"/>
    <property name="Type" value="anim_tile"/>
   </properties>
  </object>
  <object id="36" name="base_animada_pulmons" type="anim_tile" x="2432" y="2048" width="64" height="64">
   <properties>
    <property name="Texture" value="base_animada_pulmons"/>
    <property name="Type" value="anim_tile"/>
   </properties>
  </object>
  <object id="60" name="base_animada_pulmons" type="anim_tile" x="3200" y="2048" width="64" height="64">
   <properties>
    <property name="Texture" value="base_animada_pulmons"/>
    <property name="Type" value="anim_tile"/>
   </properties>
  </object>
  <object id="37" name="base_animada_pulmons" type="anim_tile" x="2496" y="2048" width="64" height="64">
   <properties>
    <property name="Texture" value="base_animada_pulmons"/>
    <property name="Type" value="anim_tile"/>
   </properties>
  </object>
  <object id="61" name="base_animada_pulmons" type="anim_tile" x="3264" y="2048" width="64" height="64">
   <properties>
    <property name="Texture" value="base_animada_pulmons"/>
    <property name="Type" value="anim_tile"/>
   </properties>
  </object>
  <object id="38" name="base_animada_pulmons" type="anim_tile" x="2560" y="2048" width="64" height="64">
   <properties>
    <property name="Texture" value="base_animada_pulmons"/>
    <property name="Type" value="anim_tile"/>
   </properties>
  </object>
 </objectgroup>
</map>
