<?xml version="1.0" encoding="UTF-8"?>
<map version="1.10" tiledversion="1.11.2" orientation="orthogonal" renderorder="right-down" width="60" height="34" tilewidth="64" tileheight="64" infinite="0" nextlayerid="7" nextobjectid="137">
 <properties>
  <property name="Draw" type="bool" value="true"/>
 </properties>
 <tileset firstgid="1" name="atlas_tiles_1.3" tilewidth="64" tileheight="64" tilecount="256" columns="16">
  <image source="atlas_tiles_1.3.png" width="1024" height="1024"/>
 </tileset>
 <tileset firstgid="257" name="atlas_2.4" tilewidth="64" tileheight="64" tilecount="256" columns="16">
  <image source="atlas_2.4.png" width="1024" height="1024"/>
 </tileset>
 <tileset firstgid="513" name="TileMetadata" tilewidth="64" tileheight="64" tilecount="2" columns="2">
  <image source="TileMetadata.png" width="128" height="64"/>
 </tileset>
 <tileset firstgid="515" source="../Textures/Backgrounds/Pulmones/Background Pulmones.tsx"/>
 <tileset firstgid="1073" name="Background Pulmón1" tilewidth="64" tileheight="64" tilecount="558" columns="31">
  <image source="../Textures/Backgrounds/Pulmones/Background Pulmón1.png" width="2020" height="1180"/>
 </tileset>
 <layer id="6" name="Background" width="60" height="34">
  <properties>
   <property name="Draw" type="bool" value="true"/>
  </properties>
  <data>
   <tile gid="1073"/>
   <tile gid="1074"/>
   <tile gid="1075"/>
   <tile gid="1076"/>
   <tile gid="1077"/>
   <tile gid="1078"/>
   <tile gid="1079"/>
   <tile gid="1080"/>
   <tile gid="1081"/>
   <tile gid="1082"/>
   <tile gid="1083"/>
   <tile gid="1084"/>
   <tile gid="1085"/>
   <tile gid="1086"/>
   <tile gid="1087"/>
   <tile gid="1088"/>
   <tile gid="1089"/>
   <tile gid="1090"/>
   <tile gid="1091"/>
   <tile gid="1092"/>
   <tile gid="1093"/>
   <tile gid="1094"/>
   <tile gid="1095"/>
   <tile gid="1096"/>
   <tile gid="1097"/>
   <tile gid="1098"/>
   <tile gid="1099"/>
   <tile gid="1100"/>
   <tile gid="1101"/>
   <tile gid="1102"/>
   <tile gid="1103"/>
   <tile gid="1073"/>
   <tile gid="1074"/>
   <tile gid="1075"/>
   <tile gid="1076"/>
   <tile gid="1077"/>
   <tile gid="1078"/>
   <tile gid="1079"/>
   <tile gid="1080"/>
   <tile gid="1081"/>
   <tile gid="1082"/>
   <tile gid="1083"/>
   <tile gid="1084"/>
   <tile gid="1085"/>
   <tile gid="1086"/>
   <tile gid="1087"/>
   <tile gid="1088"/>
   <tile gid="1089"/>
   <tile gid="1090"/>
   <tile gid="1091"/>
   <tile gid="1092"/>
   <tile gid="1093"/>
   <tile gid="1094"/>
   <tile gid="1095"/>
   <tile gid="1096"/>
   <tile gid="1097"/>
   <tile gid="1098"/>
   <tile gid="1099"/>
   <tile gid="1100"/>
   <tile gid="1101"/>
   <tile gid="1104"/>
   <tile gid="1105"/>
   <tile gid="1106"/>
   <tile gid="1107"/>
   <tile gid="1108"/>
   <tile gid="1109"/>
   <tile gid="1110"/>
   <tile gid="1111"/>
   <tile gid="1112"/>
   <tile gid="1113"/>
   <tile gid="1114"/>
   <tile gid="1115"/>
   <tile gid="1116"/>
   <tile gid="1117"/>
   <tile gid="1118"/>
   <tile gid="1119"/>
   <tile gid="1120"/>
   <tile gid="1121"/>
   <tile gid="1122"/>
   <tile gid="1123"/>
   <tile gid="1124"/>
   <tile gid="1125"/>
   <tile gid="1126"/>
   <tile gid="1127"/>
   <tile gid="1128"/>
   <tile gid="1129"/>
   <tile gid="1130"/>
   <tile gid="1131"/>
   <tile gid="1132"/>
   <tile gid="1133"/>
   <tile gid="1134"/>
   <tile gid="1104"/>
   <tile gid="1105"/>
   <tile gid="1106"/>
   <tile gid="1107"/>
   <tile gid="1108"/>
   <tile gid="1109"/>
   <tile gid="1110"/>
   <tile gid="1111"/>
   <tile gid="1112"/>
   <tile gid="1113"/>
   <tile gid="1114"/>
   <tile gid="1115"/>
   <tile gid="1116"/>
   <tile gid="1117"/>
   <tile gid="1118"/>
   <tile gid="1119"/>
   <tile gid="1120"/>
   <tile gid="1121"/>
   <tile gid="1122"/>
   <tile gid="1123"/>
   <tile gid="1124"/>
   <tile gid="1125"/>
   <tile gid="1126"/>
   <tile gid="1127"/>
   <tile gid="1128"/>
   <tile gid="1129"/>
   <tile gid="1130"/>
   <tile gid="1131"/>
   <tile gid="1132"/>
   <tile gid="1135"/>
   <tile gid="1136"/>
   <tile gid="1137"/>
   <tile gid="1138"/>
   <tile gid="1139"/>
   <tile gid="1140"/>
   <tile gid="1141"/>
   <tile gid="1142"/>
   <tile gid="1143"/>
   <tile gid="1144"/>
   <tile gid="1145"/>
   <tile gid="1146"/>
   <tile gid="1147"/>
   <tile gid="1148"/>
   <tile gid="1149"/>
   <tile gid="1150"/>
   <tile gid="1151"/>
   <tile gid="1152"/>
   <tile gid="1153"/>
   <tile gid="1154"/>
   <tile gid="1155"/>
   <tile gid="1156"/>
   <tile gid="1157"/>
   <tile gid="1158"/>
   <tile gid="1159"/>
   <tile gid="1160"/>
   <tile gid="1161"/>
   <tile gid="1162"/>
   <tile gid="1163"/>
   <tile gid="1164"/>
   <tile gid="1165"/>
   <tile gid="1135"/>
   <tile gid="1136"/>
   <tile gid="1137"/>
   <tile gid="1138"/>
   <tile gid="1139"/>
   <tile gid="1140"/>
   <tile gid="1141"/>
   <tile gid="1142"/>
   <tile gid="1143"/>
   <tile gid="1144"/>
   <tile gid="1145"/>
   <tile gid="1146"/>
   <tile gid="1147"/>
   <tile gid="1148"/>
   <tile gid="1149"/>
   <tile gid="1150"/>
   <tile gid="1151"/>
   <tile gid="1152"/>
   <tile gid="1153"/>
   <tile gid="1154"/>
   <tile gid="1155"/>
   <tile gid="1156"/>
   <tile gid="1157"/>
   <tile gid="1158"/>
   <tile gid="1159"/>
   <tile gid="1160"/>
   <tile gid="1161"/>
   <tile gid="1162"/>
   <tile gid="1163"/>
   <tile gid="1166"/>
   <tile gid="1167"/>
   <tile gid="1168"/>
   <tile gid="1169"/>
   <tile gid="1170"/>
   <tile gid="1171"/>
   <tile gid="1172"/>
   <tile gid="1173"/>
   <tile gid="1174"/>
   <tile gid="1175"/>
   <tile gid="1176"/>
   <tile gid="1177"/>
   <tile gid="1178"/>
   <tile gid="1179"/>
   <tile gid="1180"/>
   <tile gid="1181"/>
   <tile gid="1182"/>
   <tile gid="1183"/>
   <tile gid="1184"/>
   <tile gid="1185"/>
   <tile gid="1186"/>
   <tile gid="1187"/>
   <tile gid="1188"/>
   <tile gid="1189"/>
   <tile gid="1190"/>
   <tile gid="1191"/>
   <tile gid="1192"/>
   <tile gid="1193"/>
   <tile gid="1194"/>
   <tile gid="1195"/>
   <tile gid="1196"/>
   <tile gid="1166"/>
   <tile gid="1167"/>
   <tile gid="1168"/>
   <tile gid="1169"/>
   <tile gid="1170"/>
   <tile gid="1171"/>
   <tile gid="1172"/>
   <tile gid="1173"/>
   <tile gid="1174"/>
   <tile gid="1175"/>
   <tile gid="1176"/>
   <tile gid="1177"/>
   <tile gid="1178"/>
   <tile gid="1179"/>
   <tile gid="1180"/>
   <tile gid="1181"/>
   <tile gid="1182"/>
   <tile gid="1183"/>
   <tile gid="1184"/>
   <tile gid="1185"/>
   <tile gid="1186"/>
   <tile gid="1187"/>
   <tile gid="1188"/>
   <tile gid="1189"/>
   <tile gid="1190"/>
   <tile gid="1191"/>
   <tile gid="1192"/>
   <tile gid="1193"/>
   <tile gid="1194"/>
   <tile gid="1197"/>
   <tile gid="1198"/>
   <tile gid="1199"/>
   <tile gid="1200"/>
   <tile gid="1201"/>
   <tile gid="1202"/>
   <tile gid="1203"/>
   <tile gid="1204"/>
   <tile gid="1205"/>
   <tile gid="1206"/>
   <tile gid="1207"/>
   <tile gid="1208"/>
   <tile gid="1209"/>
   <tile gid="1210"/>
   <tile gid="1211"/>
   <tile gid="1212"/>
   <tile gid="1213"/>
   <tile gid="1214"/>
   <tile gid="1215"/>
   <tile gid="1216"/>
   <tile gid="1217"/>
   <tile gid="1218"/>
   <tile gid="1219"/>
   <tile gid="1220"/>
   <tile gid="1221"/>
   <tile gid="1222"/>
   <tile gid="1223"/>
   <tile gid="1224"/>
   <tile gid="1225"/>
   <tile gid="1226"/>
   <tile gid="1227"/>
   <tile gid="1197"/>
   <tile gid="1198"/>
   <tile gid="1199"/>
   <tile gid="1200"/>
   <tile gid="1201"/>
   <tile gid="1202"/>
   <tile gid="1203"/>
   <tile gid="1204"/>
   <tile gid="1205"/>
   <tile gid="1206"/>
   <tile gid="1207"/>
   <tile gid="1208"/>
   <tile gid="1209"/>
   <tile gid="1210"/>
   <tile gid="1211"/>
   <tile gid="1212"/>
   <tile gid="1213"/>
   <tile gid="1214"/>
   <tile gid="1215"/>
   <tile gid="1216"/>
   <tile gid="1217"/>
   <tile gid="1218"/>
   <tile gid="1219"/>
   <tile gid="1220"/>
   <tile gid="1221"/>
   <tile gid="1222"/>
   <tile gid="1223"/>
   <tile gid="1224"/>
   <tile gid="1225"/>
   <tile gid="1228"/>
   <tile gid="1229"/>
   <tile gid="1230"/>
   <tile gid="1231"/>
   <tile gid="1232"/>
   <tile gid="1233"/>
   <tile gid="1234"/>
   <tile gid="1235"/>
   <tile gid="1236"/>
   <tile gid="1237"/>
   <tile gid="1238"/>
   <tile gid="1239"/>
   <tile gid="1240"/>
   <tile gid="1241"/>
   <tile gid="1242"/>
   <tile gid="1243"/>
   <tile gid="1244"/>
   <tile gid="1245"/>
   <tile gid="1246"/>
   <tile gid="1247"/>
   <tile gid="1248"/>
   <tile gid="1249"/>
   <tile gid="1250"/>
   <tile gid="1251"/>
   <tile gid="1252"/>
   <tile gid="1253"/>
   <tile gid="1254"/>
   <tile gid="1255"/>
   <tile gid="1256"/>
   <tile gid="1257"/>
   <tile gid="1258"/>
   <tile gid="1228"/>
   <tile gid="1229"/>
   <tile gid="1230"/>
   <tile gid="1231"/>
   <tile gid="1232"/>
   <tile gid="1233"/>
   <tile gid="1234"/>
   <tile gid="1235"/>
   <tile gid="1236"/>
   <tile gid="1237"/>
   <tile gid="1238"/>
   <tile gid="1239"/>
   <tile gid="1240"/>
   <tile gid="1241"/>
   <tile gid="1242"/>
   <tile gid="1243"/>
   <tile gid="1244"/>
   <tile gid="1245"/>
   <tile gid="1246"/>
   <tile gid="1247"/>
   <tile gid="1248"/>
   <tile gid="1249"/>
   <tile gid="1250"/>
   <tile gid="1251"/>
   <tile gid="1252"/>
   <tile gid="1253"/>
   <tile gid="1254"/>
   <tile gid="1255"/>
   <tile gid="1256"/>
   <tile gid="1259"/>
   <tile gid="1260"/>
   <tile gid="1261"/>
   <tile gid="1262"/>
   <tile gid="1263"/>
   <tile gid="1264"/>
   <tile gid="1265"/>
   <tile gid="1266"/>
   <tile gid="1267"/>
   <tile gid="1268"/>
   <tile gid="1269"/>
   <tile gid="1270"/>
   <tile gid="1271"/>
   <tile gid="1272"/>
   <tile gid="1273"/>
   <tile gid="1274"/>
   <tile gid="1275"/>
   <tile gid="1276"/>
   <tile gid="1277"/>
   <tile gid="1278"/>
   <tile gid="1279"/>
   <tile gid="1280"/>
   <tile gid="1281"/>
   <tile gid="1282"/>
   <tile gid="1283"/>
   <tile gid="1284"/>
   <tile gid="1285"/>
   <tile gid="1286"/>
   <tile gid="1287"/>
   <tile gid="1288"/>
   <tile gid="1289"/>
   <tile gid="1259"/>
   <tile gid="1260"/>
   <tile gid="1261"/>
   <tile gid="1262"/>
   <tile gid="1263"/>
   <tile gid="1264"/>
   <tile gid="1265"/>
   <tile gid="1266"/>
   <tile gid="1267"/>
   <tile gid="1268"/>
   <tile gid="1269"/>
   <tile gid="1270"/>
   <tile gid="1271"/>
   <tile gid="1272"/>
   <tile gid="1273"/>
   <tile gid="1274"/>
   <tile gid="1275"/>
   <tile gid="1276"/>
   <tile gid="1277"/>
   <tile gid="1278"/>
   <tile gid="1279"/>
   <tile gid="1280"/>
   <tile gid="1281"/>
   <tile gid="1282"/>
   <tile gid="1283"/>
   <tile gid="1284"/>
   <tile gid="1285"/>
   <tile gid="1286"/>
   <tile gid="1287"/>
   <tile gid="1290"/>
   <tile gid="1291"/>
   <tile gid="1292"/>
   <tile gid="1293"/>
   <tile gid="1294"/>
   <tile gid="1295"/>
   <tile gid="1296"/>
   <tile gid="1297"/>
   <tile gid="1298"/>
   <tile gid="1299"/>
   <tile gid="1300"/>
   <tile gid="1301"/>
   <tile gid="1302"/>
   <tile gid="1303"/>
   <tile gid="1304"/>
   <tile gid="1305"/>
   <tile gid="1306"/>
   <tile gid="1307"/>
   <tile gid="1308"/>
   <tile gid="1309"/>
   <tile gid="1310"/>
   <tile gid="1311"/>
   <tile gid="1312"/>
   <tile gid="1313"/>
   <tile gid="1314"/>
   <tile gid="1315"/>
   <tile gid="1316"/>
   <tile gid="1317"/>
   <tile gid="1318"/>
   <tile gid="1319"/>
   <tile gid="1320"/>
   <tile gid="1290"/>
   <tile gid="1291"/>
   <tile gid="1292"/>
   <tile gid="1293"/>
   <tile gid="1294"/>
   <tile gid="1295"/>
   <tile gid="1296"/>
   <tile gid="1297"/>
   <tile gid="1298"/>
   <tile gid="1299"/>
   <tile gid="1300"/>
   <tile gid="1301"/>
   <tile gid="1302"/>
   <tile gid="1303"/>
   <tile gid="1304"/>
   <tile gid="1305"/>
   <tile gid="1306"/>
   <tile gid="1307"/>
   <tile gid="1308"/>
   <tile gid="1309"/>
   <tile gid="1310"/>
   <tile gid="1311"/>
   <tile gid="1312"/>
   <tile gid="1313"/>
   <tile gid="1314"/>
   <tile gid="1315"/>
   <tile gid="1316"/>
   <tile gid="1317"/>
   <tile gid="1318"/>
   <tile gid="1321"/>
   <tile gid="1322"/>
   <tile gid="1323"/>
   <tile gid="1324"/>
   <tile gid="1325"/>
   <tile gid="1326"/>
   <tile gid="1327"/>
   <tile gid="1328"/>
   <tile gid="1329"/>
   <tile gid="1330"/>
   <tile gid="1331"/>
   <tile gid="1332"/>
   <tile gid="1333"/>
   <tile gid="1334"/>
   <tile gid="1335"/>
   <tile gid="1336"/>
   <tile gid="1337"/>
   <tile gid="1338"/>
   <tile gid="1339"/>
   <tile gid="1340"/>
   <tile gid="1341"/>
   <tile gid="1342"/>
   <tile gid="1343"/>
   <tile gid="1344"/>
   <tile gid="1345"/>
   <tile gid="1346"/>
   <tile gid="1347"/>
   <tile gid="1348"/>
   <tile gid="1349"/>
   <tile gid="1350"/>
   <tile gid="1351"/>
   <tile gid="1321"/>
   <tile gid="1322"/>
   <tile gid="1323"/>
   <tile gid="1324"/>
   <tile gid="1325"/>
   <tile gid="1326"/>
   <tile gid="1327"/>
   <tile gid="1328"/>
   <tile gid="1329"/>
   <tile gid="1330"/>
   <tile gid="1331"/>
   <tile gid="1332"/>
   <tile gid="1333"/>
   <tile gid="1334"/>
   <tile gid="1335"/>
   <tile gid="1336"/>
   <tile gid="1337"/>
   <tile gid="1338"/>
   <tile gid="1339"/>
   <tile gid="1340"/>
   <tile gid="1341"/>
   <tile gid="1342"/>
   <tile gid="1343"/>
   <tile gid="1344"/>
   <tile gid="1345"/>
   <tile gid="1346"/>
   <tile gid="1347"/>
   <tile gid="1348"/>
   <tile gid="1349"/>
   <tile gid="1352"/>
   <tile gid="1353"/>
   <tile gid="1354"/>
   <tile gid="1355"/>
   <tile gid="1356"/>
   <tile gid="1357"/>
   <tile gid="1358"/>
   <tile gid="1359"/>
   <tile gid="1360"/>
   <tile gid="1361"/>
   <tile gid="1362"/>
   <tile gid="1363"/>
   <tile gid="1364"/>
   <tile gid="1365"/>
   <tile gid="1366"/>
   <tile gid="1367"/>
   <tile gid="1368"/>
   <tile gid="1369"/>
   <tile gid="1370"/>
   <tile gid="1371"/>
   <tile gid="1372"/>
   <tile gid="1373"/>
   <tile gid="1374"/>
   <tile gid="1375"/>
   <tile gid="1376"/>
   <tile gid="1377"/>
   <tile gid="1378"/>
   <tile gid="1379"/>
   <tile gid="1380"/>
   <tile gid="1381"/>
   <tile gid="1382"/>
   <tile gid="1352"/>
   <tile gid="1353"/>
   <tile gid="1354"/>
   <tile gid="1355"/>
   <tile gid="1356"/>
   <tile gid="1357"/>
   <tile gid="1358"/>
   <tile gid="1359"/>
   <tile gid="1360"/>
   <tile gid="1361"/>
   <tile gid="1362"/>
   <tile gid="1363"/>
   <tile gid="1364"/>
   <tile gid="1365"/>
   <tile gid="1366"/>
   <tile gid="1367"/>
   <tile gid="1368"/>
   <tile gid="1369"/>
   <tile gid="1370"/>
   <tile gid="1371"/>
   <tile gid="1372"/>
   <tile gid="1373"/>
   <tile gid="1374"/>
   <tile gid="1375"/>
   <tile gid="1376"/>
   <tile gid="1377"/>
   <tile gid="1378"/>
   <tile gid="1379"/>
   <tile gid="1380"/>
   <tile gid="1383"/>
   <tile gid="1384"/>
   <tile gid="1385"/>
   <tile gid="1386"/>
   <tile gid="1387"/>
   <tile gid="1388"/>
   <tile gid="1389"/>
   <tile gid="1390"/>
   <tile gid="1391"/>
   <tile gid="1392"/>
   <tile gid="1393"/>
   <tile gid="1394"/>
   <tile gid="1395"/>
   <tile gid="1396"/>
   <tile gid="1397"/>
   <tile gid="1398"/>
   <tile gid="1399"/>
   <tile gid="1400"/>
   <tile gid="1401"/>
   <tile gid="1402"/>
   <tile gid="1403"/>
   <tile gid="1404"/>
   <tile gid="1405"/>
   <tile gid="1406"/>
   <tile gid="1407"/>
   <tile gid="1408"/>
   <tile gid="1409"/>
   <tile gid="1410"/>
   <tile gid="1411"/>
   <tile gid="1412"/>
   <tile gid="1413"/>
   <tile gid="1383"/>
   <tile gid="1384"/>
   <tile gid="1385"/>
   <tile gid="1386"/>
   <tile gid="1387"/>
   <tile gid="1388"/>
   <tile gid="1389"/>
   <tile gid="1390"/>
   <tile gid="1391"/>
   <tile gid="1392"/>
   <tile gid="1393"/>
   <tile gid="1394"/>
   <tile gid="1395"/>
   <tile gid="1396"/>
   <tile gid="1397"/>
   <tile gid="1398"/>
   <tile gid="1399"/>
   <tile gid="1400"/>
   <tile gid="1401"/>
   <tile gid="1402"/>
   <tile gid="1403"/>
   <tile gid="1404"/>
   <tile gid="1405"/>
   <tile gid="1406"/>
   <tile gid="1407"/>
   <tile gid="1408"/>
   <tile gid="1409"/>
   <tile gid="1410"/>
   <tile gid="1411"/>
   <tile gid="1414"/>
   <tile gid="1415"/>
   <tile gid="1416"/>
   <tile gid="1417"/>
   <tile gid="1418"/>
   <tile gid="1419"/>
   <tile gid="1420"/>
   <tile gid="1421"/>
   <tile gid="1422"/>
   <tile gid="1423"/>
   <tile gid="1424"/>
   <tile gid="1425"/>
   <tile gid="1426"/>
   <tile gid="1427"/>
   <tile gid="1428"/>
   <tile gid="1429"/>
   <tile gid="1430"/>
   <tile gid="1431"/>
   <tile gid="1432"/>
   <tile gid="1433"/>
   <tile gid="1434"/>
   <tile gid="1435"/>
   <tile gid="1436"/>
   <tile gid="1437"/>
   <tile gid="1438"/>
   <tile gid="1439"/>
   <tile gid="1440"/>
   <tile gid="1441"/>
   <tile gid="1442"/>
   <tile gid="1443"/>
   <tile gid="1444"/>
   <tile gid="1414"/>
   <tile gid="1415"/>
   <tile gid="1416"/>
   <tile gid="1417"/>
   <tile gid="1418"/>
   <tile gid="1419"/>
   <tile gid="1420"/>
   <tile gid="1421"/>
   <tile gid="1422"/>
   <tile gid="1423"/>
   <tile gid="1424"/>
   <tile gid="1425"/>
   <tile gid="1426"/>
   <tile gid="1427"/>
   <tile gid="1428"/>
   <tile gid="1429"/>
   <tile gid="1430"/>
   <tile gid="1431"/>
   <tile gid="1432"/>
   <tile gid="1433"/>
   <tile gid="1434"/>
   <tile gid="1435"/>
   <tile gid="1436"/>
   <tile gid="1437"/>
   <tile gid="1438"/>
   <tile gid="1439"/>
   <tile gid="1440"/>
   <tile gid="1441"/>
   <tile gid="1442"/>
   <tile gid="1445"/>
   <tile gid="1446"/>
   <tile gid="1447"/>
   <tile gid="1448"/>
   <tile gid="1449"/>
   <tile gid="1450"/>
   <tile gid="1451"/>
   <tile gid="1452"/>
   <tile gid="1453"/>
   <tile gid="1454"/>
   <tile gid="1455"/>
   <tile gid="1456"/>
   <tile gid="1457"/>
   <tile gid="1458"/>
   <tile gid="1459"/>
   <tile gid="1460"/>
   <tile gid="1461"/>
   <tile gid="1462"/>
   <tile gid="1463"/>
   <tile gid="1464"/>
   <tile gid="1465"/>
   <tile gid="1466"/>
   <tile gid="1467"/>
   <tile gid="1468"/>
   <tile gid="1469"/>
   <tile gid="1470"/>
   <tile gid="1471"/>
   <tile gid="1472"/>
   <tile gid="1473"/>
   <tile gid="1474"/>
   <tile gid="1475"/>
   <tile gid="1445"/>
   <tile gid="1446"/>
   <tile gid="1447"/>
   <tile gid="1448"/>
   <tile gid="1449"/>
   <tile gid="1450"/>
   <tile gid="1451"/>
   <tile gid="1452"/>
   <tile gid="1453"/>
   <tile gid="1454"/>
   <tile gid="1455"/>
   <tile gid="1456"/>
   <tile gid="1457"/>
   <tile gid="1458"/>
   <tile gid="1459"/>
   <tile gid="1460"/>
   <tile gid="1461"/>
   <tile gid="1462"/>
   <tile gid="1463"/>
   <tile gid="1464"/>
   <tile gid="1465"/>
   <tile gid="1466"/>
   <tile gid="1467"/>
   <tile gid="1468"/>
   <tile gid="1469"/>
   <tile gid="1470"/>
   <tile gid="1471"/>
   <tile gid="1472"/>
   <tile gid="1473"/>
   <tile gid="1476"/>
   <tile gid="1477"/>
   <tile gid="1478"/>
   <tile gid="1479"/>
   <tile gid="1480"/>
   <tile gid="1481"/>
   <tile gid="1482"/>
   <tile gid="1483"/>
   <tile gid="1484"/>
   <tile gid="1485"/>
   <tile gid="1486"/>
   <tile gid="1487"/>
   <tile gid="1488"/>
   <tile gid="1489"/>
   <tile gid="1490"/>
   <tile gid="1491"/>
   <tile gid="1492"/>
   <tile gid="1493"/>
   <tile gid="1494"/>
   <tile gid="1495"/>
   <tile gid="1496"/>
   <tile gid="1497"/>
   <tile gid="1498"/>
   <tile gid="1499"/>
   <tile gid="1500"/>
   <tile gid="1501"/>
   <tile gid="1502"/>
   <tile gid="1503"/>
   <tile gid="1504"/>
   <tile gid="1505"/>
   <tile gid="1506"/>
   <tile gid="1476"/>
   <tile gid="1477"/>
   <tile gid="1478"/>
   <tile gid="1479"/>
   <tile gid="1480"/>
   <tile gid="1481"/>
   <tile gid="1482"/>
   <tile gid="1483"/>
   <tile gid="1484"/>
   <tile gid="1485"/>
   <tile gid="1486"/>
   <tile gid="1487"/>
   <tile gid="1488"/>
   <tile gid="1489"/>
   <tile gid="1490"/>
   <tile gid="1491"/>
   <tile gid="1492"/>
   <tile gid="1493"/>
   <tile gid="1494"/>
   <tile gid="1495"/>
   <tile gid="1496"/>
   <tile gid="1497"/>
   <tile gid="1498"/>
   <tile gid="1499"/>
   <tile gid="1500"/>
   <tile gid="1501"/>
   <tile gid="1502"/>
   <tile gid="1503"/>
   <tile gid="1504"/>
   <tile gid="1507"/>
   <tile gid="1508"/>
   <tile gid="1509"/>
   <tile gid="1510"/>
   <tile gid="1511"/>
   <tile gid="1512"/>
   <tile gid="1513"/>
   <tile gid="1514"/>
   <tile gid="1515"/>
   <tile gid="1516"/>
   <tile gid="1517"/>
   <tile gid="1518"/>
   <tile gid="1519"/>
   <tile gid="1520"/>
   <tile gid="1521"/>
   <tile gid="1522"/>
   <tile gid="1523"/>
   <tile gid="1524"/>
   <tile gid="1525"/>
   <tile gid="1526"/>
   <tile gid="1527"/>
   <tile gid="1528"/>
   <tile gid="1529"/>
   <tile gid="1530"/>
   <tile gid="1531"/>
   <tile gid="1532"/>
   <tile gid="1533"/>
   <tile gid="1534"/>
   <tile gid="1535"/>
   <tile gid="1536"/>
   <tile gid="1537"/>
   <tile gid="1507"/>
   <tile gid="1508"/>
   <tile gid="1509"/>
   <tile gid="1510"/>
   <tile gid="1511"/>
   <tile gid="1512"/>
   <tile gid="1513"/>
   <tile gid="1514"/>
   <tile gid="1515"/>
   <tile gid="1516"/>
   <tile gid="1517"/>
   <tile gid="1518"/>
   <tile gid="1519"/>
   <tile gid="1520"/>
   <tile gid="1521"/>
   <tile gid="1522"/>
   <tile gid="1523"/>
   <tile gid="1524"/>
   <tile gid="1525"/>
   <tile gid="1526"/>
   <tile gid="1527"/>
   <tile gid="1528"/>
   <tile gid="1529"/>
   <tile gid="1530"/>
   <tile gid="1531"/>
   <tile gid="1532"/>
   <tile gid="1533"/>
   <tile gid="1534"/>
   <tile gid="1535"/>
   <tile gid="1538"/>
   <tile gid="1539"/>
   <tile gid="1540"/>
   <tile gid="1541"/>
   <tile gid="1542"/>
   <tile gid="1543"/>
   <tile gid="1544"/>
   <tile gid="1545"/>
   <tile gid="1546"/>
   <tile gid="1547"/>
   <tile gid="1548"/>
   <tile gid="1549"/>
   <tile gid="1550"/>
   <tile gid="1551"/>
   <tile gid="1552"/>
   <tile gid="1553"/>
   <tile gid="1554"/>
   <tile gid="1555"/>
   <tile gid="1556"/>
   <tile gid="1557"/>
   <tile gid="1558"/>
   <tile gid="1559"/>
   <tile gid="1560"/>
   <tile gid="1561"/>
   <tile gid="1562"/>
   <tile gid="1563"/>
   <tile gid="1564"/>
   <tile gid="1565"/>
   <tile gid="1566"/>
   <tile gid="1567"/>
   <tile gid="1568"/>
   <tile gid="1538"/>
   <tile gid="1539"/>
   <tile gid="1540"/>
   <tile gid="1541"/>
   <tile gid="1542"/>
   <tile gid="1543"/>
   <tile gid="1544"/>
   <tile gid="1545"/>
   <tile gid="1546"/>
   <tile gid="1547"/>
   <tile gid="1548"/>
   <tile gid="1549"/>
   <tile gid="1550"/>
   <tile gid="1551"/>
   <tile gid="1552"/>
   <tile gid="1553"/>
   <tile gid="1554"/>
   <tile gid="1555"/>
   <tile gid="1556"/>
   <tile gid="1557"/>
   <tile gid="1558"/>
   <tile gid="1559"/>
   <tile gid="1560"/>
   <tile gid="1561"/>
   <tile gid="1562"/>
   <tile gid="1563"/>
   <tile gid="1564"/>
   <tile gid="1565"/>
   <tile gid="1566"/>
   <tile gid="1569"/>
   <tile gid="1570"/>
   <tile gid="1571"/>
   <tile gid="1572"/>
   <tile gid="1573"/>
   <tile gid="1574"/>
   <tile gid="1575"/>
   <tile gid="1576"/>
   <tile gid="1577"/>
   <tile gid="1578"/>
   <tile gid="1579"/>
   <tile gid="1580"/>
   <tile gid="1581"/>
   <tile gid="1582"/>
   <tile gid="1583"/>
   <tile gid="1584"/>
   <tile gid="1585"/>
   <tile gid="1586"/>
   <tile gid="1587"/>
   <tile gid="1588"/>
   <tile gid="1589"/>
   <tile gid="1590"/>
   <tile gid="1591"/>
   <tile gid="1592"/>
   <tile gid="1593"/>
   <tile gid="1594"/>
   <tile gid="1595"/>
   <tile gid="1596"/>
   <tile gid="1597"/>
   <tile gid="1598"/>
   <tile gid="1599"/>
   <tile gid="1569"/>
   <tile gid="1570"/>
   <tile gid="1571"/>
   <tile gid="1572"/>
   <tile gid="1573"/>
   <tile gid="1574"/>
   <tile gid="1575"/>
   <tile gid="1576"/>
   <tile gid="1577"/>
   <tile gid="1578"/>
   <tile gid="1579"/>
   <tile gid="1580"/>
   <tile gid="1581"/>
   <tile gid="1582"/>
   <tile gid="1583"/>
   <tile gid="1584"/>
   <tile gid="1585"/>
   <tile gid="1586"/>
   <tile gid="1587"/>
   <tile gid="1588"/>
   <tile gid="1589"/>
   <tile gid="1590"/>
   <tile gid="1591"/>
   <tile gid="1592"/>
   <tile gid="1593"/>
   <tile gid="1594"/>
   <tile gid="1595"/>
   <tile gid="1596"/>
   <tile gid="1597"/>
   <tile gid="1600"/>
   <tile gid="1601"/>
   <tile gid="1602"/>
   <tile gid="1603"/>
   <tile gid="1604"/>
   <tile gid="1605"/>
   <tile gid="1606"/>
   <tile gid="1607"/>
   <tile gid="1608"/>
   <tile gid="1609"/>
   <tile gid="1610"/>
   <tile gid="1611"/>
   <tile gid="1612"/>
   <tile gid="1613"/>
   <tile gid="1614"/>
   <tile gid="1615"/>
   <tile gid="1616"/>
   <tile gid="1617"/>
   <tile gid="1618"/>
   <tile gid="1619"/>
   <tile gid="1620"/>
   <tile gid="1621"/>
   <tile gid="1622"/>
   <tile gid="1623"/>
   <tile gid="1624"/>
   <tile gid="1625"/>
   <tile gid="1626"/>
   <tile gid="1627"/>
   <tile gid="1628"/>
   <tile gid="1629"/>
   <tile gid="1630"/>
   <tile gid="1600"/>
   <tile gid="1601"/>
   <tile gid="1602"/>
   <tile gid="1603"/>
   <tile gid="1604"/>
   <tile gid="1605"/>
   <tile gid="1606"/>
   <tile gid="1607"/>
   <tile gid="1608"/>
   <tile gid="1609"/>
   <tile gid="1610"/>
   <tile gid="1611"/>
   <tile gid="1612"/>
   <tile gid="1613"/>
   <tile gid="1614"/>
   <tile gid="1615"/>
   <tile gid="1616"/>
   <tile gid="1617"/>
   <tile gid="1618"/>
   <tile gid="1619"/>
   <tile gid="1620"/>
   <tile gid="1621"/>
   <tile gid="1622"/>
   <tile gid="1623"/>
   <tile gid="1624"/>
   <tile gid="1625"/>
   <tile gid="1626"/>
   <tile gid="1627"/>
   <tile gid="1628"/>
   <tile gid="1073"/>
   <tile gid="1074"/>
   <tile gid="1075"/>
   <tile gid="1076"/>
   <tile gid="1077"/>
   <tile gid="1078"/>
   <tile gid="1079"/>
   <tile gid="1080"/>
   <tile gid="1081"/>
   <tile gid="1082"/>
   <tile gid="1083"/>
   <tile gid="1084"/>
   <tile gid="1085"/>
   <tile gid="1086"/>
   <tile gid="1087"/>
   <tile gid="1088"/>
   <tile gid="1089"/>
   <tile gid="1090"/>
   <tile gid="1091"/>
   <tile gid="1092"/>
   <tile gid="1093"/>
   <tile gid="1094"/>
   <tile gid="1095"/>
   <tile gid="1096"/>
   <tile gid="1097"/>
   <tile gid="1098"/>
   <tile gid="1099"/>
   <tile gid="1100"/>
   <tile gid="1101"/>
   <tile gid="1102"/>
   <tile gid="1103"/>
   <tile gid="1073"/>
   <tile gid="1074"/>
   <tile gid="1075"/>
   <tile gid="1076"/>
   <tile gid="1077"/>
   <tile gid="1078"/>
   <tile gid="1079"/>
   <tile gid="1080"/>
   <tile gid="1081"/>
   <tile gid="1082"/>
   <tile gid="1083"/>
   <tile gid="1084"/>
   <tile gid="1085"/>
   <tile gid="1086"/>
   <tile gid="1087"/>
   <tile gid="1088"/>
   <tile gid="1089"/>
   <tile gid="1090"/>
   <tile gid="1091"/>
   <tile gid="1092"/>
   <tile gid="1093"/>
   <tile gid="1094"/>
   <tile gid="1095"/>
   <tile gid="1096"/>
   <tile gid="1097"/>
   <tile gid="1098"/>
   <tile gid="1099"/>
   <tile gid="1100"/>
   <tile gid="1101"/>
   <tile gid="1104"/>
   <tile gid="1105"/>
   <tile gid="1106"/>
   <tile gid="1107"/>
   <tile gid="1108"/>
   <tile gid="1109"/>
   <tile gid="1110"/>
   <tile gid="1111"/>
   <tile gid="1112"/>
   <tile gid="1113"/>
   <tile gid="1114"/>
   <tile gid="1115"/>
   <tile gid="1116"/>
   <tile gid="1117"/>
   <tile gid="1118"/>
   <tile gid="1119"/>
   <tile gid="1120"/>
   <tile gid="1121"/>
   <tile gid="1122"/>
   <tile gid="1123"/>
   <tile gid="1124"/>
   <tile gid="1125"/>
   <tile gid="1126"/>
   <tile gid="1127"/>
   <tile gid="1128"/>
   <tile gid="1129"/>
   <tile gid="1130"/>
   <tile gid="1131"/>
   <tile gid="1132"/>
   <tile gid="1133"/>
   <tile gid="1134"/>
   <tile gid="1104"/>
   <tile gid="1105"/>
   <tile gid="1106"/>
   <tile gid="1107"/>
   <tile gid="1108"/>
   <tile gid="1109"/>
   <tile gid="1110"/>
   <tile gid="1111"/>
   <tile gid="1112"/>
   <tile gid="1113"/>
   <tile gid="1114"/>
   <tile gid="1115"/>
   <tile gid="1116"/>
   <tile gid="1117"/>
   <tile gid="1118"/>
   <tile gid="1119"/>
   <tile gid="1120"/>
   <tile gid="1121"/>
   <tile gid="1122"/>
   <tile gid="1123"/>
   <tile gid="1124"/>
   <tile gid="1125"/>
   <tile gid="1126"/>
   <tile gid="1127"/>
   <tile gid="1128"/>
   <tile gid="1129"/>
   <tile gid="1130"/>
   <tile gid="1131"/>
   <tile gid="1132"/>
   <tile gid="1135"/>
   <tile gid="1136"/>
   <tile gid="1137"/>
   <tile gid="1138"/>
   <tile gid="1139"/>
   <tile gid="1140"/>
   <tile gid="1141"/>
   <tile gid="1142"/>
   <tile gid="1143"/>
   <tile gid="1144"/>
   <tile gid="1145"/>
   <tile gid="1146"/>
   <tile gid="1147"/>
   <tile gid="1148"/>
   <tile gid="1149"/>
   <tile gid="1150"/>
   <tile gid="1151"/>
   <tile gid="1152"/>
   <tile gid="1153"/>
   <tile gid="1154"/>
   <tile gid="1155"/>
   <tile gid="1156"/>
   <tile gid="1157"/>
   <tile gid="1158"/>
   <tile gid="1159"/>
   <tile gid="1160"/>
   <tile gid="1161"/>
   <tile gid="1162"/>
   <tile gid="1163"/>
   <tile gid="1164"/>
   <tile gid="1165"/>
   <tile gid="1135"/>
   <tile gid="1136"/>
   <tile gid="1137"/>
   <tile gid="1138"/>
   <tile gid="1139"/>
   <tile gid="1140"/>
   <tile gid="1141"/>
   <tile gid="1142"/>
   <tile gid="1143"/>
   <tile gid="1144"/>
   <tile gid="1145"/>
   <tile gid="1146"/>
   <tile gid="1147"/>
   <tile gid="1148"/>
   <tile gid="1149"/>
   <tile gid="1150"/>
   <tile gid="1151"/>
   <tile gid="1152"/>
   <tile gid="1153"/>
   <tile gid="1154"/>
   <tile gid="1155"/>
   <tile gid="1156"/>
   <tile gid="1157"/>
   <tile gid="1158"/>
   <tile gid="1159"/>
   <tile gid="1160"/>
   <tile gid="1161"/>
   <tile gid="1162"/>
   <tile gid="1163"/>
   <tile gid="1166"/>
   <tile gid="1167"/>
   <tile gid="1168"/>
   <tile gid="1169"/>
   <tile gid="1170"/>
   <tile gid="1171"/>
   <tile gid="1172"/>
   <tile gid="1173"/>
   <tile gid="1174"/>
   <tile gid="1175"/>
   <tile gid="1176"/>
   <tile gid="1177"/>
   <tile gid="1178"/>
   <tile gid="1179"/>
   <tile gid="1180"/>
   <tile gid="1181"/>
   <tile gid="1182"/>
   <tile gid="1183"/>
   <tile gid="1184"/>
   <tile gid="1185"/>
   <tile gid="1186"/>
   <tile gid="1187"/>
   <tile gid="1188"/>
   <tile gid="1189"/>
   <tile gid="1190"/>
   <tile gid="1191"/>
   <tile gid="1192"/>
   <tile gid="1193"/>
   <tile gid="1194"/>
   <tile gid="1195"/>
   <tile gid="1196"/>
   <tile gid="1166"/>
   <tile gid="1167"/>
   <tile gid="1168"/>
   <tile gid="1169"/>
   <tile gid="1170"/>
   <tile gid="1171"/>
   <tile gid="1172"/>
   <tile gid="1173"/>
   <tile gid="1174"/>
   <tile gid="1175"/>
   <tile gid="1176"/>
   <tile gid="1177"/>
   <tile gid="1178"/>
   <tile gid="1179"/>
   <tile gid="1180"/>
   <tile gid="1181"/>
   <tile gid="1182"/>
   <tile gid="1183"/>
   <tile gid="1184"/>
   <tile gid="1185"/>
   <tile gid="1186"/>
   <tile gid="1187"/>
   <tile gid="1188"/>
   <tile gid="1189"/>
   <tile gid="1190"/>
   <tile gid="1191"/>
   <tile gid="1192"/>
   <tile gid="1193"/>
   <tile gid="1194"/>
   <tile gid="1197"/>
   <tile gid="1198"/>
   <tile gid="1199"/>
   <tile gid="1200"/>
   <tile gid="1201"/>
   <tile gid="1202"/>
   <tile gid="1203"/>
   <tile gid="1204"/>
   <tile gid="1205"/>
   <tile gid="1206"/>
   <tile gid="1207"/>
   <tile gid="1208"/>
   <tile gid="1209"/>
   <tile gid="1210"/>
   <tile gid="1211"/>
   <tile gid="1212"/>
   <tile gid="1213"/>
   <tile gid="1214"/>
   <tile gid="1215"/>
   <tile gid="1216"/>
   <tile gid="1217"/>
   <tile gid="1218"/>
   <tile gid="1219"/>
   <tile gid="1220"/>
   <tile gid="1221"/>
   <tile gid="1222"/>
   <tile gid="1223"/>
   <tile gid="1224"/>
   <tile gid="1225"/>
   <tile gid="1226"/>
   <tile gid="1227"/>
   <tile gid="1197"/>
   <tile gid="1198"/>
   <tile gid="1199"/>
   <tile gid="1200"/>
   <tile gid="1201"/>
   <tile gid="1202"/>
   <tile gid="1203"/>
   <tile gid="1204"/>
   <tile gid="1205"/>
   <tile gid="1206"/>
   <tile gid="1207"/>
   <tile gid="1208"/>
   <tile gid="1209"/>
   <tile gid="1210"/>
   <tile gid="1211"/>
   <tile gid="1212"/>
   <tile gid="1213"/>
   <tile gid="1214"/>
   <tile gid="1215"/>
   <tile gid="1216"/>
   <tile gid="1217"/>
   <tile gid="1218"/>
   <tile gid="1219"/>
   <tile gid="1220"/>
   <tile gid="1221"/>
   <tile gid="1222"/>
   <tile gid="1223"/>
   <tile gid="1224"/>
   <tile gid="1225"/>
   <tile gid="1228"/>
   <tile gid="1229"/>
   <tile gid="1230"/>
   <tile gid="1231"/>
   <tile gid="1232"/>
   <tile gid="1233"/>
   <tile gid="1234"/>
   <tile gid="1235"/>
   <tile gid="1236"/>
   <tile gid="1237"/>
   <tile gid="1238"/>
   <tile gid="1239"/>
   <tile gid="1240"/>
   <tile gid="1241"/>
   <tile gid="1242"/>
   <tile gid="1243"/>
   <tile gid="1244"/>
   <tile gid="1245"/>
   <tile gid="1246"/>
   <tile gid="1247"/>
   <tile gid="1248"/>
   <tile gid="1249"/>
   <tile gid="1250"/>
   <tile gid="1251"/>
   <tile gid="1252"/>
   <tile gid="1253"/>
   <tile gid="1254"/>
   <tile gid="1255"/>
   <tile gid="1256"/>
   <tile gid="1257"/>
   <tile gid="1258"/>
   <tile gid="1228"/>
   <tile gid="1229"/>
   <tile gid="1230"/>
   <tile gid="1231"/>
   <tile gid="1232"/>
   <tile gid="1233"/>
   <tile gid="1234"/>
   <tile gid="1235"/>
   <tile gid="1236"/>
   <tile gid="1237"/>
   <tile gid="1238"/>
   <tile gid="1239"/>
   <tile gid="1240"/>
   <tile gid="1241"/>
   <tile gid="1242"/>
   <tile gid="1243"/>
   <tile gid="1244"/>
   <tile gid="1245"/>
   <tile gid="1246"/>
   <tile gid="1247"/>
   <tile gid="1248"/>
   <tile gid="1249"/>
   <tile gid="1250"/>
   <tile gid="1251"/>
   <tile gid="1252"/>
   <tile gid="1253"/>
   <tile gid="1254"/>
   <tile gid="1255"/>
   <tile gid="1256"/>
   <tile gid="1259"/>
   <tile gid="1260"/>
   <tile gid="1261"/>
   <tile gid="1262"/>
   <tile gid="1263"/>
   <tile gid="1264"/>
   <tile gid="1265"/>
   <tile gid="1266"/>
   <tile gid="1267"/>
   <tile gid="1268"/>
   <tile gid="1269"/>
   <tile gid="1270"/>
   <tile gid="1271"/>
   <tile gid="1272"/>
   <tile gid="1273"/>
   <tile gid="1274"/>
   <tile gid="1275"/>
   <tile gid="1276"/>
   <tile gid="1277"/>
   <tile gid="1278"/>
   <tile gid="1279"/>
   <tile gid="1280"/>
   <tile gid="1281"/>
   <tile gid="1282"/>
   <tile gid="1283"/>
   <tile gid="1284"/>
   <tile gid="1285"/>
   <tile gid="1286"/>
   <tile gid="1287"/>
   <tile gid="1288"/>
   <tile gid="1289"/>
   <tile gid="1259"/>
   <tile gid="1260"/>
   <tile gid="1261"/>
   <tile gid="1262"/>
   <tile gid="1263"/>
   <tile gid="1264"/>
   <tile gid="1265"/>
   <tile gid="1266"/>
   <tile gid="1267"/>
   <tile gid="1268"/>
   <tile gid="1269"/>
   <tile gid="1270"/>
   <tile gid="1271"/>
   <tile gid="1272"/>
   <tile gid="1273"/>
   <tile gid="1274"/>
   <tile gid="1275"/>
   <tile gid="1276"/>
   <tile gid="1277"/>
   <tile gid="1278"/>
   <tile gid="1279"/>
   <tile gid="1280"/>
   <tile gid="1281"/>
   <tile gid="1282"/>
   <tile gid="1283"/>
   <tile gid="1284"/>
   <tile gid="1285"/>
   <tile gid="1286"/>
   <tile gid="1287"/>
   <tile gid="1290"/>
   <tile gid="1291"/>
   <tile gid="1292"/>
   <tile gid="1293"/>
   <tile gid="1294"/>
   <tile gid="1295"/>
   <tile gid="1296"/>
   <tile gid="1297"/>
   <tile gid="1298"/>
   <tile gid="1299"/>
   <tile gid="1300"/>
   <tile gid="1301"/>
   <tile gid="1302"/>
   <tile gid="1303"/>
   <tile gid="1304"/>
   <tile gid="1305"/>
   <tile gid="1306"/>
   <tile gid="1307"/>
   <tile gid="1308"/>
   <tile gid="1309"/>
   <tile gid="1310"/>
   <tile gid="1311"/>
   <tile gid="1312"/>
   <tile gid="1313"/>
   <tile gid="1314"/>
   <tile gid="1315"/>
   <tile gid="1316"/>
   <tile gid="1317"/>
   <tile gid="1318"/>
   <tile gid="1319"/>
   <tile gid="1320"/>
   <tile gid="1290"/>
   <tile gid="1291"/>
   <tile gid="1292"/>
   <tile gid="1293"/>
   <tile gid="1294"/>
   <tile gid="1295"/>
   <tile gid="1296"/>
   <tile gid="1297"/>
   <tile gid="1298"/>
   <tile gid="1299"/>
   <tile gid="1300"/>
   <tile gid="1301"/>
   <tile gid="1302"/>
   <tile gid="1303"/>
   <tile gid="1304"/>
   <tile gid="1305"/>
   <tile gid="1306"/>
   <tile gid="1307"/>
   <tile gid="1308"/>
   <tile gid="1309"/>
   <tile gid="1310"/>
   <tile gid="1311"/>
   <tile gid="1312"/>
   <tile gid="1313"/>
   <tile gid="1314"/>
   <tile gid="1315"/>
   <tile gid="1316"/>
   <tile gid="1317"/>
   <tile gid="1318"/>
   <tile gid="1321"/>
   <tile gid="1322"/>
   <tile gid="1323"/>
   <tile gid="1324"/>
   <tile gid="1325"/>
   <tile gid="1326"/>
   <tile gid="1327"/>
   <tile gid="1328"/>
   <tile gid="1329"/>
   <tile gid="1330"/>
   <tile gid="1331"/>
   <tile gid="1332"/>
   <tile gid="1333"/>
   <tile gid="1334"/>
   <tile gid="1335"/>
   <tile gid="1336"/>
   <tile gid="1337"/>
   <tile gid="1338"/>
   <tile gid="1339"/>
   <tile gid="1340"/>
   <tile gid="1341"/>
   <tile gid="1342"/>
   <tile gid="1343"/>
   <tile gid="1344"/>
   <tile gid="1345"/>
   <tile gid="1346"/>
   <tile gid="1347"/>
   <tile gid="1348"/>
   <tile gid="1349"/>
   <tile gid="1350"/>
   <tile gid="1351"/>
   <tile gid="1321"/>
   <tile gid="1322"/>
   <tile gid="1323"/>
   <tile gid="1324"/>
   <tile gid="1325"/>
   <tile gid="1326"/>
   <tile gid="1327"/>
   <tile gid="1328"/>
   <tile gid="1329"/>
   <tile gid="1330"/>
   <tile gid="1331"/>
   <tile gid="1332"/>
   <tile gid="1333"/>
   <tile gid="1334"/>
   <tile gid="1335"/>
   <tile gid="1336"/>
   <tile gid="1337"/>
   <tile gid="1338"/>
   <tile gid="1339"/>
   <tile gid="1340"/>
   <tile gid="1341"/>
   <tile gid="1342"/>
   <tile gid="1343"/>
   <tile gid="1344"/>
   <tile gid="1345"/>
   <tile gid="1346"/>
   <tile gid="1347"/>
   <tile gid="1348"/>
   <tile gid="1349"/>
   <tile gid="1352"/>
   <tile gid="1353"/>
   <tile gid="1354"/>
   <tile gid="1355"/>
   <tile gid="1356"/>
   <tile gid="1357"/>
   <tile gid="1358"/>
   <tile gid="1359"/>
   <tile gid="1360"/>
   <tile gid="1361"/>
   <tile gid="1362"/>
   <tile gid="1363"/>
   <tile gid="1364"/>
   <tile gid="1365"/>
   <tile gid="1366"/>
   <tile gid="1367"/>
   <tile gid="1368"/>
   <tile gid="1369"/>
   <tile gid="1370"/>
   <tile gid="1371"/>
   <tile gid="1372"/>
   <tile gid="1373"/>
   <tile gid="1374"/>
   <tile gid="1375"/>
   <tile gid="1376"/>
   <tile gid="1377"/>
   <tile gid="1378"/>
   <tile gid="1379"/>
   <tile gid="1380"/>
   <tile gid="1381"/>
   <tile gid="1382"/>
   <tile gid="1352"/>
   <tile gid="1353"/>
   <tile gid="1354"/>
   <tile gid="1355"/>
   <tile gid="1356"/>
   <tile gid="1357"/>
   <tile gid="1358"/>
   <tile gid="1359"/>
   <tile gid="1360"/>
   <tile gid="1361"/>
   <tile gid="1362"/>
   <tile gid="1363"/>
   <tile gid="1364"/>
   <tile gid="1365"/>
   <tile gid="1366"/>
   <tile gid="1367"/>
   <tile gid="1368"/>
   <tile gid="1369"/>
   <tile gid="1370"/>
   <tile gid="1371"/>
   <tile gid="1372"/>
   <tile gid="1373"/>
   <tile gid="1374"/>
   <tile gid="1375"/>
   <tile gid="1376"/>
   <tile gid="1377"/>
   <tile gid="1378"/>
   <tile gid="1379"/>
   <tile gid="1380"/>
   <tile gid="1383"/>
   <tile gid="1384"/>
   <tile gid="1385"/>
   <tile gid="1386"/>
   <tile gid="1387"/>
   <tile gid="1388"/>
   <tile gid="1389"/>
   <tile gid="1390"/>
   <tile gid="1391"/>
   <tile gid="1392"/>
   <tile gid="1393"/>
   <tile gid="1394"/>
   <tile gid="1395"/>
   <tile gid="1396"/>
   <tile gid="1397"/>
   <tile gid="1398"/>
   <tile gid="1399"/>
   <tile gid="1400"/>
   <tile gid="1401"/>
   <tile gid="1402"/>
   <tile gid="1403"/>
   <tile gid="1404"/>
   <tile gid="1405"/>
   <tile gid="1406"/>
   <tile gid="1407"/>
   <tile gid="1408"/>
   <tile gid="1409"/>
   <tile gid="1410"/>
   <tile gid="1411"/>
   <tile gid="1412"/>
   <tile gid="1413"/>
   <tile gid="1383"/>
   <tile gid="1384"/>
   <tile gid="1385"/>
   <tile gid="1386"/>
   <tile gid="1387"/>
   <tile gid="1388"/>
   <tile gid="1389"/>
   <tile gid="1390"/>
   <tile gid="1391"/>
   <tile gid="1392"/>
   <tile gid="1393"/>
   <tile gid="1394"/>
   <tile gid="1395"/>
   <tile gid="1396"/>
   <tile gid="1397"/>
   <tile gid="1398"/>
   <tile gid="1399"/>
   <tile gid="1400"/>
   <tile gid="1401"/>
   <tile gid="1402"/>
   <tile gid="1403"/>
   <tile gid="1404"/>
   <tile gid="1405"/>
   <tile gid="1406"/>
   <tile gid="1407"/>
   <tile gid="1408"/>
   <tile gid="1409"/>
   <tile gid="1410"/>
   <tile gid="1411"/>
   <tile gid="1414"/>
   <tile gid="1415"/>
   <tile gid="1416"/>
   <tile gid="1417"/>
   <tile gid="1418"/>
   <tile gid="1419"/>
   <tile gid="1420"/>
   <tile gid="1421"/>
   <tile gid="1422"/>
   <tile gid="1423"/>
   <tile gid="1424"/>
   <tile gid="1425"/>
   <tile gid="1426"/>
   <tile gid="1427"/>
   <tile gid="1428"/>
   <tile gid="1429"/>
   <tile gid="1430"/>
   <tile gid="1431"/>
   <tile gid="1432"/>
   <tile gid="1433"/>
   <tile gid="1434"/>
   <tile gid="1435"/>
   <tile gid="1436"/>
   <tile gid="1437"/>
   <tile gid="1438"/>
   <tile gid="1439"/>
   <tile gid="1440"/>
   <tile gid="1441"/>
   <tile gid="1442"/>
   <tile gid="1443"/>
   <tile gid="1444"/>
   <tile gid="1414"/>
   <tile gid="1415"/>
   <tile gid="1416"/>
   <tile gid="1417"/>
   <tile gid="1418"/>
   <tile gid="1419"/>
   <tile gid="1420"/>
   <tile gid="1421"/>
   <tile gid="1422"/>
   <tile gid="1423"/>
   <tile gid="1424"/>
   <tile gid="1425"/>
   <tile gid="1426"/>
   <tile gid="1427"/>
   <tile gid="1428"/>
   <tile gid="1429"/>
   <tile gid="1430"/>
   <tile gid="1431"/>
   <tile gid="1432"/>
   <tile gid="1433"/>
   <tile gid="1434"/>
   <tile gid="1435"/>
   <tile gid="1436"/>
   <tile gid="1437"/>
   <tile gid="1438"/>
   <tile gid="1439"/>
   <tile gid="1440"/>
   <tile gid="1441"/>
   <tile gid="1442"/>
   <tile gid="1445"/>
   <tile gid="1446"/>
   <tile gid="1447"/>
   <tile gid="1448"/>
   <tile gid="1449"/>
   <tile gid="1450"/>
   <tile gid="1451"/>
   <tile gid="1452"/>
   <tile gid="1453"/>
   <tile gid="1454"/>
   <tile gid="1455"/>
   <tile gid="1456"/>
   <tile gid="1457"/>
   <tile gid="1458"/>
   <tile gid="1459"/>
   <tile gid="1460"/>
   <tile gid="1461"/>
   <tile gid="1462"/>
   <tile gid="1463"/>
   <tile gid="1464"/>
   <tile gid="1465"/>
   <tile gid="1466"/>
   <tile gid="1467"/>
   <tile gid="1468"/>
   <tile gid="1469"/>
   <tile gid="1470"/>
   <tile gid="1471"/>
   <tile gid="1472"/>
   <tile gid="1473"/>
   <tile gid="1474"/>
   <tile gid="1475"/>
   <tile gid="1445"/>
   <tile gid="1446"/>
   <tile gid="1447"/>
   <tile gid="1448"/>
   <tile gid="1449"/>
   <tile gid="1450"/>
   <tile gid="1451"/>
   <tile gid="1452"/>
   <tile gid="1453"/>
   <tile gid="1454"/>
   <tile gid="1455"/>
   <tile gid="1456"/>
   <tile gid="1457"/>
   <tile gid="1458"/>
   <tile gid="1459"/>
   <tile gid="1460"/>
   <tile gid="1461"/>
   <tile gid="1462"/>
   <tile gid="1463"/>
   <tile gid="1464"/>
   <tile gid="1465"/>
   <tile gid="1466"/>
   <tile gid="1467"/>
   <tile gid="1468"/>
   <tile gid="1469"/>
   <tile gid="1470"/>
   <tile gid="1471"/>
   <tile gid="1472"/>
   <tile gid="1473"/>
   <tile gid="1476"/>
   <tile gid="1477"/>
   <tile gid="1478"/>
   <tile gid="1479"/>
   <tile gid="1480"/>
   <tile gid="1481"/>
   <tile gid="1482"/>
   <tile gid="1483"/>
   <tile gid="1484"/>
   <tile gid="1485"/>
   <tile gid="1486"/>
   <tile gid="1487"/>
   <tile gid="1488"/>
   <tile gid="1489"/>
   <tile gid="1490"/>
   <tile gid="1491"/>
   <tile gid="1492"/>
   <tile gid="1493"/>
   <tile gid="1494"/>
   <tile gid="1495"/>
   <tile gid="1496"/>
   <tile gid="1497"/>
   <tile gid="1498"/>
   <tile gid="1499"/>
   <tile gid="1500"/>
   <tile gid="1501"/>
   <tile gid="1502"/>
   <tile gid="1503"/>
   <tile gid="1504"/>
   <tile gid="1505"/>
   <tile gid="1506"/>
   <tile gid="1476"/>
   <tile gid="1477"/>
   <tile gid="1478"/>
   <tile gid="1479"/>
   <tile gid="1480"/>
   <tile gid="1481"/>
   <tile gid="1482"/>
   <tile gid="1483"/>
   <tile gid="1484"/>
   <tile gid="1485"/>
   <tile gid="1486"/>
   <tile gid="1487"/>
   <tile gid="1488"/>
   <tile gid="1489"/>
   <tile gid="1490"/>
   <tile gid="1491"/>
   <tile gid="1492"/>
   <tile gid="1493"/>
   <tile gid="1494"/>
   <tile gid="1495"/>
   <tile gid="1496"/>
   <tile gid="1497"/>
   <tile gid="1498"/>
   <tile gid="1499"/>
   <tile gid="1500"/>
   <tile gid="1501"/>
   <tile gid="1502"/>
   <tile gid="1503"/>
   <tile gid="1504"/>
   <tile gid="1507"/>
   <tile gid="1508"/>
   <tile gid="1509"/>
   <tile gid="1510"/>
   <tile gid="1511"/>
   <tile gid="1512"/>
   <tile gid="1513"/>
   <tile gid="1514"/>
   <tile gid="1515"/>
   <tile gid="1516"/>
   <tile gid="1517"/>
   <tile gid="1518"/>
   <tile gid="1519"/>
   <tile gid="1520"/>
   <tile gid="1521"/>
   <tile gid="1522"/>
   <tile gid="1523"/>
   <tile gid="1524"/>
   <tile gid="1525"/>
   <tile gid="1526"/>
   <tile gid="1527"/>
   <tile gid="1528"/>
   <tile gid="1529"/>
   <tile gid="1530"/>
   <tile gid="1531"/>
   <tile gid="1532"/>
   <tile gid="1533"/>
   <tile gid="1534"/>
   <tile gid="1535"/>
   <tile gid="1536"/>
   <tile gid="1537"/>
   <tile gid="1507"/>
   <tile gid="1508"/>
   <tile gid="1509"/>
   <tile gid="1510"/>
   <tile gid="1511"/>
   <tile gid="1512"/>
   <tile gid="1513"/>
   <tile gid="1514"/>
   <tile gid="1515"/>
   <tile gid="1516"/>
   <tile gid="1517"/>
   <tile gid="1518"/>
   <tile gid="1519"/>
   <tile gid="1520"/>
   <tile gid="1521"/>
   <tile gid="1522"/>
   <tile gid="1523"/>
   <tile gid="1524"/>
   <tile gid="1525"/>
   <tile gid="1526"/>
   <tile gid="1527"/>
   <tile gid="1528"/>
   <tile gid="1529"/>
   <tile gid="1530"/>
   <tile gid="1531"/>
   <tile gid="1532"/>
   <tile gid="1533"/>
   <tile gid="1534"/>
   <tile gid="1535"/>
   <tile gid="1538"/>
   <tile gid="1539"/>
   <tile gid="1540"/>
   <tile gid="1541"/>
   <tile gid="1542"/>
   <tile gid="1543"/>
   <tile gid="1544"/>
   <tile gid="1545"/>
   <tile gid="1546"/>
   <tile gid="1547"/>
   <tile gid="1548"/>
   <tile gid="1549"/>
   <tile gid="1550"/>
   <tile gid="1551"/>
   <tile gid="1552"/>
   <tile gid="1553"/>
   <tile gid="1554"/>
   <tile gid="1555"/>
   <tile gid="1556"/>
   <tile gid="1557"/>
   <tile gid="1558"/>
   <tile gid="1559"/>
   <tile gid="1560"/>
   <tile gid="1561"/>
   <tile gid="1562"/>
   <tile gid="1563"/>
   <tile gid="1564"/>
   <tile gid="1565"/>
   <tile gid="1566"/>
   <tile gid="1567"/>
   <tile gid="1568"/>
   <tile gid="1538"/>
   <tile gid="1539"/>
   <tile gid="1540"/>
   <tile gid="1541"/>
   <tile gid="1542"/>
   <tile gid="1543"/>
   <tile gid="1544"/>
   <tile gid="1545"/>
   <tile gid="1546"/>
   <tile gid="1547"/>
   <tile gid="1548"/>
   <tile gid="1549"/>
   <tile gid="1550"/>
   <tile gid="1551"/>
   <tile gid="1552"/>
   <tile gid="1553"/>
   <tile gid="1554"/>
   <tile gid="1555"/>
   <tile gid="1556"/>
   <tile gid="1557"/>
   <tile gid="1558"/>
   <tile gid="1559"/>
   <tile gid="1560"/>
   <tile gid="1561"/>
   <tile gid="1562"/>
   <tile gid="1563"/>
   <tile gid="1564"/>
   <tile gid="1565"/>
   <tile gid="1566"/>
  </data>
 </layer>
 <layer id="2" name="Solid" width="60" height="34">
  <properties>
   <property name="Draw" type="bool" value="true"/>
  </properties>
  <data>
   <tile gid="434"/>
   <tile gid="434"/>
   <tile gid="434"/>
   <tile gid="434"/>
   <tile gid="434"/>
   <tile gid="434"/>
   <tile gid="434"/>
   <tile gid="434"/>
   <tile gid="435"/>
   <tile gid="481"/>
   <tile gid="481"/>
   <tile gid="481"/>
   <tile gid="481"/>
   <tile gid="481"/>
   <tile gid="433"/>
   <tile gid="434"/>
   <tile gid="434"/>
   <tile gid="434"/>
   <tile gid="434"/>
   <tile gid="434"/>
   <tile gid="434"/>
   <tile gid="434"/>
   <tile gid="434"/>
   <tile gid="434"/>
   <tile gid="434"/>
   <tile gid="434"/>
   <tile gid="434"/>
   <tile gid="434"/>
   <tile gid="434"/>
   <tile gid="434"/>
   <tile gid="434"/>
   <tile gid="434"/>
   <tile gid="434"/>
   <tile gid="434"/>
   <tile gid="435"/>
   <tile gid="481"/>
   <tile gid="425"/>
   <tile gid="426"/>
   <tile gid="449"/>
   <tile gid="450"/>
   <tile gid="450"/>
   <tile gid="450"/>
   <tile gid="450"/>
   <tile gid="450"/>
   <tile gid="407"/>
   <tile gid="408"/>
   <tile gid="450"/>
   <tile gid="450"/>
   <tile gid="407"/>
   <tile gid="408"/>
   <tile gid="450"/>
   <tile gid="450"/>
   <tile gid="450"/>
   <tile gid="450"/>
   <tile gid="450"/>
   <tile gid="450"/>
   <tile gid="450"/>
   <tile gid="450"/>
   <tile gid="450"/>
   <tile gid="434"/>
   <tile gid="434"/>
   <tile gid="434"/>
   <tile gid="434"/>
   <tile gid="434"/>
   <tile gid="434"/>
   <tile gid="434"/>
   <tile gid="434"/>
   <tile gid="434"/>
   <tile gid="435"/>
   <tile/>
   <tile/>
   <tile/>
   <tile/>
   <tile/>
   <tile gid="433"/>
   <tile gid="434"/>
   <tile gid="434"/>
   <tile gid="434"/>
   <tile gid="434"/>
   <tile gid="434"/>
   <tile gid="434"/>
   <tile gid="434"/>
   <tile gid="434"/>
   <tile gid="434"/>
   <tile gid="434"/>
   <tile gid="434"/>
   <tile gid="434"/>
   <tile gid="434"/>
   <tile gid="434"/>
   <tile gid="434"/>
   <tile gid="434"/>
   <tile gid="434"/>
   <tile gid="434"/>
   <tile gid="434"/>
   <tile gid="435"/>
   <tile/>
   <tile gid="441"/>
   <tile gid="442"/>
   <tile/>
   <tile/>
   <tile/>
   <tile/>
   <tile/>
   <tile/>
   <tile gid="425"/>
   <tile gid="426"/>
   <tile/>
   <tile/>
   <tile gid="425"/>
   <tile gid="426"/>
   <tile/>
   <tile/>
   <tile/>
   <tile/>
   <tile/>
   <tile/>
   <tile/>
   <tile/>
   <tile/>
   <tile gid="433"/>
   <tile gid="434"/>
   <tile gid="434"/>
   <tile gid="434"/>
   <tile gid="434"/>
   <tile gid="434"/>
   <tile gid="434"/>
   <tile gid="434"/>
   <tile gid="434"/>
   <tile gid="435"/>
   <tile/>
   <tile/>
   <tile/>
   <tile/>
   <tile/>
   <tile gid="433"/>
   <tile gid="434"/>
   <tile gid="434"/>
   <tile gid="434"/>
   <tile gid="434"/>
   <tile gid="434"/>
   <tile gid="434"/>
   <tile gid="434"/>
   <tile gid="434"/>
   <tile gid="434"/>
   <tile gid="434"/>
   <tile gid="434"/>
   <tile gid="434"/>
   <tile gid="434"/>
   <tile gid="434"/>
   <tile gid="434"/>
   <tile gid="434"/>
   <tile gid="434"/>
   <tile gid="434"/>
   <tile gid="434"/>
   <tile gid="435"/>
   <tile/>
   <tile gid="457"/>
   <tile gid="458"/>
   <tile/>
   <tile/>
   <tile/>
   <tile/>
   <tile/>
   <tile/>
   <tile gid="441"/>
   <tile gid="442"/>
   <tile/>
   <tile/>
   <tile gid="441"/>
   <tile gid="442"/>
   <tile/>
   <tile/>
   <tile/>
   <tile/>
   <tile/>
   <tile/>
   <tile/>
   <tile/>
   <tile/>
   <tile gid="433"/>
   <tile gid="434"/>
   <tile gid="434"/>
   <tile gid="434"/>
   <tile gid="434"/>
   <tile gid="434"/>
   <tile gid="434"/>
   <tile gid="434"/>
   <tile gid="434"/>
   <tile gid="435"/>
   <tile/>
   <tile/>
   <tile/>
   <tile/>
   <tile/>
   <tile gid="433"/>
   <tile gid="434"/>
   <tile gid="434"/>
   <tile gid="434"/>
   <tile gid="434"/>
   <tile gid="434"/>
   <tile gid="434"/>
   <tile gid="434"/>
   <tile gid="434"/>
   <tile gid="434"/>
   <tile gid="434"/>
   <tile gid="434"/>
   <tile gid="434"/>
   <tile gid="434"/>
   <tile gid="434"/>
   <tile gid="434"/>
   <tile gid="434"/>
   <tile gid="434"/>
   <tile gid="434"/>
   <tile gid="434"/>
   <tile gid="435"/>
   <tile/>
   <tile gid="473"/>
   <tile gid="474"/>
   <tile/>
   <tile/>
   <tile/>
   <tile/>
   <tile/>
   <tile/>
   <tile gid="457"/>
   <tile gid="458"/>
   <tile/>
   <tile/>
   <tile gid="457"/>
   <tile gid="458"/>
   <tile/>
   <tile/>
   <tile/>
   <tile/>
   <tile/>
   <tile/>
   <tile/>
   <tile/>
   <tile/>
   <tile gid="433"/>
   <tile gid="434"/>
   <tile gid="434"/>
   <tile gid="434"/>
   <tile gid="434"/>
   <tile gid="434"/>
   <tile gid="434"/>
   <tile gid="434"/>
   <tile gid="434"/>
   <tile gid="435"/>
   <tile/>
   <tile/>
   <tile/>
   <tile/>
   <tile/>
   <tile gid="449"/>
   <tile gid="450"/>
   <tile gid="450"/>
   <tile gid="434"/>
   <tile gid="434"/>
   <tile gid="434"/>
   <tile gid="434"/>
   <tile gid="434"/>
   <tile gid="434"/>
   <tile gid="434"/>
   <tile gid="434"/>
   <tile gid="434"/>
   <tile gid="434"/>
   <tile gid="434"/>
   <tile gid="434"/>
   <tile gid="434"/>
   <tile gid="434"/>
   <tile gid="434"/>
   <tile gid="434"/>
   <tile gid="434"/>
   <tile gid="435"/>
   <tile/>
   <tile/>
   <tile/>
   <tile/>
   <tile/>
   <tile/>
   <tile/>
   <tile/>
   <tile/>
   <tile gid="473"/>
   <tile gid="474"/>
   <tile/>
   <tile/>
   <tile gid="473"/>
   <tile gid="474"/>
   <tile/>
   <tile/>
   <tile/>
   <tile/>
   <tile/>
   <tile/>
   <tile/>
   <tile/>
   <tile/>
   <tile gid="433"/>
   <tile gid="434"/>
   <tile gid="434"/>
   <tile gid="434"/>
   <tile gid="434"/>
   <tile gid="434"/>
   <tile gid="434"/>
   <tile gid="434"/>
   <tile gid="434"/>
   <tile gid="435"/>
   <tile/>
   <tile/>
   <tile/>
   <tile/>
   <tile/>
   <tile/>
   <tile/>
   <tile/>
   <tile gid="433"/>
   <tile gid="434"/>
   <tile gid="450"/>
   <tile gid="450"/>
   <tile gid="450"/>
   <tile gid="450"/>
   <tile gid="450"/>
   <tile gid="434"/>
   <tile gid="434"/>
   <tile gid="434"/>
   <tile gid="434"/>
   <tile gid="434"/>
   <tile gid="434"/>
   <tile gid="434"/>
   <tile gid="434"/>
   <tile gid="434"/>
   <tile gid="434"/>
   <tile gid="435"/>
   <tile/>
   <tile/>
   <tile/>
   <tile/>
   <tile/>
   <tile/>
   <tile/>
   <tile/>
   <tile/>
   <tile gid="425"/>
   <tile gid="426"/>
   <tile/>
   <tile/>
   <tile gid="425"/>
   <tile gid="426"/>
   <tile/>
   <tile/>
   <tile/>
   <tile/>
   <tile/>
   <tile/>
   <tile/>
   <tile/>
   <tile/>
   <tile gid="433"/>
   <tile gid="434"/>
   <tile gid="434"/>
   <tile gid="434"/>
   <tile gid="434"/>
   <tile gid="434"/>
   <tile gid="434"/>
   <tile gid="434"/>
   <tile gid="434"/>
   <tile gid="451"/>
   <tile/>
   <tile/>
   <tile/>
   <tile/>
   <tile/>
   <tile/>
   <tile/>
   <tile/>
   <tile gid="433"/>
   <tile gid="435"/>
   <tile/>
   <tile/>
   <tile/>
   <tile/>
   <tile/>
   <tile gid="433"/>
   <tile gid="434"/>
   <tile gid="434"/>
   <tile gid="434"/>
   <tile gid="434"/>
   <tile gid="434"/>
   <tile gid="434"/>
   <tile gid="434"/>
   <tile gid="434"/>
   <tile gid="434"/>
   <tile gid="435"/>
   <tile/>
   <tile/>
   <tile/>
   <tile/>
   <tile/>
   <tile/>
   <tile/>
   <tile/>
   <tile/>
   <tile gid="441"/>
   <tile gid="442"/>
   <tile/>
   <tile/>
   <tile gid="441"/>
   <tile gid="442"/>
   <tile/>
   <tile/>
   <tile/>
   <tile/>
   <tile/>
   <tile/>
   <tile/>
   <tile/>
   <tile/>
   <tile gid="433"/>
   <tile gid="434"/>
   <tile gid="434"/>
   <tile gid="434"/>
   <tile gid="434"/>
   <tile gid="434"/>
   <tile gid="434"/>
   <tile gid="434"/>
   <tile gid="435"/>
   <tile/>
   <tile/>
   <tile/>
   <tile/>
   <tile/>
   <tile/>
   <tile/>
   <tile/>
   <tile/>
   <tile gid="433"/>
   <tile gid="435"/>
   <tile/>
   <tile/>
   <tile/>
   <tile/>
   <tile/>
   <tile gid="433"/>
   <tile gid="434"/>
   <tile gid="434"/>
   <tile gid="434"/>
   <tile gid="434"/>
   <tile gid="434"/>
   <tile gid="434"/>
   <tile gid="434"/>
   <tile gid="434"/>
   <tile gid="434"/>
   <tile gid="434"/>
   <tile gid="418"/>
   <tile gid="418"/>
   <tile gid="418"/>
   <tile gid="418"/>
   <tile gid="418"/>
   <tile gid="418"/>
   <tile gid="418"/>
   <tile gid="419"/>
   <tile/>
   <tile gid="457"/>
   <tile gid="458"/>
   <tile/>
   <tile/>
   <tile gid="457"/>
   <tile gid="458"/>
   <tile/>
   <tile/>
   <tile/>
   <tile/>
   <tile/>
   <tile/>
   <tile/>
   <tile/>
   <tile/>
   <tile gid="433"/>
   <tile gid="434"/>
   <tile gid="434"/>
   <tile gid="434"/>
   <tile gid="434"/>
   <tile gid="434"/>
   <tile gid="434"/>
   <tile gid="434"/>
   <tile gid="451"/>
   <tile/>
   <tile/>
   <tile/>
   <tile/>
   <tile/>
   <tile/>
   <tile/>
   <tile/>
   <tile/>
   <tile gid="433"/>
   <tile gid="435"/>
   <tile/>
   <tile/>
   <tile/>
   <tile/>
   <tile/>
   <tile gid="433"/>
   <tile gid="434"/>
   <tile gid="434"/>
   <tile gid="434"/>
   <tile gid="434"/>
   <tile gid="434"/>
   <tile gid="434"/>
   <tile gid="434"/>
   <tile gid="434"/>
   <tile gid="434"/>
   <tile gid="434"/>
   <tile gid="434"/>
   <tile gid="434"/>
   <tile gid="434"/>
   <tile gid="450"/>
   <tile gid="450"/>
   <tile gid="451"/>
   <tile/>
   <tile/>
   <tile/>
   <tile gid="473"/>
   <tile gid="474"/>
   <tile/>
   <tile/>
   <tile gid="473"/>
   <tile gid="474"/>
   <tile/>
   <tile/>
   <tile/>
   <tile/>
   <tile/>
   <tile/>
   <tile/>
   <tile/>
   <tile/>
   <tile gid="433"/>
   <tile gid="434"/>
   <tile gid="434"/>
   <tile gid="434"/>
   <tile gid="434"/>
   <tile gid="434"/>
   <tile gid="434"/>
   <tile gid="435"/>
   <tile/>
   <tile/>
   <tile/>
   <tile gid="417"/>
   <tile gid="418"/>
   <tile gid="419"/>
   <tile/>
   <tile/>
   <tile/>
   <tile/>
   <tile gid="433"/>
   <tile gid="435"/>
   <tile/>
   <tile/>
   <tile/>
   <tile/>
   <tile/>
   <tile gid="433"/>
   <tile gid="434"/>
   <tile gid="434"/>
   <tile gid="434"/>
   <tile gid="434"/>
   <tile gid="434"/>
   <tile gid="434"/>
   <tile gid="434"/>
   <tile gid="434"/>
   <tile gid="434"/>
   <tile gid="434"/>
   <tile gid="434"/>
   <tile gid="434"/>
   <tile gid="451"/>
   <tile/>
   <tile/>
   <tile/>
   <tile/>
   <tile/>
   <tile/>
   <tile gid="425"/>
   <tile gid="426"/>
   <tile/>
   <tile/>
   <tile gid="425"/>
   <tile gid="426"/>
   <tile/>
   <tile/>
   <tile/>
   <tile/>
   <tile/>
   <tile/>
   <tile/>
   <tile/>
   <tile/>
   <tile gid="433"/>
   <tile gid="434"/>
   <tile gid="434"/>
   <tile gid="434"/>
   <tile gid="434"/>
   <tile gid="434"/>
   <tile gid="434"/>
   <tile gid="435"/>
   <tile/>
   <tile/>
   <tile/>
   <tile gid="433"/>
   <tile gid="434"/>
   <tile/>
   <tile/>
   <tile/>
   <tile/>
   <tile/>
   <tile gid="433"/>
   <tile gid="435"/>
   <tile/>
   <tile/>
   <tile/>
   <tile/>
   <tile/>
   <tile gid="449"/>
   <tile gid="450"/>
   <tile gid="407"/>
   <tile gid="408"/>
   <tile gid="450"/>
   <tile gid="434"/>
   <tile gid="434"/>
   <tile gid="434"/>
   <tile gid="434"/>
   <tile gid="434"/>
   <tile gid="434"/>
   <tile gid="434"/>
   <tile gid="435"/>
   <tile/>
   <tile/>
   <tile/>
   <tile/>
   <tile/>
   <tile/>
   <tile/>
   <tile gid="441"/>
   <tile gid="442"/>
   <tile/>
   <tile/>
   <tile gid="441"/>
   <tile gid="442"/>
   <tile/>
   <tile/>
   <tile/>
   <tile/>
   <tile/>
   <tile/>
   <tile/>
   <tile/>
   <tile/>
   <tile gid="433"/>
   <tile gid="434"/>
   <tile gid="434"/>
   <tile gid="434"/>
   <tile gid="434"/>
   <tile gid="434"/>
   <tile gid="434"/>
   <tile gid="435"/>
   <tile/>
   <tile/>
   <tile/>
   <tile gid="433"/>
   <tile gid="434"/>
   <tile/>
   <tile/>
   <tile/>
   <tile/>
   <tile/>
   <tile gid="449"/>
   <tile gid="451"/>
   <tile/>
   <tile/>
   <tile/>
   <tile/>
   <tile/>
   <tile/>
   <tile/>
   <tile gid="439"/>
   <tile gid="440"/>
   <tile/>
   <tile gid="433"/>
   <tile gid="434"/>
   <tile gid="434"/>
   <tile gid="434"/>
   <tile gid="434"/>
   <tile gid="434"/>
   <tile gid="434"/>
   <tile gid="435"/>
   <tile/>
   <tile/>
   <tile/>
   <tile/>
   <tile/>
   <tile/>
   <tile/>
   <tile gid="457"/>
   <tile gid="458"/>
   <tile/>
   <tile/>
   <tile gid="457"/>
   <tile gid="458"/>
   <tile/>
   <tile/>
   <tile/>
   <tile/>
   <tile/>
   <tile/>
   <tile/>
   <tile/>
   <tile/>
   <tile gid="433"/>
   <tile gid="434"/>
   <tile gid="434"/>
   <tile gid="450"/>
   <tile gid="450"/>
   <tile gid="450"/>
   <tile gid="450"/>
   <tile gid="451"/>
   <tile/>
   <tile/>
   <tile/>
   <tile gid="433"/>
   <tile gid="434"/>
   <tile/>
   <tile/>
   <tile/>
   <tile/>
   <tile/>
   <tile/>
   <tile/>
   <tile/>
   <tile/>
   <tile/>
   <tile/>
   <tile/>
   <tile/>
   <tile/>
   <tile gid="457"/>
   <tile gid="458"/>
   <tile/>
   <tile gid="433"/>
   <tile gid="434"/>
   <tile gid="434"/>
   <tile gid="434"/>
   <tile gid="434"/>
   <tile gid="434"/>
   <tile gid="434"/>
   <tile gid="451"/>
   <tile/>
   <tile/>
   <tile/>
   <tile/>
   <tile/>
   <tile/>
   <tile/>
   <tile gid="473"/>
   <tile gid="474"/>
   <tile/>
   <tile/>
   <tile gid="473"/>
   <tile gid="474"/>
   <tile/>
   <tile/>
   <tile/>
   <tile/>
   <tile/>
   <tile/>
   <tile/>
   <tile/>
   <tile/>
   <tile gid="433"/>
   <tile gid="434"/>
   <tile gid="435"/>
   <tile/>
   <tile/>
   <tile/>
   <tile/>
   <tile/>
   <tile/>
   <tile/>
   <tile/>
   <tile gid="433"/>
   <tile gid="434"/>
   <tile/>
   <tile/>
   <tile/>
   <tile/>
   <tile/>
   <tile/>
   <tile/>
   <tile/>
   <tile/>
   <tile/>
   <tile/>
   <tile/>
   <tile/>
   <tile/>
   <tile gid="473"/>
   <tile gid="474"/>
   <tile/>
   <tile gid="433"/>
   <tile gid="434"/>
   <tile gid="434"/>
   <tile gid="434"/>
   <tile gid="434"/>
   <tile gid="434"/>
   <tile gid="451"/>
   <tile/>
   <tile/>
   <tile/>
   <tile/>
   <tile/>
   <tile/>
   <tile/>
   <tile/>
   <tile gid="425"/>
   <tile gid="426"/>
   <tile/>
   <tile/>
   <tile gid="425"/>
   <tile gid="426"/>
   <tile/>
   <tile/>
   <tile/>
   <tile/>
   <tile/>
   <tile/>
   <tile/>
   <tile/>
   <tile/>
   <tile gid="433"/>
   <tile gid="434"/>
   <tile gid="435"/>
   <tile/>
   <tile/>
   <tile/>
   <tile/>
   <tile/>
   <tile/>
   <tile/>
   <tile/>
   <tile gid="449"/>
   <tile gid="434"/>
   <tile gid="435"/>
   <tile/>
   <tile/>
   <tile/>
   <tile/>
   <tile/>
   <tile/>
   <tile/>
   <tile/>
   <tile/>
   <tile/>
   <tile/>
   <tile/>
   <tile/>
   <tile gid="425"/>
   <tile gid="426"/>
   <tile/>
   <tile gid="449"/>
   <tile gid="434"/>
   <tile gid="434"/>
   <tile gid="434"/>
   <tile gid="434"/>
   <tile gid="435"/>
   <tile/>
   <tile/>
   <tile/>
   <tile/>
   <tile/>
   <tile/>
   <tile/>
   <tile/>
   <tile/>
   <tile gid="441"/>
   <tile gid="442"/>
   <tile/>
   <tile/>
   <tile gid="441"/>
   <tile gid="442"/>
   <tile/>
   <tile/>
   <tile/>
   <tile/>
   <tile/>
   <tile/>
   <tile/>
   <tile/>
   <tile/>
   <tile gid="433"/>
   <tile gid="434"/>
   <tile gid="451"/>
   <tile/>
   <tile/>
   <tile/>
   <tile/>
   <tile/>
   <tile/>
   <tile/>
   <tile/>
   <tile/>
   <tile gid="449"/>
   <tile gid="450"/>
   <tile gid="418"/>
   <tile gid="418"/>
   <tile gid="418"/>
   <tile gid="418"/>
   <tile gid="418"/>
   <tile gid="418"/>
   <tile gid="418"/>
   <tile gid="418"/>
   <tile gid="418"/>
   <tile gid="418"/>
   <tile gid="418"/>
   <tile gid="419"/>
   <tile/>
   <tile gid="441"/>
   <tile gid="442"/>
   <tile/>
   <tile/>
   <tile gid="433"/>
   <tile gid="434"/>
   <tile gid="434"/>
   <tile gid="434"/>
   <tile gid="451"/>
   <tile/>
   <tile/>
   <tile/>
   <tile/>
   <tile/>
   <tile/>
   <tile/>
   <tile/>
   <tile/>
   <tile gid="457"/>
   <tile gid="458"/>
   <tile/>
   <tile/>
   <tile gid="457"/>
   <tile gid="458"/>
   <tile/>
   <tile/>
   <tile/>
   <tile/>
   <tile/>
   <tile/>
   <tile/>
   <tile/>
   <tile/>
   <tile gid="433"/>
   <tile gid="435"/>
   <tile/>
   <tile/>
   <tile/>
   <tile/>
   <tile/>
   <tile/>
   <tile/>
   <tile/>
   <tile/>
   <tile/>
   <tile/>
   <tile/>
   <tile gid="449"/>
   <tile gid="450"/>
   <tile gid="450"/>
   <tile gid="450"/>
   <tile gid="450"/>
   <tile gid="450"/>
   <tile gid="450"/>
   <tile gid="450"/>
   <tile gid="450"/>
   <tile gid="450"/>
   <tile gid="451"/>
   <tile/>
   <tile/>
   <tile gid="457"/>
   <tile gid="458"/>
   <tile/>
   <tile/>
   <tile gid="433"/>
   <tile gid="434"/>
   <tile gid="434"/>
   <tile gid="435"/>
   <tile/>
   <tile/>
   <tile/>
   <tile/>
   <tile/>
   <tile/>
   <tile/>
   <tile/>
   <tile/>
   <tile/>
   <tile gid="473"/>
   <tile gid="474"/>
   <tile/>
   <tile/>
   <tile gid="473"/>
   <tile gid="474"/>
   <tile/>
   <tile/>
   <tile/>
   <tile gid="417"/>
   <tile gid="418"/>
   <tile gid="418"/>
   <tile gid="418"/>
   <tile gid="418"/>
   <tile gid="418"/>
   <tile gid="434"/>
   <tile gid="451"/>
   <tile/>
   <tile/>
   <tile/>
   <tile/>
   <tile/>
   <tile/>
   <tile/>
   <tile/>
   <tile/>
   <tile/>
   <tile/>
   <tile/>
   <tile/>
   <tile/>
   <tile/>
   <tile/>
   <tile/>
   <tile/>
   <tile/>
   <tile/>
   <tile/>
   <tile/>
   <tile/>
   <tile/>
   <tile/>
   <tile gid="473"/>
   <tile gid="474"/>
   <tile/>
   <tile/>
   <tile gid="433"/>
   <tile gid="434"/>
   <tile gid="434"/>
   <tile gid="435"/>
   <tile/>
   <tile/>
   <tile/>
   <tile/>
   <tile/>
   <tile/>
   <tile/>
   <tile/>
   <tile/>
   <tile/>
   <tile gid="471"/>
   <tile gid="472"/>
   <tile/>
   <tile/>
   <tile gid="471"/>
   <tile gid="472"/>
   <tile/>
   <tile/>
   <tile/>
   <tile/>
   <tile gid="449"/>
   <tile gid="450"/>
   <tile gid="450"/>
   <tile gid="450"/>
   <tile gid="450"/>
   <tile gid="434"/>
   <tile/>
   <tile/>
   <tile/>
   <tile/>
   <tile/>
   <tile/>
   <tile/>
   <tile/>
   <tile/>
   <tile/>
   <tile/>
   <tile/>
   <tile/>
   <tile/>
   <tile/>
   <tile/>
   <tile/>
   <tile/>
   <tile/>
   <tile/>
   <tile/>
   <tile/>
   <tile/>
   <tile/>
   <tile/>
   <tile/>
   <tile gid="425"/>
   <tile gid="426"/>
   <tile/>
   <tile/>
   <tile gid="449"/>
   <tile gid="450"/>
   <tile gid="450"/>
   <tile gid="451"/>
   <tile/>
   <tile/>
   <tile/>
   <tile/>
   <tile/>
   <tile/>
   <tile/>
   <tile/>
   <tile gid="417"/>
   <tile gid="418"/>
   <tile gid="418"/>
   <tile gid="418"/>
   <tile gid="418"/>
   <tile gid="418"/>
   <tile gid="418"/>
   <tile gid="419"/>
   <tile/>
   <tile/>
   <tile/>
   <tile/>
   <tile/>
   <tile/>
   <tile/>
   <tile/>
   <tile/>
   <tile gid="433"/>
   <tile/>
   <tile/>
   <tile/>
   <tile/>
   <tile/>
   <tile/>
   <tile/>
   <tile/>
   <tile/>
   <tile/>
   <tile/>
   <tile/>
   <tile/>
   <tile/>
   <tile/>
   <tile/>
   <tile/>
   <tile/>
   <tile/>
   <tile/>
   <tile/>
   <tile/>
   <tile/>
   <tile/>
   <tile/>
   <tile/>
   <tile gid="441"/>
   <tile gid="442"/>
   <tile/>
   <tile/>
   <tile/>
   <tile/>
   <tile/>
   <tile/>
   <tile/>
   <tile/>
   <tile/>
   <tile/>
   <tile/>
   <tile/>
   <tile/>
   <tile/>
   <tile/>
   <tile gid="449"/>
   <tile gid="450"/>
   <tile gid="450"/>
   <tile gid="450"/>
   <tile gid="450"/>
   <tile gid="451"/>
   <tile/>
   <tile/>
   <tile/>
   <tile/>
   <tile/>
   <tile/>
   <tile/>
   <tile/>
   <tile/>
   <tile/>
   <tile gid="433"/>
   <tile/>
   <tile/>
   <tile/>
   <tile/>
   <tile/>
   <tile/>
   <tile/>
   <tile/>
   <tile/>
   <tile/>
   <tile/>
   <tile/>
   <tile/>
   <tile/>
   <tile/>
   <tile/>
   <tile/>
   <tile/>
   <tile/>
   <tile/>
   <tile/>
   <tile/>
   <tile/>
   <tile/>
   <tile/>
   <tile/>
   <tile gid="457"/>
   <tile gid="458"/>
   <tile/>
   <tile/>
   <tile/>
   <tile/>
   <tile/>
   <tile/>
   <tile/>
   <tile/>
   <tile/>
   <tile/>
   <tile/>
   <tile/>
   <tile/>
   <tile/>
   <tile/>
   <tile/>
   <tile/>
   <tile/>
   <tile/>
   <tile/>
   <tile/>
   <tile/>
   <tile/>
   <tile/>
   <tile/>
   <tile/>
   <tile/>
   <tile/>
   <tile/>
   <tile/>
   <tile/>
   <tile gid="433"/>
   <tile/>
   <tile/>
   <tile/>
   <tile/>
   <tile/>
   <tile/>
   <tile/>
   <tile/>
   <tile/>
   <tile/>
   <tile/>
   <tile/>
   <tile/>
   <tile/>
   <tile/>
   <tile/>
   <tile/>
   <tile/>
   <tile/>
   <tile/>
   <tile/>
   <tile/>
   <tile/>
   <tile/>
   <tile/>
   <tile/>
   <tile gid="473"/>
   <tile gid="474"/>
   <tile/>
   <tile/>
   <tile/>
   <tile/>
   <tile/>
   <tile/>
   <tile/>
   <tile/>
   <tile/>
   <tile/>
   <tile/>
   <tile/>
   <tile/>
   <tile/>
   <tile/>
   <tile/>
   <tile/>
   <tile/>
   <tile/>
   <tile/>
   <tile/>
   <tile/>
   <tile/>
   <tile/>
   <tile/>
   <tile/>
   <tile/>
   <tile/>
   <tile/>
   <tile/>
   <tile/>
   <tile gid="433"/>
   <tile gid="418"/>
   <tile gid="418"/>
   <tile gid="418"/>
   <tile gid="418"/>
   <tile gid="418"/>
   <tile gid="418"/>
   <tile gid="418"/>
   <tile gid="418"/>
   <tile gid="418"/>
   <tile gid="418"/>
   <tile gid="418"/>
   <tile gid="418"/>
   <tile gid="418"/>
   <tile gid="418"/>
   <tile gid="419"/>
   <tile/>
   <tile/>
   <tile/>
   <tile/>
   <tile/>
   <tile/>
   <tile/>
   <tile/>
   <tile/>
   <tile/>
   <tile/>
   <tile gid="425"/>
   <tile gid="426"/>
   <tile/>
   <tile/>
   <tile/>
   <tile/>
   <tile/>
   <tile/>
   <tile/>
   <tile/>
   <tile/>
   <tile/>
   <tile/>
   <tile/>
   <tile/>
   <tile/>
   <tile/>
   <tile/>
   <tile/>
   <tile/>
   <tile/>
   <tile/>
   <tile/>
   <tile/>
   <tile/>
   <tile/>
   <tile/>
   <tile/>
   <tile/>
   <tile/>
   <tile/>
   <tile/>
   <tile/>
   <tile gid="433"/>
   <tile gid="434"/>
   <tile gid="450"/>
   <tile gid="450"/>
   <tile gid="450"/>
   <tile gid="450"/>
   <tile gid="450"/>
   <tile gid="434"/>
   <tile gid="434"/>
   <tile gid="434"/>
   <tile gid="434"/>
   <tile gid="434"/>
   <tile gid="434"/>
   <tile gid="434"/>
   <tile gid="434"/>
   <tile gid="434"/>
   <tile gid="418"/>
   <tile gid="418"/>
   <tile gid="418"/>
   <tile gid="419"/>
   <tile/>
   <tile/>
   <tile/>
   <tile/>
   <tile/>
   <tile/>
   <tile/>
   <tile gid="441"/>
   <tile gid="442"/>
   <tile/>
   <tile/>
   <tile/>
   <tile/>
   <tile/>
   <tile/>
   <tile/>
   <tile/>
   <tile/>
   <tile/>
   <tile/>
   <tile/>
   <tile/>
   <tile/>
   <tile/>
   <tile/>
   <tile/>
   <tile/>
   <tile/>
   <tile/>
   <tile/>
   <tile/>
   <tile/>
   <tile/>
   <tile/>
   <tile/>
   <tile/>
   <tile/>
   <tile/>
   <tile/>
   <tile/>
   <tile gid="433"/>
   <tile gid="435"/>
   <tile/>
   <tile/>
   <tile/>
   <tile/>
   <tile/>
   <tile gid="433"/>
   <tile gid="434"/>
   <tile gid="434"/>
   <tile gid="434"/>
   <tile gid="434"/>
   <tile gid="434"/>
   <tile gid="434"/>
   <tile gid="434"/>
   <tile gid="434"/>
   <tile gid="434"/>
   <tile gid="434"/>
   <tile gid="434"/>
   <tile gid="434"/>
   <tile gid="418"/>
   <tile gid="418"/>
   <tile gid="418"/>
   <tile gid="419"/>
   <tile/>
   <tile/>
   <tile/>
   <tile gid="457"/>
   <tile gid="458"/>
   <tile/>
   <tile/>
   <tile/>
   <tile/>
   <tile/>
   <tile/>
   <tile/>
   <tile/>
   <tile/>
   <tile/>
   <tile/>
   <tile gid="471"/>
   <tile gid="472"/>
   <tile/>
   <tile/>
   <tile/>
   <tile/>
   <tile/>
   <tile/>
   <tile/>
   <tile/>
   <tile gid="452"/>
   <tile gid="453"/>
   <tile gid="453"/>
   <tile gid="453"/>
   <tile gid="453"/>
   <tile gid="454"/>
   <tile/>
   <tile/>
   <tile/>
   <tile/>
   <tile gid="433"/>
   <tile gid="435"/>
   <tile/>
   <tile/>
   <tile/>
   <tile/>
   <tile/>
   <tile gid="449"/>
   <tile gid="450"/>
   <tile gid="450"/>
   <tile gid="450"/>
   <tile gid="450"/>
   <tile gid="434"/>
   <tile gid="434"/>
   <tile gid="434"/>
   <tile gid="434"/>
   <tile gid="434"/>
   <tile gid="434"/>
   <tile gid="434"/>
   <tile gid="450"/>
   <tile gid="450"/>
   <tile gid="451"/>
   <tile/>
   <tile/>
   <tile/>
   <tile/>
   <tile/>
   <tile gid="473"/>
   <tile gid="474"/>
   <tile/>
   <tile/>
   <tile gid="417"/>
   <tile gid="418"/>
   <tile gid="418"/>
   <tile gid="418"/>
   <tile gid="418"/>
   <tile gid="418"/>
   <tile gid="418"/>
   <tile gid="418"/>
   <tile gid="418"/>
   <tile gid="418"/>
   <tile gid="418"/>
   <tile gid="418"/>
   <tile gid="418"/>
   <tile gid="418"/>
   <tile gid="418"/>
   <tile gid="419"/>
   <tile/>
   <tile/>
   <tile/>
   <tile gid="417"/>
   <tile gid="418"/>
   <tile gid="418"/>
   <tile gid="418"/>
   <tile gid="418"/>
   <tile gid="419"/>
   <tile/>
   <tile/>
   <tile/>
   <tile/>
   <tile gid="433"/>
   <tile gid="435"/>
   <tile/>
   <tile/>
   <tile/>
   <tile/>
   <tile/>
   <tile/>
   <tile/>
   <tile/>
   <tile/>
   <tile/>
   <tile gid="449"/>
   <tile gid="450"/>
   <tile gid="450"/>
   <tile gid="450"/>
   <tile gid="450"/>
   <tile gid="450"/>
   <tile gid="451"/>
   <tile/>
   <tile/>
   <tile/>
   <tile/>
   <tile/>
   <tile/>
   <tile/>
   <tile/>
   <tile gid="425"/>
   <tile gid="426"/>
   <tile/>
   <tile/>
   <tile/>
   <tile gid="449"/>
   <tile gid="450"/>
   <tile gid="450"/>
   <tile gid="450"/>
   <tile gid="450"/>
   <tile gid="450"/>
   <tile gid="450"/>
   <tile gid="450"/>
   <tile gid="450"/>
   <tile gid="450"/>
   <tile gid="450"/>
   <tile gid="450"/>
   <tile gid="450"/>
   <tile gid="451"/>
   <tile/>
   <tile/>
   <tile/>
   <tile/>
   <tile/>
   <tile gid="449"/>
   <tile gid="407"/>
   <tile gid="408"/>
   <tile gid="451"/>
   <tile/>
   <tile/>
   <tile/>
   <tile/>
   <tile/>
   <tile gid="433"/>
   <tile gid="435"/>
   <tile/>
   <tile/>
   <tile/>
   <tile/>
   <tile/>
   <tile/>
   <tile/>
   <tile/>
   <tile/>
   <tile/>
   <tile/>
   <tile/>
   <tile/>
   <tile/>
   <tile/>
   <tile/>
   <tile/>
   <tile/>
   <tile/>
   <tile/>
   <tile/>
   <tile/>
   <tile/>
   <tile/>
   <tile/>
   <tile gid="441"/>
   <tile gid="442"/>
   <tile/>
   <tile/>
   <tile/>
   <tile/>
   <tile/>
   <tile/>
   <tile/>
   <tile/>
   <tile/>
   <tile/>
   <tile/>
   <tile/>
   <tile/>
   <tile/>
   <tile/>
   <tile/>
   <tile/>
   <tile/>
   <tile/>
   <tile/>
   <tile/>
   <tile/>
   <tile/>
   <tile gid="425"/>
   <tile gid="426"/>
   <tile/>
   <tile/>
   <tile/>
   <tile/>
   <tile/>
   <tile/>
   <tile gid="433"/>
   <tile gid="435"/>
   <tile/>
   <tile/>
   <tile/>
   <tile/>
   <tile/>
   <tile/>
   <tile/>
   <tile/>
   <tile/>
   <tile/>
   <tile/>
   <tile/>
   <tile/>
   <tile/>
   <tile/>
   <tile/>
   <tile/>
   <tile/>
   <tile/>
   <tile/>
   <tile/>
   <tile/>
   <tile/>
   <tile/>
   <tile/>
   <tile gid="457"/>
   <tile gid="458"/>
   <tile/>
   <tile/>
   <tile/>
   <tile/>
   <tile/>
   <tile/>
   <tile/>
   <tile/>
   <tile/>
   <tile/>
   <tile/>
   <tile/>
   <tile/>
   <tile/>
   <tile/>
   <tile/>
   <tile/>
   <tile/>
   <tile/>
   <tile/>
   <tile/>
   <tile/>
   <tile/>
   <tile gid="441"/>
   <tile gid="442"/>
   <tile/>
   <tile/>
   <tile/>
   <tile/>
   <tile/>
   <tile/>
   <tile gid="433"/>
   <tile gid="435"/>
   <tile/>
   <tile/>
   <tile/>
   <tile/>
   <tile/>
   <tile/>
   <tile/>
   <tile/>
   <tile/>
   <tile/>
   <tile/>
   <tile/>
   <tile/>
   <tile/>
   <tile/>
   <tile/>
   <tile/>
   <tile/>
   <tile/>
   <tile/>
   <tile/>
   <tile/>
   <tile/>
   <tile/>
   <tile/>
   <tile gid="473"/>
   <tile gid="474"/>
   <tile/>
   <tile/>
   <tile/>
   <tile/>
   <tile/>
   <tile/>
   <tile/>
   <tile/>
   <tile/>
   <tile/>
   <tile/>
   <tile/>
   <tile/>
   <tile/>
   <tile/>
   <tile/>
   <tile/>
   <tile/>
   <tile/>
   <tile/>
   <tile/>
   <tile/>
   <tile/>
   <tile gid="457"/>
   <tile gid="458"/>
   <tile/>
   <tile/>
   <tile/>
   <tile/>
   <tile/>
   <tile/>
   <tile gid="433"/>
   <tile gid="435"/>
   <tile/>
   <tile/>
   <tile/>
   <tile/>
   <tile/>
   <tile/>
   <tile/>
   <tile/>
   <tile/>
   <tile/>
   <tile/>
   <tile/>
   <tile/>
   <tile/>
   <tile/>
   <tile/>
   <tile/>
   <tile/>
   <tile/>
   <tile/>
   <tile/>
   <tile/>
   <tile/>
   <tile/>
   <tile/>
   <tile gid="425"/>
   <tile gid="426"/>
   <tile/>
   <tile/>
   <tile/>
   <tile/>
   <tile/>
   <tile/>
   <tile/>
   <tile/>
   <tile/>
   <tile/>
   <tile/>
   <tile/>
   <tile/>
   <tile/>
   <tile/>
   <tile/>
   <tile/>
   <tile/>
   <tile/>
   <tile/>
   <tile/>
   <tile/>
   <tile/>
   <tile gid="473"/>
   <tile gid="474"/>
   <tile/>
   <tile/>
   <tile/>
   <tile/>
   <tile/>
   <tile/>
   <tile gid="433"/>
   <tile gid="435"/>
   <tile/>
   <tile/>
   <tile/>
   <tile/>
   <tile/>
   <tile/>
   <tile/>
   <tile/>
   <tile/>
   <tile/>
   <tile/>
   <tile/>
   <tile/>
   <tile/>
   <tile/>
   <tile/>
   <tile/>
   <tile/>
   <tile/>
   <tile/>
   <tile/>
   <tile/>
   <tile/>
   <tile/>
   <tile/>
   <tile gid="441"/>
   <tile gid="442"/>
   <tile/>
   <tile/>
   <tile/>
   <tile/>
   <tile/>
   <tile/>
   <tile gid="417"/>
   <tile gid="418"/>
   <tile gid="418"/>
   <tile gid="418"/>
   <tile gid="418"/>
   <tile gid="418"/>
   <tile gid="418"/>
   <tile gid="418"/>
   <tile gid="418"/>
   <tile gid="419"/>
   <tile/>
   <tile/>
   <tile/>
   <tile/>
   <tile/>
   <tile/>
   <tile/>
   <tile gid="425"/>
   <tile gid="426"/>
   <tile/>
   <tile/>
   <tile/>
   <tile/>
   <tile/>
   <tile/>
   <tile gid="433"/>
   <tile gid="435"/>
   <tile/>
   <tile/>
   <tile/>
   <tile/>
   <tile gid="417"/>
   <tile gid="418"/>
   <tile gid="418"/>
   <tile gid="418"/>
   <tile gid="418"/>
   <tile gid="418"/>
   <tile gid="418"/>
   <tile gid="418"/>
   <tile gid="418"/>
   <tile gid="418"/>
   <tile gid="418"/>
   <tile gid="418"/>
   <tile gid="418"/>
   <tile gid="418"/>
   <tile gid="418"/>
   <tile gid="418"/>
   <tile gid="418"/>
   <tile gid="418"/>
   <tile gid="419"/>
   <tile/>
   <tile/>
   <tile gid="457"/>
   <tile gid="458"/>
   <tile/>
   <tile gid="417"/>
   <tile gid="418"/>
   <tile gid="418"/>
   <tile gid="418"/>
   <tile gid="418"/>
   <tile gid="434"/>
   <tile gid="434"/>
   <tile gid="434"/>
   <tile gid="434"/>
   <tile gid="434"/>
   <tile gid="434"/>
   <tile gid="434"/>
   <tile gid="434"/>
   <tile gid="434"/>
   <tile gid="434"/>
   <tile gid="418"/>
   <tile gid="418"/>
   <tile gid="418"/>
   <tile gid="418"/>
   <tile gid="419"/>
   <tile/>
   <tile/>
   <tile gid="441"/>
   <tile gid="442"/>
   <tile/>
   <tile gid="417"/>
   <tile gid="418"/>
   <tile gid="418"/>
   <tile gid="418"/>
   <tile gid="418"/>
   <tile gid="434"/>
   <tile gid="435"/>
   <tile gid="481"/>
   <tile gid="481"/>
   <tile gid="481"/>
   <tile gid="481"/>
   <tile gid="433"/>
   <tile gid="434"/>
   <tile gid="434"/>
   <tile gid="434"/>
   <tile gid="434"/>
   <tile gid="434"/>
   <tile gid="434"/>
   <tile gid="434"/>
   <tile gid="434"/>
   <tile gid="434"/>
   <tile gid="434"/>
   <tile gid="434"/>
   <tile gid="434"/>
   <tile gid="434"/>
   <tile gid="434"/>
   <tile gid="434"/>
   <tile gid="434"/>
   <tile gid="434"/>
   <tile gid="435"/>
   <tile gid="481"/>
   <tile gid="481"/>
   <tile gid="473"/>
   <tile gid="474"/>
   <tile gid="481"/>
   <tile gid="433"/>
   <tile gid="434"/>
   <tile gid="434"/>
   <tile gid="434"/>
   <tile gid="434"/>
   <tile gid="434"/>
   <tile gid="434"/>
   <tile gid="434"/>
   <tile gid="434"/>
   <tile gid="434"/>
   <tile gid="434"/>
   <tile gid="434"/>
   <tile gid="434"/>
   <tile gid="434"/>
   <tile gid="434"/>
   <tile gid="434"/>
   <tile gid="434"/>
   <tile gid="434"/>
   <tile gid="434"/>
   <tile gid="435"/>
   <tile gid="481"/>
   <tile gid="481"/>
   <tile gid="457"/>
   <tile gid="458"/>
   <tile gid="481"/>
   <tile gid="433"/>
   <tile gid="434"/>
   <tile gid="434"/>
   <tile gid="434"/>
   <tile gid="434"/>
   <tile gid="434"/>
  </data>
 </layer>
 <layer id="1" name="Map" width="60" height="34">
  <properties>
   <property name="Draw" type="bool" value="true"/>
  </properties>
  <data>
   <tile/>
   <tile/>
   <tile/>
   <tile/>
   <tile/>
   <tile/>
   <tile/>
   <tile/>
   <tile/>
   <tile/>
   <tile/>
   <tile gid="425"/>
   <tile gid="426"/>
   <tile/>
   <tile/>
   <tile/>
   <tile/>
   <tile/>
   <tile/>
   <tile/>
   <tile/>
   <tile/>
   <tile/>
   <tile/>
   <tile/>
   <tile/>
   <tile/>
   <tile/>
   <tile/>
   <tile/>
   <tile/>
   <tile/>
   <tile/>
   <tile/>
   <tile/>
   <tile/>
   <tile/>
   <tile/>
   <tile/>
   <tile/>
   <tile/>
   <tile/>
   <tile/>
   <tile/>
   <tile/>
   <tile/>
   <tile/>
   <tile/>
   <tile/>
   <tile/>
   <tile/>
   <tile/>
   <tile/>
   <tile/>
   <tile/>
   <tile/>
   <tile/>
   <tile/>
   <tile/>
   <tile/>
   <tile/>
   <tile/>
   <tile/>
   <tile/>
   <tile/>
   <tile/>
   <tile/>
   <tile/>
   <tile/>
   <tile/>
   <tile/>
   <tile gid="441"/>
   <tile gid="442"/>
   <tile/>
   <tile/>
   <tile/>
   <tile/>
   <tile/>
   <tile/>
   <tile/>
   <tile/>
   <tile/>
   <tile/>
   <tile/>
   <tile/>
   <tile/>
   <tile/>
   <tile/>
   <tile/>
   <tile/>
   <tile/>
   <tile/>
   <tile/>
   <tile/>
   <tile/>
   <tile/>
   <tile/>
   <tile/>
   <tile/>
   <tile/>
   <tile/>
   <tile/>
   <tile/>
   <tile/>
   <tile/>
   <tile/>
   <tile/>
   <tile/>
   <tile/>
   <tile/>
   <tile/>
   <tile/>
   <tile/>
   <tile/>
   <tile/>
   <tile/>
   <tile/>
   <tile/>
   <tile/>
   <tile/>
   <tile/>
   <tile/>
   <tile/>
   <tile/>
   <tile/>
   <tile/>
   <tile/>
   <tile/>
   <tile/>
   <tile/>
   <tile/>
   <tile gid="457"/>
   <tile gid="458"/>
   <tile/>
   <tile/>
   <tile/>
   <tile/>
   <tile/>
   <tile/>
   <tile/>
   <tile/>
   <tile/>
   <tile/>
   <tile/>
   <tile/>
   <tile/>
   <tile/>
   <tile/>
   <tile/>
   <tile/>
   <tile/>
   <tile/>
   <tile/>
   <tile/>
   <tile/>
   <tile/>
   <tile/>
   <tile/>
   <tile/>
   <tile/>
   <tile/>
   <tile/>
   <tile/>
   <tile/>
   <tile/>
   <tile/>
   <tile/>
   <tile/>
   <tile/>
   <tile/>
   <tile/>
   <tile/>
   <tile/>
   <tile/>
   <tile/>
   <tile/>
   <tile/>
   <tile/>
   <tile/>
   <tile/>
   <tile/>
   <tile/>
   <tile/>
   <tile/>
   <tile/>
   <tile/>
   <tile/>
   <tile/>
   <tile/>
   <tile/>
   <tile/>
   <tile gid="473"/>
   <tile gid="474"/>
   <tile/>
   <tile/>
   <tile/>
   <tile/>
   <tile/>
   <tile/>
   <tile/>
   <tile/>
   <tile/>
   <tile/>
   <tile/>
   <tile/>
   <tile/>
   <tile/>
   <tile/>
   <tile/>
   <tile/>
   <tile/>
   <tile/>
   <tile/>
   <tile/>
   <tile/>
   <tile/>
   <tile/>
   <tile/>
   <tile/>
   <tile/>
   <tile/>
   <tile/>
   <tile/>
   <tile/>
   <tile/>
   <tile/>
   <tile/>
   <tile/>
   <tile/>
   <tile/>
   <tile/>
   <tile/>
   <tile/>
   <tile/>
   <tile/>
   <tile/>
   <tile/>
   <tile/>
   <tile/>
   <tile/>
   <tile/>
   <tile/>
   <tile/>
   <tile/>
   <tile/>
   <tile/>
   <tile/>
   <tile/>
   <tile/>
   <tile/>
   <tile/>
   <tile gid="425"/>
   <tile gid="426"/>
   <tile/>
   <tile/>
   <tile/>
   <tile/>
   <tile/>
   <tile/>
   <tile/>
   <tile/>
   <tile/>
   <tile/>
   <tile/>
   <tile/>
   <tile/>
   <tile/>
   <tile/>
   <tile/>
   <tile/>
   <tile/>
   <tile/>
   <tile/>
   <tile/>
   <tile/>
   <tile/>
   <tile/>
   <tile/>
   <tile/>
   <tile/>
   <tile/>
   <tile/>
   <tile/>
   <tile/>
   <tile/>
   <tile/>
   <tile/>
   <tile/>
   <tile/>
   <tile/>
   <tile/>
   <tile/>
   <tile/>
   <tile/>
   <tile/>
   <tile/>
   <tile/>
   <tile/>
   <tile/>
   <tile/>
   <tile/>
   <tile/>
   <tile/>
   <tile/>
   <tile/>
   <tile/>
   <tile/>
   <tile/>
   <tile/>
   <tile/>
   <tile/>
   <tile gid="441"/>
   <tile gid="442"/>
   <tile/>
   <tile/>
   <tile/>
   <tile/>
   <tile/>
   <tile/>
   <tile/>
   <tile/>
   <tile/>
   <tile/>
   <tile/>
   <tile/>
   <tile/>
   <tile/>
   <tile/>
   <tile/>
   <tile/>
   <tile/>
   <tile/>
   <tile/>
   <tile/>
   <tile/>
   <tile/>
   <tile/>
   <tile/>
   <tile/>
   <tile/>
   <tile/>
   <tile/>
   <tile/>
   <tile/>
   <tile/>
   <tile/>
   <tile/>
   <tile/>
   <tile/>
   <tile/>
   <tile/>
   <tile/>
   <tile/>
   <tile/>
   <tile/>
   <tile/>
   <tile/>
   <tile/>
   <tile/>
   <tile/>
   <tile/>
   <tile/>
   <tile/>
   <tile/>
   <tile/>
   <tile/>
   <tile/>
   <tile/>
   <tile/>
   <tile/>
   <tile/>
   <tile gid="457"/>
   <tile gid="458"/>
   <tile/>
   <tile/>
   <tile/>
   <tile/>
   <tile/>
   <tile/>
   <tile/>
   <tile/>
   <tile/>
   <tile/>
   <tile/>
   <tile/>
   <tile/>
   <tile/>
   <tile/>
   <tile/>
   <tile/>
   <tile/>
   <tile/>
   <tile/>
   <tile/>
   <tile/>
   <tile gid="453"/>
   <tile gid="453"/>
   <tile gid="453"/>
   <tile gid="453"/>
   <tile gid="453"/>
   <tile gid="453"/>
   <tile gid="453"/>
   <tile gid="454"/>
   <tile/>
   <tile/>
   <tile/>
   <tile/>
   <tile/>
   <tile/>
   <tile/>
   <tile/>
   <tile/>
   <tile/>
   <tile/>
   <tile/>
   <tile/>
   <tile/>
   <tile/>
   <tile/>
   <tile/>
   <tile/>
   <tile/>
   <tile/>
   <tile/>
   <tile/>
   <tile/>
   <tile/>
   <tile/>
   <tile/>
   <tile/>
   <tile/>
   <tile gid="473"/>
   <tile gid="474"/>
   <tile/>
   <tile/>
   <tile/>
   <tile/>
   <tile/>
   <tile/>
   <tile/>
   <tile/>
   <tile/>
   <tile/>
   <tile/>
   <tile/>
   <tile/>
   <tile/>
   <tile/>
   <tile/>
   <tile/>
   <tile/>
   <tile/>
   <tile/>
   <tile/>
   <tile/>
   <tile/>
   <tile/>
   <tile/>
   <tile/>
   <tile/>
   <tile/>
   <tile/>
   <tile/>
   <tile/>
   <tile/>
   <tile/>
   <tile/>
   <tile/>
   <tile/>
   <tile/>
   <tile/>
   <tile/>
   <tile/>
   <tile/>
   <tile/>
   <tile/>
   <tile/>
   <tile/>
   <tile/>
   <tile/>
   <tile/>
   <tile/>
   <tile/>
   <tile/>
   <tile/>
   <tile/>
   <tile/>
   <tile/>
   <tile/>
   <tile/>
   <tile gid="452"/>
   <tile gid="471"/>
   <tile gid="472"/>
   <tile gid="454"/>
   <tile/>
   <tile/>
   <tile/>
   <tile/>
   <tile/>
   <tile/>
   <tile/>
   <tile/>
   <tile/>
   <tile/>
   <tile/>
   <tile/>
   <tile/>
   <tile/>
   <tile/>
   <tile/>
   <tile/>
   <tile/>
   <tile/>
   <tile/>
   <tile/>
   <tile/>
   <tile/>
   <tile/>
   <tile/>
   <tile gid="407"/>
   <tile gid="408"/>
   <tile gid="451"/>
   <tile/>
   <tile/>
   <tile/>
   <tile/>
   <tile/>
   <tile/>
   <tile/>
   <tile/>
   <tile/>
   <tile/>
   <tile/>
   <tile/>
   <tile/>
   <tile/>
   <tile/>
   <tile/>
   <tile/>
   <tile/>
   <tile/>
   <tile/>
   <tile/>
   <tile/>
   <tile/>
   <tile/>
   <tile/>
   <tile/>
   <tile/>
   <tile/>
   <tile/>
   <tile/>
   <tile gid="418"/>
   <tile gid="419"/>
   <tile/>
   <tile/>
   <tile/>
   <tile/>
   <tile/>
   <tile/>
   <tile/>
   <tile/>
   <tile/>
   <tile/>
   <tile/>
   <tile/>
   <tile/>
   <tile/>
   <tile/>
   <tile/>
   <tile/>
   <tile/>
   <tile/>
   <tile/>
   <tile/>
   <tile/>
   <tile/>
   <tile/>
   <tile/>
   <tile gid="439"/>
   <tile gid="440"/>
   <tile/>
   <tile/>
   <tile/>
   <tile/>
   <tile/>
   <tile/>
   <tile/>
   <tile/>
   <tile/>
   <tile/>
   <tile/>
   <tile/>
   <tile/>
   <tile/>
   <tile/>
   <tile/>
   <tile/>
   <tile/>
   <tile/>
   <tile/>
   <tile/>
   <tile/>
   <tile/>
   <tile/>
   <tile/>
   <tile/>
   <tile/>
   <tile/>
   <tile/>
   <tile/>
   <tile/>
   <tile gid="434"/>
   <tile gid="435"/>
   <tile/>
   <tile/>
   <tile/>
   <tile/>
   <tile/>
   <tile/>
   <tile/>
   <tile/>
   <tile/>
   <tile/>
   <tile/>
   <tile/>
   <tile/>
   <tile/>
   <tile/>
   <tile/>
   <tile/>
   <tile/>
   <tile/>
   <tile/>
   <tile/>
   <tile/>
   <tile/>
   <tile/>
   <tile/>
   <tile gid="457"/>
   <tile gid="458"/>
   <tile/>
   <tile/>
   <tile/>
   <tile/>
   <tile/>
   <tile/>
   <tile/>
   <tile/>
   <tile/>
   <tile/>
   <tile/>
   <tile/>
   <tile/>
   <tile/>
   <tile/>
   <tile/>
   <tile/>
   <tile/>
   <tile/>
   <tile/>
   <tile/>
   <tile/>
   <tile/>
   <tile/>
   <tile/>
   <tile/>
   <tile/>
   <tile/>
   <tile/>
   <tile/>
   <tile/>
   <tile gid="434"/>
   <tile gid="435"/>
   <tile/>
   <tile/>
   <tile/>
   <tile/>
   <tile/>
   <tile/>
   <tile/>
   <tile/>
   <tile/>
   <tile/>
   <tile/>
   <tile/>
   <tile/>
   <tile/>
   <tile/>
   <tile/>
   <tile/>
   <tile/>
   <tile/>
   <tile/>
   <tile/>
   <tile/>
   <tile/>
   <tile/>
   <tile/>
   <tile gid="473"/>
   <tile gid="474"/>
   <tile/>
   <tile/>
   <tile/>
   <tile/>
   <tile/>
   <tile/>
   <tile/>
   <tile/>
   <tile/>
   <tile/>
   <tile/>
   <tile/>
   <tile/>
   <tile/>
   <tile/>
   <tile/>
   <tile/>
   <tile/>
   <tile/>
   <tile/>
   <tile/>
   <tile/>
   <tile/>
   <tile/>
   <tile/>
   <tile/>
   <tile/>
   <tile/>
   <tile/>
   <tile/>
   <tile/>
   <tile gid="434"/>
   <tile gid="435"/>
   <tile/>
   <tile/>
   <tile/>
   <tile/>
   <tile/>
   <tile/>
   <tile/>
   <tile/>
   <tile/>
   <tile/>
   <tile/>
   <tile/>
   <tile/>
   <tile/>
   <tile/>
   <tile/>
   <tile/>
   <tile/>
   <tile/>
   <tile/>
   <tile/>
   <tile/>
   <tile/>
   <tile/>
   <tile/>
   <tile gid="425"/>
   <tile gid="426"/>
   <tile/>
   <tile/>
   <tile/>
   <tile/>
   <tile/>
   <tile/>
   <tile/>
   <tile/>
   <tile/>
   <tile/>
   <tile/>
   <tile/>
   <tile/>
   <tile/>
   <tile/>
   <tile/>
   <tile/>
   <tile/>
   <tile/>
   <tile/>
   <tile/>
   <tile/>
   <tile/>
   <tile/>
   <tile/>
   <tile/>
   <tile/>
   <tile/>
   <tile/>
   <tile/>
   <tile/>
   <tile gid="434"/>
   <tile gid="435"/>
   <tile/>
   <tile/>
   <tile/>
   <tile/>
   <tile/>
   <tile/>
   <tile/>
   <tile/>
   <tile/>
   <tile/>
   <tile/>
   <tile/>
   <tile/>
   <tile/>
   <tile/>
   <tile/>
   <tile/>
   <tile/>
   <tile/>
   <tile/>
   <tile/>
   <tile/>
   <tile/>
   <tile/>
   <tile/>
   <tile gid="441"/>
   <tile gid="442"/>
   <tile/>
   <tile/>
   <tile/>
   <tile/>
   <tile/>
   <tile/>
   <tile/>
   <tile/>
   <tile/>
   <tile/>
   <tile/>
   <tile/>
   <tile/>
   <tile/>
   <tile/>
   <tile/>
   <tile/>
   <tile/>
   <tile/>
   <tile/>
   <tile/>
   <tile/>
   <tile/>
   <tile/>
   <tile/>
   <tile/>
   <tile/>
   <tile/>
   <tile/>
   <tile/>
   <tile/>
   <tile gid="434"/>
   <tile gid="435"/>
   <tile gid="453"/>
   <tile gid="453"/>
   <tile gid="453"/>
   <tile gid="453"/>
   <tile gid="453"/>
   <tile gid="453"/>
   <tile gid="453"/>
   <tile gid="453"/>
   <tile gid="453"/>
   <tile gid="453"/>
   <tile gid="454"/>
   <tile/>
   <tile/>
   <tile/>
   <tile/>
   <tile/>
   <tile/>
   <tile/>
   <tile/>
   <tile/>
   <tile/>
   <tile/>
   <tile/>
   <tile/>
   <tile/>
   <tile gid="457"/>
   <tile gid="458"/>
   <tile/>
   <tile/>
   <tile/>
   <tile/>
   <tile/>
   <tile/>
   <tile/>
   <tile/>
   <tile/>
   <tile/>
   <tile/>
   <tile/>
   <tile/>
   <tile/>
   <tile/>
   <tile/>
   <tile/>
   <tile/>
   <tile/>
   <tile/>
   <tile/>
   <tile/>
   <tile/>
   <tile/>
   <tile/>
   <tile/>
   <tile/>
   <tile/>
   <tile/>
   <tile/>
   <tile/>
   <tile/>
   <tile gid="434"/>
   <tile/>
   <tile/>
   <tile/>
   <tile/>
   <tile/>
   <tile/>
   <tile/>
   <tile/>
   <tile/>
   <tile/>
   <tile/>
   <tile/>
   <tile/>
   <tile/>
   <tile/>
   <tile/>
   <tile/>
   <tile/>
   <tile/>
   <tile/>
   <tile/>
   <tile/>
   <tile/>
   <tile/>
   <tile/>
   <tile gid="473"/>
   <tile gid="474"/>
   <tile/>
   <tile/>
   <tile/>
   <tile/>
   <tile/>
   <tile/>
   <tile/>
   <tile/>
   <tile/>
   <tile/>
   <tile/>
   <tile/>
   <tile gid="452"/>
   <tile gid="453"/>
   <tile gid="453"/>
   <tile gid="453"/>
   <tile gid="453"/>
   <tile gid="453"/>
   <tile/>
   <tile/>
   <tile/>
   <tile/>
   <tile/>
   <tile/>
   <tile/>
   <tile/>
   <tile/>
   <tile/>
   <tile/>
   <tile/>
   <tile/>
   <tile/>
   <tile/>
   <tile/>
   <tile/>
   <tile/>
   <tile/>
   <tile/>
   <tile/>
   <tile/>
   <tile/>
   <tile/>
   <tile/>
   <tile/>
   <tile/>
   <tile/>
   <tile/>
   <tile/>
   <tile/>
   <tile/>
   <tile/>
   <tile/>
   <tile/>
   <tile/>
   <tile/>
   <tile/>
   <tile/>
   <tile/>
   <tile gid="425"/>
   <tile gid="426"/>
   <tile/>
   <tile/>
   <tile/>
   <tile/>
   <tile/>
   <tile/>
   <tile/>
   <tile/>
   <tile/>
   <tile/>
   <tile/>
   <tile/>
   <tile/>
   <tile/>
   <tile/>
   <tile/>
   <tile/>
   <tile/>
   <tile/>
   <tile/>
   <tile/>
   <tile/>
   <tile/>
   <tile/>
   <tile/>
   <tile/>
   <tile/>
   <tile/>
   <tile/>
   <tile/>
   <tile/>
   <tile/>
   <tile/>
   <tile/>
   <tile/>
   <tile/>
   <tile/>
   <tile/>
   <tile/>
   <tile/>
   <tile/>
   <tile/>
   <tile/>
   <tile/>
   <tile/>
   <tile/>
   <tile/>
   <tile/>
   <tile/>
   <tile/>
   <tile/>
   <tile/>
   <tile/>
   <tile/>
   <tile/>
   <tile/>
   <tile/>
   <tile/>
   <tile gid="441"/>
   <tile gid="442"/>
   <tile/>
   <tile gid="452"/>
   <tile gid="453"/>
   <tile/>
   <tile/>
   <tile gid="453"/>
   <tile gid="453"/>
   <tile/>
   <tile/>
   <tile/>
   <tile/>
   <tile/>
   <tile/>
   <tile/>
   <tile/>
   <tile/>
   <tile/>
   <tile/>
   <tile/>
   <tile/>
   <tile/>
   <tile/>
   <tile/>
   <tile/>
   <tile/>
   <tile/>
   <tile/>
   <tile/>
   <tile/>
   <tile/>
   <tile/>
   <tile/>
   <tile/>
   <tile/>
   <tile/>
   <tile/>
   <tile/>
   <tile/>
   <tile/>
   <tile/>
   <tile/>
   <tile/>
   <tile/>
   <tile/>
   <tile/>
   <tile/>
   <tile/>
   <tile/>
   <tile/>
   <tile/>
   <tile/>
   <tile/>
   <tile/>
   <tile/>
   <tile/>
   <tile/>
   <tile/>
   <tile/>
   <tile gid="457"/>
   <tile gid="458"/>
   <tile/>
   <tile/>
   <tile/>
   <tile/>
   <tile/>
   <tile/>
   <tile/>
   <tile/>
   <tile/>
   <tile/>
   <tile/>
   <tile/>
   <tile/>
   <tile/>
   <tile/>
   <tile/>
   <tile/>
   <tile/>
   <tile/>
   <tile/>
   <tile/>
   <tile/>
   <tile/>
   <tile/>
   <tile/>
   <tile/>
   <tile/>
   <tile/>
   <tile/>
   <tile/>
   <tile/>
   <tile/>
   <tile/>
   <tile/>
   <tile/>
   <tile/>
   <tile/>
   <tile/>
   <tile/>
   <tile/>
   <tile/>
   <tile/>
   <tile/>
   <tile/>
   <tile/>
   <tile/>
   <tile/>
   <tile/>
   <tile/>
   <tile/>
   <tile/>
   <tile/>
   <tile/>
   <tile/>
   <tile/>
   <tile/>
   <tile/>
   <tile/>
   <tile gid="473"/>
   <tile gid="474"/>
   <tile/>
   <tile/>
   <tile/>
   <tile/>
   <tile/>
   <tile/>
   <tile/>
   <tile/>
   <tile/>
   <tile/>
   <tile/>
   <tile/>
   <tile/>
   <tile/>
   <tile/>
   <tile/>
   <tile/>
   <tile/>
   <tile/>
   <tile/>
   <tile/>
   <tile/>
   <tile/>
   <tile/>
   <tile/>
   <tile/>
   <tile/>
   <tile/>
   <tile/>
   <tile/>
   <tile/>
   <tile/>
   <tile/>
   <tile/>
   <tile/>
   <tile/>
   <tile/>
   <tile/>
   <tile/>
   <tile/>
   <tile/>
   <tile/>
   <tile/>
   <tile/>
   <tile/>
   <tile/>
   <tile/>
   <tile/>
   <tile/>
   <tile/>
   <tile/>
   <tile/>
   <tile/>
   <tile/>
   <tile/>
   <tile/>
   <tile/>
   <tile/>
   <tile gid="425"/>
   <tile gid="426"/>
   <tile/>
   <tile/>
   <tile/>
   <tile/>
   <tile/>
   <tile/>
   <tile/>
   <tile/>
   <tile/>
   <tile/>
   <tile/>
   <tile/>
   <tile/>
   <tile/>
   <tile/>
   <tile/>
   <tile/>
   <tile/>
   <tile/>
   <tile gid="453"/>
   <tile gid="453"/>
   <tile gid="453"/>
   <tile gid="453"/>
   <tile gid="453"/>
   <tile gid="453"/>
   <tile gid="453"/>
   <tile gid="453"/>
   <tile gid="453"/>
   <tile gid="453"/>
   <tile gid="453"/>
   <tile gid="453"/>
   <tile gid="453"/>
   <tile gid="453"/>
   <tile gid="454"/>
   <tile/>
   <tile/>
   <tile/>
   <tile/>
   <tile/>
   <tile/>
   <tile/>
   <tile/>
   <tile/>
   <tile/>
   <tile/>
   <tile/>
   <tile/>
   <tile/>
   <tile/>
   <tile/>
   <tile/>
   <tile/>
   <tile/>
   <tile/>
   <tile/>
   <tile/>
   <tile/>
   <tile/>
   <tile gid="441"/>
   <tile gid="442"/>
   <tile/>
   <tile/>
   <tile/>
   <tile/>
   <tile/>
   <tile/>
   <tile/>
   <tile/>
   <tile/>
   <tile/>
   <tile/>
   <tile/>
   <tile/>
   <tile/>
   <tile/>
   <tile/>
   <tile/>
   <tile/>
   <tile/>
   <tile/>
   <tile/>
   <tile/>
   <tile/>
   <tile/>
   <tile/>
   <tile/>
   <tile/>
   <tile/>
   <tile/>
   <tile/>
   <tile/>
   <tile/>
   <tile/>
   <tile/>
   <tile gid="453"/>
   <tile gid="453"/>
   <tile gid="453"/>
   <tile gid="454"/>
   <tile/>
   <tile/>
   <tile/>
   <tile/>
   <tile/>
   <tile/>
   <tile/>
   <tile/>
   <tile/>
   <tile/>
   <tile/>
   <tile/>
   <tile/>
   <tile/>
   <tile/>
   <tile/>
   <tile/>
   <tile/>
   <tile/>
   <tile/>
   <tile gid="457"/>
   <tile gid="458"/>
   <tile/>
   <tile/>
   <tile/>
   <tile/>
   <tile/>
   <tile/>
   <tile/>
   <tile/>
   <tile/>
   <tile/>
   <tile/>
   <tile/>
   <tile/>
   <tile/>
   <tile/>
   <tile/>
   <tile/>
   <tile/>
   <tile/>
   <tile/>
   <tile/>
   <tile/>
   <tile/>
   <tile/>
   <tile/>
   <tile/>
   <tile/>
   <tile/>
   <tile/>
   <tile/>
   <tile/>
   <tile/>
   <tile/>
   <tile/>
   <tile/>
   <tile/>
   <tile/>
   <tile/>
   <tile gid="453"/>
   <tile gid="453"/>
   <tile gid="453"/>
   <tile gid="454"/>
   <tile/>
   <tile/>
   <tile/>
   <tile/>
   <tile/>
   <tile/>
   <tile/>
   <tile/>
   <tile/>
   <tile/>
   <tile/>
   <tile/>
   <tile/>
   <tile/>
   <tile/>
   <tile/>
   <tile gid="473"/>
   <tile gid="474"/>
   <tile/>
   <tile/>
   <tile/>
   <tile/>
   <tile/>
   <tile/>
   <tile/>
   <tile/>
   <tile/>
   <tile/>
   <tile/>
   <tile/>
   <tile/>
   <tile/>
   <tile/>
   <tile/>
   <tile/>
   <tile/>
   <tile/>
   <tile/>
   <tile/>
   <tile/>
   <tile/>
   <tile/>
   <tile/>
   <tile/>
   <tile/>
   <tile/>
   <tile/>
   <tile/>
   <tile/>
   <tile/>
   <tile/>
   <tile/>
   <tile/>
   <tile/>
   <tile/>
   <tile/>
   <tile/>
   <tile/>
   <tile/>
   <tile/>
   <tile/>
   <tile/>
   <tile/>
   <tile/>
   <tile/>
   <tile/>
   <tile/>
   <tile gid="452"/>
   <tile gid="453"/>
   <tile gid="453"/>
   <tile gid="453"/>
   <tile gid="453"/>
   <tile gid="453"/>
   <tile gid="453"/>
   <tile gid="453"/>
   <tile gid="453"/>
   <tile/>
   <tile/>
   <tile gid="453"/>
   <tile gid="453"/>
   <tile gid="453"/>
   <tile gid="453"/>
   <tile gid="454"/>
   <tile/>
   <tile/>
   <tile/>
   <tile/>
   <tile/>
   <tile/>
   <tile/>
   <tile/>
   <tile/>
   <tile/>
   <tile/>
   <tile/>
   <tile/>
   <tile/>
   <tile/>
   <tile/>
   <tile/>
   <tile/>
   <tile/>
   <tile/>
   <tile/>
   <tile/>
   <tile/>
   <tile/>
   <tile/>
   <tile/>
   <tile/>
   <tile/>
   <tile/>
   <tile/>
   <tile/>
   <tile/>
   <tile/>
   <tile/>
   <tile/>
   <tile/>
   <tile/>
   <tile/>
   <tile/>
   <tile/>
   <tile/>
   <tile/>
   <tile/>
   <tile/>
   <tile/>
   <tile/>
   <tile/>
   <tile/>
   <tile/>
   <tile/>
   <tile/>
   <tile/>
   <tile/>
   <tile/>
   <tile/>
   <tile/>
   <tile/>
   <tile/>
   <tile/>
   <tile/>
   <tile/>
   <tile/>
   <tile/>
   <tile/>
   <tile/>
   <tile/>
   <tile/>
   <tile/>
   <tile/>
   <tile/>
   <tile/>
   <tile/>
   <tile/>
   <tile/>
   <tile/>
   <tile/>
   <tile/>
   <tile/>
   <tile/>
   <tile/>
   <tile/>
   <tile/>
   <tile/>
   <tile/>
   <tile/>
   <tile/>
   <tile/>
   <tile/>
   <tile/>
   <tile/>
   <tile/>
   <tile/>
   <tile/>
   <tile/>
   <tile/>
   <tile/>
   <tile/>
   <tile/>
   <tile/>
   <tile/>
   <tile/>
   <tile/>
   <tile/>
   <tile/>
   <tile/>
   <tile/>
   <tile/>
   <tile/>
   <tile/>
   <tile/>
   <tile/>
   <tile/>
   <tile/>
   <tile/>
   <tile/>
   <tile/>
   <tile/>
   <tile/>
   <tile/>
   <tile/>
   <tile/>
   <tile/>
   <tile/>
   <tile/>
   <tile/>
   <tile/>
   <tile/>
   <tile/>
   <tile/>
   <tile/>
   <tile/>
   <tile/>
   <tile/>
   <tile/>
   <tile/>
   <tile/>
   <tile/>
   <tile/>
   <tile/>
   <tile/>
   <tile/>
   <tile/>
   <tile/>
   <tile/>
   <tile/>
   <tile/>
   <tile/>
   <tile/>
   <tile/>
   <tile/>
   <tile/>
   <tile/>
   <tile/>
   <tile/>
   <tile/>
   <tile/>
   <tile/>
   <tile/>
   <tile/>
   <tile/>
   <tile/>
   <tile/>
   <tile/>
   <tile/>
   <tile/>
   <tile/>
   <tile/>
   <tile/>
   <tile/>
   <tile/>
   <tile/>
   <tile/>
   <tile/>
   <tile/>
   <tile/>
   <tile/>
   <tile/>
   <tile/>
   <tile/>
   <tile/>
   <tile/>
   <tile/>
   <tile/>
   <tile/>
   <tile/>
   <tile/>
   <tile/>
   <tile/>
   <tile/>
   <tile/>
   <tile/>
   <tile/>
   <tile/>
   <tile/>
   <tile/>
   <tile/>
   <tile/>
   <tile/>
   <tile/>
   <tile/>
   <tile/>
   <tile/>
   <tile/>
   <tile/>
   <tile/>
   <tile/>
   <tile/>
   <tile/>
   <tile/>
   <tile/>
   <tile/>
   <tile/>
   <tile/>
   <tile/>
   <tile/>
   <tile/>
   <tile/>
   <tile/>
   <tile/>
   <tile/>
   <tile/>
   <tile/>
   <tile/>
   <tile/>
   <tile/>
   <tile/>
   <tile/>
   <tile/>
   <tile/>
   <tile/>
   <tile/>
   <tile/>
   <tile/>
   <tile/>
   <tile/>
   <tile/>
   <tile/>
   <tile/>
   <tile/>
   <tile/>
   <tile/>
   <tile/>
   <tile/>
   <tile/>
   <tile/>
   <tile/>
   <tile/>
   <tile/>
   <tile/>
   <tile/>
   <tile/>
   <tile/>
   <tile/>
   <tile/>
   <tile/>
   <tile/>
   <tile/>
   <tile/>
   <tile/>
   <tile/>
   <tile/>
   <tile/>
   <tile/>
   <tile/>
   <tile/>
   <tile/>
   <tile/>
   <tile/>
   <tile/>
   <tile/>
   <tile/>
   <tile/>
   <tile/>
   <tile/>
   <tile/>
   <tile/>
   <tile/>
   <tile/>
   <tile/>
   <tile/>
   <tile/>
   <tile/>
   <tile/>
   <tile/>
   <tile/>
   <tile/>
   <tile/>
   <tile/>
   <tile/>
   <tile/>
   <tile/>
   <tile/>
   <tile/>
   <tile/>
   <tile/>
   <tile/>
   <tile/>
   <tile/>
   <tile/>
   <tile/>
   <tile/>
   <tile/>
   <tile/>
   <tile/>
   <tile/>
   <tile/>
   <tile/>
   <tile/>
   <tile/>
   <tile/>
   <tile/>
   <tile/>
   <tile/>
   <tile/>
   <tile/>
   <tile/>
   <tile/>
   <tile/>
   <tile/>
   <tile/>
   <tile/>
   <tile/>
   <tile/>
   <tile/>
   <tile/>
   <tile/>
   <tile/>
   <tile/>
   <tile/>
   <tile/>
   <tile/>
   <tile/>
   <tile/>
   <tile/>
   <tile/>
   <tile/>
   <tile/>
   <tile/>
   <tile/>
   <tile/>
   <tile/>
   <tile/>
   <tile/>
   <tile/>
   <tile/>
   <tile/>
   <tile/>
   <tile/>
   <tile gid="452"/>
   <tile gid="453"/>
   <tile gid="453"/>
   <tile gid="453"/>
   <tile gid="453"/>
   <tile gid="453"/>
   <tile gid="453"/>
   <tile gid="453"/>
   <tile gid="453"/>
   <tile gid="454"/>
   <tile/>
   <tile/>
   <tile/>
   <tile/>
   <tile/>
   <tile/>
   <tile/>
   <tile/>
   <tile/>
   <tile/>
   <tile/>
   <tile/>
   <tile/>
   <tile/>
   <tile/>
   <tile/>
   <tile/>
   <tile/>
   <tile/>
   <tile/>
   <tile/>
   <tile gid="452"/>
   <tile gid="453"/>
   <tile gid="453"/>
   <tile gid="453"/>
   <tile gid="453"/>
   <tile gid="453"/>
   <tile gid="453"/>
   <tile gid="453"/>
   <tile gid="453"/>
   <tile gid="453"/>
   <tile gid="453"/>
   <tile gid="453"/>
   <tile gid="453"/>
   <tile gid="453"/>
   <tile gid="453"/>
   <tile gid="453"/>
   <tile gid="453"/>
   <tile gid="453"/>
   <tile gid="454"/>
   <tile/>
   <tile/>
   <tile/>
   <tile/>
   <tile/>
   <tile gid="452"/>
   <tile gid="453"/>
   <tile gid="453"/>
   <tile gid="453"/>
   <tile gid="453"/>
   <tile/>
   <tile/>
   <tile/>
   <tile/>
   <tile/>
   <tile/>
   <tile/>
   <tile/>
   <tile/>
   <tile/>
   <tile gid="453"/>
   <tile gid="453"/>
   <tile gid="453"/>
   <tile gid="453"/>
   <tile gid="454"/>
   <tile/>
   <tile/>
   <tile/>
   <tile/>
   <tile/>
   <tile gid="452"/>
   <tile gid="453"/>
   <tile gid="453"/>
   <tile gid="453"/>
   <tile gid="453"/>
   <tile/>
   <tile/>
   <tile/>
   <tile/>
   <tile/>
   <tile/>
   <tile/>
   <tile/>
   <tile/>
   <tile/>
   <tile/>
   <tile/>
   <tile/>
   <tile/>
   <tile/>
   <tile/>
   <tile/>
   <tile/>
   <tile/>
   <tile/>
   <tile/>
   <tile/>
   <tile/>
   <tile/>
   <tile/>
   <tile/>
   <tile/>
   <tile/>
   <tile/>
   <tile/>
   <tile/>
   <tile/>
   <tile/>
   <tile/>
   <tile/>
   <tile/>
   <tile/>
   <tile/>
   <tile/>
   <tile/>
   <tile/>
   <tile/>
   <tile/>
   <tile/>
   <tile/>
   <tile/>
   <tile/>
   <tile/>
   <tile/>
   <tile/>
   <tile/>
   <tile/>
   <tile/>
   <tile/>
   <tile/>
   <tile/>
   <tile/>
   <tile/>
   <tile/>
   <tile/>
   <tile/>
   <tile/>
   <tile/>
   <tile/>
   <tile/>
   <tile/>
   <tile/>
   <tile/>
   <tile/>
   <tile/>
   <tile/>
   <tile/>
   <tile/>
   <tile/>
   <tile/>
   <tile/>
   <tile/>
   <tile/>
   <tile/>
   <tile/>
   <tile/>
   <tile/>
   <tile/>
   <tile/>
   <tile/>
   <tile/>
   <tile/>
   <tile/>
   <tile/>
   <tile/>
   <tile/>
   <tile/>
   <tile/>
   <tile/>
   <tile/>
   <tile/>
   <tile/>
   <tile/>
   <tile/>
   <tile/>
   <tile/>
   <tile/>
   <tile/>
   <tile/>
   <tile/>
   <tile/>
   <tile/>
   <tile/>
   <tile/>
   <tile/>
   <tile/>
   <tile/>
   <tile/>
   <tile/>
   <tile/>
   <tile/>
   <tile/>
   <tile/>
   <tile/>
   <tile/>
   <tile/>
  </data>
 </layer>
 <layer id="3" name="Collisions" width="60" height="34">
  <data>
   <tile/>
   <tile/>
   <tile/>
   <tile/>
   <tile/>
   <tile/>
   <tile/>
   <tile/>
   <tile gid="514"/>
   <tile/>
   <tile/>
   <tile/>
   <tile/>
   <tile/>
   <tile gid="514"/>
   <tile/>
   <tile/>
   <tile/>
   <tile/>
   <tile/>
   <tile/>
   <tile/>
   <tile/>
   <tile/>
   <tile/>
   <tile/>
   <tile/>
   <tile/>
   <tile/>
   <tile/>
   <tile/>
   <tile/>
   <tile/>
   <tile/>
   <tile gid="514"/>
   <tile/>
   <tile/>
   <tile/>
   <tile gid="514"/>
   <tile gid="514"/>
   <tile gid="514"/>
   <tile gid="514"/>
   <tile gid="514"/>
   <tile gid="514"/>
   <tile gid="514"/>
   <tile gid="514"/>
   <tile gid="514"/>
   <tile gid="514"/>
   <tile gid="514"/>
   <tile gid="514"/>
   <tile gid="514"/>
   <tile gid="514"/>
   <tile gid="514"/>
   <tile gid="514"/>
   <tile gid="514"/>
   <tile gid="514"/>
   <tile gid="514"/>
   <tile gid="514"/>
   <tile gid="514"/>
   <tile/>
   <tile/>
   <tile/>
   <tile/>
   <tile/>
   <tile/>
   <tile/>
   <tile/>
   <tile/>
   <tile gid="514"/>
   <tile/>
   <tile/>
   <tile/>
   <tile/>
   <tile/>
   <tile gid="514"/>
   <tile/>
   <tile/>
   <tile/>
   <tile/>
   <tile/>
   <tile/>
   <tile/>
   <tile/>
   <tile/>
   <tile/>
   <tile/>
   <tile/>
   <tile/>
   <tile/>
   <tile/>
   <tile/>
   <tile/>
   <tile/>
   <tile/>
   <tile gid="514"/>
   <tile/>
   <tile/>
   <tile/>
   <tile/>
   <tile/>
   <tile/>
   <tile/>
   <tile/>
   <tile/>
   <tile/>
   <tile/>
   <tile/>
   <tile/>
   <tile/>
   <tile/>
   <tile/>
   <tile/>
   <tile/>
   <tile/>
   <tile/>
   <tile/>
   <tile/>
   <tile/>
   <tile/>
   <tile gid="514"/>
   <tile/>
   <tile/>
   <tile/>
   <tile/>
   <tile/>
   <tile/>
   <tile/>
   <tile/>
   <tile gid="514"/>
   <tile/>
   <tile/>
   <tile/>
   <tile/>
   <tile/>
   <tile gid="514"/>
   <tile/>
   <tile/>
   <tile/>
   <tile/>
   <tile/>
   <tile/>
   <tile/>
   <tile/>
   <tile/>
   <tile/>
   <tile/>
   <tile/>
   <tile/>
   <tile/>
   <tile/>
   <tile/>
   <tile/>
   <tile/>
   <tile/>
   <tile gid="514"/>
   <tile/>
   <tile/>
   <tile/>
   <tile/>
   <tile/>
   <tile/>
   <tile/>
   <tile/>
   <tile/>
   <tile/>
   <tile/>
   <tile/>
   <tile/>
   <tile/>
   <tile/>
   <tile/>
   <tile/>
   <tile/>
   <tile/>
   <tile/>
   <tile/>
   <tile/>
   <tile/>
   <tile/>
   <tile gid="514"/>
   <tile/>
   <tile/>
   <tile/>
   <tile/>
   <tile/>
   <tile/>
   <tile/>
   <tile/>
   <tile gid="514"/>
   <tile/>
   <tile/>
   <tile/>
   <tile/>
   <tile/>
   <tile gid="514"/>
   <tile/>
   <tile/>
   <tile/>
   <tile/>
   <tile/>
   <tile/>
   <tile/>
   <tile/>
   <tile/>
   <tile/>
   <tile/>
   <tile/>
   <tile/>
   <tile/>
   <tile/>
   <tile/>
   <tile/>
   <tile/>
   <tile/>
   <tile gid="514"/>
   <tile/>
   <tile/>
   <tile/>
   <tile/>
   <tile/>
   <tile/>
   <tile/>
   <tile/>
   <tile/>
   <tile/>
   <tile/>
   <tile/>
   <tile/>
   <tile/>
   <tile/>
   <tile/>
   <tile/>
   <tile/>
   <tile/>
   <tile/>
   <tile/>
   <tile/>
   <tile/>
   <tile/>
   <tile gid="514"/>
   <tile/>
   <tile/>
   <tile/>
   <tile/>
   <tile/>
   <tile/>
   <tile/>
   <tile/>
   <tile gid="514"/>
   <tile/>
   <tile/>
   <tile/>
   <tile/>
   <tile/>
   <tile gid="514"/>
   <tile gid="514"/>
   <tile gid="514"/>
   <tile/>
   <tile/>
   <tile/>
   <tile/>
   <tile/>
   <tile/>
   <tile/>
   <tile/>
   <tile/>
   <tile/>
   <tile/>
   <tile/>
   <tile/>
   <tile/>
   <tile/>
   <tile/>
   <tile/>
   <tile gid="514"/>
   <tile/>
   <tile/>
   <tile/>
   <tile/>
   <tile/>
   <tile/>
   <tile/>
   <tile/>
   <tile/>
   <tile/>
   <tile/>
   <tile/>
   <tile/>
   <tile/>
   <tile/>
   <tile/>
   <tile/>
   <tile/>
   <tile/>
   <tile/>
   <tile/>
   <tile/>
   <tile/>
   <tile/>
   <tile gid="514"/>
   <tile/>
   <tile/>
   <tile/>
   <tile/>
   <tile/>
   <tile/>
   <tile/>
   <tile/>
   <tile gid="514"/>
   <tile/>
   <tile/>
   <tile/>
   <tile/>
   <tile/>
   <tile/>
   <tile/>
   <tile/>
   <tile gid="514"/>
   <tile/>
   <tile gid="514"/>
   <tile gid="514"/>
   <tile gid="514"/>
   <tile gid="514"/>
   <tile gid="514"/>
   <tile/>
   <tile/>
   <tile/>
   <tile/>
   <tile/>
   <tile/>
   <tile/>
   <tile/>
   <tile/>
   <tile/>
   <tile gid="514"/>
   <tile/>
   <tile/>
   <tile/>
   <tile/>
   <tile/>
   <tile/>
   <tile/>
   <tile/>
   <tile/>
   <tile/>
   <tile/>
   <tile/>
   <tile/>
   <tile/>
   <tile/>
   <tile/>
   <tile/>
   <tile/>
   <tile/>
   <tile/>
   <tile/>
   <tile/>
   <tile/>
   <tile/>
   <tile gid="514"/>
   <tile/>
   <tile/>
   <tile/>
   <tile/>
   <tile/>
   <tile/>
   <tile/>
   <tile/>
   <tile gid="514"/>
   <tile/>
   <tile/>
   <tile/>
   <tile/>
   <tile/>
   <tile/>
   <tile/>
   <tile/>
   <tile gid="514"/>
   <tile gid="514"/>
   <tile/>
   <tile/>
   <tile/>
   <tile/>
   <tile/>
   <tile gid="514"/>
   <tile/>
   <tile/>
   <tile/>
   <tile/>
   <tile/>
   <tile/>
   <tile/>
   <tile/>
   <tile/>
   <tile gid="514"/>
   <tile/>
   <tile/>
   <tile/>
   <tile/>
   <tile/>
   <tile/>
   <tile/>
   <tile/>
   <tile/>
   <tile/>
   <tile/>
   <tile/>
   <tile/>
   <tile/>
   <tile/>
   <tile/>
   <tile/>
   <tile/>
   <tile/>
   <tile/>
   <tile/>
   <tile/>
   <tile/>
   <tile/>
   <tile gid="514"/>
   <tile/>
   <tile/>
   <tile/>
   <tile/>
   <tile/>
   <tile/>
   <tile/>
   <tile gid="514"/>
   <tile/>
   <tile/>
   <tile/>
   <tile/>
   <tile/>
   <tile/>
   <tile/>
   <tile/>
   <tile/>
   <tile gid="514"/>
   <tile gid="514"/>
   <tile/>
   <tile/>
   <tile/>
   <tile/>
   <tile/>
   <tile gid="514"/>
   <tile/>
   <tile/>
   <tile/>
   <tile/>
   <tile/>
   <tile/>
   <tile/>
   <tile/>
   <tile/>
   <tile/>
   <tile gid="514"/>
   <tile gid="514"/>
   <tile gid="514"/>
   <tile gid="514"/>
   <tile gid="514"/>
   <tile gid="514"/>
   <tile gid="514"/>
   <tile gid="514"/>
   <tile/>
   <tile/>
   <tile/>
   <tile/>
   <tile/>
   <tile/>
   <tile/>
   <tile/>
   <tile/>
   <tile/>
   <tile/>
   <tile/>
   <tile/>
   <tile/>
   <tile/>
   <tile/>
   <tile gid="514"/>
   <tile/>
   <tile/>
   <tile/>
   <tile/>
   <tile/>
   <tile/>
   <tile/>
   <tile gid="514"/>
   <tile/>
   <tile/>
   <tile/>
   <tile/>
   <tile/>
   <tile/>
   <tile/>
   <tile/>
   <tile/>
   <tile gid="514"/>
   <tile gid="514"/>
   <tile/>
   <tile/>
   <tile/>
   <tile/>
   <tile/>
   <tile gid="514"/>
   <tile/>
   <tile/>
   <tile/>
   <tile/>
   <tile/>
   <tile/>
   <tile/>
   <tile/>
   <tile/>
   <tile/>
   <tile/>
   <tile/>
   <tile/>
   <tile gid="514"/>
   <tile gid="514"/>
   <tile gid="514"/>
   <tile gid="514"/>
   <tile/>
   <tile/>
   <tile/>
   <tile/>
   <tile/>
   <tile/>
   <tile/>
   <tile/>
   <tile/>
   <tile/>
   <tile/>
   <tile/>
   <tile/>
   <tile/>
   <tile/>
   <tile/>
   <tile/>
   <tile gid="514"/>
   <tile/>
   <tile/>
   <tile/>
   <tile/>
   <tile/>
   <tile/>
   <tile gid="514"/>
   <tile/>
   <tile/>
   <tile/>
   <tile gid="514"/>
   <tile gid="514"/>
   <tile gid="514"/>
   <tile gid="514"/>
   <tile/>
   <tile/>
   <tile/>
   <tile gid="514"/>
   <tile gid="514"/>
   <tile/>
   <tile/>
   <tile/>
   <tile/>
   <tile/>
   <tile gid="514"/>
   <tile/>
   <tile/>
   <tile/>
   <tile/>
   <tile/>
   <tile/>
   <tile/>
   <tile/>
   <tile/>
   <tile/>
   <tile/>
   <tile/>
   <tile gid="514"/>
   <tile/>
   <tile/>
   <tile/>
   <tile/>
   <tile/>
   <tile/>
   <tile/>
   <tile/>
   <tile/>
   <tile/>
   <tile/>
   <tile/>
   <tile/>
   <tile/>
   <tile/>
   <tile/>
   <tile/>
   <tile/>
   <tile/>
   <tile/>
   <tile/>
   <tile gid="514"/>
   <tile/>
   <tile/>
   <tile/>
   <tile/>
   <tile/>
   <tile/>
   <tile gid="514"/>
   <tile/>
   <tile/>
   <tile/>
   <tile gid="514"/>
   <tile/>
   <tile/>
   <tile gid="514"/>
   <tile/>
   <tile/>
   <tile/>
   <tile gid="514"/>
   <tile gid="514"/>
   <tile/>
   <tile/>
   <tile/>
   <tile/>
   <tile/>
   <tile gid="514"/>
   <tile gid="514"/>
   <tile gid="514"/>
   <tile gid="514"/>
   <tile gid="514"/>
   <tile/>
   <tile/>
   <tile/>
   <tile/>
   <tile/>
   <tile/>
   <tile/>
   <tile gid="514"/>
   <tile/>
   <tile/>
   <tile/>
   <tile/>
   <tile/>
   <tile/>
   <tile/>
   <tile/>
   <tile/>
   <tile/>
   <tile/>
   <tile/>
   <tile/>
   <tile/>
   <tile/>
   <tile/>
   <tile/>
   <tile/>
   <tile/>
   <tile/>
   <tile/>
   <tile/>
   <tile gid="514"/>
   <tile/>
   <tile/>
   <tile/>
   <tile/>
   <tile/>
   <tile/>
   <tile gid="514"/>
   <tile/>
   <tile/>
   <tile/>
   <tile gid="514"/>
   <tile/>
   <tile/>
   <tile gid="514"/>
   <tile/>
   <tile/>
   <tile/>
   <tile gid="514"/>
   <tile gid="514"/>
   <tile/>
   <tile/>
   <tile/>
   <tile/>
   <tile/>
   <tile/>
   <tile/>
   <tile/>
   <tile/>
   <tile/>
   <tile gid="514"/>
   <tile/>
   <tile/>
   <tile/>
   <tile/>
   <tile/>
   <tile/>
   <tile gid="514"/>
   <tile/>
   <tile/>
   <tile/>
   <tile/>
   <tile/>
   <tile/>
   <tile/>
   <tile/>
   <tile/>
   <tile/>
   <tile/>
   <tile/>
   <tile/>
   <tile/>
   <tile/>
   <tile/>
   <tile/>
   <tile/>
   <tile/>
   <tile/>
   <tile/>
   <tile/>
   <tile gid="514"/>
   <tile/>
   <tile/>
   <tile gid="514"/>
   <tile gid="514"/>
   <tile gid="514"/>
   <tile gid="514"/>
   <tile gid="514"/>
   <tile/>
   <tile/>
   <tile/>
   <tile gid="514"/>
   <tile/>
   <tile/>
   <tile gid="514"/>
   <tile/>
   <tile/>
   <tile/>
   <tile/>
   <tile/>
   <tile/>
   <tile/>
   <tile/>
   <tile/>
   <tile/>
   <tile/>
   <tile/>
   <tile/>
   <tile/>
   <tile/>
   <tile gid="514"/>
   <tile/>
   <tile/>
   <tile/>
   <tile/>
   <tile/>
   <tile/>
   <tile gid="514"/>
   <tile/>
   <tile/>
   <tile/>
   <tile/>
   <tile/>
   <tile/>
   <tile/>
   <tile/>
   <tile/>
   <tile/>
   <tile/>
   <tile/>
   <tile/>
   <tile/>
   <tile/>
   <tile/>
   <tile/>
   <tile/>
   <tile/>
   <tile/>
   <tile/>
   <tile/>
   <tile gid="514"/>
   <tile/>
   <tile gid="514"/>
   <tile/>
   <tile/>
   <tile/>
   <tile/>
   <tile/>
   <tile/>
   <tile/>
   <tile/>
   <tile gid="514"/>
   <tile/>
   <tile/>
   <tile gid="514"/>
   <tile/>
   <tile/>
   <tile/>
   <tile/>
   <tile/>
   <tile/>
   <tile/>
   <tile/>
   <tile/>
   <tile/>
   <tile/>
   <tile/>
   <tile/>
   <tile/>
   <tile/>
   <tile gid="514"/>
   <tile/>
   <tile/>
   <tile/>
   <tile/>
   <tile/>
   <tile gid="514"/>
   <tile/>
   <tile/>
   <tile/>
   <tile/>
   <tile/>
   <tile/>
   <tile/>
   <tile/>
   <tile/>
   <tile/>
   <tile/>
   <tile/>
   <tile/>
   <tile/>
   <tile/>
   <tile/>
   <tile/>
   <tile/>
   <tile/>
   <tile/>
   <tile/>
   <tile/>
   <tile/>
   <tile gid="514"/>
   <tile/>
   <tile gid="514"/>
   <tile/>
   <tile/>
   <tile/>
   <tile/>
   <tile/>
   <tile/>
   <tile/>
   <tile/>
   <tile gid="514"/>
   <tile/>
   <tile/>
   <tile gid="514"/>
   <tile/>
   <tile/>
   <tile/>
   <tile/>
   <tile/>
   <tile/>
   <tile/>
   <tile/>
   <tile/>
   <tile/>
   <tile/>
   <tile/>
   <tile/>
   <tile/>
   <tile/>
   <tile gid="514"/>
   <tile/>
   <tile/>
   <tile/>
   <tile/>
   <tile gid="514"/>
   <tile/>
   <tile/>
   <tile/>
   <tile/>
   <tile/>
   <tile/>
   <tile/>
   <tile/>
   <tile/>
   <tile/>
   <tile/>
   <tile/>
   <tile/>
   <tile/>
   <tile/>
   <tile/>
   <tile/>
   <tile/>
   <tile/>
   <tile/>
   <tile/>
   <tile/>
   <tile/>
   <tile/>
   <tile gid="514"/>
   <tile/>
   <tile gid="514"/>
   <tile/>
   <tile/>
   <tile/>
   <tile/>
   <tile/>
   <tile/>
   <tile/>
   <tile/>
   <tile/>
   <tile gid="514"/>
   <tile gid="514"/>
   <tile/>
   <tile gid="514"/>
   <tile gid="514"/>
   <tile gid="514"/>
   <tile gid="514"/>
   <tile gid="514"/>
   <tile gid="514"/>
   <tile gid="514"/>
   <tile gid="514"/>
   <tile gid="514"/>
   <tile gid="514"/>
   <tile gid="514"/>
   <tile/>
   <tile/>
   <tile/>
   <tile/>
   <tile/>
   <tile gid="514"/>
   <tile/>
   <tile/>
   <tile/>
   <tile gid="514"/>
   <tile/>
   <tile/>
   <tile/>
   <tile/>
   <tile/>
   <tile/>
   <tile/>
   <tile/>
   <tile/>
   <tile/>
   <tile/>
   <tile/>
   <tile/>
   <tile/>
   <tile/>
   <tile/>
   <tile/>
   <tile/>
   <tile/>
   <tile/>
   <tile/>
   <tile/>
   <tile/>
   <tile/>
   <tile gid="514"/>
   <tile gid="514"/>
   <tile/>
   <tile/>
   <tile/>
   <tile/>
   <tile/>
   <tile/>
   <tile/>
   <tile/>
   <tile/>
   <tile/>
   <tile/>
   <tile/>
   <tile gid="514"/>
   <tile gid="514"/>
   <tile gid="514"/>
   <tile gid="514"/>
   <tile gid="514"/>
   <tile gid="514"/>
   <tile gid="514"/>
   <tile gid="514"/>
   <tile gid="514"/>
   <tile gid="514"/>
   <tile gid="514"/>
   <tile/>
   <tile/>
   <tile/>
   <tile/>
   <tile/>
   <tile/>
   <tile gid="514"/>
   <tile/>
   <tile/>
   <tile gid="514"/>
   <tile/>
   <tile/>
   <tile/>
   <tile/>
   <tile/>
   <tile/>
   <tile/>
   <tile/>
   <tile/>
   <tile/>
   <tile/>
   <tile/>
   <tile/>
   <tile/>
   <tile/>
   <tile/>
   <tile/>
   <tile/>
   <tile/>
   <tile gid="514"/>
   <tile gid="514"/>
   <tile gid="514"/>
   <tile gid="514"/>
   <tile gid="514"/>
   <tile gid="514"/>
   <tile/>
   <tile gid="514"/>
   <tile/>
   <tile/>
   <tile/>
   <tile/>
   <tile/>
   <tile/>
   <tile/>
   <tile/>
   <tile/>
   <tile/>
   <tile/>
   <tile/>
   <tile/>
   <tile/>
   <tile/>
   <tile/>
   <tile/>
   <tile/>
   <tile/>
   <tile/>
   <tile/>
   <tile/>
   <tile/>
   <tile/>
   <tile/>
   <tile/>
   <tile/>
   <tile/>
   <tile/>
   <tile gid="514"/>
   <tile/>
   <tile/>
   <tile gid="514"/>
   <tile/>
   <tile/>
   <tile/>
   <tile/>
   <tile/>
   <tile/>
   <tile/>
   <tile/>
   <tile/>
   <tile/>
   <tile/>
   <tile/>
   <tile/>
   <tile/>
   <tile/>
   <tile/>
   <tile/>
   <tile/>
   <tile/>
   <tile/>
   <tile gid="514"/>
   <tile gid="514"/>
   <tile gid="514"/>
   <tile gid="514"/>
   <tile gid="514"/>
   <tile/>
   <tile/>
   <tile/>
   <tile/>
   <tile/>
   <tile/>
   <tile/>
   <tile/>
   <tile/>
   <tile/>
   <tile/>
   <tile/>
   <tile/>
   <tile/>
   <tile/>
   <tile/>
   <tile/>
   <tile/>
   <tile/>
   <tile/>
   <tile/>
   <tile/>
   <tile/>
   <tile/>
   <tile/>
   <tile/>
   <tile/>
   <tile/>
   <tile/>
   <tile/>
   <tile/>
   <tile gid="514"/>
   <tile gid="514"/>
   <tile gid="514"/>
   <tile gid="514"/>
   <tile/>
   <tile/>
   <tile/>
   <tile/>
   <tile/>
   <tile/>
   <tile/>
   <tile/>
   <tile gid="514"/>
   <tile gid="514"/>
   <tile gid="514"/>
   <tile gid="514"/>
   <tile gid="514"/>
   <tile gid="514"/>
   <tile gid="514"/>
   <tile gid="514"/>
   <tile/>
   <tile/>
   <tile/>
   <tile/>
   <tile/>
   <tile/>
   <tile/>
   <tile/>
   <tile/>
   <tile gid="514"/>
   <tile/>
   <tile/>
   <tile/>
   <tile/>
   <tile/>
   <tile/>
   <tile/>
   <tile/>
   <tile/>
   <tile/>
   <tile/>
   <tile/>
   <tile/>
   <tile/>
   <tile/>
   <tile/>
   <tile/>
   <tile/>
   <tile/>
   <tile/>
   <tile/>
   <tile/>
   <tile/>
   <tile/>
   <tile/>
   <tile/>
   <tile/>
   <tile/>
   <tile/>
   <tile/>
   <tile/>
   <tile/>
   <tile/>
   <tile/>
   <tile/>
   <tile/>
   <tile/>
   <tile/>
   <tile/>
   <tile/>
   <tile/>
   <tile/>
   <tile/>
   <tile gid="514"/>
   <tile gid="514"/>
   <tile gid="514"/>
   <tile gid="514"/>
   <tile gid="514"/>
   <tile gid="514"/>
   <tile/>
   <tile/>
   <tile/>
   <tile/>
   <tile/>
   <tile/>
   <tile/>
   <tile/>
   <tile/>
   <tile/>
   <tile gid="514"/>
   <tile/>
   <tile/>
   <tile/>
   <tile/>
   <tile/>
   <tile/>
   <tile/>
   <tile/>
   <tile/>
   <tile/>
   <tile/>
   <tile/>
   <tile/>
   <tile/>
   <tile/>
   <tile/>
   <tile/>
   <tile/>
   <tile/>
   <tile/>
   <tile/>
   <tile/>
   <tile/>
   <tile/>
   <tile/>
   <tile/>
   <tile/>
   <tile/>
   <tile/>
   <tile/>
   <tile/>
   <tile/>
   <tile/>
   <tile/>
   <tile/>
   <tile/>
   <tile/>
   <tile/>
   <tile/>
   <tile/>
   <tile/>
   <tile/>
   <tile/>
   <tile/>
   <tile/>
   <tile/>
   <tile/>
   <tile/>
   <tile/>
   <tile/>
   <tile/>
   <tile/>
   <tile/>
   <tile/>
   <tile/>
   <tile/>
   <tile/>
   <tile/>
   <tile/>
   <tile gid="514"/>
   <tile/>
   <tile/>
   <tile/>
   <tile/>
   <tile/>
   <tile/>
   <tile/>
   <tile/>
   <tile/>
   <tile/>
   <tile/>
   <tile/>
   <tile/>
   <tile/>
   <tile/>
   <tile/>
   <tile/>
   <tile/>
   <tile/>
   <tile/>
   <tile/>
   <tile/>
   <tile/>
   <tile/>
   <tile/>
   <tile/>
   <tile/>
   <tile/>
   <tile/>
   <tile/>
   <tile/>
   <tile/>
   <tile/>
   <tile/>
   <tile/>
   <tile/>
   <tile/>
   <tile/>
   <tile/>
   <tile/>
   <tile/>
   <tile/>
   <tile/>
   <tile/>
   <tile/>
   <tile/>
   <tile/>
   <tile/>
   <tile/>
   <tile/>
   <tile/>
   <tile/>
   <tile/>
   <tile/>
   <tile/>
   <tile/>
   <tile/>
   <tile/>
   <tile/>
   <tile gid="514"/>
   <tile gid="514"/>
   <tile gid="514"/>
   <tile gid="514"/>
   <tile gid="514"/>
   <tile gid="514"/>
   <tile gid="514"/>
   <tile gid="514"/>
   <tile gid="514"/>
   <tile gid="514"/>
   <tile gid="514"/>
   <tile gid="514"/>
   <tile gid="514"/>
   <tile gid="514"/>
   <tile gid="514"/>
   <tile gid="514"/>
   <tile/>
   <tile/>
   <tile/>
   <tile/>
   <tile/>
   <tile/>
   <tile/>
   <tile/>
   <tile/>
   <tile/>
   <tile/>
   <tile/>
   <tile/>
   <tile/>
   <tile/>
   <tile/>
   <tile/>
   <tile/>
   <tile/>
   <tile/>
   <tile/>
   <tile/>
   <tile/>
   <tile/>
   <tile/>
   <tile/>
   <tile/>
   <tile/>
   <tile/>
   <tile/>
   <tile/>
   <tile/>
   <tile/>
   <tile/>
   <tile/>
   <tile/>
   <tile/>
   <tile/>
   <tile/>
   <tile/>
   <tile/>
   <tile/>
   <tile/>
   <tile/>
   <tile gid="514"/>
   <tile/>
   <tile gid="514"/>
   <tile gid="514"/>
   <tile gid="514"/>
   <tile gid="514"/>
   <tile gid="514"/>
   <tile/>
   <tile/>
   <tile/>
   <tile/>
   <tile/>
   <tile/>
   <tile/>
   <tile/>
   <tile/>
   <tile gid="514"/>
   <tile gid="514"/>
   <tile gid="514"/>
   <tile gid="514"/>
   <tile/>
   <tile/>
   <tile/>
   <tile/>
   <tile/>
   <tile/>
   <tile/>
   <tile/>
   <tile/>
   <tile/>
   <tile/>
   <tile/>
   <tile/>
   <tile/>
   <tile/>
   <tile/>
   <tile/>
   <tile/>
   <tile/>
   <tile/>
   <tile/>
   <tile/>
   <tile/>
   <tile/>
   <tile/>
   <tile/>
   <tile/>
   <tile/>
   <tile/>
   <tile/>
   <tile/>
   <tile/>
   <tile/>
   <tile/>
   <tile/>
   <tile/>
   <tile/>
   <tile/>
   <tile/>
   <tile/>
   <tile gid="514"/>
   <tile gid="514"/>
   <tile/>
   <tile/>
   <tile/>
   <tile/>
   <tile/>
   <tile gid="514"/>
   <tile/>
   <tile/>
   <tile/>
   <tile/>
   <tile/>
   <tile/>
   <tile/>
   <tile/>
   <tile/>
   <tile/>
   <tile/>
   <tile/>
   <tile gid="514"/>
   <tile gid="514"/>
   <tile gid="514"/>
   <tile gid="514"/>
   <tile/>
   <tile/>
   <tile/>
   <tile/>
   <tile/>
   <tile/>
   <tile/>
   <tile/>
   <tile/>
   <tile/>
   <tile/>
   <tile/>
   <tile/>
   <tile/>
   <tile/>
   <tile/>
   <tile/>
   <tile/>
   <tile/>
   <tile/>
   <tile/>
   <tile/>
   <tile/>
   <tile/>
   <tile/>
   <tile/>
   <tile/>
   <tile/>
   <tile/>
   <tile/>
   <tile/>
   <tile/>
   <tile/>
   <tile/>
   <tile/>
   <tile/>
   <tile gid="514"/>
   <tile gid="514"/>
   <tile/>
   <tile/>
   <tile/>
   <tile/>
   <tile/>
   <tile gid="514"/>
   <tile gid="514"/>
   <tile gid="514"/>
   <tile gid="514"/>
   <tile gid="514"/>
   <tile/>
   <tile/>
   <tile/>
   <tile/>
   <tile/>
   <tile/>
   <tile/>
   <tile gid="514"/>
   <tile gid="514"/>
   <tile gid="514"/>
   <tile/>
   <tile/>
   <tile/>
   <tile/>
   <tile/>
   <tile/>
   <tile/>
   <tile/>
   <tile/>
   <tile gid="514"/>
   <tile gid="514"/>
   <tile gid="514"/>
   <tile gid="514"/>
   <tile gid="514"/>
   <tile gid="514"/>
   <tile gid="514"/>
   <tile gid="514"/>
   <tile gid="514"/>
   <tile gid="514"/>
   <tile gid="514"/>
   <tile gid="514"/>
   <tile gid="514"/>
   <tile gid="514"/>
   <tile gid="514"/>
   <tile gid="514"/>
   <tile/>
   <tile/>
   <tile/>
   <tile gid="514"/>
   <tile gid="514"/>
   <tile gid="514"/>
   <tile gid="514"/>
   <tile gid="514"/>
   <tile gid="514"/>
   <tile/>
   <tile/>
   <tile/>
   <tile/>
   <tile gid="514"/>
   <tile gid="514"/>
   <tile/>
   <tile/>
   <tile/>
   <tile/>
   <tile/>
   <tile/>
   <tile/>
   <tile/>
   <tile/>
   <tile/>
   <tile gid="514"/>
   <tile gid="514"/>
   <tile gid="514"/>
   <tile gid="514"/>
   <tile gid="514"/>
   <tile gid="514"/>
   <tile gid="514"/>
   <tile/>
   <tile/>
   <tile/>
   <tile/>
   <tile/>
   <tile/>
   <tile/>
   <tile/>
   <tile/>
   <tile/>
   <tile/>
   <tile/>
   <tile/>
   <tile gid="514"/>
   <tile gid="514"/>
   <tile gid="514"/>
   <tile gid="514"/>
   <tile gid="514"/>
   <tile gid="514"/>
   <tile gid="514"/>
   <tile gid="514"/>
   <tile gid="514"/>
   <tile gid="514"/>
   <tile gid="514"/>
   <tile gid="514"/>
   <tile gid="514"/>
   <tile gid="514"/>
   <tile/>
   <tile/>
   <tile/>
   <tile/>
   <tile/>
   <tile gid="514"/>
   <tile gid="514"/>
   <tile gid="514"/>
   <tile gid="514"/>
   <tile/>
   <tile/>
   <tile/>
   <tile/>
   <tile/>
   <tile gid="514"/>
   <tile gid="514"/>
   <tile/>
   <tile/>
   <tile/>
   <tile/>
   <tile/>
   <tile/>
   <tile/>
   <tile/>
   <tile/>
   <tile/>
   <tile/>
   <tile/>
   <tile/>
   <tile/>
   <tile/>
   <tile/>
   <tile/>
   <tile/>
   <tile/>
   <tile/>
   <tile/>
   <tile/>
   <tile/>
   <tile/>
   <tile/>
   <tile/>
   <tile/>
   <tile/>
   <tile/>
   <tile/>
   <tile/>
   <tile/>
   <tile/>
   <tile/>
   <tile/>
   <tile/>
   <tile/>
   <tile/>
   <tile/>
   <tile/>
   <tile/>
   <tile/>
   <tile/>
   <tile/>
   <tile/>
   <tile/>
   <tile/>
   <tile/>
   <tile/>
   <tile/>
   <tile/>
   <tile/>
   <tile/>
   <tile/>
   <tile/>
   <tile/>
   <tile/>
   <tile/>
   <tile gid="514"/>
   <tile gid="514"/>
   <tile/>
   <tile/>
   <tile/>
   <tile/>
   <tile/>
   <tile/>
   <tile/>
   <tile/>
   <tile/>
   <tile/>
   <tile/>
   <tile/>
   <tile/>
   <tile/>
   <tile/>
   <tile/>
   <tile/>
   <tile/>
   <tile/>
   <tile/>
   <tile/>
   <tile/>
   <tile/>
   <tile/>
   <tile/>
   <tile/>
   <tile/>
   <tile/>
   <tile/>
   <tile/>
   <tile/>
   <tile/>
   <tile/>
   <tile/>
   <tile/>
   <tile/>
   <tile/>
   <tile/>
   <tile/>
   <tile/>
   <tile/>
   <tile/>
   <tile/>
   <tile/>
   <tile/>
   <tile/>
   <tile/>
   <tile/>
   <tile/>
   <tile/>
   <tile/>
   <tile/>
   <tile/>
   <tile/>
   <tile/>
   <tile/>
   <tile/>
   <tile/>
   <tile gid="514"/>
   <tile gid="514"/>
   <tile/>
   <tile/>
   <tile/>
   <tile/>
   <tile/>
   <tile/>
   <tile/>
   <tile/>
   <tile/>
   <tile/>
   <tile/>
   <tile/>
   <tile/>
   <tile/>
   <tile/>
   <tile/>
   <tile/>
   <tile/>
   <tile/>
   <tile/>
   <tile/>
   <tile/>
   <tile/>
   <tile/>
   <tile/>
   <tile/>
   <tile/>
   <tile/>
   <tile/>
   <tile/>
   <tile/>
   <tile/>
   <tile/>
   <tile/>
   <tile/>
   <tile/>
   <tile/>
   <tile/>
   <tile/>
   <tile/>
   <tile/>
   <tile/>
   <tile/>
   <tile/>
   <tile/>
   <tile/>
   <tile/>
   <tile/>
   <tile/>
   <tile/>
   <tile/>
   <tile/>
   <tile/>
   <tile/>
   <tile/>
   <tile/>
   <tile/>
   <tile/>
   <tile gid="514"/>
   <tile gid="514"/>
   <tile/>
   <tile/>
   <tile/>
   <tile/>
   <tile/>
   <tile/>
   <tile/>
   <tile/>
   <tile/>
   <tile/>
   <tile/>
   <tile/>
   <tile/>
   <tile/>
   <tile/>
   <tile/>
   <tile/>
   <tile/>
   <tile/>
   <tile/>
   <tile/>
   <tile/>
   <tile/>
   <tile/>
   <tile/>
   <tile/>
   <tile/>
   <tile/>
   <tile/>
   <tile/>
   <tile/>
   <tile/>
   <tile/>
   <tile/>
   <tile/>
   <tile/>
   <tile/>
   <tile/>
   <tile/>
   <tile/>
   <tile/>
   <tile/>
   <tile/>
   <tile/>
   <tile/>
   <tile/>
   <tile/>
   <tile/>
   <tile/>
   <tile/>
   <tile/>
   <tile/>
   <tile/>
   <tile/>
   <tile/>
   <tile/>
   <tile/>
   <tile/>
   <tile gid="514"/>
   <tile gid="514"/>
   <tile/>
   <tile/>
   <tile/>
   <tile/>
   <tile/>
   <tile/>
   <tile/>
   <tile/>
   <tile/>
   <tile/>
   <tile/>
   <tile/>
   <tile/>
   <tile/>
   <tile/>
   <tile/>
   <tile/>
   <tile/>
   <tile/>
   <tile/>
   <tile/>
   <tile/>
   <tile/>
   <tile/>
   <tile/>
   <tile/>
   <tile/>
   <tile/>
   <tile/>
   <tile/>
   <tile/>
   <tile/>
   <tile/>
   <tile gid="514"/>
   <tile gid="514"/>
   <tile gid="514"/>
   <tile gid="514"/>
   <tile gid="514"/>
   <tile gid="514"/>
   <tile gid="514"/>
   <tile gid="514"/>
   <tile gid="514"/>
   <tile gid="514"/>
   <tile/>
   <tile/>
   <tile/>
   <tile/>
   <tile/>
   <tile/>
   <tile/>
   <tile/>
   <tile/>
   <tile/>
   <tile/>
   <tile/>
   <tile/>
   <tile/>
   <tile/>
   <tile gid="514"/>
   <tile gid="514"/>
   <tile/>
   <tile/>
   <tile/>
   <tile/>
   <tile gid="514"/>
   <tile gid="514"/>
   <tile gid="514"/>
   <tile gid="514"/>
   <tile gid="514"/>
   <tile gid="514"/>
   <tile gid="514"/>
   <tile gid="514"/>
   <tile gid="514"/>
   <tile gid="514"/>
   <tile gid="514"/>
   <tile gid="514"/>
   <tile gid="514"/>
   <tile gid="514"/>
   <tile gid="514"/>
   <tile gid="514"/>
   <tile gid="514"/>
   <tile gid="514"/>
   <tile gid="514"/>
   <tile/>
   <tile/>
   <tile/>
   <tile/>
   <tile/>
   <tile gid="514"/>
   <tile gid="514"/>
   <tile gid="514"/>
   <tile gid="514"/>
   <tile gid="514"/>
   <tile/>
   <tile/>
   <tile/>
   <tile/>
   <tile/>
   <tile/>
   <tile/>
   <tile/>
   <tile/>
   <tile/>
   <tile gid="514"/>
   <tile gid="514"/>
   <tile gid="514"/>
   <tile gid="514"/>
   <tile gid="514"/>
   <tile/>
   <tile/>
   <tile/>
   <tile/>
   <tile/>
   <tile gid="514"/>
   <tile gid="514"/>
   <tile gid="514"/>
   <tile gid="514"/>
   <tile gid="514"/>
   <tile/>
   <tile gid="514"/>
   <tile/>
   <tile/>
   <tile/>
   <tile/>
   <tile gid="514"/>
   <tile/>
   <tile/>
   <tile/>
   <tile/>
   <tile/>
   <tile/>
   <tile/>
   <tile/>
   <tile/>
   <tile/>
   <tile/>
   <tile/>
   <tile/>
   <tile/>
   <tile/>
   <tile/>
   <tile/>
   <tile gid="514"/>
   <tile/>
   <tile/>
   <tile/>
   <tile/>
   <tile/>
   <tile gid="514"/>
   <tile/>
   <tile/>
   <tile/>
   <tile/>
   <tile/>
   <tile/>
   <tile/>
   <tile/>
   <tile/>
   <tile/>
   <tile/>
   <tile/>
   <tile/>
   <tile/>
   <tile/>
   <tile/>
   <tile/>
   <tile/>
   <tile gid="514"/>
   <tile/>
   <tile/>
   <tile/>
   <tile/>
   <tile/>
   <tile gid="514"/>
   <tile/>
   <tile/>
   <tile/>
   <tile/>
   <tile/>
  </data>
 </layer>
 <objectgroup id="4" name="Entities">
  <object id="1" name="Door" type="Door" x="55" y="2156" width="290" height="24">
   <properties>
    <property name="Destination" value="MapPulmo_Sala1.tmx"/>
    <property name="Type" value="Door"/>
    <property name="playerX" type="float" value="148"/>
    <property name="playerY" type="float" value="224"/>
   </properties>
  </object>
  <object id="2" name="Door" type="Door" x="1519" y="2152" width="350" height="24">
   <properties>
    <property name="Destination" value="MapPulmo_Sala1.tmx"/>
    <property name="Type" value="Door"/>
    <property name="playerX" type="float" value="1702"/>
    <property name="playerY" type="float" value="222"/>
   </properties>
  </object>
  <object id="3" name="Door" type="Door" x="3133" y="2148" width="350" height="24">
   <properties>
    <property name="Destination" value="MapPulmo_Sala1.tmx"/>
    <property name="Type" value="Door"/>
    <property name="playerX" type="float" value="3304"/>
    <property name="playerY" type="float" value="150"/>
   </properties>
  </object>
  <object id="6" name="Door" type="Door" x="537" y="-4" width="390" height="24">
   <properties>
    <property name="Destination" value="MapPulmo_Sala3.tmx"/>
    <property name="Type" value="Door"/>
    <property name="playerX" type="float" value="1064"/>
    <property name="playerY" type="float" value="1988"/>
   </properties>
  </object>
  <object id="7" name="Door" type="Door" x="2205" y="4" width="250" height="24">
   <properties>
    <property name="Destination" value="MapPulmo_Sala6.tmx"/>
    <property name="Type" value="Door"/>
    <property name="playerX" type="float" value="786"/>
    <property name="playerY" type="float" value="4633"/>
   </properties>
  </object>
  <object id="8" name="Door" type="Door" x="-5" y="1132" width="34" height="276">
   <properties>
    <property name="Destination" value="MapPulmo_Sala5.tmx"/>
    <property name="Type" value="Door"/>
    <property name="playerX" type="float" value="3690"/>
    <property name="playerY" type="float" value="1363"/>
   </properties>
  </object>
  <object id="10" name="Player" type="Player" x="284.488" y="1201.17">
   <point/>
  </object>
  <object id="11" name="Climbable" type="Climbable" x="752" y="2.6665" width="48" height="558.667">
   <properties>
    <property name="Type" value="Climbable"/>
   </properties>
  </object>
  <object id="12" name="Climbable" type="Climbable" x="1704" y="678.667" width="48" height="1506.67">
   <properties>
    <property name="Type" value="Climbable"/>
   </properties>
  </object>
  <object id="13" name="Climbable" type="Climbable" x="2860" y="34.6665" width="48" height="1094.67">
   <properties>
    <property name="Type" value="Climbable"/>
   </properties>
  </object>
  <object id="14" name="Climbable" type="Climbable" x="3104" y="30.6665" width="48" height="1094.67">
   <properties>
    <property name="Type" value="Climbable"/>
   </properties>
  </object>
  <object id="15" name="Climbable" type="Climbable" x="2344" y="-1.8335" width="48" height="256.167">
   <properties>
    <property name="Type" value="Climbable"/>
   </properties>
  </object>
  <object id="16" name="Climbable" type="Climbable" x="3306" y="1714.83" width="48" height="465.5">
   <properties>
    <property name="Type" value="Climbable"/>
   </properties>
  </object>
  <object id="17" name="Climbable" type="Climbable" x="2538.79" y="552.848" width="48" height="1040.12">
   <properties>
    <property name="Type" value="Climbable"/>
   </properties>
  </object>
 </objectgroup>
 <objectgroup id="5" name="Anim_Tiles">
  <object id="18" name="part_superior_animada_pulmons" type="anim_tile" x="320" y="1920" width="64" height="64">
   <properties>
    <property name="Texture" value="part_superior_animada_pulmons"/>
    <property name="Type" value="anim_tile"/>
   </properties>
  </object>
  <object id="19" name="part_superior_animada_pulmons" type="anim_tile" x="384" y="1920" width="64" height="64">
   <properties>
    <property name="Texture" value="part_superior_animada_pulmons"/>
    <property name="Type" value="anim_tile"/>
   </properties>
  </object>
  <object id="20" name="part_superior_animada_pulmons" type="anim_tile" x="448" y="1920" width="64" height="64">
   <properties>
    <property name="Texture" value="part_superior_animada_pulmons"/>
    <property name="Type" value="anim_tile"/>
   </properties>
  </object>
  <object id="21" name="base_animada_pulmons" type="anim_tile" x="320" y="1984" width="64" height="64">
   <properties>
    <property name="Texture" value="base_animada_pulmons"/>
    <property name="Type" value="anim_tile"/>
   </properties>
  </object>
  <object id="22" name="base_animada_pulmons" type="anim_tile" x="384" y="1984" width="64" height="64">
   <properties>
    <property name="Texture" value="base_animada_pulmons"/>
    <property name="Type" value="anim_tile"/>
   </properties>
  </object>
  <object id="23" name="base_animada_pulmons" type="anim_tile" x="448" y="1984" width="64" height="64">
   <properties>
    <property name="Texture" value="base_animada_pulmons"/>
    <property name="Type" value="anim_tile"/>
   </properties>
  </object>
  <object id="24" name="part_superior_animada_pulmons" type="anim_tile" x="512" y="1920" width="64" height="64">
   <properties>
    <property name="Texture" value="part_superior_animada_pulmons"/>
    <property name="Type" value="anim_tile"/>
   </properties>
  </object>
  <object id="25" name="part_superior_animada_pulmons" type="anim_tile" x="576" y="1920" width="64" height="64">
   <properties>
    <property name="Texture" value="part_superior_animada_pulmons"/>
    <property name="Type" value="anim_tile"/>
   </properties>
  </object>
  <object id="26" name="part_superior_animada_pulmons" type="anim_tile" x="640" y="1920" width="64" height="64">
   <properties>
    <property name="Texture" value="part_superior_animada_pulmons"/>
    <property name="Type" value="anim_tile"/>
   </properties>
  </object>
  <object id="27" name="base_animada_pulmons" type="anim_tile" x="512" y="1984" width="64" height="64">
   <properties>
    <property name="Texture" value="base_animada_pulmons"/>
    <property name="Type" value="anim_tile"/>
   </properties>
  </object>
  <object id="28" name="base_animada_pulmons" type="anim_tile" x="576" y="1984" width="64" height="64">
   <properties>
    <property name="Texture" value="base_animada_pulmons"/>
    <property name="Type" value="anim_tile"/>
   </properties>
  </object>
  <object id="29" name="base_animada_pulmons" type="anim_tile" x="640" y="1984" width="64" height="64">
   <properties>
    <property name="Texture" value="base_animada_pulmons"/>
    <property name="Type" value="anim_tile"/>
   </properties>
  </object>
  <object id="30" name="part_superior_animada_pulmons" type="anim_tile" x="704" y="1920" width="64" height="64">
   <properties>
    <property name="Texture" value="part_superior_animada_pulmons"/>
    <property name="Type" value="anim_tile"/>
   </properties>
  </object>
  <object id="31" name="part_superior_animada_pulmons" type="anim_tile" x="768" y="1920" width="64" height="64">
   <properties>
    <property name="Texture" value="part_superior_animada_pulmons"/>
    <property name="Type" value="anim_tile"/>
   </properties>
  </object>
  <object id="32" name="part_superior_animada_pulmons" type="anim_tile" x="832" y="1920" width="64" height="64">
   <properties>
    <property name="Texture" value="part_superior_animada_pulmons"/>
    <property name="Type" value="anim_tile"/>
   </properties>
  </object>
  <object id="33" name="base_animada_pulmons" type="anim_tile" x="704" y="1984" width="64" height="64">
   <properties>
    <property name="Texture" value="base_animada_pulmons"/>
    <property name="Type" value="anim_tile"/>
   </properties>
  </object>
  <object id="34" name="base_animada_pulmons" type="anim_tile" x="768" y="1984" width="64" height="64">
   <properties>
    <property name="Texture" value="base_animada_pulmons"/>
    <property name="Type" value="anim_tile"/>
   </properties>
  </object>
  <object id="35" name="base_animada_pulmons" type="anim_tile" x="832" y="1984" width="64" height="64">
   <properties>
    <property name="Texture" value="base_animada_pulmons"/>
    <property name="Type" value="anim_tile"/>
   </properties>
  </object>
  <object id="36" name="part_superior_animada_pulmons" type="anim_tile" x="896" y="1920" width="64" height="64">
   <properties>
    <property name="Texture" value="part_superior_animada_pulmons"/>
    <property name="Type" value="anim_tile"/>
   </properties>
  </object>
  <object id="37" name="part_superior_animada_pulmons" type="anim_tile" x="960" y="1920" width="64" height="64">
   <properties>
    <property name="Texture" value="part_superior_animada_pulmons"/>
    <property name="Type" value="anim_tile"/>
   </properties>
  </object>
  <object id="38" name="part_superior_animada_pulmons" type="anim_tile" x="1024" y="1920" width="64" height="64">
   <properties>
    <property name="Texture" value="part_superior_animada_pulmons"/>
    <property name="Type" value="anim_tile"/>
   </properties>
  </object>
  <object id="39" name="base_animada_pulmons" type="anim_tile" x="896" y="1984" width="64" height="64">
   <properties>
    <property name="Texture" value="base_animada_pulmons"/>
    <property name="Type" value="anim_tile"/>
   </properties>
  </object>
  <object id="40" name="base_animada_pulmons" type="anim_tile" x="960" y="1984" width="64" height="64">
   <properties>
    <property name="Texture" value="base_animada_pulmons"/>
    <property name="Type" value="anim_tile"/>
   </properties>
  </object>
  <object id="41" name="base_animada_pulmons" type="anim_tile" x="1024" y="1984" width="64" height="64">
   <properties>
    <property name="Texture" value="base_animada_pulmons"/>
    <property name="Type" value="anim_tile"/>
   </properties>
  </object>
  <object id="42" name="part_superior_animada_pulmons" type="anim_tile" x="1088" y="1920" width="64" height="64">
   <properties>
    <property name="Texture" value="part_superior_animada_pulmons"/>
    <property name="Type" value="anim_tile"/>
   </properties>
  </object>
  <object id="43" name="part_superior_animada_pulmons" type="anim_tile" x="1152" y="1920" width="64" height="64">
   <properties>
    <property name="Texture" value="part_superior_animada_pulmons"/>
    <property name="Type" value="anim_tile"/>
   </properties>
  </object>
  <object id="44" name="part_superior_animada_pulmons" type="anim_tile" x="1216" y="1920" width="64" height="64">
   <properties>
    <property name="Texture" value="part_superior_animada_pulmons"/>
    <property name="Type" value="anim_tile"/>
   </properties>
  </object>
  <object id="45" name="base_animada_pulmons" type="anim_tile" x="1088" y="1984" width="64" height="64">
   <properties>
    <property name="Texture" value="base_animada_pulmons"/>
    <property name="Type" value="anim_tile"/>
   </properties>
  </object>
  <object id="46" name="base_animada_pulmons" type="anim_tile" x="1152" y="1984" width="64" height="64">
   <properties>
    <property name="Texture" value="base_animada_pulmons"/>
    <property name="Type" value="anim_tile"/>
   </properties>
  </object>
  <object id="47" name="base_animada_pulmons" type="anim_tile" x="1216" y="1984" width="64" height="64">
   <properties>
    <property name="Texture" value="base_animada_pulmons"/>
    <property name="Type" value="anim_tile"/>
   </properties>
  </object>
  <object id="48" name="part_superior_animada_pulmons" type="anim_tile" x="1280" y="1920" width="64" height="64">
   <properties>
    <property name="Texture" value="part_superior_animada_pulmons"/>
    <property name="Type" value="anim_tile"/>
   </properties>
  </object>
  <object id="49" name="part_superior_animada_pulmons" type="anim_tile" x="1344" y="1920" width="64" height="64">
   <properties>
    <property name="Texture" value="part_superior_animada_pulmons"/>
    <property name="Type" value="anim_tile"/>
   </properties>
  </object>
  <object id="50" name="part_superior_animada_pulmons" type="anim_tile" x="1408" y="1920" width="64" height="64">
   <properties>
    <property name="Texture" value="part_superior_animada_pulmons"/>
    <property name="Type" value="anim_tile"/>
   </properties>
  </object>
  <object id="51" name="base_animada_pulmons" type="anim_tile" x="1280" y="1984" width="64" height="64">
   <properties>
    <property name="Texture" value="base_animada_pulmons"/>
    <property name="Type" value="anim_tile"/>
   </properties>
  </object>
  <object id="52" name="base_animada_pulmons" type="anim_tile" x="1344" y="1984" width="64" height="64">
   <properties>
    <property name="Texture" value="base_animada_pulmons"/>
    <property name="Type" value="anim_tile"/>
   </properties>
  </object>
  <object id="53" name="base_animada_pulmons" type="anim_tile" x="1408" y="1984" width="64" height="64">
   <properties>
    <property name="Texture" value="base_animada_pulmons"/>
    <property name="Type" value="anim_tile"/>
   </properties>
  </object>
  <object id="54" name="base_animada_pulmons" type="anim_tile" x="1472" y="1984" width="64" height="64">
   <properties>
    <property name="Texture" value="base_animada_pulmons"/>
    <property name="Type" value="anim_tile"/>
   </properties>
  </object>
  <object id="55" name="part_superior_animada_pulmons" type="anim_tile" x="1472" y="1920" width="64" height="64">
   <properties>
    <property name="Texture" value="part_superior_animada_pulmons"/>
    <property name="Type" value="anim_tile"/>
   </properties>
  </object>
  <object id="56" name="base_animada_pulmons" type="anim_tile" x="2752" y="1920" width="64" height="64">
   <properties>
    <property name="Texture" value="base_animada_pulmons"/>
    <property name="Type" value="anim_tile"/>
   </properties>
  </object>
  <object id="57" name="base_animada_pulmons" type="anim_tile" x="2688" y="1920" width="64" height="64">
   <properties>
    <property name="Texture" value="base_animada_pulmons"/>
    <property name="Type" value="anim_tile"/>
   </properties>
  </object>
  <object id="58" name="base_animada_pulmons" type="anim_tile" x="2624" y="1920" width="64" height="64">
   <properties>
    <property name="Texture" value="base_animada_pulmons"/>
    <property name="Type" value="anim_tile"/>
   </properties>
  </object>
  <object id="59" name="base_animada_pulmons" type="anim_tile" x="2560" y="1920" width="64" height="64">
   <properties>
    <property name="Texture" value="base_animada_pulmons"/>
    <property name="Type" value="anim_tile"/>
   </properties>
  </object>
  <object id="60" name="base_animada_pulmons" type="anim_tile" x="2496" y="1920" width="64" height="64">
   <properties>
    <property name="Texture" value="base_animada_pulmons"/>
    <property name="Type" value="anim_tile"/>
   </properties>
  </object>
  <object id="61" name="base_animada_pulmons" type="anim_tile" x="2432" y="1920" width="64" height="64">
   <properties>
    <property name="Texture" value="base_animada_pulmons"/>
    <property name="Type" value="anim_tile"/>
   </properties>
  </object>
  <object id="62" name="base_animada_pulmons" type="anim_tile" x="2368" y="1920" width="64" height="64">
   <properties>
    <property name="Texture" value="base_animada_pulmons"/>
    <property name="Type" value="anim_tile"/>
   </properties>
  </object>
  <object id="63" name="base_animada_pulmons" type="anim_tile" x="2304" y="1920" width="64" height="64">
   <properties>
    <property name="Texture" value="base_animada_pulmons"/>
    <property name="Type" value="anim_tile"/>
   </properties>
  </object>
  <object id="64" name="base_animada_pulmons" type="anim_tile" x="2240" y="1920" width="64" height="64">
   <properties>
    <property name="Texture" value="base_animada_pulmons"/>
    <property name="Type" value="anim_tile"/>
   </properties>
  </object>
  <object id="65" name="base_animada_pulmons" type="anim_tile" x="2176" y="1920" width="64" height="64">
   <properties>
    <property name="Texture" value="base_animada_pulmons"/>
    <property name="Type" value="anim_tile"/>
   </properties>
  </object>
  <object id="66" name="part_superior_animada_pulmons" type="anim_tile" x="2752" y="1856" width="64" height="64">
   <properties>
    <property name="Texture" value="part_superior_animada_pulmons"/>
    <property name="Type" value="anim_tile"/>
   </properties>
  </object>
  <object id="67" name="part_superior_animada_pulmons" type="anim_tile" x="2688" y="1856" width="64" height="64">
   <properties>
    <property name="Texture" value="part_superior_animada_pulmons"/>
    <property name="Type" value="anim_tile"/>
   </properties>
  </object>
  <object id="68" name="part_superior_animada_pulmons" type="anim_tile" x="2624" y="1856" width="64" height="64">
   <properties>
    <property name="Texture" value="part_superior_animada_pulmons"/>
    <property name="Type" value="anim_tile"/>
   </properties>
  </object>
  <object id="69" name="part_superior_animada_pulmons" type="anim_tile" x="2560" y="1856" width="64" height="64">
   <properties>
    <property name="Texture" value="part_superior_animada_pulmons"/>
    <property name="Type" value="anim_tile"/>
   </properties>
  </object>
  <object id="70" name="part_superior_animada_pulmons" type="anim_tile" x="2496" y="1856" width="64" height="64">
   <properties>
    <property name="Texture" value="part_superior_animada_pulmons"/>
    <property name="Type" value="anim_tile"/>
   </properties>
  </object>
  <object id="71" name="part_superior_animada_pulmons" type="anim_tile" x="2432" y="1856" width="64" height="64">
   <properties>
    <property name="Texture" value="part_superior_animada_pulmons"/>
    <property name="Type" value="anim_tile"/>
   </properties>
  </object>
  <object id="72" name="part_superior_animada_pulmons" type="anim_tile" x="2368" y="1856" width="64" height="64">
   <properties>
    <property name="Texture" value="part_superior_animada_pulmons"/>
    <property name="Type" value="anim_tile"/>
   </properties>
  </object>
  <object id="73" name="part_superior_animada_pulmons" type="anim_tile" x="2304" y="1856" width="64" height="64">
   <properties>
    <property name="Texture" value="part_superior_animada_pulmons"/>
    <property name="Type" value="anim_tile"/>
   </properties>
  </object>
  <object id="74" name="part_superior_animada_pulmons" type="anim_tile" x="2240" y="1856" width="64" height="64">
   <properties>
    <property name="Texture" value="part_superior_animada_pulmons"/>
    <property name="Type" value="anim_tile"/>
   </properties>
  </object>
  <object id="75" name="part_superior_animada_pulmons" type="anim_tile" x="2176" y="1856" width="64" height="64">
   <properties>
    <property name="Texture" value="part_superior_animada_pulmons"/>
    <property name="Type" value="anim_tile"/>
   </properties>
  </object>
  <object id="76" name="base_animada_pulmons" type="anim_tile" x="2176" y="1920" width="64" height="64">
   <properties>
    <property name="Texture" value="base_animada_pulmons"/>
    <property name="Type" value="anim_tile"/>
   </properties>
  </object>
  <object id="77" name="base_animada_pulmons" type="anim_tile" x="2240" y="1920" width="64" height="64">
   <properties>
    <property name="Texture" value="base_animada_pulmons"/>
    <property name="Type" value="anim_tile"/>
   </properties>
  </object>
  <object id="78" name="base_animada_pulmons" type="anim_tile" x="2304" y="1920" width="64" height="64">
   <properties>
    <property name="Texture" value="base_animada_pulmons"/>
    <property name="Type" value="anim_tile"/>
   </properties>
  </object>
  <object id="79" name="base_animada_pulmons" type="anim_tile" x="2368" y="1920" width="64" height="64">
   <properties>
    <property name="Texture" value="base_animada_pulmons"/>
    <property name="Type" value="anim_tile"/>
   </properties>
  </object>
  <object id="80" name="base_animada_pulmons" type="anim_tile" x="2432" y="1920" width="64" height="64">
   <properties>
    <property name="Texture" value="base_animada_pulmons"/>
    <property name="Type" value="anim_tile"/>
   </properties>
  </object>
  <object id="81" name="part_superior_animada_pulmons" type="anim_tile" x="2176" y="1856" width="64" height="64">
   <properties>
    <property name="Texture" value="part_superior_animada_pulmons"/>
    <property name="Type" value="anim_tile"/>
   </properties>
  </object>
  <object id="82" name="part_superior_animada_pulmons" type="anim_tile" x="2240" y="1856" width="64" height="64">
   <properties>
    <property name="Texture" value="part_superior_animada_pulmons"/>
    <property name="Type" value="anim_tile"/>
   </properties>
  </object>
  <object id="83" name="part_superior_animada_pulmons" type="anim_tile" x="2304" y="1856" width="64" height="64">
   <properties>
    <property name="Texture" value="part_superior_animada_pulmons"/>
    <property name="Type" value="anim_tile"/>
   </properties>
  </object>
  <object id="84" name="part_superior_animada_pulmons" type="anim_tile" x="2368" y="1856" width="64" height="64">
   <properties>
    <property name="Texture" value="part_superior_animada_pulmons"/>
    <property name="Type" value="anim_tile"/>
   </properties>
  </object>
  <object id="85" name="part_superior_animada_pulmons" type="anim_tile" x="2432" y="1856" width="64" height="64">
   <properties>
    <property name="Texture" value="part_superior_animada_pulmons"/>
    <property name="Type" value="anim_tile"/>
   </properties>
  </object>
  <object id="86" name="base_animada_pulmons" type="anim_tile" x="2176" y="1920" width="64" height="64">
   <properties>
    <property name="Texture" value="base_animada_pulmons"/>
    <property name="Type" value="anim_tile"/>
   </properties>
  </object>
  <object id="87" name="base_animada_pulmons" type="anim_tile" x="2240" y="1920" width="64" height="64">
   <properties>
    <property name="Texture" value="base_animada_pulmons"/>
    <property name="Type" value="anim_tile"/>
   </properties>
  </object>
  <object id="88" name="base_animada_pulmons" type="anim_tile" x="2304" y="1920" width="64" height="64">
   <properties>
    <property name="Texture" value="base_animada_pulmons"/>
    <property name="Type" value="anim_tile"/>
   </properties>
  </object>
  <object id="89" name="base_animada_pulmons" type="anim_tile" x="2368" y="1920" width="64" height="64">
   <properties>
    <property name="Texture" value="base_animada_pulmons"/>
    <property name="Type" value="anim_tile"/>
   </properties>
  </object>
  <object id="90" name="base_animada_pulmons" type="anim_tile" x="2432" y="1920" width="64" height="64">
   <properties>
    <property name="Texture" value="base_animada_pulmons"/>
    <property name="Type" value="anim_tile"/>
   </properties>
  </object>
  <object id="91" name="part_superior_animada_pulmons" type="anim_tile" x="2176" y="1856" width="64" height="64">
   <properties>
    <property name="Texture" value="part_superior_animada_pulmons"/>
    <property name="Type" value="anim_tile"/>
   </properties>
  </object>
  <object id="92" name="part_superior_animada_pulmons" type="anim_tile" x="2240" y="1856" width="64" height="64">
   <properties>
    <property name="Texture" value="part_superior_animada_pulmons"/>
    <property name="Type" value="anim_tile"/>
   </properties>
  </object>
  <object id="93" name="part_superior_animada_pulmons" type="anim_tile" x="2304" y="1856" width="64" height="64">
   <properties>
    <property name="Texture" value="part_superior_animada_pulmons"/>
    <property name="Type" value="anim_tile"/>
   </properties>
  </object>
  <object id="94" name="part_superior_animada_pulmons" type="anim_tile" x="2368" y="1856" width="64" height="64">
   <properties>
    <property name="Texture" value="part_superior_animada_pulmons"/>
    <property name="Type" value="anim_tile"/>
   </properties>
  </object>
  <object id="95" name="part_superior_animada_pulmons" type="anim_tile" x="2432" y="1856" width="64" height="64">
   <properties>
    <property name="Texture" value="part_superior_animada_pulmons"/>
    <property name="Type" value="anim_tile"/>
   </properties>
  </object>
  <object id="96" name="base_animada_pulmons" type="anim_tile" x="2176" y="1920" width="64" height="64">
   <properties>
    <property name="Texture" value="base_animada_pulmons"/>
    <property name="Type" value="anim_tile"/>
   </properties>
  </object>
  <object id="97" name="base_animada_pulmons" type="anim_tile" x="2240" y="1920" width="64" height="64">
   <properties>
    <property name="Texture" value="base_animada_pulmons"/>
    <property name="Type" value="anim_tile"/>
   </properties>
  </object>
  <object id="98" name="base_animada_pulmons" type="anim_tile" x="2304" y="1920" width="64" height="64">
   <properties>
    <property name="Texture" value="base_animada_pulmons"/>
    <property name="Type" value="anim_tile"/>
   </properties>
  </object>
  <object id="99" name="base_animada_pulmons" type="anim_tile" x="2368" y="1920" width="64" height="64">
   <properties>
    <property name="Texture" value="base_animada_pulmons"/>
    <property name="Type" value="anim_tile"/>
   </properties>
  </object>
  <object id="100" name="base_animada_pulmons" type="anim_tile" x="2432" y="1920" width="64" height="64">
   <properties>
    <property name="Texture" value="base_animada_pulmons"/>
    <property name="Type" value="anim_tile"/>
   </properties>
  </object>
  <object id="101" name="part_superior_animada_pulmons" type="anim_tile" x="2176" y="1856" width="64" height="64">
   <properties>
    <property name="Texture" value="part_superior_animada_pulmons"/>
    <property name="Type" value="anim_tile"/>
   </properties>
  </object>
  <object id="102" name="part_superior_animada_pulmons" type="anim_tile" x="2240" y="1856" width="64" height="64">
   <properties>
    <property name="Texture" value="part_superior_animada_pulmons"/>
    <property name="Type" value="anim_tile"/>
   </properties>
  </object>
  <object id="103" name="part_superior_animada_pulmons" type="anim_tile" x="2304" y="1856" width="64" height="64">
   <properties>
    <property name="Texture" value="part_superior_animada_pulmons"/>
    <property name="Type" value="anim_tile"/>
   </properties>
  </object>
  <object id="104" name="part_superior_animada_pulmons" type="anim_tile" x="2368" y="1856" width="64" height="64">
   <properties>
    <property name="Texture" value="part_superior_animada_pulmons"/>
    <property name="Type" value="anim_tile"/>
   </properties>
  </object>
  <object id="105" name="part_superior_animada_pulmons" type="anim_tile" x="2432" y="1856" width="64" height="64">
   <properties>
    <property name="Texture" value="part_superior_animada_pulmons"/>
    <property name="Type" value="anim_tile"/>
   </properties>
  </object>
  <object id="106" name="base_animada_pulmons" type="anim_tile" x="1856" y="1984" width="64" height="64">
   <properties>
    <property name="Texture" value="base_animada_pulmons"/>
    <property name="Type" value="anim_tile"/>
   </properties>
  </object>
  <object id="107" name="base_animada_pulmons" type="anim_tile" x="1920" y="1984" width="64" height="64">
   <properties>
    <property name="Texture" value="base_animada_pulmons"/>
    <property name="Type" value="anim_tile"/>
   </properties>
  </object>
  <object id="108" name="base_animada_pulmons" type="anim_tile" x="1984" y="1984" width="64" height="64">
   <properties>
    <property name="Texture" value="base_animada_pulmons"/>
    <property name="Type" value="anim_tile"/>
   </properties>
  </object>
  <object id="109" name="base_animada_pulmons" type="anim_tile" x="2048" y="1984" width="64" height="64">
   <properties>
    <property name="Texture" value="base_animada_pulmons"/>
    <property name="Type" value="anim_tile"/>
   </properties>
  </object>
  <object id="110" name="base_animada_pulmons" type="anim_tile" x="2112" y="1984" width="64" height="64">
   <properties>
    <property name="Texture" value="base_animada_pulmons"/>
    <property name="Type" value="anim_tile"/>
   </properties>
  </object>
  <object id="111" name="part_superior_animada_pulmons" type="anim_tile" x="1856" y="1920" width="64" height="64">
   <properties>
    <property name="Texture" value="part_superior_animada_pulmons"/>
    <property name="Type" value="anim_tile"/>
   </properties>
  </object>
  <object id="112" name="part_superior_animada_pulmons" type="anim_tile" x="1920" y="1920" width="64" height="64">
   <properties>
    <property name="Texture" value="part_superior_animada_pulmons"/>
    <property name="Type" value="anim_tile"/>
   </properties>
  </object>
  <object id="113" name="part_superior_animada_pulmons" type="anim_tile" x="1984" y="1920" width="64" height="64">
   <properties>
    <property name="Texture" value="part_superior_animada_pulmons"/>
    <property name="Type" value="anim_tile"/>
   </properties>
  </object>
  <object id="114" name="part_superior_animada_pulmons" type="anim_tile" x="2048" y="1920" width="64" height="64">
   <properties>
    <property name="Texture" value="part_superior_animada_pulmons"/>
    <property name="Type" value="anim_tile"/>
   </properties>
  </object>
  <object id="115" name="part_superior_animada_pulmons" type="anim_tile" x="2112" y="1920" width="64" height="64">
   <properties>
    <property name="Texture" value="part_superior_animada_pulmons"/>
    <property name="Type" value="anim_tile"/>
   </properties>
  </object>
  <object id="116" name="base_animada_pulmons" type="anim_tile" x="2816" y="1984" width="64" height="64">
   <properties>
    <property name="Texture" value="base_animada_pulmons"/>
    <property name="Type" value="anim_tile"/>
   </properties>
  </object>
  <object id="117" name="base_animada_pulmons" type="anim_tile" x="2880" y="1984" width="64" height="64">
   <properties>
    <property name="Texture" value="base_animada_pulmons"/>
    <property name="Type" value="anim_tile"/>
   </properties>
  </object>
  <object id="118" name="base_animada_pulmons" type="anim_tile" x="2944" y="1984" width="64" height="64">
   <properties>
    <property name="Texture" value="base_animada_pulmons"/>
    <property name="Type" value="anim_tile"/>
   </properties>
  </object>
  <object id="119" name="base_animada_pulmons" type="anim_tile" x="3008" y="1984" width="64" height="64">
   <properties>
    <property name="Texture" value="base_animada_pulmons"/>
    <property name="Type" value="anim_tile"/>
   </properties>
  </object>
  <object id="120" name="base_animada_pulmons" type="anim_tile" x="3072" y="1984" width="64" height="64">
   <properties>
    <property name="Texture" value="base_animada_pulmons"/>
    <property name="Type" value="anim_tile"/>
   </properties>
  </object>
  <object id="121" name="part_superior_animada_pulmons" type="anim_tile" x="2816" y="1920" width="64" height="64">
   <properties>
    <property name="Texture" value="part_superior_animada_pulmons"/>
    <property name="Type" value="anim_tile"/>
   </properties>
  </object>
  <object id="122" name="part_superior_animada_pulmons" type="anim_tile" x="2880" y="1920" width="64" height="64">
   <properties>
    <property name="Texture" value="part_superior_animada_pulmons"/>
    <property name="Type" value="anim_tile"/>
   </properties>
  </object>
  <object id="123" name="part_superior_animada_pulmons" type="anim_tile" x="2944" y="1920" width="64" height="64">
   <properties>
    <property name="Texture" value="part_superior_animada_pulmons"/>
    <property name="Type" value="anim_tile"/>
   </properties>
  </object>
  <object id="124" name="part_superior_animada_pulmons" type="anim_tile" x="3008" y="1920" width="64" height="64">
   <properties>
    <property name="Texture" value="part_superior_animada_pulmons"/>
    <property name="Type" value="anim_tile"/>
   </properties>
  </object>
  <object id="125" name="part_superior_animada_pulmons" type="anim_tile" x="3072" y="1920" width="64" height="64">
   <properties>
    <property name="Texture" value="part_superior_animada_pulmons"/>
    <property name="Type" value="anim_tile"/>
   </properties>
  </object>
  <object id="126" name="base_animada_pulmons" type="anim_tile" x="3712" y="1984" width="64" height="64">
   <properties>
    <property name="Texture" value="base_animada_pulmons"/>
    <property name="Type" value="anim_tile"/>
   </properties>
  </object>
  <object id="127" name="base_animada_pulmons" type="anim_tile" x="3648" y="1984" width="64" height="64">
   <properties>
    <property name="Texture" value="base_animada_pulmons"/>
    <property name="Type" value="anim_tile"/>
   </properties>
  </object>
  <object id="128" name="base_animada_pulmons" type="anim_tile" x="3584" y="1984" width="64" height="64">
   <properties>
    <property name="Texture" value="base_animada_pulmons"/>
    <property name="Type" value="anim_tile"/>
   </properties>
  </object>
  <object id="129" name="base_animada_pulmons" type="anim_tile" x="3520" y="1984" width="64" height="64">
   <properties>
    <property name="Texture" value="base_animada_pulmons"/>
    <property name="Type" value="anim_tile"/>
   </properties>
  </object>
  <object id="130" name="base_animada_pulmons" type="anim_tile" x="3456" y="1984" width="64" height="64">
   <properties>
    <property name="Texture" value="base_animada_pulmons"/>
    <property name="Type" value="anim_tile"/>
   </properties>
  </object>
  <object id="131" name="part_superior_animada_pulmons" type="anim_tile" x="3712" y="1920" width="64" height="64">
   <properties>
    <property name="Texture" value="part_superior_animada_pulmons"/>
    <property name="Type" value="anim_tile"/>
   </properties>
  </object>
  <object id="132" name="part_superior_animada_pulmons" type="anim_tile" x="3648" y="1920" width="64" height="64">
   <properties>
    <property name="Texture" value="part_superior_animada_pulmons"/>
    <property name="Type" value="anim_tile"/>
   </properties>
  </object>
  <object id="133" name="part_superior_animada_pulmons" type="anim_tile" x="3584" y="1920" width="64" height="64">
   <properties>
    <property name="Texture" value="part_superior_animada_pulmons"/>
    <property name="Type" value="anim_tile"/>
   </properties>
  </object>
  <object id="134" name="part_superior_animada_pulmons" type="anim_tile" x="3520" y="1920" width="64" height="64">
   <properties>
    <property name="Texture" value="part_superior_animada_pulmons"/>
    <property name="Type" value="anim_tile"/>
   </properties>
  </object>
  <object id="135" name="part_superior_animada_pulmons" type="anim_tile" x="3456" y="1920" width="64" height="64">
   <properties>
    <property name="Texture" value="part_superior_animada_pulmons"/>
    <property name="Type" value="anim_tile"/>
   </properties>
  </object>
 </objectgroup>
</map>
